%
(1001)
(T1  D=3. CR=1.5 - ZMIN=16.001 - BALL END MILL)
G90 G94 G17 G91.1
G64 P0.001
G21
G28 G91 Z0.
G90
(ONE)
M9

S18000 M3
G54
M8
G0 X950.307 Y24.249
G0 Z40.
Z19.154
G1 Z17.467 F1200.
G18 G3 X950.003 Z17.167 I-0.3 K0. F2000.
G1 X940.236 Z17.325 F4000.
X932.84 Z17.468
X926.108 Z17.624
X919.375 Z17.808
X912.943 Z18.013
X906.647 Z18.243
X900.244 Z18.507
X893.683 Z18.809
X886.572 Z19.166
X876.207 Z19.725
X866.401 Z20.254
X860.932 Z20.522
X856.428 Z20.715
X852.588 Z20.848
X849.269 Z20.934
X846.33 Z20.982
X843.438 Z21.
X840.641 Z20.985
X837.891 Z20.939
X835.236 Z20.867
X833.096 Z20.785
X831.506 Z20.714
X830.04 Z20.639
X828.012 Z20.523
X825.926 Z20.388
X823.675 Z20.225
X821.305 Z20.037
X818.992 Z19.838
X816.79 Z19.636
X814.608 Z19.426
X812.038 Z19.167
X808.564 Z18.801
X798.05 Z17.673
X793.445 Z17.214
X789.559 Z16.861
X786.409 Z16.609
X783.628 Z16.418
X781.209 Z16.278
X779.514 Z16.196
X777.902 Z16.13
X776.1 Z16.072
X774.204 Z16.029
X772.212 Z16.005
X770.188 Z16.004
X768.102 Z16.026
X766.016 Z16.07
X763.94 Z16.132
X761.777 Z16.217
X759.434 Z16.327
X756.669 Z16.477
X753.015 Z16.705
X748.27 Z17.034
X739.376 Z17.698
X730.943 Z18.322
X725.01 Z18.731
X719.63 Z19.069
X714.418 Z19.365
X709.059 Z19.636
X703.56 Z19.879
X697.87 Z20.096
X691.897 Z20.291
X685.544 Z20.464
X678.906 Z20.611
X672.174 Z20.732
X663.83 Z20.848
X655.296 Z20.932
X652.663 Z20.951
G3 X652.598 Z20.967 I0.001 K0.15
G2 X652.532 Z20.982 I-0.066 K-0.135
G1 X652.514
G17 G2 Y24.494 I0. J0.122
G18 G3 X652.58 Z20.967 I0. K-0.15
G1 X652.592 Z20.961
G2 X652.657 Z20.945 I0.066 K0.135
G1 X652.71
X661.102 Z20.871
X669.73 Z20.761
X677.126 Z20.635
X683.195 Z20.508
X689.169 Z20.356
X695.142 Z20.177
X701.116 Z19.963
X705.414 Z19.787
X710.19 Z19.568
X713.721 Z19.388
X717.247 Z19.196
X720.777 Z18.987
X724.82 Z18.731
X728.899 Z18.455
X734.014 Z18.088
X743.76 Z17.359
X750.653 Z16.858
X755.362 Z16.55
X759.032 Z16.343
X761.998 Z16.203
X765.096 Z16.093
X767.561 Z16.035
X769.837 Z16.006
X771.843 Z16.004
X773.645 Z16.021
X775.636 Z16.061
X777.912 Z16.132
X780.565 Z16.246
X783.359 Z16.404
X786.326 Z16.606
X789.475 Z16.858
X793.177 Z17.193
X797.8 Z17.653
X807.888 Z18.735
X811.528 Z19.121
X814.283 Z19.399
X816.797 Z19.643
X819.146 Z19.858
X821.293 Z20.042
X823.626 Z20.227
X825.96 Z20.395
X827.944 Z20.523
X829.786 Z20.629
X831.439 Z20.714
X833.295 Z20.797
X835.175 Z20.867
X837.82 Z20.94
X840.475 Z20.984
X843.227 Z21.
X846.073 Z20.983
X849.013 Z20.936
X852.427 Z20.849
X856.119 Z20.721
X860.332 Z20.542
X863.549 Z20.39
X868.015 Z20.16
X885.724 Z19.197
X893.92 Z18.782
X901.225 Z18.45
X908.336 Z18.163
X915.687 Z17.906
X922.891 Z17.693
X930.572 Z17.502
X939.011 Z17.331
X950.01 Z17.151
G2 X950.078 Z17.167 I0.003 K0.15
G3 X950.144 Z17.182 I0.066 K-0.135
G1 X950.166 Y24.496
X950.187 Y24.502 Z17.181
X950.206 Y24.511 Z17.18
X950.224 Y24.523 Z17.179
X950.239 Y24.538 Z17.178
X950.251 Y24.555 Z17.176
X950.26 Y24.575 Z17.174
X950.266 Y24.595 Z17.172
X950.268 Y24.617 Z17.17
X950.266 Y24.638 Z17.168
X950.26 Y24.659 Z17.166
X950.251 Y24.678 Z17.164
X950.239 Y24.695 Z17.163
X950.224 Y24.71 Z17.161
X950.206 Y24.723 Z17.16
X950.187 Y24.732 Z17.159
X950.166 Y24.737 Z17.158
X950.144 Y24.739
G2 X950.078 Z17.143 I0. K-0.15
G3 X950.01 Z17.128 I-0.066 K0.135
G1 X938.916 Z17.308
X930.477 Z17.48
X922.796 Z17.673
X915.973 Z17.874
X908.643 Z18.129
X901.751 Z18.405
X894.465 Z18.736
X886.735 Z19.125
X876.415 Z19.687
X869.031 Z20.093
X864.616 Z20.326
X860.881 Z20.508
X856.747 Z20.689
X854.134 Z20.787
X850.815 Z20.89
X847.876 Z20.955
X845.316 Z20.989
X842.896 Z20.999
X840.241 Z20.983
X837.586 Z20.936
X835.131 Z20.868
X832.966 Z20.787
X831.205 Z20.707
X829.368 Z20.611
X827.714 Z20.514
X825.768 Z20.387
X823.453 Z20.219
X821.286 Z20.047
X819.14 Z19.863
X816.772 Z19.647
X814.423 Z19.419
X811.854 Z19.16
X808.029 Z18.756
X797.756 Z17.653
X793.133 Z17.193
X789.431 Z16.859
X786.282 Z16.607
X783.13 Z16.393
X780.331 Z16.238
X777.886 Z16.133
X775.811 Z16.067
X773.915 Z16.027
X771.924 Z16.005
X769.86 Z16.006
X767.395 Z16.036
X764.645 Z16.104
X761.453 Z16.224
X758.02 Z16.391
X754.007 Z16.628
X748.929 Z16.97
X738.72 Z17.725
X732.808 Z18.162
X727.84 Z18.512
X723.761 Z18.783
X719.55 Z19.043
X716.035 Z19.246
X712.313 Z19.443
X709.244 Z19.595
X704.425 Z19.811
X698.862 Z20.03
X693.939 Z20.199
X686.934 Z20.402
X680.001 Z20.563
X672.604 Z20.702
X665.967 Z20.802
X658.097 Z20.893
X652.657 Z20.939
G3 X652.592 Z20.954 I0.001 K0.15
G2 X652.526 Z20.969 I-0.066 K-0.135
G1 X652.513
G17 G2 Y24.984 I0. J0.122
G18 G3 X652.579 Z20.954 I0. K-0.15
G1 X652.592 Z20.947
G2 X652.657 Z20.932 I0.066 K0.135
G1 X658.128 Z20.885
X667.8 Z20.766
X676.429 Z20.621
X683.066 Z20.481
X688.376 Z20.345
X694.255 Z20.171
X699.273 Z19.998
X704.364 Z19.796
X708.407 Z19.615
X711.506 Z19.466
X715.792 Z19.241
X719.308 Z19.04
X723.871 Z18.759
X727.766 Z18.501
X733.289 Z18.113
X743.593 Z17.35
X750.153 Z16.877
X754.861 Z16.569
X758.679 Z16.352
X761.665 Z16.212
X764.668 Z16.101
X767.323 Z16.036
X769.788 Z16.006
X771.941 Z16.005
X774.027 Z16.029
X776.018 Z16.075
X777.998 Z16.14
X780.348 Z16.242
X783.222 Z16.402
X786.374 Z16.618
X789.523 Z16.871
X793.04 Z17.189
X797.663 Z17.649
X807.381 Z18.692
X811.243 Z19.102
X813.775 Z19.361
X816.678 Z19.644
X819.046 Z19.861
X821.193 Z20.045
X823.749 Z20.247
X826.25 Z20.425
X828.586 Z20.571
X830.978 Z20.7
X833.024 Z20.793
X835.094 Z20.869
X837.636 Z20.939
X840.291 Z20.984
X843.041 Z20.999
X845.532 Z20.985
X848.092 Z20.949
X851.269 Z20.874
X854.146 Z20.781
X856.68 Z20.685
X859.68 Z20.555
X863.045 Z20.395
X866.195 Z20.232
X869.502 Z20.055
X877.029 Z19.637
X887.14 Z19.085
X894.757 Z18.701
X902.024 Z18.372
X908.738 Z18.103
X916.068 Z17.847
X922.607 Z17.654
X930.382 Z17.458
X938.821 Z17.285
X950.01 Z17.104
G2 X950.078 Z17.119 I0.002 K0.15
G3 X950.144 Z17.135 I0.066 K-0.135
G1 X950.166 Y24.986
X950.187 Y24.992 Z17.134
X950.206 Y25.001 Z17.133
X950.224 Y25.013 Z17.132
X950.239 Y25.028 Z17.131
X950.251 Y25.045 Z17.129
X950.26 Y25.065 Z17.127
X950.266 Y25.085 Z17.125
X950.267 Y25.107 Z17.123
X950.266 Y25.128 Z17.121
X950.26 Y25.149 Z17.119
X950.251 Y25.168 Z17.117
X950.239 Y25.185 Z17.115
X950.224 Y25.2 Z17.114
X950.206 Y25.213 Z17.113
X950.187 Y25.222 Z17.112
X950.166 Y25.227 Z17.111
X950.144 Y25.229
G2 X950.078 Z17.096 I0. K-0.15
G3 X950.01 Z17.081 I-0.066 K0.135
G1 X939.2 Z17.255
X930.951 Z17.422
X923.271 Z17.613
X916.824 Z17.8
X909.591 Z18.049
X902.861 Z18.314
X895.61 Z18.64
X887.723 Z19.035
X877.781 Z19.58
X869.55 Z20.04
X866.246 Z20.218
X862.929 Z20.391
X859.87 Z20.538
X856.301 Z20.692
X854.052 Z20.779
X851.222 Z20.871
X848.093 Z20.946
X845.533 Z20.984
X842.997 Z20.999
X840.247 Z20.985
X837.687 Z20.943
X835.232 Z20.876
X832.973 Z20.794
X830.738 Z20.692
X828.367 Z20.562
X826.011 Z20.414
X823.492 Z20.233
X821.14 Z20.046
X818.975 Z19.86
X816.607 Z19.643
X812.964 Z19.286
X809.324 Z18.906
X797.591 Z17.647
X793.153 Z17.205
X789.637 Z16.885
X786.487 Z16.631
X783.521 Z16.425
X780.506 Z16.253
X778.156 Z16.148
X776.082 Z16.078
X773.996 Z16.03
X771.91 Z16.006
X769.717
X767.251 Z16.036
X764.786 Z16.095
X761.973 Z16.196
X759.374 Z16.313
X756.06 Z16.49
X751.887 Z16.752
X746.253 Z17.144
X733.245 Z18.102
X727.721 Z18.488
X724.012 Z18.733
X719.449 Z19.014
X715.933 Z19.215
X711.272 Z19.46
X708.171 Z19.608
X703.921 Z19.796
X698.261 Z20.017
X691.726 Z20.234
X684.33 Z20.436
X676.175 Z20.613
X667.073 Z20.766
X657.496 Z20.883
X652.657 Z20.925
G3 X652.592 Z20.941 I0.001 K0.15
G2 X652.526 Z20.956 I-0.066 K-0.135
G1 X652.513
G17 G2 Y25.474 I0. J0.122
G18 G3 X652.579 Z20.941 I0. K-0.15
G1 X652.592 Z20.934
G2 X652.657 Z20.919 I0.066 K0.135
G1 X656.617 Z20.884
X666.384 Z20.764
X675.392 Z20.615
X683.926 Z20.43
X691.796 Z20.215
X698.615 Z19.987
X703.045 Z19.814
X707.296 Z19.63
X710.968 Z19.457
X716.004 Z19.193
X719.521 Z18.992
X724.103 Z18.71
X727.441 Z18.491
X732.984 Z18.106
X747.975 Z17.011
X753.072 Z16.666
X757.086 Z16.428
X759.68 Z16.294
X762.185 Z16.184
X764.719 Z16.096
X767.179 Z16.036
X769.644 Z16.006
X771.904
X773.99 Z16.031
X776.171 Z16.083
X778.246 Z16.154
X780.97 Z16.279
X783.886 Z16.452
X786.629 Z16.646
X789.944 Z16.916
X793.275 Z17.222
X797.713 Z17.665
X807.801 Z18.75
X812.55 Z19.249
X816.543 Z19.643
X818.911 Z19.86
X821.077 Z20.047
X823.429 Z20.234
X825.763 Z20.402
X828.322 Z20.565
X830.693 Z20.693
X832.928 Z20.795
X835.188 Z20.877
X837.643 Z20.944
X840.203 Z20.985
X842.952 Z20.999
X845.582 Z20.982
X848.142 Z20.942
X850.987 Z20.873
X854.101 Z20.772
X856.635 Z20.672
X859.824 Z20.532
X862.975 Z20.379
X866.288 Z20.205
X869.572 Z20.026
X878.172 Z19.542
X887.906 Z19.006
X895.678 Z18.616
X902.929 Z18.29
X909.591 Z18.026
X916.824 Z17.776
X923.934 Z17.572
X931.804 Z17.378
X939.674 Z17.223
X950.01 Z17.057
G2 X950.078 Z17.072 I0.002 K0.15
G3 X950.144 Z17.088 I0.066 K-0.135
G1 X950.166 Y25.476 Z17.087
X950.186 Y25.482
X950.206 Y25.491 Z17.086
X950.224 Y25.503 Z17.085
X950.239 Y25.518 Z17.083
X950.251 Y25.535 Z17.082
X950.26 Y25.555 Z17.08
X950.266 Y25.575 Z17.078
X950.267 Y25.597 Z17.076
X950.266 Y25.618 Z17.074
X950.26 Y25.639 Z17.072
X950.251 Y25.658 Z17.07
X950.239 Y25.675 Z17.068
X950.224 Y25.69 Z17.067
X950.206 Y25.703 Z17.066
X950.186 Y25.712 Z17.065
X950.166 Y25.717 Z17.064
X950.144 Y25.719
G2 X950.078 Z17.049 I0. K-0.15
G3 X950.01 Z17.033 I-0.066 K0.135
G1 X940.149 Z17.191
X931.994 Z17.35
X924.124 Z17.543
X916.635 Z17.759
X909.496 Z18.007
X902.766 Z18.275
X895.421 Z18.608
X887.938 Z18.985
X878.041 Z19.533
X869.593 Z20.012
X865.958 Z20.211
X862.812 Z20.377
X859.833 Z20.523
X856.856 Z20.657
X853.663 Z20.781
X851.125 Z20.865
X848.186 Z20.938
X845.626 Z20.98
X842.908 Z20.999
X840.158 Z20.986
X837.598 Z20.944
X835.333 Z20.885
X832.884 Z20.797
X830.649 Z20.695
X828.258 Z20.565
X825.718 Z20.404
X823.365 Z20.234
X821.013 Z20.047
X818.829 Z19.859
X816.479 Z19.643
X812.301 Z19.23
X807.737 Z18.749
X797.815 Z17.681
X793.377 Z17.237
X790.25 Z16.947
X786.769 Z16.66
X784.026 Z16.466
X781.482 Z16.311
X778.484 Z16.166
X776.125 Z16.083
X773.944 Z16.032
X771.858 Z16.006
X769.572
X767.202 Z16.034
X764.837 Z16.09
X762.302 Z16.177
X759.795 Z16.285
X757.572 Z16.396
X754.074 Z16.597
X749.532 Z16.894
X743.139 Z17.351
X733.243 Z18.073
X727.329 Z18.483
X724.176 Z18.688
X719.594 Z18.97
X716.077 Z19.171
X710.854 Z19.445
X706.422 Z19.652
X702.753 Z19.808
X698.215 Z19.984
X691.016 Z20.222
X683.335 Z20.429
X674.707 Z20.614
X665.509 Z20.766
X655.743 Z20.885
X652.657 Z20.912
G3 X652.592 Z20.927 I0.001 K0.15
G2 X652.526 Z20.943 I-0.066 K-0.135
G1 X652.513
G17 G2 Y25.964 I0. J0.122
G18 G3 X652.579 Z20.927 I0. K-0.15
G1 X652.592 Z20.921
G2 X652.657 Z20.906 I0.066 K0.135
G1 X654.849 Z20.886
X664.805 Z20.765
X674.098 Z20.612
X682.821 Z20.426
X690.786 Z20.212
X698.27 Z19.965
X704.121 Z19.734
X710.456 Z19.446
X716.056 Z19.153
X719.574 Z18.954
X724.527 Z18.649
X727.68 Z18.443
X733.389 Z18.049
X741.284 Z17.474
X748.937 Z16.926
X753.665 Z16.615
X757.331 Z16.404
X759.913 Z16.275
X762.42 Z16.169
X764.949 Z16.085
X767.225 Z16.033
X769.595 Z16.005
X771.758 Z16.006
X773.844 Z16.031
X775.55 Z16.07
X777.447 Z16.129
X779.613 Z16.219
X781.847 Z16.335
X784.204 Z16.481
X786.947 Z16.678
X790.224 Z16.95
X793.517 Z17.256
X797.77 Z17.682
X807.507 Z18.73
X812.218 Z19.228
X816.415 Z19.643
X818.783 Z19.861
X821.153 Z20.064
X823.319 Z20.236
X825.672 Z20.406
X828.027 Z20.556
X830.416 Z20.687
X832.839 Z20.799
X835.289 Z20.886
X837.649 Z20.947
X840.209 Z20.987
X842.864 Z20.999
X845.56 Z20.979
X848.12 Z20.936
X851.06 Z20.863
X853.976 Z20.765
X856.775 Z20.653
X859.846 Z20.514
X862.803 Z20.367
X865.76 Z20.211
X869.599 Z19.999
X878.025 Z19.518
X887.733 Z18.977
X894.966 Z18.609
X902.193 Z18.278
X908.932 Z18.006
X916.26 Z17.748
X924.029 Z17.523
X931.71 Z17.333
X940.338 Z17.163
X950.01 Z17.01
G2 X950.078 Z17.025 I0.002 K0.15
G3 X950.144 Z17.04 I0.066 K-0.135
G1 X950.166 Y25.966
X950.186 Y25.972
X950.206 Y25.981 Z17.039
X950.224 Y25.993 Z17.038
X950.239 Y26.008 Z17.036
X950.251 Y26.025 Z17.034
X950.26 Y26.045 Z17.033
X950.266 Y26.065 Z17.031
X950.267 Y26.087 Z17.029
X950.266 Y26.108 Z17.027
X950.26 Y26.129 Z17.025
X950.251 Y26.148 Z17.023
X950.239 Y26.165 Z17.021
X950.224 Y26.18 Z17.02
X950.206 Y26.193 Z17.018
X950.186 Y26.202
X950.166 Y26.207 Z17.017
X950.144 Y26.209
G2 X950.078 Z17.002 I0. K-0.15
G3 X950.01 Z16.986 I-0.066 K0.135
G1 X939.864 Z17.148
X931.046 Z17.324
X923.176 Z17.522
X915.501 Z17.749
X908.173 Z18.013
X901.546 Z18.284
X894.611 Z18.607
X887.738 Z18.958
X878.055 Z19.5
X869.484 Z19.993
X865.665 Z20.205
X862.73 Z20.361
X859.872 Z20.505
X856.436 Z20.66
X853.812 Z20.765
X850.896 Z20.863
X848.051 Z20.935
X845.491 Z20.979
X842.82 Z20.998
X840.165 Z20.988
X837.699 Z20.95
X835.241 Z20.887
X832.893 Z20.805
X830.375 Z20.689
X827.986 Z20.559
X825.632 Z20.408
X823.298 Z20.24
X821.094 Z20.065
X818.743 Z19.863
X816.375 Z19.645
X812.197 Z19.231
X807.467 Z18.731
X797.73 Z17.683
X793.477 Z17.257
X790.369 Z16.967
X786.888 Z16.678
X784.164 Z16.482
X781.974 Z16.346
X779.914 Z16.236
X778.021 Z16.153
X775.935 Z16.082
X773.849 Z16.032
X771.762 Z16.006
X769.523 Z16.005
X767.153 Z16.033
X764.788 Z16.088
X762.348 Z16.168
X759.851 Z16.273
X757.249 Z16.403
X753.583 Z16.613
X748.632 Z16.938
X740.959 Z17.486
X733.25 Z18.044
X727.725 Z18.424
X724.573 Z18.629
X719.991 Z18.912
X716.475 Z19.112
X711.253 Z19.387
X708.798 Z19.506
X703.218 Z19.753
X697.826 Z19.963
X690.336 Z20.208
X682.181 Z20.425
X673.363 Z20.612
X664.26 Z20.761
X654.209 Z20.884
X652.657 Z20.899
G3 X652.592 Z20.914 I0.001 K0.15
G2 X652.526 Z20.929 I-0.066 K-0.135
G1 X652.512
G17 G2 Y26.454 I0. J0.122
G18 G3 X652.578 Z20.914 I0. K-0.15
G1 X652.593 Z20.907
G2 X652.657 Z20.892 I0.066 K0.135
G1 X653.888 Z20.879
X663.559 Z20.759
X672.757 Z20.609
X681.765 Z20.42
X690.204 Z20.195
X697.788 Z19.946
X703.549 Z19.722
X709.995 Z19.432
X715.6 Z19.142
X719.121 Z18.945
X723.166 Z18.7
X726.672 Z18.478
X732.753 Z18.065
X747.802 Z16.985
X753.085 Z16.636
X756.956 Z16.413
X759.746 Z16.273
X762.261 Z16.168
X764.71 Z16.087
X767.081 Z16.033
X769.451 Z16.005
X771.665 Z16.006
X773.751 Z16.032
X775.837 Z16.081
X777.923 Z16.152
X780.006 Z16.244
X782.064 Z16.354
X784.272 Z16.493
X786.996 Z16.69
X790.292 Z16.965
X793.585 Z17.273
X797.838 Z17.699
X807.39 Z18.728
X812.119 Z19.229
X816.275 Z19.641
X818.685 Z19.863
X821.054 Z20.067
X823.258 Z20.242
X825.593 Z20.41
X827.947 Z20.561
X830.149 Z20.681
X832.761 Z20.803
X835.196 Z20.889
X837.56 Z20.949
X840.12 Z20.988
X842.681 Z20.998
X845.289 Z20.979
X847.944 Z20.935
X850.599 Z20.867
X853.428 Z20.773
X856.241 Z20.661
X859.616 Z20.508
X862.567 Z20.36
X865.501 Z20.203
X869.3 Z19.991
X877.848 Z19.496
X887.193 Z18.969
X893.833 Z18.626
X900.874 Z18.292
X907.228 Z18.027
X914.649 Z17.755
X922.322 Z17.523
X930.477 Z17.313
X939.39 Z17.133
X950.01 Z16.963
G2 X950.078 Z16.979 I0.002 K0.15
G3 X950.144 Z16.994 I0.066 K-0.135
G1 X950.166 Y26.456
X950.186 Y26.462 Z16.993
X950.206 Y26.471
X950.223 Y26.483 Z16.991
X950.239 Y26.498 Z16.99
X950.251 Y26.515 Z16.989
X950.26 Y26.535 Z16.987
X950.266 Y26.555 Z16.985
X950.267 Y26.577 Z16.983
X950.266 Y26.598 Z16.981
X950.26 Y26.619 Z16.979
X950.251 Y26.638 Z16.977
X950.239 Y26.655 Z16.976
X950.223 Y26.67 Z16.975
X950.206 Y26.683 Z16.973
X950.186 Y26.692
X950.166 Y26.697 Z16.972
X950.144 Y26.699
G2 X950.078 Z16.957 I0. K-0.15
G3 X950.01 Z16.941 I-0.066 K0.135
G1 X939.077 Z17.115
X929.974 Z17.301
X921.914 Z17.511
X914.246 Z17.746
X906.656 Z18.028
X900.292 Z18.297
X893.239 Z18.635
X886.981 Z18.962
X877.825 Z19.481
X869.484 Z19.969
X865.296 Z20.203
X862.363 Z20.361
X859.414 Z20.51
X856.363 Z20.65
X853.565 Z20.763
X850.451 Z20.867
X847.796 Z20.935
X845.141 Z20.98
X842.636 Z20.998
X840.076 Z20.988
X837.516 Z20.95
X835.152 Z20.891
X832.622 Z20.801
X830.105 Z20.684
X827.902 Z20.563
X825.714 Z20.424
X823.361 Z20.255
X820.99 Z20.067
X818.621 Z19.863
X816.438 Z19.663
X812.241 Z19.247
X807.326 Z18.727
X797.774 Z17.698
X793.706 Z17.289
X790.413 Z16.98
X787.117 Z16.703
X784.171 Z16.49
X781.962 Z16.352
X779.923 Z16.243
X777.84 Z16.151
X775.849 Z16.083
X773.762 Z16.033
X771.582 Z16.006
X769.375 Z16.005
X767.004 Z16.033
X764.634 Z16.087
X762.181 Z16.168
X759.571 Z16.277
X756.876 Z16.412
X753.005 Z16.634
X747.702 Z16.982
X732.634 Z18.059
X726.572 Z18.468
X721.805 Z18.767
X718.276 Z18.976
X714.937 Z19.158
X709.891 Z19.418
X703.446 Z19.708
X697.781 Z19.927
X690.48 Z20.169
X681.852 Z20.403
X672.18 Z20.606
X662.793 Z20.759
X653.5 Z20.874
X652.657 Z20.883
G3 X652.593 Z20.898 I0.002 K0.15
G2 X652.527 Z20.913 I-0.066 K-0.135
G1 X652.508
G17 G2 Y26.944 I0. J0.122
G18 G3 X652.574 Z20.898 I0. K-0.15
G1 X652.593 Z20.889
G2 X652.657 Z20.874 I0.066 K0.135
G1 X653.079 Z20.869
X661.993 Z20.759
X671.38 Z20.607
X680.483 Z20.418
X689.206 Z20.191
X696.222 Z19.965
X701.887 Z19.752
X707.482 Z19.512
X710.036 Z19.392
X714.876 Z19.143
X718.216 Z18.961
X721.746 Z18.753
X726.698 Z18.443
X732.575 Z18.048
X747.606 Z16.979
X752.761 Z16.642
X756.613 Z16.42
X759.495 Z16.276
X762.118 Z16.167
X764.557 Z16.087
X766.928 Z16.033
X769.298 Z16.005
X771.519 Z16.006
X773.605 Z16.032
X775.691 Z16.08
X777.587 Z16.144
X779.671 Z16.233
X781.899 Z16.351
X784.274 Z16.501
X787.036 Z16.701
X790.35 Z16.979
X793.828 Z17.306
X797.711 Z17.697
X807.282 Z18.728
X812.197 Z19.249
X816.394 Z19.664
X818.577 Z19.865
X820.946 Z20.069
X823.317 Z20.257
X825.651 Z20.424
X827.858 Z20.564
X830.06 Z20.686
X832.577 Z20.803
X835.108 Z20.892
X837.377 Z20.949
X839.937 Z20.988
X842.592 Z20.998
X845.124 Z20.979
X847.684 Z20.935
X850.339 Z20.866
X853.263 Z20.769
X856.44 Z20.64
X859.301 Z20.507
X862.154 Z20.362
X865.085 Z20.204
X868.92 Z19.988
X876.925 Z19.519
X885.33 Z19.035
X891.924 Z18.68
X899.534 Z18.311
X905.974 Z18.033
X913.573 Z17.746
X921.239 Z17.507
X929.488 Z17.289
X938.876 Z17.096
X950.01 Z16.919
G2 X950.078 Z16.935 I0.002 K0.15
G3 X950.144 Z16.95 I0.066 K-0.135
G1 X950.166 Y26.946
X950.186 Y26.951 Z16.949
X950.206 Y26.961 Z16.948
X950.223 Y26.973 Z16.947
X950.239 Y26.988 Z16.946
X950.251 Y27.005 Z16.944
X950.26 Y27.025 Z16.943
X950.266 Y27.045 Z16.941
X950.267 Y27.067 Z16.939
X950.266 Y27.088 Z16.937
X950.26 Y27.109 Z16.935
X950.251 Y27.128 Z16.933
X950.239 Y27.145 Z16.932
X950.223 Y27.16 Z16.93
X950.206 Y27.173 Z16.929
X950.186 Y27.182 Z16.928
X950.166 Y27.187
X950.144 Y27.189
G2 X950.078 Z16.912 I0. K-0.15
G3 X950.01 Z16.897 I-0.066 K0.135
G1 X938.96 Z17.071
X929.952 Z17.256
X922.84 Z17.439
X914.597 Z17.689
X907.94 Z17.933
X900.987 Z18.224
X894.121 Z18.551
X887.673 Z18.886
X877.814 Z19.45
X871.427 Z19.828
X867.079 Z20.08
X864.716 Z20.213
X861.972 Z20.362
X859.175 Z20.505
X856.22 Z20.643
X853.058 Z20.771
X850.612 Z20.855
X847.577 Z20.934
X845.017 Z20.979
X842.635 Z20.998
X839.885 Z20.989
X837.325 Z20.95
X835.056 Z20.894
X832.62 Z20.808
X830.028 Z20.688
X827.826 Z20.567
X825.453 Z20.416
X823.118 Z20.247
X820.748 Z20.058
X818.564 Z19.87
X816.38 Z19.668
X812.164 Z19.251
X807.25 Z18.731
X797.717 Z17.703
X793.834 Z17.312
X790.356 Z16.985
X787.042 Z16.706
X784.095 Z16.493
X781.905 Z16.355
X779.677 Z16.236
X777.688 Z16.15
X775.697 Z16.082
X773.611 Z16.033
X771.43 Z16.006
X769.222 Z16.005
X766.852 Z16.033
X764.481 Z16.087
X762.042 Z16.166
X759.419 Z16.275
X756.723 Z16.408
X753.036 Z16.617
X747.9 Z16.95
X736.538 Z17.752
X732.887 Z18.012
X727.752 Z18.357
X724.618 Z18.558
X720.202 Z18.828
X716.872 Z19.018
X711.46 Z19.301
X708.274 Z19.457
X702.221 Z19.72
X695.987 Z19.955
X689.066 Z20.177
X680.248 Z20.408
X670.671 Z20.606
X661.094 Z20.76
X652.68 Z20.865
X652.657
G3 X652.591 Z20.88 I0. K0.15
G2 X652.525 Z20.895 I-0.066 K-0.135
G1 X652.508
G17 G2 Y27.434 I0. J0.122
G18 G3 X652.575 Z20.88 I0. K-0.15
G1 X652.593 Z20.871
G2 X652.657 Z20.856 I0.066 K0.135
G1 X660.237 Z20.761
X669.719 Z20.609
X677.59 Z20.451
X682.331 Z20.34
X689.253 Z20.153
X695.794 Z19.943
X701.934 Z19.714
X707.702 Z19.465
X710.253 Z19.343
X714.906 Z19.104
X718.268 Z18.922
X721.78 Z18.716
X726.546 Z18.42
X732.257 Z18.04
X747.27 Z16.983
X752.591 Z16.637
X756.446 Z16.417
X759.253 Z16.278
X761.857 Z16.169
X764.405 Z16.086
X766.775 Z16.033
X769.146 Z16.005
X771.292 Z16.006
X773.472 Z16.032
X775.653 Z16.083
X777.645 Z16.151
X779.633 Z16.237
X781.862 Z16.356
X784.237 Z16.506
X787.184 Z16.721
X790.479 Z17.
X793.957 Z17.329
X797.84 Z17.721
X807.207 Z18.732
X811.937 Z19.233
X816.337 Z19.67
X818.483 Z19.868
X820.667 Z20.057
X823.037 Z20.246
X825.353 Z20.414
X827.726 Z20.566
X830.114 Z20.697
X832.522 Z20.807
X834.957 Z20.893
X837.226 Z20.95
X839.692 Z20.987
X842.347 Z20.998
X844.861 Z20.979
X847.516 Z20.933
X850.455 Z20.856
X853.092 Z20.765
X856.078 Z20.642
X858.937 Z20.508
X861.829 Z20.36
X864.59 Z20.21
X868.757 Z19.973
X880.583 Z19.27
X889.706 Z18.757
X897.113 Z18.383
X903.528 Z18.092
X910.947 Z17.796
X916.687 Z17.6
X925.028 Z17.355
X931.476 Z17.199
X939.441 Z17.041
X950.01 Z16.875
G2 X950.078 Z16.89 I0.002 K0.15
G3 X950.144 Z16.906 I0.066 K-0.135
G1 X950.166 Y27.436 Z16.905
X950.186 Y27.441
X950.206 Y27.451 Z16.904
X950.223 Y27.463 Z16.903
X950.239 Y27.478 Z16.902
X950.251 Y27.495 Z16.9
X950.26 Y27.515 Z16.898
X950.266 Y27.535 Z16.896
X950.267 Y27.557 Z16.895
X950.266 Y27.578 Z16.893
X950.26 Y27.598 Z16.891
X950.251 Y27.618 Z16.889
X950.239 Y27.635 Z16.887
X950.223 Y27.65 Z16.886
X950.206 Y27.663 Z16.885
X950.186 Y27.672 Z16.884
X950.166 Y27.677
X950.144 Y27.679 Z16.883
G2 X950.078 Z16.868 I0. K-0.15
G3 X950.01 Z16.853 I-0.066 K0.135
G1 X940.114 Z17.007
X932.528 Z17.154
X925.132 Z17.329
X916.791 Z17.574
X910.679 Z17.784
X903.165 Z18.086
X896.753 Z18.38
X889.353 Z18.757
X880.069 Z19.284
X868.598 Z19.97
X864.6 Z20.199
X861.672 Z20.359
X858.803 Z20.507
X855.945 Z20.641
X852.959 Z20.764
X850.227 Z20.858
X847.288 Z20.935
X844.728 Z20.979
X842.144 Z20.997
X839.584 Z20.987
X837.118 Z20.95
X834.849 Z20.893
X832.424 Z20.806
X829.999 Z20.695
X827.778 Z20.574
X825.423 Z20.424
X822.923 Z20.243
X820.737 Z20.068
X818.368 Z19.863
X816.204 Z19.663
X811.988 Z19.244
X807.092 Z18.725
X797.706 Z17.713
X794.008 Z17.339
X790.346 Z16.993
X787.05 Z16.715
X784.122 Z16.502
X781.728 Z16.352
X779.499 Z16.234
X777.509 Z16.148
X775.518 Z16.081
X773.432 Z16.032
X771.251 Z16.006
X769.069 Z16.005
X766.699 Z16.033
X764.233 Z16.089
X761.793 Z16.168
X759.176 Z16.277
X756.369 Z16.415
X752.514 Z16.634
X747.044 Z16.989
X732.383 Z18.016
X727.229 Z18.359
X722.648 Z18.646
X718.58 Z18.887
X715.22 Z19.069
X710.566 Z19.308
X707.354 Z19.462
X701.585 Z19.709
X695.338 Z19.941
X689.176 Z20.137
X684.34 Z20.271
X677.797 Z20.431
X668.979 Z20.609
X659.307 Z20.763
X652.657 Z20.847
G3 X652.593 Z20.862 I0.002 K0.15
G2 X652.527 Z20.877 I-0.066 K-0.135
G1 X652.509
G17 G2 Y27.924 I0. J0.122
G18 G3 X652.575 Z20.862 I0. K-0.15
G1 X652.593 Z20.853
G2 X652.657 Z20.838 I0.066 K0.135
G1 X658.296 Z20.766
X668.157 Z20.609
X677.165 Z20.429
X684.466 Z20.251
X689.207 Z20.117
X694.99 Z19.934
X701.332 Z19.7
X707.101 Z19.454
X710.861 Z19.274
X715.327 Z19.045
X718.688 Z18.863
X723.126 Z18.6
X727.521 Z18.323
X732.286 Z18.008
X746.967 Z16.984
X752.436 Z16.631
X756.292 Z16.414
X759.1 Z16.276
X761.717 Z16.167
X764.157 Z16.088
X766.622 Z16.032
X768.993 Z16.005
X771.25 Z16.006
X773.336 Z16.032
X775.517 Z16.083
X777.603 Z16.154
X779.781 Z16.25
X781.818 Z16.36
X784.212 Z16.512
X787.325 Z16.742
X790.435 Z17.006
X794.283 Z17.371
X797.796 Z17.727
X807.182 Z18.74
X811.893 Z19.24
X816.109 Z19.659
X818.291 Z19.862
X820.623 Z20.064
X822.975 Z20.252
X825.309 Z20.421
X827.663 Z20.571
X829.884 Z20.693
X832.309 Z20.805
X834.742 Z20.892
X837.01 Z20.95
X839.57 Z20.988
X842.13 Z20.998
X844.641 Z20.979
X847.201 Z20.934
X850.045 Z20.86
X852.682 Z20.769
X855.763 Z20.642
X858.62 Z20.508
X861.488 Z20.36
X864.435 Z20.197
X868.246 Z19.978
X879.881 Z19.279
X889.162 Z18.748
X896.388 Z18.377
X902.698 Z18.085
X910.101 Z17.783
X916.522 Z17.561
X924.575 Z17.321
X932.351 Z17.135
X940.6 Z16.976
X950.01 Z16.831
G2 X950.078 Z16.846 I0.002 K0.15
G3 X950.144 Z16.861 I0.066 K-0.135
G1 X950.166 Y27.926
X950.186 Y27.931
X950.206 Y27.941 Z16.86
X950.223 Y27.953 Z16.859
X950.239 Y27.968 Z16.857
X950.251 Y27.985 Z16.856
X950.26 Y28.005 Z16.854
X950.265 Y28.025 Z16.852
X950.267 Y28.047 Z16.85
X950.265 Y28.068 Z16.848
X950.26 Y28.088 Z16.847
X950.251 Y28.108 Z16.845
X950.239 Y28.125 Z16.843
X950.223 Y28.14 Z16.842
X950.206 Y28.153 Z16.841
X950.186 Y28.162 Z16.84
X950.166 Y28.167 Z16.839
X950.144 Y28.169
G2 X950.078 Z16.824 I0. K-0.15
G3 X950.01 Z16.809 I-0.066 K0.135
G1 X940.243 Z16.96
X931.804 Z17.124
X923.934 Z17.316
X915.694 Z17.566
X909.59 Z17.781
X902.179 Z18.087
X896.044 Z18.374
X888.844 Z18.747
X879.734 Z19.271
X869.361 Z19.898
X864.831 Z20.165
X861.365 Z20.357
X858.574 Z20.502
X855.585 Z20.644
X852.378 Z20.775
X849.836 Z20.862
X847.087 Z20.934
X844.526 Z20.979
X842.022 Z20.998
X839.462 Z20.988
X836.902 Z20.949
X834.634 Z20.891
X832.201 Z20.804
X829.589 Z20.682
X827.575 Z20.57
X825.202 Z20.418
X822.868 Z20.249
X820.497 Z20.059
X818.332 Z19.871
X816.149 Z19.669
X811.748 Z19.231
X807.057 Z18.732
X797.671 Z17.72
X794.158 Z17.364
X790.31 Z16.999
X787.015 Z16.721
X784.068 Z16.506
X781.86 Z16.366
X779.633 Z16.246
X777.474 Z16.151
X775.388 Z16.081
X773.302 Z16.033
X771.121 Z16.006
X768.916 Z16.005
X766.546 Z16.032
X764.08 Z16.088
X761.533 Z16.171
X758.897 Z16.28
X755.997 Z16.423
X751.956 Z16.654
X746.653 Z16.996
X731.991 Z18.013
X727.022 Z18.339
X722.626 Z18.613
X718.372 Z18.862
X714.654 Z19.062
X710.162 Z19.289
X706.68 Z19.454
X700.864 Z19.7
X694.665 Z19.926
X689.451 Z20.092
X684.425 Z20.235
X676.555 Z20.427
X667.452 Z20.608
X657.496 Z20.766
X652.657 Z20.829
G3 X652.593 Z20.844 I0.002 K0.15
G2 X652.527 Z20.86 I-0.066 K-0.135
G1 X652.509
G17 G2 Y28.414 I0. J0.122
G18 G3 X652.575 Z20.844 I0. K-0.15
G1 X652.593 Z20.835
G2 X652.657 Z20.82 I0.066 K0.135
G1 X657.097 Z20.759
X666.579 Z20.61
X675.872 Z20.426
X684.121 Z20.226
X690.19 Z20.051
X694.835 Z19.901
X700.608 Z19.69
X706.362 Z19.449
X710.319 Z19.262
X714.811 Z19.035
X718.342 Z18.846
X722.783 Z18.586
X727.178 Z18.312
X731.777 Z18.012
X746.587 Z16.99
X752.242 Z16.628
X756.119 Z16.411
X758.911 Z16.275
X761.547 Z16.166
X764. Z16.087
X766.466 Z16.032
X768.836 Z16.005
X771.107 Z16.006
X773.194 Z16.032
X775.374 Z16.083
X777.45 Z16.153
X779.515 Z16.244
X781.723 Z16.362
X784.117 Z16.513
X787.267 Z16.746
X790.378 Z17.01
X794.244 Z17.377
X797.738 Z17.732
X807.124 Z18.745
X811.669 Z19.228
X816.07 Z19.667
X818.253 Z19.87
X820.418 Z20.058
X822.769 Z20.247
X825.122 Z20.418
X827.496 Z20.57
X829.509 Z20.682
X832.006 Z20.799
X834.525 Z20.891
X836.794 Z20.949
X839.354 Z20.988
X841.819 Z20.997
X844.367 Z20.979
X846.927 Z20.935
X849.867 Z20.858
X852.218 Z20.776
X855.416 Z20.645
X858.195 Z20.513
X861.157 Z20.359
X863.915 Z20.206
X867.929 Z19.973
X880.489 Z19.21
X888.855 Z18.728
X895.488 Z18.382
X901.502 Z18.096
X908.913 Z17.785
X915.131 Z17.563
X923.176 Z17.314
X931.141 Z17.116
X939.959 Z16.943
X950.01 Z16.788
G2 X950.078 Z16.803 I0.002 K0.15
G3 X950.144 Z16.819 I0.066 K-0.135
G1 X950.166 Y28.416 Z16.818
X950.186 Y28.421
X950.206 Y28.431 Z16.817
X950.223 Y28.443 Z16.816
X950.238 Y28.458 Z16.815
X950.251 Y28.475 Z16.813
X950.26 Y28.495 Z16.812
X950.265 Y28.515 Z16.81
X950.267 Y28.537 Z16.808
X950.265 Y28.558 Z16.807
X950.26 Y28.578 Z16.805
X950.251 Y28.598 Z16.803
X950.238 Y28.615 Z16.802
X950.223 Y28.63 Z16.8
X950.206 Y28.643 Z16.799
X950.186 Y28.652
X950.166 Y28.657 Z16.798
X950.144 Y28.659
G2 X950.078 Z16.783 I0. K-0.15
G3 X950.01 Z16.767 I-0.066 K0.135
G1 X939.485 Z16.929
X930.572 Z17.107
X922.607 Z17.308
X914.467 Z17.563
X908.357 Z17.785
X900.95 Z18.1
X894.15 Z18.429
X887.2 Z18.801
X876.467 Z19.437
X870.458 Z19.807
X866.282 Z20.057
X863.904 Z20.196
X860.979 Z20.359
X858.207 Z20.504
X855.354 Z20.641
X852.251 Z20.77
X849.815 Z20.855
X846.875 Z20.934
X844.315 Z20.979
X841.806 Z20.998
X839.246 Z20.988
X836.686 Z20.949
X834.417 Z20.89
X831.89 Z20.797
X829.75 Z20.699
X827.363 Z20.566
X825.156 Z20.425
X822.656 Z20.243
X820.489 Z20.069
X818.139 Z19.865
X815.956 Z19.661
X811.74 Z19.242
X807.03 Z18.741
X797.644 Z17.728
X794.335 Z17.391
X790.283 Z17.006
X787.154 Z16.741
X784.041 Z16.512
X781.48 Z16.351
X779.25 Z16.234
X777.184 Z16.145
X775.204 Z16.08
X773.118 Z16.032
X770.937 Z16.006
X768.755 Z16.005
X766.384 Z16.032
X763.919 Z16.087
X761.466 Z16.166
X758.83 Z16.273
X755.869 Z16.418
X751.972 Z16.637
X746.483 Z16.987
X731.839 Z17.993
X727.592 Z18.269
X723.197 Z18.543
X718.943 Z18.793
X716.164 Z18.946
X711.51 Z19.184
X706.801 Z19.41
X701.696 Z19.627
X697.454 Z19.789
X691.481 Z19.993
X683.801 Z20.217
X675.078 Z20.427
X665.785 Z20.61
X656.588 Z20.754
X652.657 Z20.81
G3 X652.593 Z20.825 I0.002 K0.15
G2 X652.527 Z20.84 I-0.066 K-0.135
G1 X652.504
G17 G2 Y28.904 I0. J0.122
G18 G3 X652.57 Z20.825 I0. K-0.15
G1 X652.593 Z20.814
G2 X652.657 Z20.799 I0.066 K0.135
G1 X656.253 Z20.746
X665.072 Z20.608
X674.459 Z20.425
X683.277 Z20.213
X691.053 Z19.988
X697.499 Z19.768
X700.902 Z19.639
X706.182 Z19.419
X710.896 Z19.195
X715.575 Z18.958
X718.543 Z18.797
X722.966 Z18.54
X727.362 Z18.267
X731.589 Z17.994
X746.234 Z16.993
X751.723 Z16.644
X755.787 Z16.416
X758.654 Z16.277
X761.29 Z16.169
X763.838 Z16.087
X766.303 Z16.032
X768.674 Z16.005
X770.865 Z16.006
X773.046 Z16.032
X775.132 Z16.08
X777.112 Z16.145
X779.179 Z16.233
X781.409 Z16.35
X783.97 Z16.511
X787.083 Z16.74
X790.193 Z17.003
X794.245 Z17.387
X797.758 Z17.745
X806.958 Z18.739
X811.688 Z19.242
X815.904 Z19.662
X818.087 Z19.866
X820.418 Z20.069
X822.77 Z20.257
X825.085 Z20.425
X827.292 Z20.566
X829.678 Z20.699
X831.895 Z20.801
X834.315 Z20.889
X836.583 Z20.948
X839.143 Z20.988
X841.704 Z20.998
X844.188 Z20.979
X846.748 Z20.934
X849.593 Z20.858
X852.313 Z20.763
X855.219 Z20.64
X858.07 Z20.503
X860.84 Z20.358
X863.595 Z20.203
X866.326 Z20.043
X870.111 Z19.815
X876.12 Z19.443
X886.85 Z18.803
X893.609 Z18.437
X900.381 Z18.105
X907.788 Z17.786
X913.905 Z17.561
X921.848 Z17.307
X930.003 Z17.098
X939.2 Z16.913
X950.01 Z16.747
G2 X950.078 Z16.762 I0.002 K0.15
G3 X950.144 Z16.778 I0.066 K-0.135
G1 X950.166 Y28.906 Z16.777
X950.186 Y28.911
X950.206 Y28.92 Z16.776
X950.223 Y28.933 Z16.775
X950.238 Y28.948 Z16.774
X950.251 Y28.965 Z16.773
X950.26 Y28.985 Z16.771
X950.265 Y29.005 Z16.769
X950.267 Y29.027 Z16.767
X950.265 Y29.048 Z16.766
X950.26 Y29.068 Z16.764
X950.251 Y29.088 Z16.762
X950.238 Y29.105 Z16.761
X950.223 Y29.12 Z16.76
X950.206 Y29.133 Z16.759
X950.186 Y29.142 Z16.758
X950.166 Y29.147 Z16.757
X950.144 Y29.149
G2 X950.078 Z16.742 I0. K-0.15
G3 X950.01 Z16.727 I-0.066 K0.135
G1 X938.916 Z16.896
X929.529 Z17.087
X921.279 Z17.301
X913.242 Z17.562
X907.234 Z17.787
X899.925 Z18.106
X893.254 Z18.436
X886.5 Z18.805
X875.735 Z19.452
X870.283 Z19.792
X866.109 Z20.045
X863.36 Z20.206
X860.604 Z20.361
X857.815 Z20.508
X855.021 Z20.643
X852.099 Z20.765
X849.474 Z20.858
X846.629 Z20.934
X844.069 Z20.979
X841.506 Z20.997
X839.041 Z20.988
X836.576 Z20.95
X834.212 Z20.889
X831.868 Z20.804
X829.538 Z20.696
X827.319 Z20.573
X824.964 Z20.421
X822.63 Z20.251
X820.279 Z20.062
X818.132 Z19.875
X815.746 Z19.652
X811.549 Z19.233
X806.985 Z18.747
X797.784 Z17.753
X794.291 Z17.397
X790.239 Z17.012
X787.129 Z16.748
X783.849 Z16.507
X781.455 Z16.357
X779.225 Z16.239
X777.159 Z16.149
X775.083 Z16.08
X772.997 Z16.032
X770.816 Z16.006
X768.592 Z16.005
X766.222 Z16.032
X763.756 Z16.086
X761.208 Z16.168
X758.951 Z16.258
X755.892 Z16.405
X751.992 Z16.62
X746.316 Z16.977
X731.301 Z17.998
X727.073 Z18.269
X722.658 Z18.54
X718.42 Z18.786
X715.432 Z18.948
X710.939 Z19.174
X706.128 Z19.401
X701.607 Z19.591
X696.771 Z19.775
X690.323 Z19.992
X682.453 Z20.217
X673.635 Z20.426
X664.153 Z20.61
X655.714 Z20.741
X652.657 Z20.787
G3 X652.593 Z20.803 I0.002 K0.15
G2 X652.527 Z20.818 I-0.066 K-0.135
G1 X652.505
G17 G2 Y29.394 I0. J0.122
G18 G3 X652.571 Z20.803 I0. K-0.15
G1 X652.593 Z20.792
G2 X652.657 Z20.776 I0.066 K0.135
G1 X655.124 Z20.737
X663.373 Z20.61
X672.855 Z20.427
X681.674 Z20.22
X689.449 Z20.
X695.518 Z19.8
X699.583 Z19.651
X705.147 Z19.425
X710.624 Z19.17
X715.121 Z18.945
X718.111 Z18.785
X722.517 Z18.531
X727.119 Z18.25
X731.347 Z17.979
X745.882 Z16.996
X751.371 Z16.649
X755.435 Z16.422
X758.396 Z16.278
X761.127 Z16.167
X763.675 Z16.086
X766.141 Z16.032
X768.511 Z16.005
X770.742 Z16.006
X772.923 Z16.032
X775.104 Z16.083
X777.179 Z16.153
X779.245 Z16.243
X781.381 Z16.356
X783.776 Z16.506
X787.055 Z16.747
X790.166 Z17.01
X794.217 Z17.394
X797.711 Z17.751
X806.912 Z18.745
X811.66 Z19.251
X815.857 Z19.669
X818.059 Z19.874
X820.205 Z20.061
X822.538 Z20.249
X824.872 Z20.419
X827.226 Z20.571
X829.445 Z20.695
X831.87 Z20.807
X834.11 Z20.888
X836.473 Z20.95
X838.938 Z20.988
X841.499 Z20.998
X843.931 Z20.979
X846.491 Z20.934
X849.241 Z20.861
X851.771 Z20.772
X854.883 Z20.643
X857.562 Z20.513
X860.501 Z20.358
X863.236 Z20.203
X867.061 Z19.977
X874.311 Z19.528
X883.567 Z18.959
X890.653 Z18.554
X898.047 Z18.174
X905.447 Z17.84
X910.51 Z17.639
X918.436 Z17.367
X924.219 Z17.199
X931.046 Z17.032
X939.39 Z16.867
X950.01 Z16.706
G2 X950.078 Z16.721 I0.002 K0.15
G3 X950.144 Z16.737 I0.066 K-0.135
G1 X950.166 Y29.396
X950.186 Y29.401 Z16.736
X950.206 Y29.41 Z16.735
X950.223 Y29.423 Z16.734
X950.238 Y29.438 Z16.733
X950.251 Y29.455 Z16.732
X950.26 Y29.475 Z16.73
X950.265 Y29.495 Z16.728
X950.267 Y29.517 Z16.727
X950.265 Y29.538 Z16.725
X950.26 Y29.558 Z16.723
X950.251 Y29.578 Z16.721
X950.238 Y29.595 Z16.72
X950.223 Y29.61 Z16.719
X950.206 Y29.623 Z16.718
X950.186 Y29.632 Z16.717
X950.166 Y29.637 Z16.716
X950.144 Y29.639
G2 X950.078 Z16.701 I0. K-0.15
G3 X950.01 Z16.686 I-0.066 K0.135
G1 X939.864 Z16.839
X932.753 Z16.974
X925.451 Z17.144
X918.626 Z17.339
X910.699 Z17.611
X905.731 Z17.807
X898.33 Z18.141
X891.233 Z18.504
X884.33 Z18.896
X874.499 Z19.501
X868.158 Z19.897
X863.817 Z20.16
X860.338 Z20.358
X857.589 Z20.504
X854.723 Z20.643
X851.62 Z20.773
X848.985 Z20.865
X846.33 Z20.935
X843.865 Z20.979
X841.301 Z20.997
X838.836 Z20.988
X836.37 Z20.95
X834.014 Z20.888
X831.774 Z20.807
X829.349 Z20.694
X827.15 Z20.571
X824.777 Z20.418
X822.443 Z20.247
X820.11 Z20.058
X817.964 Z19.871
X815.762 Z19.666
X811.566 Z19.246
X806.633 Z18.72
X797.616 Z17.746
X794.122 Z17.39
X790.09 Z17.008
X786.98 Z16.745
X783.848 Z16.514
X781.435 Z16.362
X779.207 Z16.244
X777.141 Z16.154
X775.065 Z16.084
X772.884 Z16.033
X770.609 Z16.006
X768.43 Z16.005
X765.965 Z16.033
X763.499 Z16.088
X760.951 Z16.17
X758.314 Z16.277
X755.522 Z16.412
X751.622 Z16.626
X745.946 Z16.981
X731.115 Z17.979
X726.887 Z18.247
X722.285 Z18.527
X717.858 Z18.78
X715.054 Z18.93
X710.365 Z19.163
X703.939 Z19.457
X697.707 Z19.703
X689.742 Z19.973
X681.303 Z20.211
X672.105 Z20.427
X662.434 Z20.612
X654.469 Z20.734
X652.657 Z20.765
G3 X652.594 Z20.781 I0.003 K0.15
G2 X652.527 Z20.796 I-0.066 K-0.135
G1 X652.505
G17 G2 Y29.884 I0. J0.122
G18 G3 X652.571 Z20.781 I0. K-0.15
G1 X652.594 Z20.769
G2 X652.657 Z20.754 I0.066 K0.135
G1 X653.73 Z20.732
X661.695 Z20.611
X671.272 Z20.428
X680.564 Z20.212
X689.193 Z19.971
X697.158 Z19.704
X703.674 Z19.448
X710.104 Z19.156
X714.778 Z18.925
X717.583 Z18.776
X722.012 Z18.525
X726.615 Z18.247
X730.844 Z17.981
X745.527 Z16.999
X751.203 Z16.643
X755.25 Z16.419
X758.233 Z16.276
X760.87 Z16.169
X763.418 Z16.088
X765.883 Z16.033
X768.349 Z16.005
X770.575 Z16.006
X772.851 Z16.033
X774.937 Z16.082
X777.107 Z16.155
X779.174 Z16.245
X781.307 Z16.359
X783.72 Z16.51
X786.667 Z16.724
X789.962 Z17.001
X794.18 Z17.401
X797.674 Z17.758
X806.505 Z18.712
X811.438 Z19.238
X815.654 Z19.66
X817.837 Z19.864
X820.168 Z20.069
X822.334 Z20.243
X824.668 Z20.415
X827.041 Z20.569
X829.054 Z20.682
X831.665 Z20.805
X834.095 Z20.894
X836.268 Z20.949
X838.733 Z20.988
X841.293 Z20.998
X843.701 Z20.979
X846.261 Z20.934
X849.106 Z20.858
X851.455 Z20.774
X854.652 Z20.64
X857.422 Z20.505
X860.189 Z20.357
X863.834 Z20.149
X868.174 Z19.883
X874.163 Z19.507
X883.955 Z18.901
X890.874 Z18.505
X897.89 Z18.142
X905.095 Z17.813
X910.415 Z17.601
X918.253 Z17.329
X925.167 Z17.13
X932.942 Z16.949
X940.433 Z16.809
X950.01 Z16.665
G2 X950.078 Z16.681 I0.002 K0.15
G3 X950.144 Z16.696 I0.066 K-0.135
G1 X950.166 Y29.886
X950.186 Y29.891 Z16.695
X950.206 Y29.9 Z16.694
X950.223 Y29.913 Z16.693
X950.238 Y29.928 Z16.692
X950.251 Y29.945 Z16.691
X950.26 Y29.965 Z16.689
X950.265 Y29.985 Z16.687
X950.267 Y30.007 Z16.686
X950.265 Y30.028 Z16.684
X950.26 Y30.048 Z16.682
X950.251 Y30.068 Z16.681
X950.238 Y30.085 Z16.679
X950.223 Y30.1 Z16.678
X950.206 Y30.113 Z16.677
X950.186 Y30.122 Z16.676
X950.166 Y30.127
X950.144 Y30.129
G2 X950.078 Z16.66 I0. K-0.15
G3 X950.01 Z16.645 I-0.066 K0.135
G1 X940.623 Z16.785
X932.468 Z16.938
X924.598 Z17.124
X917.49 Z17.331
X909.663 Z17.608
X904.616 Z17.813
X897.301 Z18.151
X890.147 Z18.526
X883.067 Z18.937
X873.628 Z19.527
X866.545 Z19.973
X862.722 Z20.203
X859.801 Z20.37
X857.242 Z20.507
X854.548 Z20.639
X851.247 Z20.777
X848.897 Z20.86
X846.147 Z20.934
X843.682 Z20.979
X841.191 Z20.998
X838.726 Z20.989
X836.165 Z20.949
X833.992 Z20.893
X831.562 Z20.804
X828.972 Z20.681
X826.96 Z20.568
X824.606 Z20.415
X822.438 Z20.257
X820.087 Z20.067
X817.756 Z19.862
X815.573 Z19.658
X811.357 Z19.236
X806.24 Z18.689
X797.778 Z17.774
X794.099 Z17.398
X789.881 Z16.999
X786.586 Z16.722
X783.639 Z16.508
X781.244 Z16.359
X779.111 Z16.246
X776.95 Z16.152
X774.885 Z16.083
X772.704 Z16.032
X770.523 Z16.006
X768.265 Z16.005
X765.8 Z16.033
X763.335 Z16.088
X760.786 Z16.168
X758.073 Z16.278
X755.166 Z16.417
X751.116 Z16.64
X745.44 Z16.994
X730.775 Z17.969
X726.547 Z18.235
X721.757 Z18.522
X717.326 Z18.771
X714.332 Z18.929
X709.652 Z19.158
X703.109 Z19.452
X696.735 Z19.699
X688.723 Z19.966
X679.905 Z20.211
X670.517 Z20.427
X660.846 Z20.612
X652.976 Z20.736
X652.657 Z20.743
G3 X652.594 Z20.758 I0.003 K0.15
G2 X652.528 Z20.774 I-0.066 K-0.135
G1 X652.505
G17 G2 Y30.374 I0. J0.122
G18 G3 X652.571 Z20.758 I0. K-0.15
G1 X652.594 Z20.747
G2 X652.657 Z20.732 I0.066 K0.135
G1 X653.127 Z20.721
X660.048 Z20.612
X669.72 Z20.428
X679.771 Z20.197
X688.969 Z19.939
X696.839 Z19.675
X703.165 Z19.43
X709.406 Z19.15
X714.091 Z18.922
X717.087 Z18.765
X721.52 Z18.518
X726.311 Z18.232
X730.539 Z17.968
X745.371 Z16.987
X751.029 Z16.637
X755.08 Z16.415
X757.987 Z16.277
X760.701 Z16.168
X763.249 Z16.087
X765.715 Z16.033
X768.18 Z16.005
X770.389 Z16.006
X772.664 Z16.033
X774.845 Z16.083
X776.911 Z16.153
X778.996 Z16.243
X781.224 Z16.361
X783.6 Z16.51
X786.879 Z16.751
X789.99 Z17.013
X794.041 Z17.397
X797.72 Z17.773
X806.2 Z18.691
X811.299 Z19.235
X815.681 Z19.674
X817.679 Z19.861
X820.01 Z20.066
X822.362 Z20.256
X824.677 Z20.425
X826.864 Z20.567
X829.23 Z20.7
X831.465 Z20.803
X833.895 Z20.892
X836.068 Z20.949
X838.628 Z20.989
X841.188 Z20.998
X843.521 Z20.979
X846.081 Z20.934
X848.736 Z20.862
X851.559 Z20.761
X854.291 Z20.644
X857.063 Z20.508
X859.809 Z20.361
X862.709 Z20.194
X866.346 Z19.974
X873.448 Z19.525
X882.885 Z18.931
X889.983 Z18.516
X896.945 Z18.149
X904.047 Z17.817
X909.189 Z17.606
X916.926 Z17.328
X923.934 Z17.121
X931.899 Z16.929
X940.528 Z16.766
X950.01 Z16.626
G2 X950.078 Z16.642 I0.002 K0.15
G3 X950.144 Z16.657 I0.066 K-0.135
G1 X950.166 Y30.376
X950.186 Y30.381 Z16.656
X950.206 Y30.39
X950.223 Y30.403 Z16.655
X950.238 Y30.418 Z16.654
X950.251 Y30.435 Z16.652
X950.26 Y30.455 Z16.651
X950.265 Y30.475 Z16.649
X950.267 Y30.497 Z16.648
X950.265 Y30.518 Z16.646
X950.26 Y30.538 Z16.645
X950.251 Y30.558 Z16.643
X950.238 Y30.575 Z16.642
X950.223 Y30.59 Z16.641
X950.206 Y30.603 Z16.64
X950.186 Y30.612 Z16.639
X950.166 Y30.617
X950.144 Y30.619 Z16.638
G2 X950.078 Z16.623 I0. K-0.15
G3 X950.01 Z16.608 I-0.066 K0.135
G1 X939.959 Z16.755
X931.235 Z16.923
X923.271 Z17.118
X916.166 Z17.332
X908.454 Z17.614
X903.477 Z17.821
X896.191 Z18.167
X889.072 Z18.549
X881.997 Z18.969
X872.894 Z19.546
X866.201 Z19.972
X862.417 Z20.201
X859.851 Z20.35
X856.92 Z20.508
X854.151 Z20.644
X851.229 Z20.769
X848.501 Z20.865
X845.94 Z20.934
X843.475 Z20.979
X840.901 Z20.997
X838.531 Z20.989
X835.971 Z20.949
X833.798 Z20.892
X831.273 Z20.798
X829.133 Z20.698
X826.916 Z20.574
X824.58 Z20.423
X822.246 Z20.252
X819.914 Z20.063
X817.564 Z19.855
X815.566 Z19.668
X811.35 Z19.246
X806.251 Z18.702
X797.586 Z17.765
X793.907 Z17.389
X789.875 Z17.008
X786.783 Z16.747
X783.504 Z16.507
X781.128 Z16.359
X778.9 Z16.242
X776.73 Z16.149
X774.749 Z16.083
X772.568 Z16.033
X770.292 Z16.006
X768.095 Z16.005
X765.629 Z16.033
X763.164 Z16.087
X760.52 Z16.17
X757.884 Z16.276
X754.977 Z16.414
X750.904 Z16.636
X744.912 Z17.007
X730.304 Z17.967
X726.075 Z18.23
X721.264 Z18.514
X716.829 Z18.76
X713.643 Z18.926
X708.953 Z19.151
X702.997 Z19.416
X697.035 Z19.647
X690.493 Z19.871
X685.183 Z20.03
X677.787 Z20.227
X668.779 Z20.431
X659.202 Z20.613
X653.228 Z20.708
X652.657 Z20.721
G3 X652.594 Z20.736 I0.003 K0.15
G2 X652.528 Z20.751 I-0.066 K-0.135
G1 X652.501
G17 G2 Y30.864 I0. J0.122
G18 G3 X652.567 Z20.736 I0. K-0.15
G1 X652.594 Z20.723
G2 X652.657 Z20.708 I0.066 K0.135
G1 X653.399 Z20.693
X658.329 Z20.614
X668.001 Z20.431
X677.294 Z20.221
X685.638 Z19.999
X692.18 Z19.795
X697.396 Z19.614
X702.978 Z19.396
X708.84 Z19.136
X713.531 Z18.912
X716.7 Z18.748
X721.155 Z18.502
X726.115 Z18.21
X730.344 Z17.949
X744.62 Z17.015
X750.464 Z16.654
X754.702 Z16.422
X757.703 Z16.279
X760.435 Z16.17
X763.079 Z16.086
X765.544 Z16.033
X768.009 Z16.005
X770.249 Z16.006
X772.524 Z16.033
X774.611 Z16.081
X776.686 Z16.15
X778.762 Z16.238
X780.994 Z16.355
X783.37 Z16.502
X786.483 Z16.728
X789.741 Z17.001
X793.959 Z17.399
X797.637 Z17.776
X806.118 Z18.693
X811.217 Z19.238
X815.432 Z19.661
X817.615 Z19.866
X819.984 Z20.074
X822.15 Z20.249
X824.484 Z20.421
X826.82 Z20.573
X829.037 Z20.697
X831.443 Z20.809
X833.701 Z20.891
X835.873 Z20.948
X838.339 Z20.987
X840.804 Z20.997
X843.375 Z20.979
X845.84 Z20.934
X848.305 Z20.867
X851.034 Z20.771
X854.05 Z20.643
X856.854 Z20.504
X859.43 Z20.364
X862.181 Z20.205
X866.022 Z19.972
X872.733 Z19.543
X882.003 Z18.952
X888.909 Z18.54
X895.836 Z18.166
X902.926 Z17.826
X907.886 Z17.616
X915.605 Z17.33
X922.512 Z17.118
X930.572 Z16.917
X939.485 Z16.743
X950.01 Z16.589
G2 X950.078 Z16.604 I0.002 K0.15
G3 X950.144 Z16.62 I0.066 K-0.135
G1 X950.166 Y30.866
X950.186 Y30.871 Z16.619
X950.206 Y30.88
X950.223 Y30.893 Z16.618
X950.238 Y30.908 Z16.616
X950.251 Y30.925 Z16.615
X950.26 Y30.945 Z16.614
X950.265 Y30.965 Z16.612
X950.267 Y30.987 Z16.61
X950.265 Y31.008 Z16.609
X950.26 Y31.028 Z16.607
X950.251 Y31.048 Z16.606
X950.238 Y31.065 Z16.604
X950.223 Y31.08 Z16.603
X950.206 Y31.093 Z16.602
X950.186 Y31.102
X950.166 Y31.107 Z16.601
X950.144 Y31.109
G2 X950.078 Z16.586 I0. K-0.15
G3 X950.01 Z16.571 I-0.066 K0.135
G1 X939.106 Z16.73
X930.003 Z16.909
X921.943 Z17.113
X914.94 Z17.331
X907.33 Z17.618
X902.389 Z17.83
X895.119 Z18.183
X888.014 Z18.573
X880.925 Z19.003
X869.301 Z19.751
X864.906 Z20.029
X862.013 Z20.205
X859.3 Z20.363
X856.745 Z20.503
X853.942 Z20.642
X850.935 Z20.77
X848.197 Z20.867
X845.731 Z20.934
X843.266 Z20.979
X840.801 Z20.998
X838.336 Z20.988
X835.871 Z20.95
X833.604 Z20.891
X831.357 Z20.809
X828.951 Z20.696
X826.734 Z20.572
X824.399 Z20.419
X822.065 Z20.247
X819.732 Z20.057
X817.548 Z19.865
X815.385 Z19.661
X811.169 Z19.238
X806.07 Z18.693
X797.59 Z17.776
X793.911 Z17.4
X789.712 Z17.003
X786.62 Z16.744
X783.507 Z16.515
X781.132 Z16.367
X778.809 Z16.244
X776.733 Z16.154
X774.562 Z16.082
X772.382 Z16.032
X770.201 Z16.006
X767.922 Z16.005
X765.456 Z16.033
X762.991 Z16.086
X760.442 Z16.165
X757.625 Z16.277
X754.639 Z16.419
X750.398 Z16.649
X744.554 Z17.008
X730.13 Z17.946
X725.695 Z18.218
X720.715 Z18.509
X716.256 Z18.752
X713.084 Z18.915
X708.369 Z19.138
X702.792 Z19.383
X697.589 Z19.586
X692.184 Z19.776
X685.073 Z19.996
X676.634 Z20.22
X667.246 Z20.43
X657.575 Z20.613
X653.497 Z20.679
X652.657 Z20.695
G3 X652.594 Z20.71 I0.003 K0.15
G2 X652.528 Z20.725 I-0.066 K-0.135
G1 X652.501
G17 G2 Y31.354 I0. J0.122
G18 G3 X652.567 Z20.71 I0. K-0.15
G1 X652.593 Z20.697
G2 X652.657 Z20.682 I0.066 K0.135
G1 X656.718 Z20.614
X666.39 Z20.431
X675.872 Z20.22
X684.596 Z19.99
X692.087 Z19.759
X697.776 Z19.559
X702.6 Z19.37
X708.177 Z19.126
X712.988 Z18.9
X716.367 Z18.727
X720.808 Z18.485
X725.77 Z18.197
X730.019 Z17.937
X744.277 Z17.015
X750.307 Z16.646
X754.551 Z16.417
X757.537 Z16.276
X760.259 Z16.168
X762.903 Z16.086
X765.368 Z16.032
X767.739 Z16.006
X770.035
X772.311 Z16.032
X774.492 Z16.082
X776.663 Z16.154
X778.643 Z16.239
X780.8 Z16.352
X783.195 Z16.499
X786.309 Z16.723
X789.586 Z16.997
X793.803 Z17.394
X797.648 Z17.787
X806.129 Z18.705
X811.043 Z19.231
X815.258 Z19.654
X817.441 Z19.86
X819.81 Z20.069
X821.976 Z20.245
X824.291 Z20.416
X826.645 Z20.57
X828.656 Z20.684
X831.172 Z20.804
X833.506 Z20.89
X835.773 Z20.95
X838.239 Z20.988
X840.704 Z20.998
X843.11 Z20.979
X845.67 Z20.933
X848.42 Z20.857
X850.779 Z20.772
X853.784 Z20.643
X856.586 Z20.503
X859.327 Z20.353
X862.039 Z20.194
X864.951 Z20.015
X869.289 Z19.739
X880.931 Z18.986
X888.038 Z18.554
X894.936 Z18.173
X902.087 Z17.823
X906.761 Z17.621
X914.474 Z17.327
X921.374 Z17.109
X929.529 Z16.899
X938.821 Z16.715
X950.01 Z16.552
G2 X950.078 Z16.567 I0.002 K0.15
G3 X950.144 Z16.583 I0.066 K-0.135
G1 X950.166 Y31.356 Z16.582
X950.186 Y31.361
X950.206 Y31.37 Z16.581
X950.223 Y31.383 Z16.58
X950.238 Y31.398 Z16.579
X950.251 Y31.415 Z16.578
X950.26 Y31.435 Z16.576
X950.265 Y31.455 Z16.575
X950.267 Y31.477 Z16.573
X950.265 Y31.498 Z16.572
X950.26 Y31.518 Z16.57
X950.251 Y31.538 Z16.569
X950.238 Y31.555 Z16.567
X950.223 Y31.57 Z16.566
X950.206 Y31.583 Z16.565
X950.186 Y31.592
X950.166 Y31.597 Z16.564
X950.144 Y31.599
G2 X950.078 Z16.549 I0. K-0.15
G3 X950.01 Z16.533 I-0.066 K0.135
G1 X939.295 Z16.689
X931.235 Z16.843
X924.693 Z16.999
X918.719 Z17.168
X913.061 Z17.357
X905.462 Z17.654
X900.13 Z17.895
X893.288 Z18.242
X886.366 Z18.634
X879.486 Z19.062
X866.769 Z19.888
X863.877 Z20.071
X861.706 Z20.204
X859.013 Z20.362
X856.42 Z20.505
X853.617 Z20.644
X850.903 Z20.762
X848.26 Z20.859
X845.51 Z20.934
X843.045 Z20.979
X840.702 Z20.998
X838.141 Z20.988
X835.676 Z20.95
X833.409 Z20.889
X831.075 Z20.803
X828.559 Z20.682
X826.548 Z20.568
X824.194 Z20.414
X822.026 Z20.254
X819.694 Z20.064
X817.51 Z19.872
X815.327 Z19.667
X811.112 Z19.244
X806.013 Z18.698
X797.532 Z17.781
X793.688 Z17.388
X789.655 Z17.008
X786.563 Z16.748
X783.431 Z16.519
X780.87 Z16.359
X778.736 Z16.247
X776.555 Z16.153
X774.479 Z16.083
X772.298 Z16.033
X770.022 Z16.006
X767.746 Z16.005
X765.28 Z16.032
X762.72 Z16.088
X760.076 Z16.171
X757.353 Z16.279
X754.273 Z16.424
X749.845 Z16.665
X744. Z17.021
X729.908 Z17.928
X725.659 Z18.186
X720.528 Z18.482
X716.066 Z18.724
X712.495 Z18.905
X705.422 Z19.229
X699.449 Z19.476
X692.16 Z19.737
X684.1 Z19.985
X675.092 Z20.22
X665.515 Z20.432
X655.938 Z20.614
X652.657 Z20.668
G3 X652.593 Z20.684 I0.003 K0.15
G2 X652.527 Z20.699 I-0.066 K-0.135
G1 X652.501
G17 G2 Y31.844 I0. J0.122
G18 G3 X652.567 Z20.684 I0. K-0.15
G1 X652.593 Z20.671
G2 X652.657 Z20.655 I0.066 K0.135
G1 X655.367 Z20.609
X664.659 Z20.434
X674.331 Z20.22
X683.434 Z19.984
X691.589 Z19.735
X698.89 Z19.476
X705.041 Z19.224
X712.229 Z18.898
X715.783 Z18.719
X720.248 Z18.479
X725.418 Z18.183
X729.854 Z17.915
X743.908 Z17.016
X749.94 Z16.65
X754.184 Z16.422
X757.17 Z16.282
X759.987 Z16.17
X762.631 Z16.088
X765.192 Z16.032
X767.562 Z16.006
X769.878
X772.154 Z16.032
X774.334 Z16.082
X776.401 Z16.15
X778.468 Z16.237
X780.701 Z16.353
X783.078 Z16.499
X786.191 Z16.723
X789.487 Z16.998
X793.724 Z17.397
X797.587 Z17.792
X805.864 Z18.687
X811.001 Z19.237
X815.216 Z19.661
X817.399 Z19.867
X819.583 Z20.059
X821.934 Z20.252
X824.268 Z20.424
X826.455 Z20.567
X828.485 Z20.682
X830.982 Z20.802
X833.316 Z20.889
X835.583 Z20.949
X838.049 Z20.988
X840.419 Z20.997
X842.901 Z20.979
X845.366 Z20.935
X847.927 Z20.865
X850.759 Z20.763
X853.491 Z20.644
X856.276 Z20.505
X858.868 Z20.362
X861.785 Z20.19
X866.014 Z19.926
X879.306 Z19.058
X886.204 Z18.626
X893.292 Z18.223
X900.302 Z17.867
X905.177 Z17.646
X912.776 Z17.346
X918.91 Z17.141
X925.925 Z16.947
X933.132 Z16.784
X939.864 Z16.661
X950.01 Z16.515
G2 X950.078 Z16.53 I0.002 K0.15
G3 X950.144 Z16.545 I0.066 K-0.135
G1 X950.165 Y31.846
X950.186 Y31.851
X950.206 Y31.86 Z16.544
X950.223 Y31.873 Z16.543
X950.238 Y31.888 Z16.542
X950.25 Y31.905 Z16.541
X950.26 Y31.925 Z16.54
X950.265 Y31.945 Z16.538
X950.267 Y31.967 Z16.537
X950.265 Y31.988 Z16.535
X950.26 Y32.008 Z16.534
X950.25 Y32.028 Z16.532
X950.238 Y32.045 Z16.531
X950.223 Y32.06 Z16.53
X950.206 Y32.073 Z16.529
X950.186 Y32.082 Z16.528
X950.165 Y32.087
X950.144 Y32.089
G2 X950.078 Z16.512 I0. K-0.15
G3 X950.01 Z16.497 I-0.066 K0.135
G1 X940.812 Z16.627
X933.132 Z16.764
X925.546 Z16.936
X918.531 Z17.133
X912.307 Z17.343
X904.725 Z17.646
X899.777 Z17.873
X892.963 Z18.222
X886.045 Z18.618
X878.962 Z19.064
X866.412 Z19.888
X863.52 Z20.073
X861.369 Z20.205
X858.825 Z20.356
X856.235 Z20.5
X853.359 Z20.644
X850.343 Z20.774
X847.795 Z20.865
X845.235 Z20.935
X842.864 Z20.979
X840.516 Z20.998
X837.956 Z20.988
X835.491 Z20.949
X833.224 Z20.889
X830.984 Z20.806
X828.58 Z20.691
X826.383 Z20.566
X824.196 Z20.423
X821.862 Z20.251
X819.511 Z20.058
X817.365 Z19.869
X815.163 Z19.662
X810.985 Z19.241
X805.849 Z18.691
X797.572 Z17.796
X793.69 Z17.399
X789.453 Z17.
X786.157 Z16.725
X783.063 Z16.502
X780.686 Z16.356
X778.453 Z16.24
X776.386 Z16.152
X774.224 Z16.081
X772.138 Z16.033
X769.863 Z16.006
X767.566 Z16.005
X765.101 Z16.032
X762.541 Z16.087
X759.896 Z16.169
X757.174 Z16.276
X754.092 Z16.42
X749.826 Z16.648
X743.775 Z17.013
X729.739 Z17.905
X725.488 Z18.161
X720.13 Z18.467
X715.663 Z18.705
X711.824 Z18.897
X704.73 Z19.217
X698.377 Z19.475
X691.076 Z19.732
X682.637 Z19.987
X673.439 Z20.223
X663.767 Z20.435
X654.001 Z20.62
X652.657 Z20.642
G3 X652.593 Z20.658 I0.003 K0.15
G2 X652.527 Z20.673 I-0.066 K-0.135
G1 X652.5
G17 G2 Y32.334 I0. J0.122
G18 G3 X652.566 Z20.658 I0. K-0.15
G1 X652.593 Z20.644
G2 X652.657 Z20.629 I0.066 K0.135
G1 X652.816 Z20.627
X662.962 Z20.435
X672.634 Z20.224
X682.021 Z19.984
X690.46 Z19.731
X698.046 Z19.467
X704.778 Z19.194
X711.588 Z18.889
X715.523 Z18.693
X719.993 Z18.456
X725.557 Z18.14
X729.808 Z17.885
X743.678 Z17.007
X749.749 Z16.644
X753.999 Z16.418
X757.005 Z16.278
X759.805 Z16.168
X762.45 Z16.087
X765.01 Z16.032
X767.38 Z16.006
X769.746
X772.022 Z16.033
X774.108 Z16.08
X776.185 Z16.147
X778.242 Z16.233
X780.57 Z16.353
X783.132 Z16.511
X786.412 Z16.75
X789.522 Z17.011
X793.574 Z17.393
X797.456 Z17.789
X805.733 Z18.684
X810.87 Z19.235
X815.047 Z19.656
X817.249 Z19.864
X819.58 Z20.07
X821.746 Z20.246
X824.099 Z20.421
X826.434 Z20.574
X828.65 Z20.699
X831.055 Z20.812
X833.132 Z20.888
X835.398 Z20.949
X837.864 Z20.988
X840.234 Z20.997
X842.721 Z20.979
X845.186 Z20.934
X847.652 Z20.866
X850.2 Z20.775
X853.311 Z20.641
X855.921 Z20.509
X858.699 Z20.355
X861.428 Z20.193
X864.135 Z20.023
X867.027 Z19.837
X876.628 Z19.2
X884.99 Z18.665
X892.069 Z18.252
X898.682 Z17.907
X903.966 Z17.659
X911.667 Z17.346
X917.774 Z17.136
X924.977 Z16.931
X932.753 Z16.753
X941.002 Z16.606
X950.01 Z16.481
G2 X950.078 Z16.496 I0.002 K0.15
G3 X950.144 Z16.511 I0.066 K-0.135
G1 X950.165 Y32.336
X950.186 Y32.341
X950.205 Y32.35 Z16.51
X950.223 Y32.363 Z16.509
X950.238 Y32.378 Z16.508
X950.25 Y32.395 Z16.507
X950.259 Y32.415 Z16.506
X950.265 Y32.435 Z16.504
X950.267 Y32.457 Z16.503
X950.265 Y32.478 Z16.501
X950.259 Y32.498 Z16.5
X950.25 Y32.518 Z16.499
X950.238 Y32.535 Z16.497
X950.223 Y32.55 Z16.496
X950.205 Y32.563
X950.186 Y32.572 Z16.495
X950.165 Y32.577
X950.144 Y32.579
G2 X950.078 Z16.479 I0. K-0.15
G3 X950.01 Z16.464 I-0.066 K0.135
G1 X940.528 Z16.595
X931.994 Z16.749
X924.219 Z16.931
X917.208 Z17.135
X911.18 Z17.344
X903.607 Z17.655
X898.292 Z17.907
X891.686 Z18.255
X884.795 Z18.66
X877.119 Z19.154
X866.59 Z19.853
X863.532 Z20.051
X860.972 Z20.211
X858.429 Z20.362
X855.838 Z20.506
X853.134 Z20.643
X850.035 Z20.777
X847.475 Z20.869
X845.104 Z20.934
X842.639 Z20.979
X840.237 Z20.998
X837.771 Z20.988
X835.306 Z20.949
X833.045 Z20.888
X830.798 Z20.804
X828.564 Z20.698
X826.347 Z20.573
X824.012 Z20.419
X821.826 Z20.258
X819.475 Z20.065
X817.143 Z19.859
X815.127 Z19.669
X810.949 Z19.249
X805.628 Z18.678
X797.517 Z17.801
X793.654 Z17.405
X789.417 Z17.007
X786.306 Z16.746
X783.046 Z16.51
X780.464 Z16.351
X778.136 Z16.232
X775.984 Z16.142
X774.003 Z16.079
X771.916 Z16.032
X769.641 Z16.006
X767.289
X764.824 Z16.033
X762.359 Z16.086
X759.714 Z16.167
X756.913 Z16.277
X753.718 Z16.425
X749.099 Z16.672
X743.027 Z17.037
X729.675 Z17.876
X725.423 Z18.13
X719.689 Z18.453
X715.235 Z18.688
X711.183 Z18.888
X704.753 Z19.175
X698.223 Z19.44
X690.068 Z19.724
X681.345 Z19.983
X671.863 Z20.224
X662.096 Z20.437
X652.657 Z20.616
G3 X652.594 Z20.631 I0.003 K0.15
G2 X652.528 Z20.647 I-0.066 K-0.135
G1 X652.506 Y32.581 Z20.646
X652.486 Y32.586
X652.466 Y32.595
X652.449 Y32.608 Z20.645
X652.434 Y32.623 Z20.644
X652.421 Y32.64 Z20.643
X652.412 Y32.66 Z20.642
X652.407 Y32.68 Z20.641
X652.405 Y32.702 Z20.64
X652.407 Y32.723 Z20.639
X652.412 Y32.743 Z20.637
X652.421 Y32.763 Z20.636
X652.434 Y32.78 Z20.635
X652.449 Y32.795
X652.466 Y32.808 Z20.634
X652.486 Y32.817 Z20.633
X652.506 Y32.822
X652.528 Y32.824
G3 X652.594 Z20.618 I0. K-0.15
G2 X652.657 Z20.602 I0.066 K0.135
G1 X661.328 Z20.436
X671. Z20.225
X680.577 Z19.984
X689.68 Z19.715
X697.929 Z19.43
X704.838 Z19.15
X710.889 Z18.882
X715.133 Z18.673
X719.588 Z18.44
X725.324 Z18.119
X729.762 Z17.854
X743.115 Z17.019
X749.188 Z16.658
X753.625 Z16.423
X756.725 Z16.279
X759.536 Z16.17
X762.265 Z16.086
X764.731 Z16.033
X767.196 Z16.006
X769.619
X771.894 Z16.033
X774.075 Z16.083
X776.152 Z16.151
X778.304 Z16.243
X780.534 Z16.359
X782.929 Z16.506
X786.227 Z16.745
X789.338 Z17.005
X793.556 Z17.401
X797.419 Z17.796
X805.53 Z18.673
X810.852 Z19.244
X815.067 Z19.669
X817.065 Z19.857
X819.396 Z20.064
X821.747 Z20.256
X823.914 Z20.417
X826.25 Z20.571
X828.465 Z20.697
X830.7 Z20.802
X833.137 Z20.894
X835.308 Z20.951
X837.679 Z20.988
X840.144 Z20.998
X842.554 Z20.979
X845.019 Z20.934
X847.769 Z20.857
X849.925 Z20.777
X853.036 Z20.642
X855.645 Z20.509
X858.235 Z20.365
X860.964 Z20.202
X863.671 Z20.032
X867.86 Z19.759
X873.495 Z19.378
X883.71 Z18.71
X890.597 Z18.298
X897.022 Z17.952
X902.855 Z17.669
X910.535 Z17.349
X916.447 Z17.139
X923.555 Z16.929
X931.33 Z16.744
X939.959 Z16.585
X950.01 Z16.447
G2 X950.078 Z16.463 I0.002 K0.15
G3 X950.144 Z16.478 I0.066 K-0.135
G1 X950.165 Y32.826
X950.186 Y32.831 Z16.477
X950.205 Y32.84
X950.223 Y32.853 Z16.476
X950.238 Y32.868 Z16.475
X950.25 Y32.885 Z16.474
X950.259 Y32.905 Z16.472
X950.265 Y32.925 Z16.471
X950.267 Y32.947 Z16.47
X950.265 Y32.968 Z16.468
X950.259 Y32.988 Z16.467
X950.25 Y33.008 Z16.465
X950.238 Y33.025 Z16.464
X950.223 Y33.04 Z16.463
X950.205 Y33.053 Z16.462
X950.186 Y33.062
X950.165 Y33.067 Z16.461
X950.144 Y33.069
G2 X950.078 Z16.446 I0. K-0.15
G3 X950.01 Z16.431 I-0.066 K0.135
G1 X939.39 Z16.577
X930.572 Z16.741
X922.796 Z16.93
X915.978 Z17.135
X910.049 Z17.348
X902.576 Z17.663
X897.03 Z17.932
X890.606 Z18.28
X883.72 Z18.693
X873.875 Z19.338
X868.631 Z19.694
X863.904 Z20.007
X861.011 Z20.19
X858.116 Z20.364
X855.526 Z20.508
X852.918 Z20.641
X850.205 Z20.762
X847.67 Z20.856
X844.92 Z20.934
X842.455 Z20.979
X840.063 Z20.998
X837.598 Z20.988
X835.227 Z20.951
X832.961 Z20.89
X830.619 Z20.802
X828.103 Z20.68
X826.094 Z20.565
X823.925 Z20.422
X821.554 Z20.245
X819.368 Z20.067
X817.037 Z19.859
X815.059 Z19.673
X810.659 Z19.229
X805.541 Z18.68
X797.411 Z17.8
X793.548 Z17.405
X789.33 Z17.009
X786.219 Z16.749
X782.902 Z16.509
X780.506 Z16.361
X778.276 Z16.245
X776.124 Z16.153
X773.953 Z16.082
X771.772 Z16.033
X769.496 Z16.006
X767.102
X764.637 Z16.033
X762.077 Z16.088
X759.432 Z16.169
X756.699 Z16.275
X753.691 Z16.413
X749.417 Z16.636
X743.009 Z17.014
X729.636 Z17.845
X725.197 Z18.108
X719.646 Z18.417
X715.189 Z18.651
X710.755 Z18.868
X704.893 Z19.127
X697.984 Z19.406
X689.64 Z19.696
X680.158 Z19.976
X670.202 Z20.226
X660.435 Z20.438
X652.657 Z20.588
G3 X652.594 Z20.603 I0.003 K0.15
G2 X652.528 Z20.618 I-0.066 K-0.135
G1 X652.506 Y33.071
X652.486 Y33.076
X652.466 Y33.085 Z20.617
X652.449 Y33.098 Z20.616
X652.434 Y33.113 Z20.615
X652.421 Y33.13 Z20.614
X652.412 Y33.15 Z20.613
X652.407 Y33.17 Z20.612
X652.405 Y33.192 Z20.611
X652.407 Y33.213 Z20.609
X652.412 Y33.233 Z20.608
X652.421 Y33.253 Z20.607
X652.434 Y33.27 Z20.606
X652.449 Y33.285 Z20.605
X652.466 Y33.298 Z20.604
X652.486 Y33.307
X652.506 Y33.312 Z20.603
X652.528 Y33.314
G3 X652.594 Z20.588 I0. K-0.15
G2 X652.657 Z20.573 I0.066 K0.135
G1 X659.604 Z20.438
X669.276 Z20.228
X678.189 Z20.008
X685.111 Z19.813
X691.275 Z19.621
X698.102 Z19.38
X704.821 Z19.109
X710.398 Z18.864
X715.118 Z18.634
X719.577 Z18.402
X725.131 Z18.094
X729.57 Z17.833
X742.758 Z17.018
X749.001 Z16.65
X753.424 Z16.419
X756.51 Z16.278
X759.338 Z16.168
X761.983 Z16.088
X764.543 Z16.033
X767.008 Z16.006
X769.405
X771.68 Z16.033
X773.956 Z16.084
X776.128 Z16.156
X778.29 Z16.249
X780.519 Z16.366
X782.915 Z16.514
X786.028 Z16.739
X789.158 Z16.999
X793.376 Z17.394
X797.24 Z17.788
X805.554 Z18.687
X810.672 Z19.236
X814.887 Z19.661
X817.032 Z19.864
X819.197 Z20.057
X821.548 Z20.25
X823.901 Z20.425
X826.088 Z20.569
X828.098 Z20.684
X830.424 Z20.796
X832.955 Z20.893
X835.127 Z20.95
X837.497 Z20.988
X839.963 Z20.998
X842.34 Z20.979
X844.806 Z20.934
X847.461 Z20.859
X849.996 Z20.766
X852.727 Z20.644
X855.523 Z20.502
X858.111 Z20.356
X860.672 Z20.201
X863.193 Z20.042
X867.179 Z19.78
X871.886 Z19.46
X882.804 Z18.734
X889.725 Z18.313
X896.121 Z17.96
X902.018 Z17.669
X909.505 Z17.349
X915.22 Z17.141
X922.133 Z16.929
X929.908 Z16.737
X938.916 Z16.566
X950.01 Z16.414
G2 X950.078 Z16.429 I0.002 K0.15
G3 X950.144 Z16.445 I0.066 K-0.135
G1 X950.165 Y33.316
X950.186 Y33.321 Z16.444
X950.205 Y33.33
X950.223 Y33.343 Z16.443
X950.238 Y33.358 Z16.442
X950.25 Y33.375 Z16.441
X950.259 Y33.395 Z16.439
X950.265 Y33.415 Z16.438
X950.267 Y33.437 Z16.436
X950.265 Y33.458 Z16.435
X950.259 Y33.478 Z16.434
X950.25 Y33.498 Z16.432
X950.238 Y33.515 Z16.431
X950.223 Y33.53 Z16.43
X950.205 Y33.543 Z16.429
X950.186 Y33.552
X950.165 Y33.557 Z16.428
X950.144 Y33.559
G2 X950.078 Z16.413 I0. K-0.15
G3 X950.01 Z16.398 I-0.066 K0.135
G1 X938.726 Z16.552
X929.529 Z16.727
X921.564 Z16.926
X914.847 Z17.134
X909.046 Z17.348
X901.58 Z17.67
X895.97 Z17.95
X889.744 Z18.294
X882.842 Z18.715
X872.295 Z19.418
X868.848 Z19.655
X864.102 Z19.973
X860.616 Z20.196
X858.055 Z20.351
X855.299 Z20.507
X852.598 Z20.645
X849.678 Z20.773
X847.237 Z20.863
X844.677 Z20.934
X842.212 Z20.979
X839.97 Z20.998
X837.41 Z20.988
X835.039 Z20.95
X832.867 Z20.892
X830.446 Z20.801
X828.212 Z20.694
X826.016 Z20.568
X823.828 Z20.424
X821.476 Z20.248
X819.291 Z20.07
X816.922 Z19.859
X814.758 Z19.654
X810.543 Z19.227
X805.426 Z18.678
X797.296 Z17.799
X793.432 Z17.405
X789.195 Z17.007
X786.066 Z16.746
X782.786 Z16.509
X780.409 Z16.363
X778.103 Z16.243
X776.036 Z16.155
X773.865 Z16.084
X771.589 Z16.033
X769.313 Z16.006
X766.914
X764.448 Z16.033
X761.888 Z16.087
X759.242 Z16.167
X756.32 Z16.28
X753.327 Z16.417
X748.901 Z16.647
X742.657 Z17.012
X731.656 Z17.688
X727.053 Z17.966
X722.792 Z18.208
X717.806 Z18.477
X713.314 Z18.704
X709.338 Z18.892
X703.571 Z19.14
X697.421 Z19.384
X690.12 Z19.637
X683.008 Z19.854
X676.655 Z20.028
X668.311 Z20.232
X658.829 Z20.438
X652.657 Z20.558
G3 X652.594 Z20.573 I0.003 K0.15
G2 X652.528 Z20.588 I-0.066 K-0.135
G1 X652.506 Y33.561
X652.486 Y33.566
X652.466 Y33.575 Z20.587
X652.449 Y33.588
X652.434 Y33.603 Z20.586
X652.421 Y33.62 Z20.585
X652.412 Y33.64 Z20.583
X652.407 Y33.66 Z20.582
X652.405 Y33.682 Z20.581
X652.407 Y33.703 Z20.58
X652.412 Y33.723 Z20.578
X652.421 Y33.743 Z20.577
X652.434 Y33.76 Z20.576
X652.449 Y33.775 Z20.575
X652.466 Y33.788 Z20.574
X652.486 Y33.797
X652.506 Y33.802 Z20.573
X652.528 Y33.804
G3 X652.594 Z20.558 I0. K-0.15
G2 X652.657 Z20.543 I0.066 K0.135
G1 X657.984 Z20.438
X667.561 Z20.231
X677.232 Z19.994
X686.24 Z19.739
X694.3 Z19.475
X700.735 Z19.233
X708.493 Z18.909
X712.643 Z18.716
X717.142 Z18.492
X722.339 Z18.214
X726.769 Z17.965
X731.559 Z17.678
X740.557 Z17.128
X747.895 Z16.695
X752.859 Z16.432
X756.231 Z16.278
X759.051 Z16.17
X761.791 Z16.087
X764.351 Z16.033
X766.817 Z16.006
X769.214
X771.489 Z16.032
X773.765 Z16.083
X775.937 Z16.154
X778.004 Z16.242
X780.234 Z16.357
X782.778 Z16.513
X786.058 Z16.751
X789.168 Z17.01
X793.386 Z17.406
X797.25 Z17.8
X805.38 Z18.679
X810.497 Z19.228
X814.713 Z19.654
X816.857 Z19.858
X819.226 Z20.069
X821.373 Z20.245
X823.745 Z20.422
X825.913 Z20.566
X828.276 Z20.701
X830.438 Z20.804
X832.78 Z20.892
X834.951 Z20.95
X837.322 Z20.988
X839.787 Z20.998
X842.145 Z20.979
X844.515 Z20.936
X847.075 Z20.864
X849.516 Z20.775
X852.531 Z20.642
X855.324 Z20.499
X858.635 Z20.309
X861.917 Z20.104
X865.199 Z19.889
X870.277 Z19.545
X880.453 Z18.854
X887.555 Z18.406
X893.747 Z18.05
X900.462 Z17.703
X907.906 Z17.375
X912.69 Z17.19
X918.15 Z17.008
X924.124 Z16.839
X930.951 Z16.679
X939.011 Z16.531
X950.01 Z16.381
G2 X950.078 Z16.396 I0.002 K0.15
G3 X950.144 Z16.412 I0.066 K-0.135
G1 X950.165 Y33.806 Z16.411
X950.186 Y33.811
X950.205 Y33.82
X950.223 Y33.833 Z16.41
X950.238 Y33.848 Z16.409
X950.25 Y33.865 Z16.408
X950.259 Y33.885 Z16.407
X950.265 Y33.905 Z16.405
X950.267 Y33.927 Z16.404
X950.265 Y33.948 Z16.403
X950.259 Y33.968 Z16.402
X950.25 Y33.988 Z16.4
X950.238 Y34.005 Z16.399
X950.223 Y34.02 Z16.398
X950.205 Y34.033
X950.186 Y34.042 Z16.397
X950.165 Y34.047
X950.144 Y34.049
G2 X950.078 Z16.381 I0. K-0.15
G3 X950.01 Z16.366 I-0.066 K0.135
G1 X940.718 Z16.489
X933.89 Z16.603
X926.494 Z16.761
X919.572 Z16.946
X913.25 Z17.151
X907.823 Z17.358
X900.474 Z17.684
X894.3 Z18.002
X888.42 Z18.336
X881.54 Z18.767
X870.604 Z19.509
X865.73 Z19.842
X862.839 Z20.034
X860.466 Z20.187
X857.534 Z20.365
X855.153 Z20.501
X852.358 Z20.645
X849.532 Z20.77
X846.902 Z20.867
X844.437 Z20.935
X842.067 Z20.979
X839.699 Z20.998
X837.234 Z20.987
X834.863 Z20.949
X832.692 Z20.891
X830.446 Z20.807
X828.189 Z20.7
X825.827 Z20.564
X823.658 Z20.421
X821.287 Z20.243
X819.14 Z20.066
X816.771 Z19.855
X814.792 Z19.668
X810.577 Z19.242
X805.275 Z18.673
X797.145 Z17.794
X793.281 Z17.401
X789.063 Z17.006
X785.952 Z16.747
X782.673 Z16.51
X780.129 Z16.355
X777.914 Z16.241
X775.827 Z16.153
X773.656 Z16.083
X771.475 Z16.033
X769.105 Z16.006
X766.719
X764.254 Z16.033
X761.694 Z16.086
X758.954 Z16.169
X756.039 Z16.281
X752.95 Z16.421
X748.354 Z16.659
X741.942 Z17.032
X731.29 Z17.678
X726.332 Z17.973
X721.899 Z18.22
X716.904 Z18.484
X712.193 Z18.717
X707.871 Z18.916
X700.38 Z19.225
X693.756 Z19.473
X685.601 Z19.737
X676.498 Z19.993
X666.637 Z20.234
X657.155 Z20.439
X652.657 Z20.528
G3 X652.594 Z20.543 I0.003 K0.15
G2 X652.528 Z20.558 I-0.066 K-0.135
G1 X652.506 Y34.051
X652.486 Y34.056
X652.466 Y34.065 Z20.557
X652.449 Y34.078
X652.434 Y34.093 Z20.556
X652.421 Y34.11 Z20.555
X652.412 Y34.13 Z20.554
X652.407 Y34.15 Z20.552
X652.405 Y34.172 Z20.551
X652.407 Y34.193 Z20.55
X652.412 Y34.213 Z20.548
X652.421 Y34.233 Z20.547
X652.434 Y34.25 Z20.546
X652.449 Y34.265 Z20.545
X652.466 Y34.278
X652.486 Y34.287 Z20.544
X652.506 Y34.292
X652.528 Y34.294
G3 X652.594 Z20.528 I0. K-0.15
G2 X652.657 Z20.513 I0.066 K0.135
G1 X656.034 Z20.446
X665.895 Z20.233
X675.567 Z19.997
X684.67 Z19.744
X692.824 Z19.483
X699.082 Z19.254
X707.034 Z18.931
X711.831 Z18.714
X716.548 Z18.482
X721.771 Z18.208
X726.206 Z17.962
X730.998 Z17.679
X740.704 Z17.094
X747.694 Z16.687
X752.587 Z16.431
X755.941 Z16.279
X758.856 Z16.168
X761.597 Z16.086
X764.157 Z16.032
X766.622 Z16.006
X769.07
X771.345 Z16.033
X773.526 Z16.081
X775.707 Z16.152
X777.878 Z16.243
X780.091 Z16.357
X782.654 Z16.513
X785.933 Z16.751
X789.025 Z17.007
X793.243 Z17.402
X797.107 Z17.796
X805.237 Z18.674
X810.539 Z19.244
X814.569 Z19.651
X816.752 Z19.859
X819.102 Z20.068
X821.249 Z20.244
X823.602 Z20.421
X825.77 Z20.565
X827.965 Z20.691
X830.368 Z20.807
X832.604 Z20.891
X834.776 Z20.949
X837.241 Z20.989
X839.706 Z20.998
X841.957 Z20.979
X844.423 Z20.934
X847.172 Z20.855
X849.409 Z20.771
X852.317 Z20.641
X855.017 Z20.502
X857.397 Z20.366
X860.125 Z20.199
X862.664 Z20.036
X865.204 Z19.866
X870.096 Z19.532
X880.457 Z18.822
X887.354 Z18.383
X893.358 Z18.035
X899.801 Z17.697
X907.415 Z17.356
X912.77 Z17.149
X919.098 Z16.941
X925.925 Z16.757
X933.511 Z16.593
X941.476 Z16.461
X950.01 Z16.352
G2 X950.078 Z16.367 I0.002 K0.15
G3 X950.144 Z16.382 I0.066 K-0.135
G1 X950.165 Y34.296
X950.186 Y34.301
X950.205 Y34.31 Z16.381
X950.223 Y34.323
X950.238 Y34.338 Z16.38
X950.25 Y34.355 Z16.379
X950.259 Y34.375 Z16.378
X950.265 Y34.395 Z16.376
X950.267 Y34.417 Z16.375
X950.265 Y34.438 Z16.374
X950.259 Y34.458 Z16.373
X950.25 Y34.478 Z16.371
X950.238 Y34.495 Z16.37
X950.223 Y34.51
X950.205 Y34.523 Z16.369
X950.186 Y34.532 Z16.368
X950.165 Y34.537
X950.144 Y34.539
G2 X950.078 Z16.353 I0. K-0.15
G3 X950.01 Z16.337 I-0.066 K0.135
G1 X941.192 Z16.449
X932.942 Z16.587
X925.262 Z16.755
X918.34 Z16.946
X912.223 Z17.15
X906.903 Z17.358
X899.637 Z17.687
X893.548 Z18.006
X887.544 Z18.354
X880.647 Z18.793
X869.935 Z19.53
X864.967 Z19.871
X862.408 Z20.042
X859.869 Z20.206
X857.513 Z20.351
X854.759 Z20.508
X852.156 Z20.643
X849.539 Z20.762
X847.017 Z20.857
X844.362 Z20.933
X841.897 Z20.979
X839.532 Z20.998
X837.161 Z20.989
X834.696 Z20.949
X832.62 Z20.894
X830.365 Z20.81
X827.96 Z20.695
X825.765 Z20.568
X823.596 Z20.425
X821.225 Z20.247
X819.078 Z20.071
X816.709 Z19.86
X814.526 Z19.652
X810.33 Z19.227
X805.009 Z18.655
X797.064 Z17.797
X793.2 Z17.403
X788.982 Z17.009
X785.89 Z16.752
X782.61 Z16.515
X780.048 Z16.358
X777.741 Z16.24
X775.57 Z16.15
X773.389 Z16.08
X771.208 Z16.032
X768.932 Z16.006
X766.523
X763.963 Z16.034
X761.403 Z16.088
X758.757 Z16.167
X755.842 Z16.278
X752.581 Z16.424
X747.777 Z16.673
X740.972 Z17.066
X730.687 Z17.681
X725.913 Z17.961
X721.456 Z18.207
X716.436 Z18.468
X711.735 Z18.697
X707.127 Z18.906
X699.175 Z19.229
X692.348 Z19.478
X684.099 Z19.74
X674.806 Z19.997
X665.04 Z20.234
X654.42 Z20.463
X652.657 Z20.498
G3 X652.594 Z20.513 I0.003 K0.15
G2 X652.528 Z20.529 I-0.066 K-0.135
G1 X652.527
X652.506 Y34.541
X652.485 Y34.546 Z20.528
X652.466 Y34.555
X652.449 Y34.568 Z20.527
X652.433 Y34.583 Z20.526
X652.421 Y34.6 Z20.525
X652.412 Y34.62 Z20.524
X652.407 Y34.64 Z20.523
X652.405 Y34.661 Z20.521
X652.407 Y34.683 Z20.52
X652.412 Y34.703 Z20.519
X652.421 Y34.723 Z20.517
X652.433 Y34.74 Z20.516
X652.449 Y34.755
X652.466 Y34.768 Z20.515
X652.485 Y34.777 Z20.514
X652.506 Y34.782
X652.527 Y34.784
G3 X652.594 Z20.498 I0. K-0.15
G2 X652.657 Z20.483 I0.066 K0.135
G1 X653.044 Z20.476
X664.138 Z20.236
X674. Z19.997
X683.482 Z19.737
X692.016 Z19.468
X699.127 Z19.209
X706.131 Z18.927
X711.119 Z18.706
X715.92 Z18.474
X721.133 Z18.205
X725.592 Z17.961
X730.573 Z17.672
X739.969 Z17.112
X747.314 Z16.689
X752.305 Z16.43
X755.662 Z16.279
X758.561 Z16.17
X761.302 Z16.087
X763.957 Z16.032
X766.423 Z16.006
X768.8
X771.17 Z16.033
X773.351 Z16.081
X775.532 Z16.151
X777.703 Z16.242
X780.011 Z16.36
X782.592 Z16.518
X785.724 Z16.744
X788.835 Z17.001
X793.072 Z17.396
X796.917 Z17.787
X805.047 Z18.665
X810.368 Z19.236
X814.565 Z19.661
X816.728 Z19.867
X818.893 Z20.059
X821.225 Z20.252
X823.43 Z20.417
X825.765 Z20.573
X827.961 Z20.698
X830.195 Z20.805
X832.431 Z20.89
X834.602 Z20.948
X837.068 Z20.988
X839.628 Z20.998
X841.786 Z20.979
X844.251 Z20.933
X846.906 Z20.857
X849.333 Z20.766
X852.063 Z20.642
X854.647 Z20.508
X857.214 Z20.361
X859.755 Z20.204
X862.129 Z20.051
X865.372 Z19.833
X878.808 Z18.901
X885.908 Z18.438
X892.258 Z18.06
X898.855 Z17.706
X906.404 Z17.36
X911.645 Z17.152
X917.867 Z16.942
X924.598 Z16.754
X932.089 Z16.586
X940.433 Z16.444
X950.01 Z16.323
G2 X950.078 Z16.338 I0.002 K0.15
G3 X950.144 Z16.353 I0.066 K-0.135
G1 X950.165 Y34.786
X950.186 Y34.791
X950.205 Y34.8 Z16.352
X950.223 Y34.813
X950.238 Y34.828 Z16.351
X950.25 Y34.845 Z16.35
X950.259 Y34.865 Z16.349
X950.265 Y34.885 Z16.348
X950.267 Y34.906 Z16.346
X950.265 Y34.928 Z16.345
X950.259 Y34.948 Z16.344
X950.25 Y34.968 Z16.343
X950.238 Y34.985 Z16.342
X950.223 Y35. Z16.341
X950.205 Y35.013 Z16.34
X950.186 Y35.022 Z16.339
X950.165 Y35.027
X950.144 Y35.029
G2 X950.078 Z16.324 I0. K-0.15
G3 X950.01 Z16.308 I-0.066 K0.135
G1 X939.769 Z16.438
X931.33 Z16.584
X923.745 Z16.758
X917.204 Z16.944
X911.181 Z17.15
X905.944 Z17.361
X898.684 Z17.697
X892.275 Z18.041
X886.092 Z18.41
X878.992 Z18.873
X865.204 Z19.834
X862.313 Z20.029
X859.754 Z20.196
X857.213 Z20.353
X854.648 Z20.501
X851.951 Z20.642
X849.031 Z20.773
X846.699 Z20.86
X844.139 Z20.934
X841.674 Z20.979
X839.355 Z20.998
X836.984 Z20.988
X834.519 Z20.948
X832.348 Z20.889
X830.111 Z20.805
X827.877 Z20.697
X825.682 Z20.571
X823.347 Z20.415
X821.142 Z20.25
X818.81 Z20.057
X816.664 Z19.866
X814.481 Z19.658
X810.304 Z19.235
X804.983 Z18.663
X796.853 Z17.786
X793.008 Z17.395
X788.956 Z17.017
X785.845 Z16.758
X782.528 Z16.518
X779.946 Z16.361
X777.715 Z16.246
X775.534 Z16.154
X773.353 Z16.083
X771.077 Z16.033
X768.707 Z16.006
X766.322
X763.762 Z16.034
X761.202 Z16.087
X758.555 Z16.165
X755.561 Z16.278
X752.393 Z16.419
X747.768 Z16.654
X740.977 Z17.04
X730.297 Z17.672
X725.315 Z17.959
X720.872 Z18.2
X715.635 Z18.468
X710.944 Z18.693
X706.335 Z18.898
X699.236 Z19.183
X691.651 Z19.458
X682.738 Z19.737
X673.161 Z19.999
X663.299 Z20.237
X652.686 Z20.467
X652.657
G3 X652.591 Z20.483 I0.001 K0.15
G2 X652.525 Z20.498 I-0.066 K-0.135
G1 X652.504 Y35.031
X652.483 Y35.036 Z20.497
X652.464 Y35.045
X652.446 Y35.058 Z20.496
X652.431 Y35.073 Z20.495
X652.419 Y35.09 Z20.494
X652.41 Y35.11 Z20.492
X652.404 Y35.13 Z20.491
X652.402 Y35.151 Z20.49
X652.404 Y35.173 Z20.488
X652.41 Y35.193 Z20.487
X652.419 Y35.213 Z20.485
X652.431 Y35.23 Z20.484
X652.446 Y35.245 Z20.483
X652.464 Y35.258 Z20.482
X652.483 Y35.267
X652.504 Y35.272 Z20.481
X652.525 Y35.274
X652.528
G3 X652.594 Z20.466 I0. K-0.15
G2 X652.657 Z20.451 I0.066 K0.135
G1 X662.459 Z20.238
X672.32 Z20.
X682.087 Z19.735
X691.095 Z19.455
X698.965 Z19.171
X705.494 Z18.912
X710.483 Z18.693
X715.273 Z18.466
X720.533 Z18.199
X724.979 Z17.96
X731.08 Z17.61
X738.62 Z17.165
X746.9 Z16.692
X751.987 Z16.43
X755.46 Z16.276
X758.368 Z16.167
X761.006 Z16.089
X763.661 Z16.033
X766.221 Z16.006
X768.639
X771.009 Z16.033
X773.285 Z16.084
X775.466 Z16.154
X777.741 Z16.251
X779.973 Z16.366
X782.35 Z16.511
X785.649 Z16.748
X788.76 Z17.005
X792.997 Z17.4
X796.861 Z17.792
X804.991 Z18.669
X810.312 Z19.241
X814.508 Z19.666
X816.506 Z19.856
X818.855 Z20.066
X821.04 Z20.246
X823.412 Z20.424
X825.599 Z20.57
X827.794 Z20.696
X830.028 Z20.804
X832.264 Z20.889
X834.53 Z20.95
X836.901 Z20.988
X839.461 Z20.998
X841.627 Z20.979
X844.376 Z20.927
X846.462 Z20.865
X848.901 Z20.774
X851.808 Z20.643
X854.318 Z20.512
X857.051 Z20.355
X859.758 Z20.187
X861.945 Z20.043
X865.022 Z19.835
X877.568 Z18.956
X884.668 Z18.483
X891.013 Z18.096
X897.952 Z17.715
X905.491 Z17.361
X910.62 Z17.153
X916.64 Z16.944
X923.176 Z16.755
X930.572 Z16.583
X939.2 Z16.43
X950.01 Z16.294
G2 X950.078 Z16.309 I0.002 K0.15
G3 X950.144 Z16.325 I0.066 K-0.135
G1 X950.165 Y35.276
X950.186 Y35.281 Z16.324
X950.205 Y35.29
X950.223 Y35.303 Z16.323
X950.238 Y35.318 Z16.322
X950.25 Y35.335 Z16.321
X950.259 Y35.355 Z16.32
X950.265 Y35.375 Z16.319
X950.267 Y35.396 Z16.317
X950.265 Y35.418 Z16.316
X950.259 Y35.438 Z16.315
X950.25 Y35.458 Z16.314
X950.238 Y35.475 Z16.313
X950.223 Y35.49 Z16.312
X950.205 Y35.503 Z16.311
X950.186 Y35.512
X950.165 Y35.517 Z16.31
X950.144 Y35.519
G2 X950.078 Z16.295 I0. K-0.15
G3 X950.01 Z16.28 I-0.066 K0.135
G1 X938.631 Z16.423
X929.908 Z16.58
X922.417 Z16.757
X915.878 Z16.95
X910.07 Z17.155
X905.046 Z17.362
X897.797 Z17.705
X891.194 Z18.068
X884.997 Z18.445
X877.916 Z18.916
X865.185 Z19.813
X861.96 Z20.033
X859.421 Z20.199
X856.861 Z20.359
X854.315 Z20.506
X851.714 Z20.643
X848.712 Z20.777
X846.26 Z20.868
X844.269 Z20.927
X841.519 Z20.979
X839.188 Z20.998
X836.817 Z20.988
X834.447 Z20.95
X832.181 Z20.888
X830.116 Z20.811
X827.712 Z20.695
X825.517 Z20.569
X823.33 Z20.423
X820.977 Z20.246
X818.792 Z20.065
X816.443 Z19.855
X814.464 Z19.667
X810.249 Z19.24
X804.928 Z18.668
X796.983 Z17.81
X792.934 Z17.399
X788.716 Z17.006
X785.605 Z16.749
X782.306 Z16.513
X779.93 Z16.368
X777.625 Z16.249
X775.368 Z16.154
X773.187 Z16.083
X770.911 Z16.033
X768.54 Z16.006
X766.118
X763.557 Z16.033
X760.902 Z16.089
X758.161 Z16.17
X755.616 Z16.264
X752.143 Z16.416
X747.494 Z16.649
X740.511 Z17.042
X729.826 Z17.666
X724.672 Z17.959
X720.204 Z18.197
X714.976 Z18.46
X710.203 Z18.685
X704.058 Z18.95
X697.907 Z19.189
X690.132 Z19.465
X681.124 Z19.741
X671.452 Z20.002
X661.591 Z20.239
X652.657 Z20.434
G3 X652.594 Z20.45 I0.003 K0.15
G2 X652.528 Z20.465 I-0.066 K-0.135
G1 X652.507 Y35.521
X652.486 Y35.526 Z20.464
X652.467 Y35.535
X652.449 Y35.548 Z20.463
X652.434 Y35.563 Z20.462
X652.422 Y35.58 Z20.461
X652.413 Y35.6 Z20.459
X652.407 Y35.62 Z20.458
X652.405 Y35.641 Z20.457
X652.407 Y35.663 Z20.455
X652.413 Y35.683 Z20.454
X652.422 Y35.703 Z20.452
X652.434 Y35.72 Z20.451
X652.449 Y35.735 Z20.45
X652.467 Y35.748 Z20.449
X652.486 Y35.757
X652.507 Y35.762 Z20.448
X652.528 Y35.764
G3 X652.594 Z20.433 I0. K-0.15
G2 X652.657 Z20.418 I0.066 K0.135
G1 X660.728 Z20.24
X670.59 Z20.003
X680.261 Z19.745
X689.08 Z19.477
X696.57 Z19.216
X703.29 Z18.959
X709.056 Z18.715
X714.478 Z18.464
X719.712 Z18.203
X724.184 Z17.967
X729.527 Z17.666
X739.658 Z17.079
X746.846 Z16.675
X751.773 Z16.426
X755.133 Z16.278
X758.057 Z16.169
X760.799 Z16.088
X763.454 Z16.033
X766.014 Z16.006
X768.476
X770.846 Z16.033
X773.027 Z16.082
X775.208 Z16.151
X777.371 Z16.241
X779.698 Z16.359
X782.242 Z16.513
X785.54 Z16.749
X788.651 Z17.006
X792.87 Z17.398
X796.9 Z17.807
X804.845 Z18.665
X810.166 Z19.236
X814.381 Z19.664
X816.545 Z19.87
X818.709 Z20.063
X821.061 Z20.257
X823.266 Z20.422
X825.434 Z20.567
X827.629 Z20.694
X830.032 Z20.81
X832.098 Z20.888
X834.363 Z20.95
X836.734 Z20.988
X839.199 Z20.998
X841.445 Z20.979
X844.005 Z20.931
X846.469 Z20.858
X848.623 Z20.777
X851.638 Z20.641
X854.147 Z20.509
X856.879 Z20.35
X859.253 Z20.201
X861.83 Z20.032
X865.239 Z19.799
X876.506 Z19.
X883.42 Z18.531
X889.929 Z18.124
X897.061 Z17.724
X904.587 Z17.364
X909.596 Z17.155
X915.41 Z16.947
X921.848 Z16.755
X929.244 Z16.577
X938.252 Z16.413
X950.01 Z16.266
G2 X950.078 Z16.281 I0.002 K0.15
G3 X950.144 Z16.296 I0.066 K-0.135
G1 X950.168
G17 G3 Y36.009 I0. J0.122
G18 G2 X950.102 Z16.281 I0. K-0.15
G1 X950.078 Z16.269
G3 X950.01 Z16.253 I-0.066 K0.135
G1 X940.149 Z16.372
X933.89 Z16.472
X927.443 Z16.601
X920.9 Z16.764
X914.746 Z16.951
X909.016 Z17.16
X904.119 Z17.366
X896.864 Z17.716
X889.919 Z18.108
X883.392 Z18.516
X876.497 Z18.986
X865.212 Z19.79
X861.821 Z20.023
X859.059 Z20.205
X856.685 Z20.354
X854.14 Z20.503
X851.54 Z20.64
X849.019 Z20.757
X846.296 Z20.861
X843.831 Z20.932
X841.366 Z20.979
X839.021 Z20.998
X836.65 Z20.988
X834.28 Z20.95
X832.02 Z20.887
X829.785 Z20.802
X827.552 Z20.693
X825.357 Z20.566
X823.17 Z20.42
X820.984 Z20.256
X818.633 Z20.061
X816.449 Z19.866
X814.305 Z19.661
X810.089 Z19.234
X804.602 Z18.644
X796.842 Z17.806
X792.812 Z17.398
X788.612 Z17.008
X785.668 Z16.764
X782.369 Z16.526
X779.64 Z16.36
X777.218 Z16.237
X775.055 Z16.149
X772.969 Z16.082
X770.693 Z16.033
X768.323 Z16.006
X765.91
X763.35 Z16.033
X760.695 Z16.088
X757.953 Z16.168
X755.029 Z16.276
X751.574 Z16.428
X746.367 Z16.691
X737.726 Z17.177
X729.806 Z17.634
X724.069 Z17.955
X719.614 Z18.189
X714.167 Z18.458
X708.555 Z18.716
X702.693 Z18.961
X694.931 Z19.253
X688.104 Z19.486
X679.191 Z19.753
X669.519 Z20.01
X659.942 Z20.24
X652.657 Z20.401
G3 X652.594 Z20.416 I0.003 K0.15
G2 X652.528 Z20.432 I-0.066 K-0.135
G1 X652.507 Y36.011
X652.486 Y36.016 Z20.431
X652.467 Y36.025
X652.449 Y36.038 Z20.43
X652.434 Y36.053 Z20.429
X652.422 Y36.07 Z20.428
X652.413 Y36.09 Z20.426
X652.407 Y36.11 Z20.425
X652.405 Y36.131 Z20.424
X652.407 Y36.153 Z20.422
X652.413 Y36.173 Z20.421
X652.422 Y36.193 Z20.419
X652.434 Y36.21 Z20.418
X652.449 Y36.225 Z20.417
X652.467 Y36.238 Z20.416
X652.486 Y36.247
X652.507 Y36.252 Z20.415
X652.528 Y36.254
G3 X652.594 Z20.4 I0. K-0.15
G2 X652.657 Z20.385 I0.066 K0.135
G1 X659.076 Z20.241
X668.653 Z20.012
X678.704 Z19.746
X688.376 Z19.456
X696.91 Z19.159
X703.439 Z18.91
X708.258 Z18.707
X713.874 Z18.451
X719.307 Z18.185
X723.766 Z17.953
X729.859 Z17.614
X737.576 Z17.172
X746.072 Z16.697
X751.372 Z16.429
X754.842 Z16.278
X757.846 Z16.167
X760.588 Z16.087
X763.243 Z16.033
X765.803 Z16.006
X768.252
X770.623 Z16.033
X772.804 Z16.08
X774.985 Z16.149
X777.148 Z16.238
X779.57 Z16.36
X782.299 Z16.525
X785.598 Z16.764
X788.561 Z17.008
X792.761 Z17.398
X796.791 Z17.807
X804.551 Z18.644
X810.038 Z19.234
X814.253 Z19.661
X816.398 Z19.866
X818.6 Z20.063
X820.952 Z20.257
X823.138 Z20.421
X825.344 Z20.569
X827.5 Z20.694
X829.638 Z20.798
X831.969 Z20.888
X834.234 Z20.95
X836.605 Z20.989
X838.88 Z20.997
X841.244 Z20.979
X843.709 Z20.933
X846.079 Z20.864
X848.897 Z20.758
X851.437 Z20.64
X853.921 Z20.508
X856.653 Z20.349
X859.027 Z20.199
X861.214 Z20.054
X864.866 Z19.803
X875.595 Z19.036
X882.674 Z18.547
X889.201 Z18.134
X896.306 Z17.727
X903.649 Z17.369
X908.467 Z17.163
X914.187 Z16.952
X920.236 Z16.765
X927.063 Z16.592
X934.459 Z16.446
X941.855 Z16.335
X950.01 Z16.241
G2 X950.078 Z16.257 I0.002 K0.15
G3 X950.144 Z16.272 I0.066 K-0.135
G1 X950.168
G17 G3 Y36.499 I0. J0.122
G18 G2 X950.102 Z16.257 I0. K-0.15
G1 X950.078 Z16.245
G3 X950.01 Z16.229 I-0.066 K0.135
G1 X941.761 Z16.322
X933.796 Z16.442
X926.4 Z16.591
X919.762 Z16.761
X913.619 Z16.954
X908.007 Z17.164
X903.287 Z17.367
X896.14 Z17.719
X889.202 Z18.117
X882.657 Z18.533
X875.763 Z19.009
X864.868 Z19.792
X861.254 Z20.042
X859.067 Z20.188
X856.508 Z20.35
X853.777 Z20.51
X851.27 Z20.643
X848.826 Z20.757
X846.008 Z20.864
X843.543 Z20.934
X841.173 Z20.979
X838.859 Z20.998
X836.488 Z20.988
X834.117 Z20.949
X832.042 Z20.893
X829.534 Z20.796
X827.396 Z20.692
X825.222 Z20.565
X823.015 Z20.417
X820.829 Z20.252
X818.663 Z20.073
X816.276 Z19.859
X814.112 Z19.652
X810.082 Z19.244
X804.576 Z18.652
X796.65 Z17.798
X792.786 Z17.406
X788.567 Z17.014
X785.604 Z16.77
X782.287 Z16.529
X779.538 Z16.362
X777.211 Z16.244
X774.953 Z16.151
X772.772 Z16.082
X770.496 Z16.032
X768.126 Z16.006
X765.696
X763.136 Z16.033
X760.481 Z16.087
X757.644 Z16.169
X754.829 Z16.272
X751.454 Z16.418
X746.704 Z16.652
X739.32 Z17.059
X728.787 Z17.657
X723.436 Z17.952
X718.974 Z18.182
X713.345 Z18.455
X707.919 Z18.7
X702.531 Z18.924
X694.105 Z19.238
X686.709 Z19.486
X677.511 Z19.757
X667.745 Z20.014
X657.978 Z20.248
X652.657 Z20.368
G3 X652.594 Z20.383 I0.003 K0.15
G2 X652.528 Z20.399 I-0.066 K-0.135
G1 X652.507 Y36.501
X652.486 Y36.506 Z20.398
X652.467 Y36.515
X652.449 Y36.528 Z20.397
X652.434 Y36.543 Z20.396
X652.422 Y36.56 Z20.395
X652.413 Y36.58 Z20.393
X652.407 Y36.6 Z20.392
X652.405 Y36.621 Z20.39
X652.407 Y36.643 Z20.389
X652.413 Y36.663 Z20.388
X652.422 Y36.683 Z20.386
X652.434 Y36.7 Z20.385
X652.449 Y36.715 Z20.384
X652.467 Y36.728 Z20.383
X652.486 Y36.737
X652.507 Y36.742 Z20.382
X652.528 Y36.744
G3 X652.594 Z20.367 I0. K-0.15
G2 X652.657 Z20.352 I0.066 K0.135
G1 X656.998 Z20.253
X666.859 Z20.016
X676.72 Z19.758
X685.728 Z19.494
X692.745 Z19.262
X701.374 Z18.948
X707.318 Z18.705
X712.953 Z18.453
X718.493 Z18.187
X722.98 Z17.957
X729.248 Z17.615
X737.009 Z17.176
X745.66 Z16.698
X750.853 Z16.438
X754.437 Z16.282
X757.441 Z16.171
X760.279 Z16.089
X763.029 Z16.032
X765.589 Z16.006
X768.091
X770.462 Z16.033
X772.738 Z16.083
X774.919 Z16.153
X777.176 Z16.246
X779.504 Z16.365
X782.086 Z16.521
X785.404 Z16.759
X788.534 Z17.017
X792.752 Z17.408
X796.616 Z17.8
X804.543 Z18.654
X809.864 Z19.226
X814.078 Z19.654
X816.261 Z19.863
X818.444 Z20.059
X820.777 Z20.252
X822.963 Z20.417
X825.169 Z20.565
X827.363 Z20.693
X829.556 Z20.8
X831.962 Z20.893
X834.038 Z20.949
X836.409 Z20.988
X838.779 Z20.998
X841.094 Z20.979
X843.749 Z20.928
X845.834 Z20.866
X848.651 Z20.76
X851.19 Z20.641
X853.788 Z20.503
X856.165 Z20.363
X858.891 Z20.19
X861.449 Z20.019
X864.877 Z19.781
X874.845 Z19.061
X881.906 Z18.567
X888.655 Z18.133
X895.588 Z17.731
X902.82 Z17.371
X907.634 Z17.161
X913.058 Z16.956
X919.004 Z16.766
X925.641 Z16.592
X932.942 Z16.442
X941.097 Z16.317
X950.01 Z16.217
G2 X950.078 Z16.232 I0.002 K0.15
G3 X950.144 Z16.248 I0.066 K-0.135
G1 X950.168
G17 G3 Y36.989 I0. J0.122
G18 G2 X950.102 Z16.232 I0. K-0.15
G1 X950.078 Z16.22
G3 X950.01 Z16.205 I-0.066 K0.135
G1 X940.433 Z16.312
X932.278 Z16.439
X924.977 Z16.592
X918.529 Z16.763
X912.587 Z16.955
X907.095 Z17.165
X902.457 Z17.369
X895.231 Z17.732
X888.097 Z18.15
X881.201 Z18.599
X874.345 Z19.084
X864.506 Z19.796
X861.411 Z20.012
X858.705 Z20.194
X855.96 Z20.368
X853.582 Z20.508
X851.077 Z20.642
X848.633 Z20.756
X845.721 Z20.867
X843.636 Z20.929
X841.076 Z20.978
X838.7 Z20.998
X836.329 Z20.988
X833.959 Z20.949
X831.883 Z20.892
X829.647 Z20.808
X827.412 Z20.7
X825.218 Z20.572
X823.012 Z20.425
X820.64 Z20.246
X818.493 Z20.068
X816.125 Z19.855
X814.108 Z19.662
X809.893 Z19.234
X804.572 Z18.662
X796.627 Z17.806
X792.578 Z17.397
X788.359 Z17.007
X785.229 Z16.75
X781.95 Z16.517
X779.367 Z16.361
X777.039 Z16.244
X774.877 Z16.154
X772.601 Z16.082
X770.325 Z16.033
X767.955 Z16.006
X765.48
X762.92 Z16.032
X760.17 Z16.088
X757.333 Z16.17
X754.313 Z16.281
X751.203 Z16.414
X746.467 Z16.645
X738.908 Z17.056
X728.591 Z17.634
X722.841 Z17.946
X718.352 Z18.174
X712.542 Z18.451
X706.829 Z18.704
X702.008 Z18.901
X693.298 Z19.22
X685.428 Z19.481
X675.946 Z19.757
X665.99 Z20.018
X656.034 Z20.257
X652.657 Z20.335
G3 X652.594 Z20.35 I0.003 K0.15
G2 X652.528 Z20.366 I-0.066 K-0.135
G1 X652.507 Y36.991
X652.486 Y36.996 Z20.365
X652.467 Y37.005 Z20.364
X652.449 Y37.018
X652.434 Y37.033 Z20.362
X652.422 Y37.05 Z20.361
X652.413 Y37.07 Z20.36
X652.407 Y37.09 Z20.358
X652.405 Y37.111 Z20.357
X652.407 Y37.133 Z20.355
X652.413 Y37.153 Z20.354
X652.422 Y37.173 Z20.352
X652.434 Y37.19 Z20.351
X652.449 Y37.205 Z20.35
X652.467 Y37.218 Z20.349
X652.486 Y37.227 Z20.348
X652.507 Y37.232
X652.528 Y37.234
G3 X652.594 Z20.333 I0. K-0.15
G2 X652.657 Z20.317 I0.066 K0.135
G1 X655.368 Z20.254
X664.945 Z20.024
X674.996 Z19.762
X684.573 Z19.485
X692.349 Z19.231
X701.167 Z18.911
X706.461 Z18.697
X712.193 Z18.446
X717.838 Z18.179
X722.521 Z17.944
X728.088 Z17.644
X736.212 Z17.193
X745.242 Z16.699
X750.63 Z16.433
X754.201 Z16.279
X757.221 Z16.169
X760.059 Z16.088
X762.714 Z16.034
X765.369 Z16.006
X767.831
X770.202 Z16.032
X772.572 Z16.084
X774.753 Z16.153
X777.011 Z16.246
X779.339 Z16.364
X781.903 Z16.518
X785.182 Z16.752
X788.312 Z17.008
X792.531 Z17.398
X796.58 Z17.807
X804.525 Z18.663
X809.846 Z19.235
X814.043 Z19.661
X816.244 Z19.871
X818.427 Z20.067
X820.575 Z20.245
X822.946 Z20.425
X825.133 Z20.571
X827.327 Z20.698
X829.559 Z20.806
X831.804 Z20.892
X833.879 Z20.949
X836.25 Z20.988
X838.62 Z20.998
X840.944 Z20.979
X843.599 Z20.928
X845.968 Z20.856
X848.513 Z20.757
X850.956 Z20.642
X853.553 Z20.503
X856.116 Z20.351
X858.489 Z20.2
X861.214 Z20.016
X864.494 Z19.787
X874.537 Z19.055
X881.393 Z18.57
X888.123 Z18.132
X895.052 Z17.724
X902.083 Z17.369
X906.701 Z17.164
X912.098 Z16.955
X917.866 Z16.766
X924.219 Z16.594
X931.425 Z16.44
X939.674 Z16.308
X950.01 Z16.193
G2 X950.078 Z16.208 I0.002 K0.15
G3 X950.144 Z16.224 I0.066 K-0.135
G1 X950.168
G17 G3 Y37.479 I0. J0.123
G18 G2 X950.102 Z16.208 I0. K-0.15
G1 X950.078 Z16.196
G3 X950.01 Z16.181 I-0.066 K0.135
G1 X938.916 Z16.305
X930.667 Z16.44
X923.555 Z16.595
X917.298 Z16.766
X911.545 Z16.958
X906.153 Z17.169
X901.54 Z17.377
X894.519 Z17.736
X887.389 Z18.161
X880.66 Z18.605
X873.786 Z19.097
X864.337 Z19.787
X860.89 Z20.029
X858.351 Z20.2
X855.977 Z20.352
X853.415 Z20.505
X851.008 Z20.635
X848.377 Z20.759
X845.736 Z20.86
X843.367 Z20.931
X840.902 Z20.978
X838.73 Z20.998
X836.17 Z20.988
X833.8 Z20.948
X831.724 Z20.892
X829.49 Z20.806
X827.259 Z20.698
X825.065 Z20.57
X822.878 Z20.424
X820.507 Z20.244
X818.36 Z20.065
X816.01 Z19.854
X813.994 Z19.661
X809.816 Z19.237
X804.477 Z18.663
X796.531 Z17.808
X792.501 Z17.401
X788.282 Z17.011
X785.152 Z16.755
X781.872 Z16.521
X779.309 Z16.366
X776.983 Z16.248
X774.743 Z16.156
X772.467 Z16.083
X770.192 Z16.034
X767.726 Z16.006
X765.259 Z16.005
X762.604 Z16.034
X759.949 Z16.087
X757.11 Z16.168
X753.996 Z16.281
X750.348 Z16.437
X744.959 Z16.704
X735.923 Z17.195
X727.982 Z17.633
X722.037 Z17.95
X717.368 Z18.182
X711.472 Z18.457
X705.438 Z18.718
X699.385 Z18.957
X690.187 Z19.281
X683.266 Z19.502
X674.068 Z19.765
X664.112 Z20.025
X653.302 Z20.285
X652.657 Z20.299
G3 X652.594 Z20.315 I0.003 K0.15
G2 X652.528 Z20.33 I-0.066 K-0.135
G1 X652.526
X652.504 Y37.481
X652.484 Y37.486 Z20.329
X652.464 Y37.495
X652.447 Y37.508 Z20.328
X652.432 Y37.523 Z20.327
X652.419 Y37.54 Z20.325
X652.41 Y37.56 Z20.324
X652.405 Y37.58 Z20.322
X652.403 Y37.601 Z20.321
X652.405 Y37.623 Z20.319
X652.41 Y37.643 Z20.318
X652.419 Y37.663 Z20.316
X652.432 Y37.68 Z20.315
X652.447 Y37.695 Z20.314
X652.464 Y37.708 Z20.313
X652.484 Y37.717 Z20.312
X652.504 Y37.722
X652.526 Y37.724
G3 X652.592 Z20.297 I0. K-0.15
G2 X652.657 Z20.281 I0.066 K0.135
G1 X652.696
X663.293 Z20.025
X673.344 Z19.763
X682.92 Z19.49
X690.601 Z19.244
X699.704 Z18.923
X704.43 Z18.737
X710.733 Z18.469
X717.2 Z18.17
X721.891 Z17.938
X727.466 Z17.643
X735.618 Z17.197
X744.844 Z16.699
X750.236 Z16.435
X753.884 Z16.279
X756.904 Z16.17
X759.742 Z16.089
X762.492 Z16.033
X765.147 Z16.005
X767.647 Z16.006
X770.017 Z16.033
X772.388 Z16.084
X774.569 Z16.153
X776.732 Z16.241
X779.062 Z16.357
X781.793 Z16.521
X785.073 Z16.754
X788.203 Z17.009
X792.422 Z17.399
X796.452 Z17.805
X804.398 Z18.66
X809.738 Z19.234
X813.915 Z19.659
X816.116 Z19.869
X818.281 Z20.063
X820.447 Z20.244
X822.818 Z20.423
X824.987 Z20.569
X827.18 Z20.697
X829.411 Z20.805
X831.645 Z20.891
X833.72 Z20.948
X836.091 Z20.988
X838.461 Z20.998
X840.743 Z20.979
X843.113 Z20.934
X845.483 Z20.865
X848.313 Z20.757
X850.848 Z20.637
X853.238 Z20.508
X855.801 Z20.356
X858.36 Z20.192
X861.641 Z19.969
X865.791 Z19.67
X871.59 Z19.242
X880.298 Z18.615
X887.194 Z18.157
X894.303 Z17.731
X901.34 Z17.369
X905.855 Z17.164
X911.165 Z16.954
X916.729 Z16.767
X922.986 Z16.593
X930.003 Z16.438
X938.631 Z16.296
X950.01 Z16.17
G2 X950.078 Z16.186 I0.002 K0.15
G3 X950.144 Z16.201 I0.066 K-0.135
G1 X950.163
G17 G3 Y37.969 I0. J0.122
G18 G2 X950.097 Z16.186 I0. K-0.15
G1 X950.078 Z16.176
G3 X950.01 Z16.161 I-0.066 K0.135
G1 X939.485 Z16.272
X930.477 Z16.413
X922.607 Z16.586
X916.255 Z16.765
X910.528 Z16.961
X905.239 Z17.173
X900.786 Z17.378
X893.797 Z17.743
X886.856 Z18.162
X880.127 Z18.611
X871.067 Z19.268
X865.787 Z19.66
X861.599 Z19.962
X858.319 Z20.186
X855.593 Z20.361
X853.217 Z20.503
X850.622 Z20.643
X848.182 Z20.759
X845.446 Z20.864
X843.077 Z20.933
X840.707 Z20.979
X838.48 Z20.998
X836.015 Z20.988
X833.739 Z20.95
X831.569 Z20.891
X829.24 Z20.8
X827.123 Z20.697
X824.911 Z20.568
X822.742 Z20.422
X820.538 Z20.256
X818.187 Z20.06
X816.022 Z19.865
X813.821 Z19.654
X809.644 Z19.229
X804.304 Z18.655
X796.358 Z17.801
X792.347 Z17.397
X788.109 Z17.007
X785.164 Z16.766
X781.885 Z16.531
X779.155 Z16.366
X776.732 Z16.244
X774.569 Z16.156
X772.293 Z16.084
X769.923 Z16.033
X767.552 Z16.006
X765.032 Z16.005
X762.377 Z16.033
X759.628 Z16.088
X756.789 Z16.169
X753.674 Z16.281
X750.121 Z16.432
X744.726 Z16.694
X735.307 Z17.2
X727.318 Z17.634
X721.383 Z17.945
X716.874 Z18.166
X710.121 Z18.475
X703.896 Z18.737
X697.747 Z18.972
X688.075 Z19.305
X681.248 Z19.517
X672.145 Z19.774
X662.378 Z20.028
X652.657 Z20.263
G3 X652.594 Z20.279 I0.004 K0.15
G2 X652.528 Z20.294 I-0.066 K-0.135
G1 X652.507 Y37.971
X652.486 Y37.976 Z20.293
X652.467 Y37.985
X652.449 Y37.998 Z20.292
X652.434 Y38.013 Z20.291
X652.422 Y38.03 Z20.289
X652.413 Y38.05 Z20.288
X652.407 Y38.07 Z20.286
X652.405 Y38.091 Z20.285
X652.407 Y38.113 Z20.283
X652.413 Y38.133 Z20.282
X652.422 Y38.153 Z20.28
X652.434 Y38.17 Z20.279
X652.449 Y38.185 Z20.278
X652.467 Y38.198 Z20.277
X652.486 Y38.207 Z20.276
X652.507 Y38.212
X652.528 Y38.214
G3 X652.594 Z20.261 I0. K-0.15
G2 X652.657 Z20.245 I0.066 K0.135
G1 X661.555 Z20.028
X671.322 Z19.775
X681.467 Z19.489
X689.527 Z19.234
X699.009 Z18.904
X703.628 Z18.725
X709.569 Z18.477
X716.265 Z18.174
X721.044 Z17.942
X726.816 Z17.643
X734.811 Z17.212
X744.233 Z16.709
X749.82 Z16.437
X753.563 Z16.279
X756.674 Z16.168
X759.513 Z16.088
X762.263 Z16.033
X764.918 Z16.005
X767.382 Z16.006
X769.848 Z16.033
X772.123 Z16.082
X774.399 Z16.153
X776.657 Z16.245
X779.08 Z16.367
X781.81 Z16.531
X785.128 Z16.769
X788.054 Z17.008
X792.291 Z17.398
X796.303 Z17.801
X804.064 Z18.635
X809.588 Z19.229
X813.803 Z19.658
X816.004 Z19.868
X818.169 Z20.063
X820.354 Z20.245
X822.54 Z20.411
X824.875 Z20.569
X827.087 Z20.698
X829.259 Z20.804
X831.493 Z20.89
X833.663 Z20.95
X835.939 Z20.987
X838.309 Z20.998
X840.583 Z20.979
X842.953 Z20.934
X845.324 Z20.865
X848.058 Z20.76
X850.592 Z20.64
X853. Z20.509
X855.563 Z20.356
X858.122 Z20.191
X860.661 Z20.017
X862.681 Z19.874
X866.108 Z19.625
X869.758 Z19.352
X879.559 Z18.636
X886.454 Z18.171
X893.599 Z17.737
X900.603 Z17.369
X904.94 Z17.169
X910.054 Z16.961
X915.594 Z16.77
X921.659 Z16.595
X928.201 Z16.445
X935.408 Z16.317
X942.045 Z16.23
X950.01 Z16.151
G2 X950.077 Z16.166 I0.002 K0.15
G3 X950.143 Z16.182 I0.066 K-0.135
G1 X950.163
G17 G3 Y38.459 I0. J0.122
G18 G2 X950.097 Z16.166 I0. K-0.15
G1 X950.077 Z16.157
G3 X950.01 Z16.141 I-0.066 K0.135
G1 X942.329 Z16.215
X934.744 Z16.314
X927.537 Z16.444
X920.995 Z16.597
X915.027 Z16.771
X909.59 Z16.962
X904.389 Z17.176
X900.037 Z17.38
X893.246 Z17.74
X886.307 Z18.165
X879.412 Z18.631
X869.24 Z19.378
X865.628 Z19.649
X862.738 Z19.86
X860.552 Z20.016
X857.827 Z20.202
X855.473 Z20.355
X852.911 Z20.508
X850.503 Z20.639
X847.969 Z20.759
X845.234 Z20.865
X843.15 Z20.928
X840.59 Z20.978
X838.423 Z20.998
X835.958 Z20.989
X833.587 Z20.95
X831.417 Z20.89
X829.194 Z20.804
X827.151 Z20.706
X824.772 Z20.566
X822.604 Z20.42
X820.418 Z20.255
X818.048 Z20.057
X815.883 Z19.862
X813.701 Z19.653
X809.671 Z19.243
X803.962 Z18.629
X796.385 Z17.815
X792.355 Z17.409
X788.118 Z17.019
X785.192 Z16.779
X782.06 Z16.551
X779.107 Z16.372
X776.589 Z16.246
X774.331 Z16.154
X772.056 Z16.083
X769.685 Z16.032
X767.315 Z16.006
X764.803 Z16.005
X762.148 Z16.033
X759.398 Z16.087
X756.464 Z16.17
X753.367 Z16.281
X749.705 Z16.434
X744.114 Z16.704
X734.518 Z17.213
X726.518 Z17.641
X720.741 Z17.938
X716.052 Z18.164
X709.562 Z18.456
X703.524 Z18.707
X698.417 Z18.903
X688.745 Z19.236
X680.59 Z19.492
X670.35 Z19.779
X660.488 Z20.035
X652.657 Z20.227
G3 X652.594 Z20.243 I0.004 K0.15
G2 X652.528 Z20.258 I-0.066 K-0.135
G1 X652.507 Y38.461
X652.486 Y38.466 Z20.257
X652.467 Y38.475
X652.449 Y38.488 Z20.256
X652.434 Y38.503 Z20.255
X652.422 Y38.52 Z20.253
X652.413 Y38.54 Z20.252
X652.407 Y38.56 Z20.251
X652.405 Y38.581 Z20.249
X652.407 Y38.603 Z20.247
X652.413 Y38.623 Z20.246
X652.422 Y38.643 Z20.245
X652.434 Y38.66 Z20.243
X652.449 Y38.675 Z20.242
X652.467 Y38.688 Z20.241
X652.486 Y38.697
X652.507 Y38.702 Z20.24
X652.528 Y38.704
G3 X652.594 Z20.225 I0. K-0.15
G2 X652.657 Z20.209 I0.066 K0.135
G1 X659.097 Z20.05
X669.243 Z19.788
X679.389 Z19.504
X686.975 Z19.27
X696.931 Z18.934
X702.702 Z18.717
X709.12 Z18.453
X715.61 Z18.164
X720.397 Z17.936
X726.18 Z17.641
X734.018 Z17.225
X743.823 Z16.708
X749.397 Z16.44
X753.154 Z16.282
X756.347 Z16.169
X759.281 Z16.087
X762.031 Z16.033
X764.686 Z16.005
X767.24 Z16.006
X769.611 Z16.033
X771.981 Z16.083
X774.257 Z16.154
X776.61 Z16.25
X779.05 Z16.374
X782.004 Z16.552
X785.136 Z16.78
X788.062 Z17.019
X792.28 Z17.408
X796.311 Z17.813
X803.887 Z18.627
X809.596 Z19.24
X813.811 Z19.669
X815.809 Z19.86
X817.973 Z20.055
X820.343 Z20.253
X822.529 Z20.418
X824.697 Z20.565
X827.076 Z20.705
X829.289 Z20.812
X831.342 Z20.89
X833.512 Z20.95
X835.787 Z20.987
X838.158 Z20.998
X840.504 Z20.978
X843.064 Z20.928
X845.43 Z20.856
X847.865 Z20.76
X850.493 Z20.635
X852.898 Z20.503
X855.273 Z20.36
X857.627 Z20.207
X860. Z20.045
X862.372 Z19.877
X865.614 Z19.639
X869.411 Z19.353
X879.397 Z18.618
X886.106 Z18.162
X893.025 Z17.736
X899.851 Z17.372
X904.011 Z17.175
X909.116 Z16.964
X914.558 Z16.77
X920.426 Z16.597
X926.779 Z16.445
X933.985 Z16.313
X941.855 Z16.208
X950.01 Z16.132
G2 X950.077 Z16.147 I0.001 K0.15
G3 X950.143 Z16.162 I0.066 K-0.135
G1 X950.163
G17 G3 Y38.949 I0. J0.123
G18 G2 X950.097 Z16.147 I0. K-0.15
G1 X950.077 Z16.137
G3 X950.01 Z16.122 I-0.066 K0.135
G1 X941.192 Z16.205
X933.227 Z16.312
X926.115 Z16.445
X919.762 Z16.599
X914.078 Z16.77
X908.73 Z16.962
X903.61 Z17.176
X899.265 Z17.384
X892.651 Z17.74
X885.695 Z18.172
X878.82 Z18.644
X868.444 Z19.414
X865.351 Z19.648
X862.275 Z19.874
X859.532 Z20.069
X857.531 Z20.206
X855.176 Z20.359
X852.801 Z20.502
X850.397 Z20.635
X847.771 Z20.76
X845.335 Z20.856
X842.969 Z20.928
X840.409 Z20.979
X838.082 Z20.998
X835.806 Z20.989
X833.436 Z20.95
X831.266 Z20.889
X829.214 Z20.811
X827.001 Z20.704
X824.641 Z20.565
X822.454 Z20.417
X820.268 Z20.251
X818.083 Z20.069
X815.715 Z19.856
X813.717 Z19.664
X809.502 Z19.236
X803.442 Z18.584
X796.235 Z17.811
X792.205 Z17.406
X787.801 Z17.003
X784.69 Z16.751
X781.391 Z16.519
X778.826 Z16.366
X776.575 Z16.253
X774.222 Z16.156
X771.851 Z16.082
X769.481 Z16.032
X767.11 Z16.006
X764.567 Z16.005
X761.912 Z16.032
X759.067 Z16.089
X756.133 Z16.171
X753.034 Z16.281
X749.182 Z16.441
X743.495 Z16.713
X733.664 Z17.229
X725.82 Z17.641
X720.012 Z17.935
X715.222 Z18.161
X708.258 Z18.468
X702.125 Z18.717
X697.219 Z18.901
X687.263 Z19.238
X678.918 Z19.496
X668.393 Z19.789
X657.773 Z20.064
X652.657 Z20.191
G3 X652.594 Z20.207 I0.004 K0.15
G2 X652.528 Z20.222 I-0.066 K-0.135
G1 X652.507 Y38.951
X652.486 Y38.956
X652.467 Y38.965 Z20.221
X652.449 Y38.978 Z20.22
X652.434 Y38.993 Z20.219
X652.422 Y39.01 Z20.218
X652.413 Y39.03 Z20.216
X652.407 Y39.05 Z20.215
X652.405 Y39.071 Z20.213
X652.407 Y39.093 Z20.211
X652.413 Y39.113 Z20.21
X652.422 Y39.133 Z20.208
X652.434 Y39.15 Z20.207
X652.449 Y39.165 Z20.206
X652.467 Y39.178 Z20.205
X652.486 Y39.187 Z20.204
X652.507 Y39.192
X652.528 Y39.194
G3 X652.594 Z20.189 I0. K-0.15
G2 X652.657 Z20.173 I0.066 K0.135
G1 X656.574 Z20.074
X667.479 Z19.792
X678.004 Z19.499
X686.632 Z19.235
X696.778 Z18.894
X702.158 Z18.693
X708.197 Z18.448
X714.876 Z18.157
X719.669 Z17.932
X725.295 Z17.65
X733.127 Z17.242
X743.358 Z16.709
X749.049 Z16.439
X752.807 Z16.283
X756.014 Z16.17
X758.949 Z16.088
X761.793 Z16.032
X764.448 Z16.005
X766.978 Z16.006
X769.443 Z16.033
X771.813 Z16.084
X774.089 Z16.155
X776.365 Z16.247
X778.677 Z16.363
X781.427 Z16.526
X784.727 Z16.759
X787.838 Z17.011
X792.057 Z17.398
X796.087 Z17.802
X803.294 Z18.574
X809.373 Z19.227
X813.588 Z19.656
X815.77 Z19.866
X817.953 Z20.062
X820.119 Z20.243
X822.305 Z20.41
X824.659 Z20.57
X826.852 Z20.699
X829.061 Z20.807
X831.284 Z20.892
X833.359 Z20.949
X835.729 Z20.989
X838.005 Z20.998
X840.309 Z20.979
X842.869 Z20.929
X845.235 Z20.856
X847.671 Z20.76
X850.107 Z20.644
X852.68 Z20.503
X855.241 Z20.348
X857.595 Z20.194
X860.134 Z20.018
X863.414 Z19.782
X867.416 Z19.481
X878.494 Z18.653
X885.369 Z18.178
X892.305 Z17.744
X899.082 Z17.376
X903.333 Z17.172
X908.265 Z16.963
X913.516 Z16.772
X919.193 Z16.6
X925.451 Z16.446
X932.468 Z16.312
X940.338 Z16.203
X950.01 Z16.112
G2 X950.077 Z16.128 I0.001 K0.15
G3 X950.143 Z16.143 I0.066 K-0.135
G1 X950.163
G17 G3 Y39.439 I0. J0.122
G18 G2 X950.097 Z16.128 I0. K-0.15
G1 X950.077 Z16.118
G3 X950.01 Z16.103 I-0.066 K0.135
G1 X939.58 Z16.201
X931.71 Z16.312
X924.788 Z16.446
X918.624 Z16.6
X913.042 Z16.773
X907.806 Z16.965
X902.864 Z17.176
X898.73 Z17.377
X891.939 Z17.749
X884.837 Z18.197
X877.943 Z18.678
X866.495 Z19.541
X862.103 Z19.867
X859.75 Z20.036
X857.563 Z20.188
X855.023 Z20.354
X852.481 Z20.509
X850.075 Z20.641
X847.639 Z20.758
X845.014 Z20.861
X842.743 Z20.93
X840.183 Z20.979
X837.932 Z20.998
X835.656 Z20.989
X833.286 Z20.949
X831.116 Z20.888
X828.894 Z20.802
X826.852 Z20.702
X824.659 Z20.574
X822.305 Z20.414
X820.119 Z20.248
X817.953 Z20.067
X815.585 Z19.853
X813.587 Z19.662
X809.391 Z19.235
X803.312 Z18.581
X796.105 Z17.809
X792.075 Z17.405
X787.69 Z17.004
X784.56 Z16.752
X781.26 Z16.52
X778.696 Z16.368
X776.273 Z16.247
X773.997 Z16.155
X771.722 Z16.084
X769.256 Z16.032
X766.886 Z16.006
X764.328 Z16.005
X761.578 Z16.034
X758.828 Z16.087
X755.893 Z16.169
X752.686 Z16.281
X748.845 Z16.439
X743.247 Z16.704
X733.045 Z17.231
X725.207 Z17.636
X719.219 Z17.934
X713.379 Z18.203
X706.395 Z18.501
X699.975 Z18.753
X693.349 Z18.99
X682.066 Z19.355
X672.394 Z19.636
X657.886 Z20.022
X652.657 Z20.154
G3 X652.594 Z20.169 I0.004 K0.15
G2 X652.528 Z20.185 I-0.066 K-0.135
G1 X652.507 Y39.441 Z20.184
X652.486 Y39.446
X652.467 Y39.455 Z20.183
X652.449 Y39.468 Z20.182
X652.434 Y39.483 Z20.181
X652.422 Y39.5 Z20.18
X652.413 Y39.52 Z20.178
X652.407 Y39.54 Z20.177
X652.405 Y39.561 Z20.175
X652.407 Y39.583 Z20.173
X652.413 Y39.603 Z20.172
X652.422 Y39.623 Z20.17
X652.434 Y39.64 Z20.169
X652.449 Y39.655 Z20.168
X652.467 Y39.668 Z20.167
X652.486 Y39.677 Z20.166
X652.507 Y39.682
X652.528 Y39.684 Z20.165
G3 X652.594 Z20.15 I0. K-0.15
G2 X652.656 Z20.135 I0.066 K0.135
G1 X654.163 Z20.096
X665.447 Z19.803
X676.161 Z19.507
X684.411 Z19.258
X695.031 Z18.91
X700.034 Z18.728
X706.265 Z18.484
X712.87 Z18.204
X718.9 Z17.929
X724.519 Z17.652
X731.992 Z17.271
X742.743 Z16.717
X748.531 Z16.444
X752.468 Z16.283
X755.679 Z16.171
X758.706 Z16.087
X761.455 Z16.033
X764.205 Z16.005
X766.739 Z16.006
X769.204 Z16.033
X771.575 Z16.083
X773.85 Z16.153
X776.126 Z16.244
X778.644 Z16.369
X781.393 Z16.533
X784.692 Z16.767
X787.637 Z17.005
X792.041 Z17.408
X796.071 Z17.812
X803.259 Z18.581
X809.339 Z19.234
X813.534 Z19.661
X815.532 Z19.853
X817.863 Z20.063
X820.028 Z20.245
X822.381 Z20.424
X824.568 Z20.572
X826.761 Z20.7
X828.822 Z20.801
X831.044 Z20.888
X833.214 Z20.949
X835.585 Z20.988
X837.86 Z20.998
X840.135 Z20.979
X842.601 Z20.931
X844.967 Z20.859
X847.497 Z20.76
X849.932 Z20.643
X852.524 Z20.5
X854.88 Z20.357
X857.438 Z20.188
X859.958 Z20.013
X862.886 Z19.8
X877.614 Z18.688
X884.674 Z18.193
X891.609 Z17.752
X898.19 Z17.388
X902.432 Z17.179
X907.34 Z16.967
X912.477 Z16.776
X918.055 Z16.601
X924.124 Z16.447
X930.951 Z16.312
X939.011 Z16.196
X950.01 Z16.095
G2 X950.077 Z16.11 I0.001 K0.15
G3 X950.143 Z16.126 I0.066 K-0.135
G1 X950.158
G17 G3 Y39.929 I0. J0.122
G18 G2 X950.092 Z16.11 I0. K-0.15
G1 X950.077 Z16.103
G3 X950.01 Z16.088 I-0.066 K0.135
G1 X938.916 Z16.186
X930.382 Z16.309
X923.555 Z16.446
X917.581 Z16.6
X912.011 Z16.776
X907.042 Z16.963
X902.152 Z17.176
X897.986 Z17.382
X891.408 Z17.748
X884.474 Z18.191
X877.618 Z18.673
X862.872 Z19.792
X859.778 Z20.017
X857.239 Z20.194
X854.885 Z20.35
X852.344 Z20.505
X849.939 Z20.638
X847.409 Z20.759
X844.784 Z20.863
X842.703 Z20.927
X840.143 Z20.978
X837.788 Z20.998
X835.512 Z20.988
X833.141 Z20.949
X830.971 Z20.888
X828.92 Z20.809
X826.709 Z20.7
X824.516 Z20.572
X822.347 Z20.426
X819.976 Z20.245
X817.81 Z20.063
X815.461 Z19.851
X813.445 Z19.657
X809.23 Z19.228
X803.151 Z18.575
X795.963 Z17.806
X791.932 Z17.403
X787.694 Z17.016
X784.583 Z16.765
X781.265 Z16.53
X778.514 Z16.367
X776.091 Z16.247
X773.832 Z16.156
X771.461 Z16.083
X769.091 Z16.033
X766.625 Z16.006
X764.082 Z16.005
X761.333 Z16.033
X758.488 Z16.089
X755.462 Z16.172
X752.345 Z16.281
X748.598 Z16.433
X742.806 Z16.703
X732.047 Z17.252
X724.382 Z17.641
X718.398 Z17.933
X712.726 Z18.19
X706.153 Z18.466
X699.73 Z18.716
X694.241 Z18.914
X683.147 Z19.274
X675.087 Z19.515
X664.372 Z19.81
X652.656 Z20.116
G3 X652.594 Z20.131 I0.004 K0.15
G2 X652.528 Z20.146 I-0.066 K-0.135
G1 X652.507 Y39.931
X652.486 Y39.936
X652.467 Y39.945 Z20.145
X652.449 Y39.958 Z20.144
X652.434 Y39.973 Z20.143
X652.422 Y39.99 Z20.141
X652.413 Y40.01 Z20.14
X652.407 Y40.03 Z20.138
X652.406 Y40.051 Z20.137
X652.407 Y40.073 Z20.135
X652.413 Y40.093 Z20.133
X652.422 Y40.113 Z20.132
X652.434 Y40.13 Z20.13
X652.449 Y40.145 Z20.129
X652.467 Y40.158 Z20.128
X652.486 Y40.167
X652.507 Y40.172 Z20.127
X652.528 Y40.174
G3 X652.594 Z20.112 I0. K-0.15
G2 X652.656 Z20.096 I0.066 K0.135
G1 X665.156 Z19.768
X678.905 Z19.381
X691.137 Z18.995
X698.143 Z18.752
X704.85 Z18.496
X712.483 Z18.179
X718.154 Z17.924
X724.804 Z17.602
X742.301 Z16.716
X748.094 Z16.446
X752.126 Z16.282
X755.433 Z16.168
X758.364 Z16.088
X761.209 Z16.033
X763.958 Z16.005
X766.504 Z16.006
X768.969 Z16.033
X771.435 Z16.084
X773.71 Z16.155
X775.969 Z16.245
X778.393 Z16.365
X781.534 Z16.552
X784.666 Z16.777
X787.63 Z17.016
X791.868 Z17.403
X795.918 Z17.808
X803.29 Z18.596
X809.185 Z19.229
X813.4 Z19.658
X815.601 Z19.869
X817.765 Z20.064
X819.931 Z20.245
X822.136 Z20.414
X824.452 Z20.571
X826.645 Z20.7
X828.854 Z20.808
X830.9 Z20.887
X833.069 Z20.949
X835.44 Z20.988
X837.715 Z20.998
X840.005 Z20.979
X842.566 Z20.928
X844.931 Z20.855
X847.351 Z20.758
X849.785 Z20.641
X852.19 Z20.508
X854.732 Z20.352
X857.086 Z20.196
X859.644 Z20.018
X863.109 Z19.765
X876.946 Z18.709
X883.987 Z18.208
X890.921 Z17.761
X897.308 Z17.401
X901.596 Z17.185
X906.484 Z16.97
X911.618 Z16.774
X917.012 Z16.601
X922.891 Z16.448
X929.244 Z16.317
X935.787 Z16.216
X941.666 Z16.149
X950.01 Z16.081
G2 X950.077 Z16.096 I0.001 K0.15
G3 X950.143 Z16.112 I0.066 K-0.135
G1 X950.157
G17 G3 Y40.419 I0. J0.122
