%
( 3D Finish 1 ) ( File created: Saturday September 28 2024 - 02:47 PM)
( for LinuxCNC )
( Material Size) ( X= 1000.000, Y= 200.000, Z= 20.000)
G90 (Incremental distance mode)
G17 G21 (Active Plane: XY)(Metric Mode)
G40 G49 G80(Tool Diameter, Length compensation & canned cycles OFF)
G64 P0.05 Q0.05(Path Blending)
M600
G90 (absolute distance mode)
G54 (Coordinate System)
S16000M3
G00 Z25.000
G4 P6
( 3D Finish 1 )
G00 X56.032 Y16.640 Z25.000 F2540.0
G01 Z19.756 F381.0 M3
G01 X55.269 Y16.647 Z19.699 F1270.0
G01 X53.814 Y16.727 Z19.638
G01 X52.409 Y16.825 Z19.608
G01 X51.979 Y16.855 Z19.671
G01 X51.548 Y16.885 Z19.674
G01 X51.095 Y16.909 Z19.720
G01 X50.642 Y16.934 Z19.738
G01 X50.189 Y16.958 Z20.000
G01 X50.648 Y16.958 Z19.722
G01 X51.107 Y16.958 Z19.687
G01 X51.566 Y16.958 Z19.628
G01 X52.943 Y16.958 Z19.586
G01 X54.779 Y16.958 Z19.592
G01 X55.697 Y16.958 Z19.658
G01 X56.615 Y16.958 Z19.789
G01 X57.074 Y16.958 Z19.699
G01 X57.533 Y16.958 Z20.000
G01 X57.992 Y16.958 
G01 X58.179 Y17.024 
G01 X58.712 Y17.275 
G00 Z25.000
G00 X35.722 Y16.958  F2540.0
G01 Z20.000 F381.0 M3
G01 X36.157 Y16.958 Z19.683 F1270.0
G01 X37.029 Y16.958 Z19.602
G01 X38.337 Y16.958 Z19.578
G01 X40.081 Y16.958 Z19.610
G01 X40.953 Y16.958 Z19.668
G01 X41.825 Y16.958 Z19.785
G01 X42.260 Y16.958 Z19.689
G01 X42.696 Y16.958 Z20.000
G01 X43.132 Y16.958 
G00 Z25.000
G00 X58.264 Y17.275  F2540.0
G01 Z20.000 F381.0 M3
G01 X57.816 Y17.275 Z19.654 F1270.0
G01 X56.920 Y17.275 Z19.728
G01 X56.024 Y17.275 Z19.603
G01 X55.127 Y17.275 Z19.538
G01 X53.335 Y17.275 Z19.530
G01 X51.991 Y17.275 Z19.567
G01 X51.543 Y17.275 Z19.602
G01 X50.647 Y17.275 Z19.717
G01 X50.198 Y17.275 Z19.643
G01 X49.750 Y17.275 Z19.733
G01 X49.302 Y17.275 Z19.740
G01 X48.854 Y17.275 Z20.000
G01 X43.925 Y17.275 
G01 X43.477 Y17.275 Z19.706
G01 X43.029 Y17.275 Z19.623
G01 X42.581 Y17.275 Z19.685
G01 X42.133 Y17.275 Z19.724
G01 X41.237 Y17.275 Z19.608
G01 X40.341 Y17.275 Z19.552
G01 X38.548 Y17.275 Z19.523
G01 X37.652 Y17.275 Z19.535
G01 X37.204 Y17.275 Z19.558
G01 X36.756 Y17.275 Z19.602
G01 X35.860 Y17.275 Z19.725
G01 X35.412 Y17.275 Z19.681
G01 X34.963 Y17.275 Z19.789
G01 X34.515 Y17.275 Z19.795
G01 X33.881 Y17.593 Z19.786
G01 X34.327 Y17.593 Z19.845
G01 X34.773 Y17.593 Z19.789
G01 X35.665 Y17.593 Z19.588
G01 X36.110 Y17.593 Z19.571
G01 X37.002 Y17.593 Z19.441
G01 X37.894 Y17.593 Z19.374
G01 X39.231 Y17.593 Z19.362
G01 X40.569 Y17.593 Z19.389
G01 X41.460 Y17.593 Z19.470
G01 X41.906 Y17.593 Z19.533
G01 X42.352 Y17.593 Z19.557
G01 X43.689 Y17.593 Z19.805
G01 X44.135 Y17.593 Z19.634
G01 X45.027 Y17.593 Z19.747
G01 X45.919 Y17.593 Z19.808
G01 X46.810 Y17.593 Z19.814
G01 X48.148 Y17.593 Z19.755
G01 X49.039 Y17.593 Z19.654
G01 X49.485 Y17.593 Z19.750
G01 X50.377 Y17.593 Z19.579
G01 X50.823 Y17.593 Z19.573
G01 X51.714 Y17.593 Z19.451
G01 X52.606 Y17.593 Z19.388
G01 X54.389 Y17.593 Z19.365
G01 X55.281 Y17.593 Z19.374
G01 X56.172 Y17.593 Z19.461
G01 X56.618 Y17.593 Z19.525
G01 X57.064 Y17.593 Z19.555
G01 X57.956 Y17.593 Z19.738
G01 X58.402 Y17.593 Z19.705
G01 X58.847 Y17.593 Z19.724
G01 X59.293 Y17.593 Z20.000
G01 X59.741 Y17.863 
G01 X59.812 Y17.910 Z19.852
G01 X59.363 Y17.910 Z19.726
G01 X58.914 Y17.910 Z19.642
G01 X58.465 Y17.910 Z19.633
G01 X58.017 Y17.910 Z19.561
G01 X57.568 Y17.910 Z19.512
G01 X56.670 Y17.910 Z19.343
G01 X55.773 Y17.910 Z19.228
G01 X55.324 Y17.910 Z19.192
G01 X53.529 Y17.910 Z19.181
G01 X52.183 Y17.910 Z19.220
G01 X51.285 Y17.910 Z19.310
G01 X49.939 Y17.910 Z19.524
G01 X49.491 Y17.910 Z19.613
G01 X49.042 Y17.910 Z19.631
G01 X48.144 Y17.910 Z19.747
G01 X47.247 Y17.910 Z19.803
G01 X46.349 Y17.910 Z19.807
G01 X45.452 Y17.910 Z19.752
G01 X44.106 Y17.910 Z19.583
G01 X43.657 Y17.910 Z19.599
G01 X43.208 Y17.910 Z19.562
G01 X41.862 Y17.910 Z19.332
G01 X40.964 Y17.910 Z19.227
G01 X40.516 Y17.910 Z19.196
G01 X38.721 Y17.910 Z19.173
G01 X37.823 Y17.910 Z19.190
G01 X36.926 Y17.910 Z19.261
G01 X35.579 Y17.910 Z19.470
G01 X34.682 Y17.910 Z19.672
G01 X34.233 Y17.910 Z19.746
G01 X33.784 Y17.910 Z19.637
G01 X33.336 Y17.910 Z19.779
G01 X33.142 Y18.031 Z19.782
G01 X32.866 Y18.228 Z20.000
G01 X33.316 Y18.228 Z19.721
G01 X33.765 Y18.228 Z19.749
G01 X34.664 Y18.228 Z19.483
G01 X35.562 Y18.228 Z19.288
G01 X36.910 Y18.228 Z19.085
G01 X37.809 Y18.228 Z19.015
G01 X39.157 Y18.228 Z18.999
G01 X40.505 Y18.228 Z19.017
G01 X41.404 Y18.228 Z19.091
G01 X42.752 Y18.228 Z19.285
G01 X44.100 Y18.228 Z19.523
G01 X44.999 Y18.228 Z19.626
G01 X46.347 Y18.228 Z19.690
G01 X47.246 Y18.228 Z19.681
G01 X48.144 Y18.228 Z19.619
G01 X49.043 Y18.228 Z19.497
G01 X50.391 Y18.228 Z19.255
G01 X51.739 Y18.228 Z19.076
G01 X52.638 Y18.228 Z19.018
G01 X54.884 Y18.228 Z19.004
G01 X55.334 Y18.228 Z19.018
G01 X56.233 Y18.228 Z19.104
G01 X57.131 Y18.228 Z19.242
G01 X58.030 Y18.228 Z19.431
G01 X58.479 Y18.228 Z19.547
G01 X58.929 Y18.228 Z19.596
G01 X59.378 Y18.228 Z19.748
G01 X59.827 Y18.228 Z19.688
G01 X60.277 Y18.228 Z20.000
G01 X60.695 Y18.545 
G01 X60.246 Y18.545 Z19.685
G01 X59.798 Y18.545 Z19.732
G01 X59.350 Y18.545 Z19.578
G01 X58.902 Y18.545 Z19.448
G01 X58.454 Y18.545 Z19.364
G01 X57.557 Y18.545 Z19.156
G01 X56.661 Y18.545 Z19.000
G01 X55.764 Y18.545 Z18.892
G01 X54.868 Y18.545 Z18.850
G01 X53.075 Y18.545 Z18.846
G01 X52.179 Y18.545 Z18.876
G01 X51.282 Y18.545 Z18.961
G01 X49.938 Y18.545 Z19.156
G01 X49.041 Y18.545 Z19.307
G01 X48.145 Y18.545 Z19.415
G01 X47.249 Y18.545 Z19.471
G01 X46.352 Y18.545 Z19.480
G01 X45.008 Y18.545 Z19.421
G01 X44.111 Y18.545 Z19.330
G01 X41.870 Y18.545 Z18.982
G01 X40.974 Y18.545 Z18.883
G01 X40.077 Y18.545 Z18.849
G01 X38.285 Y18.545 Z18.843
G01 X37.388 Y18.545 Z18.881
G01 X36.492 Y18.545 Z18.978
G01 X35.595 Y18.545 Z19.116
G01 X34.699 Y18.545 Z19.302
G01 X33.803 Y18.545 Z19.554
G01 X33.354 Y18.545 Z19.596
G01 X32.906 Y18.545 Z19.775
G01 X32.458 Y18.545 Z19.782
G01 X32.319 Y18.658 Z19.783
G01 X32.100 Y18.863 Z19.895
G01 X32.546 Y18.863 Z19.837
G01 X32.991 Y18.863 Z19.695
G01 X33.437 Y18.863 Z19.515
G01 X33.883 Y18.863 Z19.360
G01 X34.774 Y18.863 Z19.124
G01 X35.665 Y18.863 Z18.948
G01 X37.002 Y18.863 Z18.765
G01 X37.893 Y18.863 Z18.704
G01 X40.122 Y18.863 Z18.698
G01 X41.013 Y18.863 Z18.733
G01 X42.350 Y18.863 Z18.885
G01 X44.133 Y18.863 Z19.148
G01 X45.024 Y18.863 Z19.228
G01 X46.361 Y18.863 Z19.280
G01 X47.252 Y18.863 Z19.272
G01 X48.143 Y18.863 Z19.222
G01 X49.035 Y18.863 Z19.127
G01 X50.817 Y18.863 Z18.859
G01 X51.709 Y18.863 Z18.757
G01 X52.600 Y18.863 Z18.700
G01 X54.382 Y18.863 Z18.701
G01 X55.274 Y18.863 Z18.719
G01 X56.165 Y18.863 Z18.785
G01 X57.056 Y18.863 Z18.910
G01 X57.948 Y18.863 Z19.080
G01 X58.839 Y18.863 Z19.306
G01 X59.285 Y18.863 Z19.444
G01 X59.730 Y18.863 Z19.553
G01 X60.176 Y18.863 Z19.707
G01 X60.621 Y18.863 Z19.690
G01 X61.067 Y18.863 Z20.000
G01 X61.404 Y19.180 
G01 X60.955 Y19.180 
G01 X60.506 Y19.180 Z19.572
G01 X60.057 Y19.180 Z19.561
G01 X59.608 Y19.180 Z19.391
G01 X58.711 Y19.180 Z19.114
G01 X57.813 Y19.180 Z18.903
G01 X56.916 Y19.180 Z18.746
G01 X56.018 Y19.180 Z18.640
G01 X55.121 Y19.180 Z18.585
G01 X52.877 Y19.180 Z18.562
G01 X51.979 Y19.180 Z18.587
G01 X50.633 Y19.180 Z18.730
G01 X48.838 Y19.180 Z18.976
G01 X47.491 Y19.180 Z19.075
G01 X46.145 Y19.180 Z19.084
G01 X44.799 Y19.180 Z19.028
G01 X43.901 Y19.180 Z18.946
G01 X42.106 Y19.180 Z18.701
G01 X40.760 Y19.180 Z18.582
G01 X39.413 Y19.180 Z18.561
G01 X37.618 Y19.180 Z18.582
G01 X36.721 Y19.180 Z18.654
G01 X35.374 Y19.180 Z18.852
G01 X34.477 Y19.180 Z19.043
G01 X34.028 Y19.180 Z19.161
G01 X32.682 Y19.180 Z19.627
G01 X32.233 Y19.180 Z19.679
G01 X31.784 Y19.180 Z19.773
G01 X31.504 Y19.498 Z19.772
G01 X31.948 Y19.498 Z19.763
G01 X32.392 Y19.498 Z19.649
G01 X32.836 Y19.498 Z19.451
G01 X33.725 Y19.498 Z19.120
G01 X34.613 Y19.498 Z18.882
G01 X35.501 Y19.498 Z18.705
G01 X36.834 Y19.498 Z18.519
G01 X37.278 Y19.498 Z18.476
G01 X39.055 Y19.498 Z18.435
G01 X40.387 Y19.498 Z18.439
G01 X41.276 Y19.498 Z18.488
G01 X42.608 Y19.498 Z18.625
G01 X43.941 Y19.498 Z18.787
G01 X44.829 Y19.498 Z18.858
G01 X46.606 Y19.498 Z18.909
G01 X47.938 Y19.498 Z18.878
G01 X49.271 Y19.498 Z18.766
G01 X51.048 Y19.498 Z18.539
G01 X51.936 Y19.498 Z18.456
G01 X52.824 Y19.498 Z18.433
G01 X55.045 Y19.498 Z18.461
G01 X55.934 Y19.498 Z18.510
G01 X56.822 Y19.498 Z18.608
G01 X57.710 Y19.498 Z18.749
G01 X58.599 Y19.498 Z18.944
G01 X59.487 Y19.498 Z19.202
G01 X59.931 Y19.498 Z19.370
G01 X60.375 Y19.498 Z19.516
G01 X60.820 Y19.498 Z19.492
G01 X61.264 Y19.498 Z19.683
G01 X61.708 Y19.498 Z20.000
G01 X61.984 Y19.815 
G01 X61.538 Y19.815 Z19.689
G01 X61.093 Y19.815 Z19.648
G01 X60.202 Y19.815 Z19.346
G01 X59.311 Y19.815 Z19.013
G01 X58.421 Y19.815 Z18.773
G01 X57.530 Y19.815 Z18.599
G01 X56.639 Y19.815 Z18.468
G01 X55.749 Y19.815 Z18.379
G01 X54.413 Y19.815 Z18.330
G01 X52.631 Y19.815 Z18.312
G01 X51.740 Y19.815 Z18.350
G01 X50.404 Y19.815 Z18.482
G01 X49.068 Y19.815 Z18.636
G01 X47.732 Y19.815 Z18.724
G01 X46.396 Y19.815 Z18.737
G01 X45.060 Y19.815 Z18.709
G01 X43.724 Y19.815 Z18.619
G01 X41.497 Y19.815 Z18.383
G01 X40.607 Y19.815 Z18.323
G01 X39.271 Y19.815 Z18.315
G01 X37.489 Y19.815 Z18.350
G01 X36.598 Y19.815 Z18.434
G01 X35.262 Y19.815 Z18.631
G01 X34.372 Y19.815 Z18.820
G01 X33.926 Y19.815 Z18.934
G01 X33.481 Y19.815 Z19.075
G01 X32.590 Y19.815 Z19.419
G01 X32.145 Y19.815 Z19.624
G01 X31.700 Y19.815 Z19.779
G01 X31.254 Y19.815 Z20.000
G01 X31.032 Y20.133 
G01 X31.478 Y20.133 Z19.591
G01 X31.923 Y20.133 Z19.595
G01 X32.369 Y20.133 Z19.384
G01 X33.261 Y20.133 Z19.030
G01 X33.706 Y20.133 Z18.883
G01 X34.598 Y20.133 Z18.657
G01 X35.489 Y20.133 Z18.484
G01 X36.827 Y20.133 Z18.302
G01 X37.272 Y20.133 Z18.259
G01 X39.055 Y20.133 Z18.208
G01 X40.392 Y20.133 Z18.205
G01 X41.730 Y20.133 Z18.286
G01 X43.958 Y20.133 Z18.499
G01 X45.295 Y20.133 Z18.564
G01 X47.524 Y20.133 Z18.571
G01 X48.861 Y20.133 Z18.507
G01 X51.536 Y20.133 Z18.252
G01 X52.427 Y20.133 Z18.204
G01 X54.210 Y20.133 Z18.218
G01 X55.547 Y20.133 Z18.263
G01 X56.439 Y20.133 Z18.339
G01 X57.776 Y20.133 Z18.534
G01 X58.667 Y20.133 Z18.722
G01 X59.559 Y20.133 Z18.979
G01 X60.450 Y20.133 Z19.325
G01 X60.896 Y20.133 Z19.530
G01 X61.342 Y20.133 Z19.648
G01 X61.788 Y20.133 Z20.000
G01 X62.233 Y20.133 
G01 X62.453 Y20.450 
G01 X62.008 Y20.450 Z19.703
G01 X61.562 Y20.450 Z19.707
G01 X61.117 Y20.450 Z19.482
G01 X59.781 Y20.450 Z18.952
G01 X58.891 Y20.450 Z18.682
G01 X58.001 Y20.450 Z18.475
G01 X56.665 Y20.450 Z18.268
G01 X55.774 Y20.450 Z18.180
G01 X53.994 Y20.450 Z18.113
G01 X52.658 Y20.450 Z18.096
G01 X51.767 Y20.450 Z18.129
G01 X49.096 Y20.450 Z18.352
G01 X47.760 Y20.450 Z18.419
G01 X45.534 Y20.450 Z18.425
G01 X44.199 Y20.450 Z18.382
G01 X42.863 Y20.450 Z18.282
G01 X41.527 Y20.450 Z18.161
G01 X40.192 Y20.450 Z18.096
G01 X37.966 Y20.450 Z18.132
G01 X37.075 Y20.450 Z18.182
G01 X35.740 Y20.450 Z18.349
G01 X34.849 Y20.450 Z18.506
G01 X33.959 Y20.450 Z18.713
G01 X33.513 Y20.450 Z18.839
G01 X32.623 Y20.450 Z19.165
G01 X32.178 Y20.450 Z19.357
G01 X31.733 Y20.450 Z19.511
G01 X31.287 Y20.450 Z19.576
G01 X30.842 Y20.450 Z20.000
G01 X30.783 Y20.549 
G01 X30.673 Y20.768 Z19.754
G01 X31.124 Y20.768 Z19.733
G01 X31.574 Y20.768 Z19.541
G01 X32.024 Y20.768 Z19.317
G01 X32.925 Y20.768 Z18.945
G01 X33.375 Y20.768 Z18.786
G01 X34.276 Y20.768 Z18.541
G01 X35.177 Y20.768 Z18.353
G01 X36.528 Y20.768 Z18.154
G01 X37.428 Y20.768 Z18.066
G01 X39.680 Y20.768 Z17.999
G01 X40.581 Y20.768 Z18.007
G01 X41.932 Y20.768 Z18.089
G01 X43.733 Y20.768 Z18.230
G01 X45.084 Y20.768 Z18.282
G01 X47.786 Y20.768 Z18.284
G01 X49.137 Y20.768 Z18.228
G01 X51.839 Y20.768 Z18.027
G01 X52.740 Y20.768 Z18.000
G01 X54.991 Y20.768 Z18.052
G01 X55.892 Y20.768 Z18.100
G01 X56.793 Y20.768 Z18.195
G01 X57.693 Y20.768 Z18.330
G01 X58.594 Y20.768 Z18.519
G01 X59.495 Y20.768 Z18.766
G01 X59.945 Y20.768 Z18.915
G01 X60.846 Y20.768 Z19.283
G01 X61.296 Y20.768 Z19.505
G01 X61.746 Y20.768 Z19.600
G01 X62.197 Y20.768 Z20.000
G01 X62.647 Y20.768 
G01 X62.821 Y21.085 
G01 X62.373 Y21.085 Z19.720
G01 X61.924 Y21.085 Z19.642
G01 X61.476 Y21.085 Z19.495
G01 X61.027 Y21.085 Z19.269
G01 X60.578 Y21.085 Z19.069
G01 X59.681 Y21.085 Z18.745
G01 X58.784 Y21.085 Z18.489
G01 X57.887 Y21.085 Z18.289
G01 X56.990 Y21.085 Z18.139
G01 X56.093 Y21.085 Z18.035
G01 X54.747 Y21.085 Z17.959
G01 X52.953 Y21.085 Z17.911
G01 X52.056 Y21.085 Z17.925
G01 X48.916 Y21.085 Z18.123
G01 X47.570 Y21.085 Z18.158
G01 X44.430 Y21.085 Z18.141
G01 X43.084 Y21.085 Z18.078
G01 X40.841 Y21.085 Z17.928
G01 X39.944 Y21.085 Z17.906
G01 X37.701 Y21.085 Z17.969
G01 X36.804 Y21.085 Z18.041
G01 X35.458 Y21.085 Z18.224
G01 X34.561 Y21.085 Z18.394
G01 X33.664 Y21.085 Z18.616
G01 X33.215 Y21.085 Z18.750
G01 X32.318 Y21.085 Z19.089
G01 X31.870 Y21.085 Z19.289
G01 X30.972 Y21.085 Z19.726
G01 X30.524 Y21.085 Z19.750
G01 X30.393 Y21.403 Z20.000
G01 X30.839 Y21.403 Z19.677
G01 X31.286 Y21.403 Z19.505
G01 X31.732 Y21.403 Z19.272
G01 X32.178 Y21.403 Z19.068
G01 X33.071 Y21.403 Z18.723
G01 X33.964 Y21.403 Z18.460
G01 X34.856 Y21.403 Z18.260
G01 X36.196 Y21.403 Z18.043
G01 X37.088 Y21.403 Z17.941
G01 X38.427 Y21.403 Z17.863
G01 X40.213 Y21.403 Z17.826
G01 X41.552 Y21.403 Z17.879
G01 X43.784 Y21.403 Z18.007
G01 X45.123 Y21.403 Z18.032
G01 X46.908 Y21.403 Z18.032
G01 X48.247 Y21.403 Z18.033
G01 X50.033 Y21.403 Z17.962
G01 X52.264 Y21.403 Z17.836
G01 X53.157 Y21.403 Z17.832
G01 X55.389 Y21.403 Z17.913
G01 X56.282 Y21.403 Z17.980
G01 X57.174 Y21.403 Z18.092
G01 X58.067 Y21.403 Z18.254
G01 X58.960 Y21.403 Z18.461
G01 X59.853 Y21.403 Z18.727
G01 X60.745 Y21.403 Z19.060
G01 X61.638 Y21.403 Z19.463
G01 X62.084 Y21.403 Z19.710
G01 X62.531 Y21.403 Z19.734
G01 X62.977 Y21.403 Z20.000
G01 X63.106 Y21.720 
G01 X62.657 Y21.720 
G01 X62.207 Y21.720 Z19.571
G01 X61.758 Y21.720 Z19.488
G01 X61.308 Y21.720 Z19.249
G01 X60.859 Y21.720 Z19.038
G01 X59.959 Y21.720 Z18.697
G01 X59.060 Y21.720 Z18.423
G01 X58.161 Y21.720 Z18.211
G01 X56.812 Y21.720 Z17.975
G01 X55.913 Y21.720 Z17.880
G01 X54.115 Y21.720 Z17.787
G01 X52.766 Y21.720 Z17.753
G01 X51.417 Y21.720 Z17.795
G01 X49.169 Y21.720 Z17.904
G01 X47.821 Y21.720 Z17.925
G01 X46.022 Y21.720 Z17.904
G01 X44.224 Y21.720 Z17.912
G01 X42.426 Y21.720 Z17.847
G01 X40.627 Y21.720 Z17.759
G01 X39.728 Y21.720 Z17.750
G01 X37.930 Y21.720 Z17.818
G01 X37.031 Y21.720 Z17.881
G01 X35.682 Y21.720 Z18.052
G01 X34.783 Y21.720 Z18.209
G01 X33.884 Y21.720 Z18.414
G01 X32.984 Y21.720 Z18.693
G01 X32.085 Y21.720 Z19.036
G01 X31.636 Y21.720 Z19.243
G01 X30.737 Y21.720 Z19.720
G01 X30.287 Y21.720 Z19.748
G01 X30.195 Y22.038 Z19.748
G01 X30.641 Y22.038 Z19.733
G01 X31.534 Y22.038 Z19.236
G01 X31.980 Y22.038 Z19.026
G01 X32.873 Y22.038 Z18.679
G01 X33.765 Y22.038 Z18.395
G01 X34.658 Y22.038 Z18.177
G01 X35.996 Y22.038 Z17.947
G01 X36.889 Y22.038 Z17.835
G01 X38.228 Y22.038 Z17.741
G01 X39.566 Y22.038 Z17.683
G01 X40.905 Y22.038 Z17.695
G01 X43.583 Y22.038 Z17.799
G01 X45.368 Y22.038 Z17.801
G01 X46.706 Y22.038 Z17.794
G01 X48.491 Y22.038 Z17.817
G01 X50.276 Y22.038 Z17.772
G01 X52.061 Y22.038 Z17.695
G01 X52.954 Y22.038 Z17.684
G01 X55.185 Y22.038 Z17.772
G01 X56.078 Y22.038 Z17.833
G01 X56.970 Y22.038 Z17.945
G01 X58.309 Y22.038 Z18.190
G01 X59.201 Y22.038 Z18.409
G01 X60.094 Y22.038 Z18.689
G01 X60.986 Y22.038 Z19.032
G01 X61.433 Y22.038 Z19.244
G01 X61.879 Y22.038 Z19.487
G01 X62.325 Y22.038 Z19.693
G01 X62.771 Y22.038 Z19.782
G01 X63.218 Y22.038 Z20.000
G01 X63.314 Y22.355 
G01 X62.865 Y22.355 Z19.768
G01 X62.416 Y22.355 Z19.716
G01 X61.519 Y22.355 Z19.236
G01 X61.071 Y22.355 Z19.020
G01 X60.173 Y22.355 Z18.668
G01 X59.276 Y22.355 Z18.382
G01 X58.379 Y22.355 Z18.159
G01 X57.033 Y22.355 Z17.907
G01 X56.136 Y22.355 Z17.793
G01 X54.341 Y22.355 Z17.674
G01 X52.996 Y22.355 Z17.624
G01 X51.650 Y22.355 Z17.641
G01 X49.407 Y22.355 Z17.715
G01 X47.612 Y22.355 Z17.710
G01 X46.266 Y22.355 Z17.682
G01 X44.023 Y22.355 Z17.711
G01 X42.229 Y22.355 Z17.675
G01 X40.434 Y22.355 Z17.619
G01 X39.537 Y22.355 Z17.625
G01 X37.294 Y22.355 Z17.752
G01 X36.397 Y22.355 Z17.839
G01 X35.051 Y22.355 Z18.049
G01 X34.154 Y22.355 Z18.249
G01 X33.257 Y22.355 Z18.506
G01 X32.359 Y22.355 Z18.828
G01 X31.911 Y22.355 Z19.015
G01 X31.462 Y22.355 Z19.231
G01 X30.565 Y22.355 Z19.714
G01 X30.116 Y22.355 Z19.748
G01 X30.061 Y22.673 Z19.751
G01 X30.505 Y22.673 Z19.713
G01 X31.838 Y22.673 Z19.012
G01 X32.727 Y22.673 Z18.651
G01 X33.616 Y22.673 Z18.358
G01 X34.505 Y22.673 Z18.129
G01 X35.393 Y22.673 Z17.947
G01 X36.282 Y22.673 Z17.811
G01 X37.615 Y22.673 Z17.691
G01 X39.393 Y22.673 Z17.583
G01 X40.726 Y22.673 Z17.566
G01 X43.392 Y22.673 Z17.621
G01 X45.170 Y22.673 Z17.603
G01 X46.503 Y22.673 Z17.582
G01 X48.725 Y22.673 Z17.634
G01 X50.947 Y22.673 Z17.603
G01 X52.724 Y22.673 Z17.577
G01 X53.613 Y22.673 Z17.593
G01 X55.835 Y22.673 Z17.731
G01 X56.724 Y22.673 Z17.818
G01 X58.057 Y22.673 Z18.048
G01 X58.946 Y22.673 Z18.252
G01 X59.835 Y22.673 Z18.509
G01 X60.723 Y22.673 Z18.834
G01 X61.168 Y22.673 Z19.031
G01 X61.612 Y22.673 Z19.257
G01 X62.057 Y22.673 Z19.511
G01 X62.501 Y22.673 Z19.728
G01 X62.945 Y22.673 Z19.823
G01 X63.390 Y22.673 Z20.000
G01 X63.446 Y22.990 
G01 X63.000 Y22.990 Z19.798
G01 X62.555 Y22.990 Z19.724
G01 X62.109 Y22.990 Z19.524
G01 X61.663 Y22.990 Z19.265
G01 X61.217 Y22.990 Z19.034
G01 X60.772 Y22.990 Z18.826
G01 X59.880 Y22.990 Z18.492
G01 X58.989 Y22.990 Z18.232
G01 X58.097 Y22.990 Z18.024
G01 X57.206 Y22.990 Z17.858
G01 X56.314 Y22.990 Z17.744
G01 X54.532 Y22.990 Z17.605
G01 X53.194 Y22.990 Z17.540
G01 X50.966 Y22.990 Z17.540
G01 X48.737 Y22.990 Z17.550
G01 X46.508 Y22.990 Z17.486
G01 X45.171 Y22.990 Z17.509
G01 X43.388 Y22.990 Z17.541
G01 X40.268 Y22.990 Z17.523
G01 X38.931 Y22.990 Z17.567
G01 X36.702 Y22.990 Z17.736
G01 X35.811 Y22.990 Z17.845
G01 X34.919 Y22.990 Z18.009
G01 X34.028 Y22.990 Z18.216
G01 X33.137 Y22.990 Z18.478
G01 X32.245 Y22.990 Z18.808
G01 X31.799 Y22.990 Z19.006
G01 X31.354 Y22.990 Z19.234
G01 X30.908 Y22.990 Z19.487
G01 X30.462 Y22.990 Z19.654
G01 X30.016 Y22.990 Z19.757
G01 X29.984 Y23.308 Z19.765
G01 X30.430 Y23.308 Z19.670
G01 X30.877 Y23.308 Z19.492
G01 X31.324 Y23.308 Z19.234
G01 X31.771 Y23.308 Z19.002
G01 X32.217 Y23.308 Z18.800
G01 X33.111 Y23.308 Z18.466
G01 X34.004 Y23.308 Z18.202
G01 X34.898 Y23.308 Z17.991
G01 X35.791 Y23.308 Z17.823
G01 X37.132 Y23.308 Z17.670
G01 X39.365 Y23.308 Z17.507
G01 X41.152 Y23.308 Z17.476
G01 X44.280 Y23.308 Z17.449
G01 X46.067 Y23.308 Z17.395
G01 X47.407 Y23.308 Z17.424
G01 X49.640 Y23.308 Z17.484
G01 X53.214 Y23.308 Z17.505
G01 X54.555 Y23.308 Z17.575
G01 X56.342 Y23.308 Z17.723
G01 X57.235 Y23.308 Z17.835
G01 X58.575 Y23.308 Z18.104
G01 X59.469 Y23.308 Z18.340
G01 X60.362 Y23.308 Z18.642
G01 X60.809 Y23.308 Z18.825
G01 X61.256 Y23.308 Z19.038
G01 X61.703 Y23.308 Z19.274
G01 X62.149 Y23.308 Z19.538
G01 X62.596 Y23.308 Z19.730
G01 X63.043 Y23.308 Z19.813
G01 X63.490 Y23.308 Z20.000
G01 X63.516 Y23.625 
G01 X63.069 Y23.625 
G01 X62.621 Y23.625 Z19.640
G01 X62.174 Y23.625 Z19.552
G01 X61.727 Y23.625 Z19.282
G01 X61.280 Y23.625 Z19.042
G01 X60.832 Y23.625 Z18.825
G01 X60.385 Y23.625 Z18.642
G01 X59.491 Y23.625 Z18.338
G01 X58.596 Y23.625 Z18.093
G01 X57.702 Y23.625 Z17.898
G01 X56.807 Y23.625 Z17.758
G01 X55.018 Y23.625 Z17.583
G01 X53.676 Y23.625 Z17.493
G01 X51.440 Y23.625 Z17.449
G01 X48.309 Y23.625 Z17.382
G01 X46.520 Y23.625 Z17.313
G01 X45.178 Y23.625 Z17.336
G01 X42.942 Y23.625 Z17.404
G01 X39.811 Y23.625 Z17.463
G01 X38.917 Y23.625 Z17.503
G01 X36.680 Y23.625 Z17.695
G01 X35.786 Y23.625 Z17.807
G01 X34.444 Y23.625 Z18.078
G01 X33.550 Y23.625 Z18.315
G01 X32.655 Y23.625 Z18.615
G01 X32.208 Y23.625 Z18.793
G01 X31.760 Y23.625 Z18.999
G01 X31.313 Y23.625 Z19.233
G01 X30.866 Y23.625 Z19.496
G01 X30.419 Y23.625 Z19.678
G01 X29.971 Y23.625 Z19.770
G01 X29.966 Y23.943 Z19.774
G01 X30.414 Y23.943 Z19.685
G01 X30.861 Y23.943 Z19.499
G01 X31.309 Y23.943 Z19.235
G01 X31.756 Y23.943 Z18.999
G01 X32.203 Y23.943 Z18.788
G01 X33.098 Y23.943 Z18.451
G01 X33.993 Y23.943 Z18.184
G01 X34.888 Y23.943 Z17.969
G01 X35.783 Y23.943 Z17.798
G01 X37.125 Y23.943 Z17.636
G01 X38.915 Y23.943 Z17.480
G01 X40.704 Y23.943 Z17.410
G01 X44.731 Y23.943 Z17.282
G01 X46.074 Y23.943 Z17.233
G01 X47.416 Y23.943 Z17.264
G01 X49.653 Y23.943 Z17.358
G01 X53.680 Y23.943 Z17.471
G01 X55.470 Y23.943 Z17.607
G01 X56.812 Y23.943 Z17.749
G01 X57.707 Y23.943 Z17.892
G01 X58.602 Y23.943 Z18.092
G01 X59.496 Y23.943 Z18.339
G01 X60.391 Y23.943 Z18.645
G01 X60.839 Y23.943 Z18.827
G01 X61.286 Y23.943 Z19.045
G01 X61.734 Y23.943 Z19.288
G01 X62.181 Y23.943 Z19.558
G01 X62.628 Y23.943 Z19.653
G01 X63.076 Y23.943 Z20.000
G01 X63.523 Y23.943 
G01 X63.519 Y24.260 
G01 X63.072 Y24.260 
G01 X62.624 Y24.260 Z19.665
G01 X62.177 Y24.260 Z19.561
G01 X61.730 Y24.260 Z19.292
G01 X61.283 Y24.260 Z19.049
G01 X60.835 Y24.260 Z18.833
G01 X59.941 Y24.260 Z18.489
G01 X59.046 Y24.260 Z18.213
G01 X58.152 Y24.260 Z17.988
G01 X57.257 Y24.260 Z17.806
G01 X55.915 Y24.260 Z17.639
G01 X54.126 Y24.260 Z17.480
G01 X52.337 Y24.260 Z17.404
G01 X48.759 Y24.260 Z17.263
G01 X46.969 Y24.260 Z17.170
G01 X45.628 Y24.260 Z17.167
G01 X41.602 Y24.260 Z17.352
G01 X39.366 Y24.260 Z17.437
G01 X38.024 Y24.260 Z17.542
G01 X36.235 Y24.260 Z17.730
G01 X35.340 Y24.260 Z17.871
G01 X34.445 Y24.260 Z18.067
G01 X33.551 Y24.260 Z18.308
G01 X32.656 Y24.260 Z18.607
G01 X32.209 Y24.260 Z18.788
G01 X31.762 Y24.260 Z19.000
G01 X31.314 Y24.260 Z19.236
G01 X30.867 Y24.260 Z19.500
G01 X30.420 Y24.260 Z19.693
G01 X29.973 Y24.260 Z19.775
G01 X29.989 Y24.578 Z19.777
G01 X30.436 Y24.578 Z19.706
G01 X30.883 Y24.578 Z19.501
G01 X31.329 Y24.578 Z19.239
G01 X32.223 Y24.578 Z18.793
G01 X32.670 Y24.578 Z18.612
G01 X33.563 Y24.578 Z18.313
G01 X34.457 Y24.578 Z18.070
G01 X35.350 Y24.578 Z17.872
G01 X36.244 Y24.578 Z17.728
G01 X38.478 Y24.578 Z17.484
G01 X40.265 Y24.578 Z17.376
G01 X43.839 Y24.578 Z17.199
G01 X45.627 Y24.578 Z17.099
G01 X46.967 Y24.578 Z17.103
G01 X51.435 Y24.578 Z17.347
G01 X54.116 Y24.578 Z17.468
G01 X55.903 Y24.578 Z17.634
G01 X57.243 Y24.578 Z17.807
G01 X58.137 Y24.578 Z17.992
G01 X59.030 Y24.578 Z18.219
G01 X59.924 Y24.578 Z18.497
G01 X60.818 Y24.578 Z18.839
G01 X61.264 Y24.578 Z19.053
G01 X61.711 Y24.578 Z19.293
G01 X62.158 Y24.578 Z19.560
G01 X62.605 Y24.578 Z19.731
G01 X63.052 Y24.578 Z19.833
G01 X63.498 Y24.578 Z20.000
G01 X63.460 Y24.895 
G01 X63.014 Y24.895 Z19.833
G01 X62.568 Y24.895 Z19.719
G01 X62.122 Y24.895 Z19.563
G01 X61.676 Y24.895 Z19.298
G01 X61.230 Y24.895 Z19.060
G01 X60.784 Y24.895 Z18.848
G01 X59.892 Y24.895 Z18.506
G01 X59.000 Y24.895 Z18.228
G01 X58.108 Y24.895 Z17.999
G01 X57.216 Y24.895 Z17.812
G01 X55.879 Y24.895 Z17.635
G01 X54.095 Y24.895 Z17.462
G01 X49.635 Y24.895 Z17.211
G01 X47.405 Y24.895 Z17.059
G01 X46.067 Y24.895 Z17.028
G01 X45.175 Y24.895 Z17.062
G01 X41.162 Y24.895 Z17.313
G01 X38.932 Y24.895 Z17.443
G01 X37.148 Y24.895 Z17.623
G01 X35.810 Y24.895 Z17.799
G01 X34.918 Y24.895 Z17.976
G01 X34.026 Y24.895 Z18.198
G01 X33.134 Y24.895 Z18.470
G01 X32.242 Y24.895 Z18.804
G01 X31.350 Y24.895 Z19.249
G01 X30.904 Y24.895 Z19.510
G01 X30.458 Y24.895 Z19.723
G01 X30.012 Y24.895 Z19.786
G01 X30.052 Y25.213 Z19.795
G01 X30.496 Y25.213 Z19.739
G01 X30.941 Y25.213 Z19.517
G01 X31.386 Y25.213 Z19.258
G01 X31.831 Y25.213 Z19.027
G01 X32.276 Y25.213 Z18.821
G01 X33.165 Y25.213 Z18.489
G01 X34.055 Y25.213 Z18.216
G01 X35.389 Y25.213 Z17.896
G01 X36.279 Y25.213 Z17.743
G01 X38.503 Y25.213 Z17.477
G01 X41.172 Y25.213 Z17.291
G01 X45.175 Y25.213 Z17.007
G01 X46.509 Y25.213 Z16.975
G01 X47.399 Y25.213 Z17.000
G01 X51.847 Y25.213 Z17.323
G01 X54.515 Y25.213 Z17.498
G01 X56.295 Y25.213 Z17.694
G01 X57.184 Y25.213 Z17.824
G01 X58.074 Y25.213 Z18.011
G01 X58.963 Y25.213 Z18.242
G01 X59.853 Y25.213 Z18.521
G01 X60.743 Y25.213 Z18.862
G01 X61.187 Y25.213 Z19.071
G01 X61.632 Y25.213 Z19.306
G01 X62.077 Y25.213 Z19.569
G01 X62.522 Y25.213 Z19.805
G01 X62.967 Y25.213 Z19.837
G01 X63.411 Y25.213 Z20.000
G01 X63.345 Y25.530 
G01 X62.896 Y25.530 
G01 X62.446 Y25.530 Z19.703
G01 X61.997 Y25.530 Z19.530
G01 X61.099 Y25.530 Z19.065
G01 X60.650 Y25.530 Z18.864
G01 X59.751 Y25.530 Z18.521
G01 X58.853 Y25.530 Z18.241
G01 X57.954 Y25.530 Z18.010
G01 X57.056 Y25.530 Z17.825
G01 X56.158 Y25.530 Z17.691
G01 X54.361 Y25.530 Z17.490
G01 X49.420 Y25.530 Z17.115
G01 X47.623 Y25.530 Z16.967
G01 X46.275 Y25.530 Z16.930
G01 X44.928 Y25.530 Z16.976
G01 X38.639 Y25.530 Z17.468
G01 X36.393 Y25.530 Z17.742
G01 X35.495 Y25.530 Z17.903
G01 X34.596 Y25.530 Z18.108
G01 X33.698 Y25.530 Z18.356
G01 X32.799 Y25.530 Z18.660
G01 X32.350 Y25.530 Z18.836
G01 X31.901 Y25.530 Z19.034
G01 X31.452 Y25.530 Z19.265
G01 X30.553 Y25.530 Z19.758
G01 X30.104 Y25.530 Z19.803
G01 X30.169 Y25.848 Z19.817
G01 X30.616 Y25.848 Z19.751
G01 X31.063 Y25.848 Z19.534
G01 X31.958 Y25.848 Z19.065
G01 X32.405 Y25.848 Z18.863
G01 X33.299 Y25.848 Z18.528
G01 X34.194 Y25.848 Z18.253
G01 X35.088 Y25.848 Z18.026
G01 X36.430 Y25.848 Z17.764
G01 X38.219 Y25.848 Z17.522
G01 X40.902 Y25.848 Z17.281
G01 X44.927 Y25.848 Z16.936
G01 X46.269 Y25.848 Z16.890
G01 X47.610 Y25.848 Z16.926
G01 X49.399 Y25.848 Z17.080
G01 X52.977 Y25.848 Z17.387
G01 X54.766 Y25.848 Z17.542
G01 X56.555 Y25.848 Z17.768
G01 X57.449 Y25.848 Z17.930
G01 X58.344 Y25.848 Z18.138
G01 X59.238 Y25.848 Z18.392
G01 X60.133 Y25.848 Z18.700
G01 X61.027 Y25.848 Z19.078
G01 X61.922 Y25.848 Z19.558
G01 X62.369 Y25.848 Z19.693
G01 X62.816 Y25.848 Z20.000
G01 X63.263 Y25.848 
G01 X63.172 Y26.165 
G01 X62.727 Y26.165 
G01 X62.282 Y26.165 Z19.763
G01 X61.837 Y26.165 Z19.586
G01 X61.392 Y26.165 Z19.332
G01 X60.948 Y26.165 Z19.104
G01 X60.503 Y26.165 Z18.902
G01 X59.613 Y26.165 Z18.562
G01 X58.723 Y26.165 Z18.283
G01 X57.834 Y26.165 Z18.053
G01 X56.499 Y26.165 Z17.790
G01 X54.720 Y26.165 Z17.556
G01 X49.382 Y26.165 Z17.047
G01 X48.047 Y26.165 Z16.919
G01 X46.712 Y26.165 Z16.857
G01 X45.378 Y26.165 Z16.876
G01 X44.043 Y26.165 Z16.973
G01 X38.260 Y26.165 Z17.533
G01 X36.926 Y26.165 Z17.715
G01 X35.591 Y26.165 Z17.956
G01 X34.702 Y26.165 Z18.160
G01 X33.812 Y26.165 Z18.410
G01 X32.922 Y26.165 Z18.713
G01 X32.477 Y26.165 Z18.890
G01 X32.033 Y26.165 Z19.095
G01 X31.588 Y26.165 Z19.323
G01 X31.143 Y26.165 Z19.577
G01 X30.698 Y26.165 Z19.655
G01 X30.253 Y26.165 Z20.000
G01 X30.357 Y26.483 
G01 X30.805 Y26.483 Z19.572
G01 X31.253 Y26.483 Z19.547
G01 X32.597 Y26.483 Z18.906
G01 X33.045 Y26.483 Z18.726
G01 X33.941 Y26.483 Z18.424
G01 X34.837 Y26.483 Z18.174
G01 X36.181 Y26.483 Z17.883
G01 X37.973 Y26.483 Z17.589
G01 X41.109 Y26.483 Z17.247
G01 X44.693 Y26.483 Z16.884
G01 X46.037 Y26.483 Z16.824
G01 X47.380 Y26.483 Z16.846
G01 X48.724 Y26.483 Z16.949
G01 X53.652 Y26.483 Z17.466
G01 X55.444 Y26.483 Z17.671
G01 X56.788 Y26.483 Z17.885
G01 X57.684 Y26.483 Z18.063
G01 X58.580 Y26.483 Z18.290
G01 X59.476 Y26.483 Z18.568
G01 X60.372 Y26.483 Z18.911
G01 X61.268 Y26.483 Z19.343
G01 X61.716 Y26.483 Z19.584
G01 X62.164 Y26.483 Z19.688
G01 X62.612 Y26.483 Z20.000
G01 X63.060 Y26.483 
G01 X62.936 Y26.800 
G01 X62.047 Y26.800 Z19.693
G01 X61.602 Y26.800 Z19.595
G01 X60.713 Y26.800 Z19.142
G01 X59.824 Y26.800 Z18.756
G01 X58.934 Y26.800 Z18.449
G01 X58.045 Y26.800 Z18.203
G01 X56.711 Y26.800 Z17.921
G01 X54.932 Y26.800 Z17.631
G01 X48.262 Y26.800 Z16.877
G01 X46.928 Y26.800 Z16.802
G01 X45.594 Y26.800 Z16.808
G01 X44.260 Y26.800 Z16.894
G01 X38.480 Y26.800 Z17.548
G01 X37.146 Y26.800 Z17.759
G01 X35.812 Y26.800 Z18.006
G01 X34.922 Y26.800 Z18.209
G01 X34.033 Y26.800 Z18.457
G01 X33.144 Y26.800 Z18.757
G01 X32.699 Y26.800 Z18.937
G01 X31.365 Y26.800 Z19.568
G01 X30.920 Y26.800 Z19.584
G01 X30.476 Y26.800 Z19.840
G01 X30.612 Y27.118 Z20.000
G01 X31.059 Y27.118 Z19.714
G01 X31.506 Y27.118 Z19.580
G01 X32.848 Y27.118 Z18.954
G01 X33.295 Y27.118 Z18.775
G01 X34.189 Y27.118 Z18.476
G01 X35.083 Y27.118 Z18.230
G01 X36.424 Y27.118 Z17.937
G01 X38.213 Y27.118 Z17.620
G01 X40.895 Y27.118 Z17.271
G01 X44.025 Y27.118 Z16.897
G01 X45.366 Y27.118 Z16.796
G01 X46.707 Y27.118 Z16.777
G01 X48.049 Y27.118 Z16.839
G01 X49.390 Y27.118 Z16.979
G01 X54.755 Y27.118 Z17.648
G01 X56.543 Y27.118 Z17.945
G01 X57.884 Y27.118 Z18.227
G01 X58.779 Y27.118 Z18.467
G01 X59.226 Y27.118 Z18.611
G01 X60.120 Y27.118 Z18.960
G01 X61.014 Y27.118 Z19.385
G01 X61.461 Y27.118 Z19.632
G01 X61.908 Y27.118 Z19.688
G01 X62.355 Y27.118 Z20.000
G01 X62.802 Y27.118 
G01 X62.646 Y27.435 
G01 X62.197 Y27.435 
G01 X61.748 Y27.435 Z19.617
G01 X61.299 Y27.435 Z19.597
G01 X60.850 Y27.435 Z19.400
G01 X59.953 Y27.435 Z18.979
G01 X59.055 Y27.435 Z18.633
G01 X58.157 Y27.435 Z18.367
G01 X56.810 Y27.435 Z18.058
G01 X55.015 Y27.435 Z17.735
G01 X53.219 Y27.435 Z17.476
G01 X48.730 Y27.435 Z16.884
G01 X47.383 Y27.435 Z16.780
G01 X46.036 Y27.435 Z16.758
G01 X44.689 Y27.435 Z16.819
G01 X43.343 Y27.435 Z16.958
G01 X38.854 Y27.435 Z17.558
G01 X37.058 Y27.435 Z17.868
G01 X35.711 Y27.435 Z18.144
G01 X34.813 Y27.435 Z18.366
G01 X33.915 Y27.435 Z18.634
G01 X33.467 Y27.435 Z18.790
G01 X32.569 Y27.435 Z19.170
G01 X32.120 Y27.435 Z19.391
G01 X31.671 Y27.435 Z19.585
G01 X31.222 Y27.435 Z19.593
G01 X30.773 Y27.435 Z20.000
G01 X30.948 Y27.753 
G01 X31.399 Y27.753 Z19.753
G01 X31.849 Y27.753 Z19.594
G01 X32.300 Y27.753 Z19.401
G01 X33.200 Y27.753 Z18.987
G01 X33.651 Y27.753 Z18.809
G01 X34.552 Y27.753 Z18.517
G01 X35.903 Y27.753 Z18.170
G01 X37.705 Y27.753 Z17.799
G01 X39.957 Y27.753 Z17.420
G01 X43.561 Y27.753 Z16.919
G01 X44.912 Y27.753 Z16.790
G01 X46.264 Y27.753 Z16.744
G01 X47.615 Y27.753 Z16.779
G01 X48.966 Y27.753 Z16.898
G01 X53.471 Y27.753 Z17.535
G01 X55.723 Y27.753 Z17.913
G01 X57.074 Y27.753 Z18.183
G01 X57.975 Y27.753 Z18.396
G01 X58.876 Y27.753 Z18.657
G01 X59.777 Y27.753 Z18.998
G01 X60.678 Y27.753 Z19.414
G01 X61.129 Y27.753 Z19.591
G01 X61.579 Y27.753 Z19.677
G01 X62.029 Y27.753 Z20.000
G01 X62.480 Y27.753 
G01 X62.300 Y28.070 
G01 X61.855 Y28.070 
G01 X60.964 Y28.070 Z19.685
G01 X60.519 Y28.070 Z19.448
G01 X59.629 Y28.070 Z19.040
G01 X58.739 Y28.070 Z18.706
G01 X57.848 Y28.070 Z18.447
G01 X56.513 Y28.070 Z18.136
G01 X54.287 Y28.070 Z17.717
G01 X52.061 Y28.070 Z17.349
G01 X49.389 Y28.070 Z16.944
G01 X48.054 Y28.070 Z16.801
G01 X46.718 Y28.070 Z16.739
G01 X45.383 Y28.070 Z16.757
G01 X44.047 Y28.070 Z16.856
G01 X42.712 Y28.070 Z17.029
G01 X40.040 Y28.070 Z17.435
G01 X37.814 Y28.070 Z17.832
G01 X36.034 Y28.070 Z18.213
G01 X34.698 Y28.070 Z18.559
G01 X33.808 Y28.070 Z18.846
G01 X32.917 Y28.070 Z19.214
G01 X32.472 Y28.070 Z19.426
G01 X32.027 Y28.070 Z19.662
G01 X31.582 Y28.070 Z19.757
G01 X31.137 Y28.070 Z20.000
G01 X31.348 Y28.388 Z19.838
G01 X31.794 Y28.388 Z19.604
G01 X32.240 Y28.388 Z19.615
G01 X32.686 Y28.388 Z19.440
G01 X33.577 Y28.388 Z19.043
G01 X34.468 Y28.388 Z18.717
G01 X35.360 Y28.388 Z18.459
G01 X37.142 Y28.388 Z18.032
G01 X39.371 Y28.388 Z17.588
G01 X41.599 Y28.388 Z17.202
G01 X43.382 Y28.388 Z16.931
G01 X44.719 Y28.388 Z16.791
G01 X46.056 Y28.388 Z16.733
G01 X47.393 Y28.388 Z16.756
G01 X48.730 Y28.388 Z16.859
G01 X50.067 Y28.388 Z17.039
G01 X53.633 Y28.388 Z17.647
G01 X56.307 Y28.388 Z18.172
G01 X57.644 Y28.388 Z18.484
G01 X58.535 Y28.388 Z18.737
G01 X59.427 Y28.388 Z19.067
G01 X60.318 Y28.388 Z19.467
G01 X60.764 Y28.388 Z19.626
G01 X61.209 Y28.388 Z19.679
G01 X61.655 Y28.388 Z19.870
G01 X62.101 Y28.388 Z20.000
G01 X61.891 Y28.705 
G01 X61.445 Y28.705 
G01 X60.999 Y28.705 Z19.676
G01 X60.553 Y28.705 Z19.630
G01 X60.107 Y28.705 Z19.490
G01 X59.216 Y28.705 Z19.097
G01 X58.324 Y28.705 Z18.773
G01 X57.432 Y28.705 Z18.523
G01 X56.094 Y28.705 Z18.205
G01 X52.973 Y28.705 Z17.565
G01 X49.852 Y28.705 Z17.009
G01 X48.514 Y28.705 Z16.838
G01 X47.176 Y28.705 Z16.748
G01 X45.839 Y28.705 Z16.739
G01 X44.501 Y28.705 Z16.810
G01 X43.163 Y28.705 Z16.963
G01 X41.380 Y28.705 Z17.256
G01 X38.704 Y28.705 Z17.765
G01 X36.921 Y28.705 Z18.155
G01 X35.137 Y28.705 Z18.615
G01 X34.245 Y28.705 Z18.896
G01 X33.354 Y28.705 Z19.249
G01 X32.908 Y28.705 Z19.454
G01 X32.462 Y28.705 Z19.630
G01 X32.016 Y28.705 Z19.744
G01 X31.570 Y28.705 Z20.000
G01 X31.803 Y29.023 Z19.840
G01 X32.249 Y29.023 Z19.619
G01 X32.695 Y29.023 Z19.644
G01 X33.140 Y29.023 Z19.476
G01 X34.032 Y29.023 Z19.094
G01 X34.923 Y29.023 Z18.778
G01 X36.706 Y29.023 Z18.286
G01 X38.488 Y29.023 Z17.867
G01 X41.163 Y29.023 Z17.322
G01 X42.945 Y29.023 Z17.000
G01 X44.282 Y29.023 Z16.833
G01 X45.619 Y29.023 Z16.749
G01 X46.957 Y29.023 Z16.745
G01 X48.294 Y29.023 Z16.821
G01 X49.631 Y29.023 Z16.980
G01 X51.859 Y29.023 Z17.391
G01 X54.087 Y29.023 Z17.843
G01 X56.762 Y29.023 Z18.450
G01 X58.099 Y29.023 Z18.812
G01 X58.990 Y29.023 Z19.127
G01 X59.881 Y29.023 Z19.512
G01 X60.327 Y29.023 Z19.667
G01 X60.773 Y29.023 Z19.673
G01 X61.218 Y29.023 Z19.878
G01 X61.664 Y29.023 Z20.000
G01 X61.420 Y29.340 
G01 X60.975 Y29.340 
G01 X60.530 Y29.340 Z19.674
G01 X60.085 Y29.340 Z19.690
G01 X59.640 Y29.340 Z19.540
G01 X58.750 Y29.340 Z19.164
G01 X57.860 Y29.340 Z18.855
G01 X56.525 Y29.340 Z18.489
G01 X53.855 Y29.340 Z17.851
G01 X51.630 Y29.340 Z17.376
G01 X49.851 Y29.340 Z17.028
G01 X48.961 Y29.340 Z16.902
G01 X47.626 Y29.340 Z16.785
G01 X46.291 Y29.340 Z16.748
G01 X44.956 Y29.340 Z16.792
G01 X43.621 Y29.340 Z16.917
G01 X42.731 Y29.340 Z17.046
G01 X40.061 Y29.340 Z17.579
G01 X37.836 Y29.340 Z18.084
G01 X36.057 Y29.340 Z18.551
G01 X35.167 Y29.340 Z18.812
G01 X34.277 Y29.340 Z19.125
G01 X33.387 Y29.340 Z19.498
G01 X32.942 Y29.340 Z19.608
G01 X32.497 Y29.340 Z19.631
G01 X32.052 Y29.340 Z20.000
G01 X32.305 Y29.658 
G01 X32.749 Y29.658 Z19.648
G01 X33.193 Y29.658 Z19.682
G01 X34.969 Y29.658 Z19.000
G01 X36.301 Y29.658 Z18.577
G01 X38.077 Y29.658 Z18.095
G01 X40.297 Y29.658 Z17.571
G01 X42.517 Y29.658 Z17.105
G01 X43.405 Y29.658 Z16.958
G01 X44.737 Y29.658 Z16.820
G01 X46.069 Y29.658 Z16.763
G01 X47.401 Y29.658 Z16.786
G01 X48.733 Y29.658 Z16.889
G01 X49.621 Y29.658 Z17.004
G01 X50.953 Y29.658 Z17.262
G01 X53.617 Y29.658 Z17.855
G01 X56.281 Y29.658 Z18.526
G01 X57.613 Y29.658 Z18.900
G01 X58.501 Y29.658 Z19.206
G01 X58.944 Y29.658 Z19.380
G01 X59.832 Y29.658 Z19.673
G01 X60.276 Y29.658 Z19.681
G01 X60.720 Y29.658 Z20.000
G01 X61.164 Y29.658 
G01 X60.888 Y29.975 
G01 X60.439 Y29.975 
G01 X59.989 Y29.975 Z19.688
G01 X59.540 Y29.975 Z19.736
G01 X59.090 Y29.975 Z19.549
G01 X58.641 Y29.975 Z19.404
G01 X57.742 Y29.975 Z19.073
G01 X56.393 Y29.975 Z18.661
G01 X54.146 Y29.975 Z18.051
G01 X51.899 Y29.975 Z17.504
G01 X50.101 Y29.975 Z17.114
G01 X49.202 Y29.975 Z16.963
G01 X47.854 Y29.975 Z16.830
G01 X46.506 Y29.975 Z16.780
G01 X45.157 Y29.975 Z16.811
G01 X43.809 Y29.975 Z16.926
G01 X42.910 Y29.975 Z17.057
G01 X41.562 Y29.975 Z17.333
G01 X39.314 Y29.975 Z17.852
G01 X37.517 Y29.975 Z18.323
G01 X36.168 Y29.975 Z18.720
G01 X34.820 Y29.975 Z19.186
G01 X33.921 Y29.975 Z19.548
G01 X33.471 Y29.975 Z19.587
G01 X33.022 Y29.975 Z19.664
G01 X32.573 Y29.975 Z20.000
G01 X32.844 Y30.293 
G01 X33.291 Y30.293 Z19.693
G01 X33.739 Y30.293 Z19.706
G01 X34.634 Y30.293 Z19.401
G01 X35.977 Y30.293 Z18.900
G01 X37.320 Y30.293 Z18.468
G01 X39.110 Y30.293 Z17.967
G01 X41.348 Y30.293 Z17.417
G01 X42.691 Y30.293 Z17.127
G01 X43.586 Y30.293 Z16.979
G01 X44.929 Y30.293 Z16.850
G01 X46.272 Y30.293 Z16.805
G01 X47.615 Y30.293 Z16.841
G01 X48.958 Y30.293 Z16.959
G01 X49.853 Y30.293 Z17.093
G01 X51.196 Y30.293 Z17.376
G01 X53.434 Y30.293 Z17.930
G01 X55.672 Y30.293 Z18.556
G01 X57.462 Y30.293 Z19.116
G01 X58.358 Y30.293 Z19.443
G01 X58.805 Y30.293 Z19.626
G01 X59.253 Y30.293 Z19.705
G01 X59.700 Y30.293 Z19.714
G01 X60.148 Y30.293 Z20.000
G01 X60.596 Y30.293 
G01 X60.291 Y30.610 
G01 X59.846 Y30.610 
G01 X59.400 Y30.610 Z19.740
G01 X58.955 Y30.610 Z19.734
G01 X58.509 Y30.610 Z19.626
G01 X58.064 Y30.610 Z19.486
G01 X56.728 Y30.610 Z19.009
G01 X54.947 Y30.610 Z18.435
G01 X52.720 Y30.610 Z17.800
G01 X50.938 Y30.610 Z17.353
G01 X49.602 Y30.610 Z17.078
G01 X48.711 Y30.610 Z16.958
G01 X47.375 Y30.610 Z16.856
G01 X46.039 Y30.610 Z16.834
G01 X44.703 Y30.610 Z16.894
G01 X43.812 Y30.610 Z16.979
G01 X42.922 Y30.610 Z17.115
G01 X41.586 Y30.610 Z17.397
G01 X39.359 Y30.610 Z17.965
G01 X37.577 Y30.610 Z18.479
G01 X36.241 Y30.610 Z18.928
G01 X34.905 Y30.610 Z19.444
G01 X34.460 Y30.610 Z19.583
G01 X34.014 Y30.610 Z19.546
G01 X33.569 Y30.610 Z19.723
G01 X33.124 Y30.610 Z20.000
G01 X33.409 Y30.928 
G01 X33.859 Y30.928 
G01 X34.309 Y30.928 Z19.644
G01 X34.759 Y30.928 Z19.648
G01 X36.559 Y30.928 Z18.931
G01 X37.909 Y30.928 Z18.468
G01 X39.709 Y30.928 Z17.934
G01 X41.510 Y30.928 Z17.459
G01 X42.860 Y30.928 Z17.166
G01 X43.760 Y30.928 Z17.020
G01 X44.660 Y30.928 Z16.930
G01 X46.010 Y30.928 Z16.867
G01 X47.360 Y30.928 Z16.887
G01 X48.710 Y30.928 Z16.991
G01 X49.611 Y30.928 Z17.118
G01 X50.511 Y30.928 Z17.294
G01 X51.861 Y30.928 Z17.623
G01 X53.661 Y30.928 Z18.129
G01 X55.461 Y30.928 Z18.701
G01 X57.261 Y30.928 Z19.341
G01 X57.711 Y30.928 Z19.486
G01 X58.162 Y30.928 Z19.571
G01 X58.612 Y30.928 Z19.580
G01 X59.062 Y30.928 Z20.000
G01 X59.962 Y30.928 
G01 X59.617 Y31.245 
G01 X59.170 Y31.245 
G01 X58.723 Y31.245 Z19.784
G01 X58.276 Y31.245 Z19.613
G01 X57.829 Y31.245 Z19.685
G01 X57.383 Y31.245 Z19.545
G01 X55.595 Y31.245 Z18.861
G01 X53.808 Y31.245 Z18.248
G01 X52.021 Y31.245 Z17.715
G01 X50.681 Y31.245 Z17.374
G01 X49.787 Y31.245 Z17.193
G01 X48.894 Y31.245 Z17.056
G01 X48.000 Y31.245 Z16.964
G01 X46.660 Y31.245 Z16.904
G01 X45.319 Y31.245 Z16.927
G01 X44.426 Y31.245 Z16.987
G01 X43.532 Y31.245 Z17.096
G01 X42.192 Y31.245 Z17.346
G01 X40.852 Y31.245 Z17.678
G01 X39.065 Y31.245 Z18.192
G01 X37.724 Y31.245 Z18.622
G01 X36.384 Y31.245 Z19.123
G01 X35.490 Y31.245 Z19.495
G01 X34.597 Y31.245 Z19.811
G01 X34.150 Y31.245 Z19.792
G01 X33.703 Y31.245 Z20.000
G01 X33.998 Y31.563 
G01 X34.900 Y31.563 Z19.623
G01 X35.351 Y31.563 Z19.662
G01 X35.802 Y31.563 Z19.508
G01 X37.155 Y31.563 Z18.943
G01 X38.509 Y31.563 Z18.450
G01 X40.313 Y31.563 Z17.887
G01 X41.667 Y31.563 Z17.517
G01 X42.569 Y31.563 Z17.314
G01 X43.471 Y31.563 Z17.153
G01 X44.373 Y31.563 Z17.035
G01 X45.727 Y31.563 Z16.954
G01 X47.080 Y31.563 Z16.957
G01 X47.982 Y31.563 Z17.006
G01 X49.335 Y31.563 Z17.169
G01 X50.238 Y31.563 Z17.328
G01 X51.140 Y31.563 Z17.533
G01 X52.493 Y31.563 Z17.908
G01 X53.847 Y31.563 Z18.345
G01 X55.651 Y31.563 Z19.003
G01 X57.004 Y31.563 Z19.552
G01 X57.456 Y31.563 Z19.620
G01 X57.907 Y31.563 Z19.631
G01 X58.358 Y31.563 Z20.000
G01 X59.260 Y31.563 
G01 X58.909 Y31.880 
G01 X58.014 Y31.880 
G01 X57.566 Y31.880 Z19.652
G01 X57.118 Y31.880 Z19.644
G01 X56.223 Y31.880 Z19.368
G01 X54.881 Y31.880 Z18.821
G01 X53.090 Y31.880 Z18.162
G01 X51.748 Y31.880 Z17.749
G01 X50.852 Y31.880 Z17.516
G01 X49.957 Y31.880 Z17.329
G01 X48.615 Y31.880 Z17.124
G01 X47.719 Y31.880 Z17.036
G01 X46.824 Y31.880 Z16.997
G01 X45.482 Y31.880 Z17.009
G01 X44.139 Y31.880 Z17.113
G01 X43.244 Y31.880 Z17.242
G01 X42.349 Y31.880 Z17.413
G01 X41.006 Y31.880 Z17.747
G01 X39.216 Y31.880 Z18.300
G01 X37.873 Y31.880 Z18.776
G01 X36.530 Y31.880 Z19.326
G01 X36.083 Y31.880 Z19.528
G01 X35.635 Y31.880 Z19.704
G01 X35.187 Y31.880 Z19.697
G01 X34.740 Y31.880 Z20.000
G01 X34.292 Y31.880 
G01 X34.587 Y32.198 
G01 X35.031 Y32.198 Z19.864
G01 X35.475 Y32.198 Z19.754
G01 X35.919 Y32.198 Z19.703
G01 X36.364 Y32.198 Z19.542
G01 X37.696 Y32.198 Z18.958
G01 X39.029 Y32.198 Z18.447
G01 X40.805 Y32.198 Z17.867
G01 X42.138 Y32.198 Z17.519
G01 X43.026 Y32.198 Z17.338
G01 X43.915 Y32.198 Z17.198
G01 X44.803 Y32.198 Z17.106
G01 X45.691 Y32.198 Z17.053
G01 X47.024 Y32.198 Z17.053
G01 X47.912 Y32.198 Z17.104
G01 X49.245 Y32.198 Z17.263
G01 X50.133 Y32.198 Z17.418
G01 X51.022 Y32.198 Z17.615
G01 X52.354 Y32.198 Z17.991
G01 X53.242 Y32.198 Z18.294
G01 X55.019 Y32.198 Z18.989
G01 X55.908 Y32.198 Z19.371
G01 X56.352 Y32.198 Z19.519
G01 X56.796 Y32.198 Z19.719
G01 X57.240 Y32.198 Z19.668
G01 X57.684 Y32.198 Z19.859
G01 X58.128 Y32.198 Z20.000
G01 X58.573 Y32.198 
G01 X58.251 Y32.515 
G01 X57.352 Y32.515 
G01 X56.903 Y32.515 Z19.768
G01 X56.453 Y32.515 Z19.710
G01 X56.004 Y32.515 Z19.557
G01 X54.656 Y32.515 Z18.950
G01 X53.308 Y32.515 Z18.401
G01 X52.409 Y32.515 Z18.077
G01 X51.510 Y32.515 Z17.805
G01 X50.612 Y32.515 Z17.580
G01 X49.713 Y32.515 Z17.399
G01 X48.814 Y32.515 Z17.261
G01 X47.466 Y32.515 Z17.128
G01 X46.567 Y32.515 Z17.096
G01 X45.219 Y32.515 Z17.136
G01 X44.320 Y32.515 Z17.210
G01 X43.421 Y32.515 Z17.331
G01 X42.523 Y32.515 Z17.498
G01 X41.624 Y32.515 Z17.707
G01 X40.276 Y32.515 Z18.099
G01 X38.928 Y32.515 Z18.576
G01 X37.580 Y32.515 Z19.127
G01 X36.681 Y32.515 Z19.536
G01 X36.231 Y32.515 Z19.701
G01 X35.782 Y32.515 Z19.664
G01 X35.333 Y32.515 Z19.875
G01 X34.883 Y32.515 Z20.000
G01 X35.180 Y32.833 
G01 X35.626 Y32.833 
G01 X36.073 Y32.833 Z19.671
G01 X36.519 Y32.833 Z19.646
G01 X36.965 Y32.833 Z19.539
G01 X38.304 Y32.833 Z18.930
G01 X39.643 Y32.833 Z18.395
G01 X40.536 Y32.833 Z18.091
G01 X41.429 Y32.833 Z17.828
G01 X42.768 Y32.833 Z17.513
G01 X43.660 Y32.833 Z17.355
G01 X44.553 Y32.833 Z17.247
G01 X45.892 Y32.833 Z17.162
G01 X46.785 Y32.833 Z17.155
G01 X47.678 Y32.833 Z17.200
G01 X49.017 Y32.833 Z17.348
G01 X49.909 Y32.833 Z17.497
G01 X50.802 Y32.833 Z17.688
G01 X51.695 Y32.833 Z17.924
G01 X52.587 Y32.833 Z18.214
G01 X53.926 Y32.833 Z18.740
G01 X55.265 Y32.833 Z19.342
G01 X55.712 Y32.833 Z19.557
G01 X56.158 Y32.833 Z19.672
G01 X56.604 Y32.833 Z19.680
G01 X57.051 Y32.833 Z20.000
G01 X57.944 Y32.833 
G01 X57.643 Y33.150 
G01 X56.756 Y33.150 
G01 X56.313 Y33.150 Z19.682
G01 X55.869 Y33.150 Z19.538
G01 X55.426 Y33.150 Z19.487
G01 X54.982 Y33.150 Z19.331
G01 X53.652 Y33.150 Z18.719
G01 X52.765 Y33.150 Z18.359
G01 X51.878 Y33.150 Z18.050
G01 X50.991 Y33.150 Z17.803
G01 X50.104 Y33.150 Z17.599
G01 X49.217 Y33.150 Z17.438
G01 X48.331 Y33.150 Z17.318
G01 X47.444 Y33.150 Z17.239
G01 X46.557 Y33.150 Z17.208
G01 X45.670 Y33.150 Z17.226
G01 X44.339 Y33.150 Z17.327
G01 X43.453 Y33.150 Z17.452
G01 X42.122 Y33.150 Z17.723
G01 X41.235 Y33.150 Z17.955
G01 X39.905 Y33.150 Z18.385
G01 X38.575 Y33.150 Z18.924
G01 X37.688 Y33.150 Z19.325
G01 X37.244 Y33.150 Z19.494
G01 X36.801 Y33.150 Z19.709
G01 X36.357 Y33.150 Z19.785
G01 X35.914 Y33.150 Z20.000
G01 X35.470 Y33.150 
G01 X35.758 Y33.468 
G01 X36.208 Y33.468 
G01 X36.658 Y33.468 Z19.665
G01 X37.108 Y33.468 Z19.622
G01 X37.558 Y33.468 Z19.518
G01 X38.908 Y33.468 Z18.887
G01 X39.807 Y33.468 Z18.513
G01 X40.707 Y33.468 Z18.194
G01 X41.607 Y33.468 Z17.926
G01 X42.507 Y33.468 Z17.704
G01 X43.407 Y33.468 Z17.524
G01 X44.306 Y33.468 Z17.390
G01 X45.206 Y33.468 Z17.307
G01 X46.106 Y33.468 Z17.266
G01 X47.006 Y33.468 Z17.272
G01 X47.906 Y33.468 Z17.329
G01 X48.805 Y33.468 Z17.433
G01 X49.705 Y33.468 Z17.580
G01 X50.605 Y33.468 Z17.773
G01 X51.505 Y33.468 Z18.010
G01 X51.955 Y33.468 Z18.147
G01 X52.855 Y33.468 Z18.477
G01 X53.754 Y33.468 Z18.861
G01 X55.104 Y33.468 Z19.516
G01 X55.554 Y33.468 Z19.678
G01 X56.004 Y33.468 Z19.735
G01 X56.454 Y33.468 Z20.000
G01 X57.354 Y33.468 
G01 X57.070 Y33.785 
G01 X56.175 Y33.785 
G01 X55.728 Y33.785 Z19.675
G01 X55.281 Y33.785 Z19.650
G01 X54.833 Y33.785 Z19.496
G01 X53.938 Y33.785 Z19.043
G01 X53.044 Y33.785 Z18.639
G01 X52.149 Y33.785 Z18.290
G01 X51.254 Y33.785 Z18.006
G01 X50.359 Y33.785 Z17.777
G01 X49.464 Y33.785 Z17.594
G01 X48.570 Y33.785 Z17.456
G01 X47.675 Y33.785 Z17.363
G01 X46.780 Y33.785 Z17.322
G01 X45.885 Y33.785 Z17.325
G01 X44.990 Y33.785 Z17.378
G01 X44.096 Y33.785 Z17.477
G01 X43.201 Y33.785 Z17.628
G01 X42.306 Y33.785 Z17.821
G01 X41.411 Y33.785 Z18.058
G01 X40.516 Y33.785 Z18.341
G01 X39.621 Y33.785 Z18.682
G01 X38.727 Y33.785 Z19.076
G01 X37.832 Y33.785 Z19.511
G01 X37.384 Y33.785 Z19.614
G01 X36.937 Y33.785 Z19.662
G01 X36.490 Y33.785 Z20.000
G01 X36.042 Y33.785 
G01 X36.319 Y34.103 
G01 X36.764 Y34.103 
G01 X37.209 Y34.103 Z19.781
G01 X37.654 Y34.103 Z19.682
G01 X38.099 Y34.103 Z19.456
G01 X38.544 Y34.103 Z19.277
G01 X39.434 Y34.103 Z18.863
G01 X40.325 Y34.103 Z18.496
G01 X41.215 Y34.103 Z18.195
G01 X42.105 Y34.103 Z17.941
G01 X42.995 Y34.103 Z17.731
G01 X43.886 Y34.103 Z17.566
G01 X44.776 Y34.103 Z17.450
G01 X45.666 Y34.103 Z17.386
G01 X46.556 Y34.103 Z17.371
G01 X47.447 Y34.103 Z17.398
G01 X48.337 Y34.103 Z17.481
G01 X49.227 Y34.103 Z17.609
G01 X50.117 Y34.103 Z17.781
G01 X51.008 Y34.103 Z18.002
G01 X51.898 Y34.103 Z18.276
G01 X52.788 Y34.103 Z18.618
G01 X53.678 Y34.103 Z19.017
G01 X54.569 Y34.103 Z19.472
G01 X55.014 Y34.103 Z19.637
G01 X55.459 Y34.103 Z20.000
G01 X56.794 Y34.103 
G01 X56.526 Y34.420 
G01 X55.641 Y34.420 
G01 X55.198 Y34.420 Z19.627
G01 X54.755 Y34.420 Z19.615
G01 X54.312 Y34.420 Z19.442
G01 X53.426 Y34.420 Z18.989
G01 X52.540 Y34.420 Z18.596
G01 X51.654 Y34.420 Z18.264
G01 X50.769 Y34.420 Z17.998
G01 X49.883 Y34.420 Z17.787
G01 X48.997 Y34.420 Z17.625
G01 X48.111 Y34.420 Z17.508
G01 X47.225 Y34.420 Z17.439
G01 X46.339 Y34.420 Z17.423
G01 X45.453 Y34.420 Z17.451
G01 X44.568 Y34.420 Z17.526
G01 X43.682 Y34.420 Z17.660
G01 X42.796 Y34.420 Z17.839
G01 X41.910 Y34.420 Z18.063
G01 X41.024 Y34.420 Z18.334
G01 X40.138 Y34.420 Z18.662
G01 X39.253 Y34.420 Z19.050
G01 X38.367 Y34.420 Z19.488
G01 X37.924 Y34.420 Z19.644
G01 X37.481 Y34.420 Z19.646
G01 X37.038 Y34.420 Z20.000
G01 X36.595 Y34.420 
G01 X36.871 Y34.738 
G01 X37.322 Y34.738 
G01 X37.773 Y34.738 Z19.790
G01 X38.224 Y34.738 Z19.636
G01 X38.675 Y34.738 Z19.446
G01 X39.577 Y34.738 Z19.002
G01 X40.479 Y34.738 Z18.613
G01 X41.381 Y34.738 Z18.294
G01 X42.283 Y34.738 Z18.030
G01 X43.185 Y34.738 Z17.817
G01 X44.087 Y34.738 Z17.651
G01 X44.989 Y34.738 Z17.540
G01 X45.890 Y34.738 Z17.483
G01 X46.792 Y34.738 Z17.478
G01 X47.694 Y34.738 Z17.521
G01 X48.596 Y34.738 Z17.620
G01 X49.498 Y34.738 Z17.767
G01 X50.400 Y34.738 Z17.965
G01 X51.302 Y34.738 Z18.217
G01 X52.204 Y34.738 Z18.535
G01 X53.106 Y34.738 Z18.926
G01 X54.008 Y34.738 Z19.380
G01 X54.458 Y34.738 Z19.573
G01 X54.909 Y34.738 Z19.818
G01 X55.360 Y34.738 Z19.831
G01 X55.811 Y34.738 Z20.000
G01 X56.262 Y34.738 
G01 X56.010 Y35.055 
G01 X55.112 Y35.055 
G01 X54.662 Y35.055 Z19.773
G01 X54.213 Y35.055 Z19.601
G01 X53.315 Y35.055 Z19.115
G01 X52.417 Y35.055 Z18.701
G01 X51.519 Y35.055 Z18.355
G01 X50.621 Y35.055 Z18.083
G01 X49.722 Y35.055 Z17.870
G01 X48.824 Y35.055 Z17.709
G01 X47.926 Y35.055 Z17.597
G01 X47.028 Y35.055 Z17.535
G01 X46.130 Y35.055 Z17.531
G01 X45.232 Y35.055 Z17.577
G01 X44.333 Y35.055 Z17.672
G01 X43.435 Y35.055 Z17.828
G01 X42.537 Y35.055 Z18.030
G01 X41.639 Y35.055 Z18.285
G01 X40.741 Y35.055 Z18.595
G01 X39.842 Y35.055 Z18.980
G01 X38.944 Y35.055 Z19.423
G01 X38.495 Y35.055 Z19.610
G01 X38.046 Y35.055 Z19.858
G01 X37.597 Y35.055 Z19.836
G01 X37.148 Y35.055 Z20.000
G01 X37.415 Y35.373 
G01 X37.863 Y35.373 
G01 X38.310 Y35.373 Z19.721
G01 X38.757 Y35.373 Z19.589
G01 X39.205 Y35.373 Z19.397
G01 X40.099 Y35.373 Z18.955
G01 X40.994 Y35.373 Z18.580
G01 X41.889 Y35.373 Z18.282
G01 X42.784 Y35.373 Z18.037
G01 X43.678 Y35.373 Z17.843
G01 X44.573 Y35.373 Z17.703
G01 X45.468 Y35.373 Z17.623
G01 X46.362 Y35.373 Z17.589
G01 X47.257 Y35.373 Z17.604
G01 X48.152 Y35.373 Z17.682
G01 X49.047 Y35.373 Z17.806
G01 X49.941 Y35.373 Z17.980
G01 X50.836 Y35.373 Z18.207
G01 X51.731 Y35.373 Z18.500
G01 X52.626 Y35.373 Z18.871
G01 X53.968 Y35.373 Z19.515
G01 X54.415 Y35.373 Z19.758
G01 X54.862 Y35.373 Z19.772
G01 X55.310 Y35.373 Z20.000
G01 X55.757 Y35.373 
G01 X55.521 Y35.690 
G01 X55.075 Y35.690 
G01 X54.629 Y35.690 Z19.750
G01 X54.183 Y35.690 Z19.746
G01 X53.737 Y35.690 Z19.528
G01 X52.844 Y35.690 Z19.058
G01 X51.952 Y35.690 Z18.665
G01 X51.060 Y35.690 Z18.345
G01 X50.167 Y35.690 Z18.104
G01 X49.275 Y35.690 Z17.916
G01 X48.383 Y35.690 Z17.778
G01 X47.491 Y35.690 Z17.688
G01 X47.045 Y35.690 Z17.660
G01 X46.152 Y35.690 Z17.660
G01 X45.260 Y35.690 Z17.705
G01 X44.368 Y35.690 Z17.796
G01 X43.476 Y35.690 Z17.949
G01 X42.583 Y35.690 Z18.157
G01 X41.691 Y35.690 Z18.419
G01 X41.245 Y35.690 Z18.570
G01 X40.353 Y35.690 Z18.935
G01 X39.460 Y35.690 Z19.369
G01 X39.014 Y35.690 Z19.561
G01 X38.568 Y35.690 Z19.701
G01 X38.122 Y35.690 Z19.795
G01 X37.676 Y35.690 Z20.000
G01 X37.936 Y36.008 
G01 X38.381 Y36.008 
G01 X38.826 Y36.008 Z19.672
G01 X39.271 Y36.008 Z19.581
G01 X40.161 Y36.008 Z19.120
G01 X41.050 Y36.008 Z18.730
G01 X41.495 Y36.008 Z18.563
G01 X42.385 Y36.008 Z18.285
G01 X43.274 Y36.008 Z18.064
G01 X44.164 Y36.008 Z17.902
G01 X45.054 Y36.008 Z17.799
G01 X45.943 Y36.008 Z17.743
G01 X46.833 Y36.008 Z17.733
G01 X47.723 Y36.008 Z17.782
G01 X48.612 Y36.008 Z17.884
G01 X49.502 Y36.008 Z18.036
G01 X50.392 Y36.008 Z18.238
G01 X51.281 Y36.008 Z18.498
G01 X52.171 Y36.008 Z18.840
G01 X53.506 Y36.008 Z19.454
G01 X53.950 Y36.008 Z19.693
G01 X54.395 Y36.008 Z19.784
G01 X54.840 Y36.008 Z20.000
G01 X55.285 Y36.008 
G01 X55.065 Y36.325 
G01 X54.177 Y36.325 
G01 X53.733 Y36.325 Z19.645
G01 X53.289 Y36.325 Z19.480
G01 X52.402 Y36.325 Z19.038
G01 X51.514 Y36.325 Z18.674
G01 X51.070 Y36.325 Z18.517
G01 X50.182 Y36.325 Z18.269
G01 X49.294 Y36.325 Z18.077
G01 X48.407 Y36.325 Z17.936
G01 X47.519 Y36.325 Z17.843
G01 X46.631 Y36.325 Z17.810
G01 X45.743 Y36.325 Z17.831
G01 X44.855 Y36.325 Z17.898
G01 X43.968 Y36.325 Z18.013
G01 X43.080 Y36.325 Z18.189
G01 X42.192 Y36.325 Z18.424
G01 X41.304 Y36.325 Z18.719
G01 X40.417 Y36.325 Z19.097
G01 X39.973 Y36.325 Z19.315
G01 X39.529 Y36.325 Z19.503
G01 X39.085 Y36.325 Z19.744
G01 X38.641 Y36.325 Z19.734
G01 X38.197 Y36.325 Z20.000
G01 X38.454 Y36.643 
G01 X38.897 Y36.643 Z19.702
G01 X39.340 Y36.643 Z19.670
G01 X39.783 Y36.643 Z19.524
G01 X40.669 Y36.643 Z19.086
G01 X41.555 Y36.643 Z18.723
G01 X42.442 Y36.643 Z18.441
G01 X43.328 Y36.643 Z18.220
G01 X44.214 Y36.643 Z18.065
G01 X45.100 Y36.643 Z17.962
G01 X45.986 Y36.643 Z17.907
G01 X46.873 Y36.643 Z17.898
G01 X47.316 Y36.643 Z17.913
G01 X48.202 Y36.643 Z17.996
G01 X49.088 Y36.643 Z18.127
G01 X49.974 Y36.643 Z18.310
G01 X50.860 Y36.643 Z18.546
G01 X51.747 Y36.643 Z18.860
G01 X52.633 Y36.643 Z19.248
G01 X53.519 Y36.643 Z19.648
G01 X53.962 Y36.643 Z19.663
G01 X54.405 Y36.643 Z20.000
G01 X54.848 Y36.643 
G01 X54.635 Y36.960 
G01 X54.193 Y36.960 
G01 X53.750 Y36.960 Z19.691
G01 X53.307 Y36.960 Z19.648
G01 X52.865 Y36.960 Z19.480
G01 X51.979 Y36.960 Z19.063
G01 X51.094 Y36.960 Z18.723
G01 X50.208 Y36.960 Z18.464
G01 X49.323 Y36.960 Z18.265
G01 X48.438 Y36.960 Z18.119
G01 X47.552 Y36.960 Z18.022
G01 X46.667 Y36.960 Z17.988
G01 X45.782 Y36.960 Z18.008
G01 X44.896 Y36.960 Z18.075
G01 X44.011 Y36.960 Z18.191
G01 X43.125 Y36.960 Z18.361
G01 X42.240 Y36.960 Z18.598
G01 X41.797 Y36.960 Z18.740
G01 X40.912 Y36.960 Z19.087
G01 X40.026 Y36.960 Z19.510
G01 X39.141 Y36.960 Z19.685
G01 X38.698 Y36.960 Z20.000
G01 X38.936 Y37.278 
G01 X39.378 Y37.278 Z19.671
G01 X39.821 Y37.278 Z19.688
G01 X40.264 Y37.278 Z19.514
G01 X41.149 Y37.278 Z19.105
G01 X42.034 Y37.278 Z18.771
G01 X42.919 Y37.278 Z18.512
G01 X43.804 Y37.278 Z18.329
G01 X44.689 Y37.278 Z18.200
G01 X45.574 Y37.278 Z18.121
G01 X46.459 Y37.278 Z18.090
G01 X47.344 Y37.278 Z18.107
G01 X48.229 Y37.278 Z18.192
G01 X49.114 Y37.278 Z18.328
G01 X49.999 Y37.278 Z18.517
G01 X50.884 Y37.278 Z18.760
G01 X51.769 Y37.278 Z19.088
G01 X52.211 Y37.278 Z19.280
G01 X52.654 Y37.278 Z19.434
G01 X53.096 Y37.278 Z19.644
G01 X53.539 Y37.278 Z19.702
G01 X53.981 Y37.278 Z20.000
G01 X54.424 Y37.278 
G01 X54.206 Y37.595 
G01 X53.321 Y37.595 
G01 X52.879 Y37.595 Z19.665
G01 X52.436 Y37.595 Z19.513
G01 X51.552 Y37.595 Z19.121
G01 X50.667 Y37.595 Z18.805
G01 X49.782 Y37.595 Z18.573
G01 X48.897 Y37.595 Z18.395
G01 X48.012 Y37.595 Z18.270
G01 X47.570 Y37.595 Z18.226
G01 X46.685 Y37.595 Z18.195
G01 X45.800 Y37.595 Z18.215
G01 X44.915 Y37.595 Z18.282
G01 X44.030 Y37.595 Z18.400
G01 X43.146 Y37.595 Z18.573
G01 X42.261 Y37.595 Z18.813
G01 X41.376 Y37.595 Z19.132
G01 X40.491 Y37.595 Z19.527
G01 X40.049 Y37.595 Z19.756
G01 X39.606 Y37.595 Z19.686
G01 X39.164 Y37.595 Z20.000
G01 X39.390 Y37.913 Z19.917
G01 X39.832 Y37.913 Z19.691
G01 X40.274 Y37.913 Z19.724
G01 X40.716 Y37.913 Z19.562
G01 X41.600 Y37.913 Z19.179
G01 X42.042 Y37.913 Z19.014
G01 X42.926 Y37.913 Z18.754
G01 X43.810 Y37.913 Z18.556
G01 X44.694 Y37.913 Z18.424
G01 X45.578 Y37.913 Z18.342
G01 X46.462 Y37.913 Z18.311
G01 X47.346 Y37.913 Z18.328
G01 X48.231 Y37.913 Z18.414
G01 X49.115 Y37.913 Z18.554
G01 X49.999 Y37.913 Z18.747
G01 X50.441 Y37.913 Z18.863
G01 X50.883 Y37.913 Z19.000
G01 X51.767 Y37.913 Z19.339
G01 X52.209 Y37.913 Z19.538
G01 X52.651 Y37.913 Z19.692
G01 X53.093 Y37.913 Z19.745
G01 X53.535 Y37.913 Z20.000
G01 X53.977 Y37.913 
G01 X53.743 Y38.230 
G01 X53.302 Y38.230 
G01 X52.861 Y38.230 Z19.780
G01 X52.420 Y38.230 Z19.725
G01 X51.979 Y38.230 Z19.579
G01 X51.097 Y38.230 Z19.215
G01 X50.657 Y38.230 Z19.061
G01 X50.216 Y38.230 Z18.930
G01 X49.334 Y38.230 Z18.722
G01 X48.452 Y38.230 Z18.568
G01 X47.571 Y38.230 Z18.468
G01 X46.689 Y38.230 Z18.434
G01 X45.807 Y38.230 Z18.453
G01 X44.925 Y38.230 Z18.523
G01 X44.044 Y38.230 Z18.642
G01 X43.162 Y38.230 Z18.827
G01 X42.280 Y38.230 Z19.073
G01 X41.839 Y38.230 Z19.223
G01 X40.958 Y38.230 Z19.595
G01 X40.517 Y38.230 Z19.707
G01 X40.076 Y38.230 Z19.712
G01 X39.635 Y38.230 Z20.000
G01 X39.903 Y38.548 
G01 X40.356 Y38.548 Z19.827
G01 X40.808 Y38.548 Z19.767
G01 X42.167 Y38.548 Z19.260
G01 X43.073 Y38.548 Z18.994
G01 X43.978 Y38.548 Z18.794
G01 X44.884 Y38.548 Z18.659
G01 X45.790 Y38.548 Z18.586
G01 X46.695 Y38.548 Z18.565
G01 X47.148 Y38.548 Z18.577
G01 X48.054 Y38.548 Z18.656
G01 X48.959 Y38.548 Z18.791
G01 X49.865 Y38.548 Z18.983
G01 X50.318 Y38.548 Z19.099
G01 X50.771 Y38.548 Z19.242
G01 X51.676 Y38.548 Z19.595
G01 X52.129 Y38.548 Z19.691
G01 X52.582 Y38.548 Z19.720
G01 X53.035 Y38.548 Z20.000
G01 X53.488 Y38.548 
G01 X53.220 Y38.865 
G01 X52.771 Y38.865 Z19.936
G01 X52.322 Y38.865 Z19.730
G01 X51.873 Y38.865 Z19.794
G01 X51.424 Y38.865 Z19.650
G01 X50.975 Y38.865 Z19.471
G01 X50.526 Y38.865 Z19.321
G01 X49.627 Y38.865 Z19.085
G01 X48.729 Y38.865 Z18.905
G01 X47.831 Y38.865 Z18.783
G01 X46.933 Y38.865 Z18.716
G01 X46.484 Y38.865 Z18.704
G01 X45.586 Y38.865 Z18.737
G01 X44.688 Y38.865 Z18.829
G01 X43.789 Y38.865 Z18.982
G01 X42.891 Y38.865 Z19.197
G01 X41.993 Y38.865 Z19.482
G01 X41.544 Y38.865 Z19.648
G01 X41.095 Y38.865 Z19.668
G01 X40.646 Y38.865 Z19.753
G01 X40.197 Y38.865 Z20.000
G01 X40.520 Y39.183 
G01 X40.963 Y39.183 Z19.768
G01 X41.407 Y39.183 Z19.653
G01 X41.850 Y39.183 Z19.642
G01 X43.179 Y39.183 Z19.283
G01 X44.066 Y39.183 Z19.086
G01 X44.952 Y39.183 Z18.951
G01 X45.838 Y39.183 Z18.874
G01 X46.281 Y39.183 Z18.858
G01 X47.168 Y39.183 Z18.885
G01 X48.054 Y39.183 Z18.966
G01 X48.940 Y39.183 Z19.104
G01 X49.827 Y39.183 Z19.297
G01 X50.713 Y39.183 Z19.551
G01 X51.156 Y39.183 Z19.589
G01 X51.599 Y39.183 Z19.768
G01 X52.042 Y39.183 Z19.771
G01 X52.485 Y39.183 Z20.000
G01 X52.929 Y39.183 
G01 X52.598 Y39.500 
G01 X51.696 Y39.500 
G01 X51.246 Y39.500 Z19.734
G01 X50.795 Y39.500 Z19.639
G01 X50.344 Y39.500 Z19.617
G01 X49.443 Y39.500 Z19.381
G01 X48.542 Y39.500 Z19.204
G01 X47.640 Y39.500 Z19.088
G01 X46.739 Y39.500 Z19.031
G01 X46.288 Y39.500 Z19.023
G01 X45.387 Y39.500 Z19.071
G01 X44.485 Y39.500 Z19.183
G01 X43.584 Y39.500 Z19.358
G01 X42.683 Y39.500 Z19.602
G01 X42.232 Y39.500 Z19.686
G01 X41.781 Y39.500 Z19.661
G01 X41.331 Y39.500 Z20.000
G01 X40.880 Y39.500 
G01 X41.285 Y39.818 
G01 X41.741 Y39.818 Z19.794
G01 X42.197 Y39.818 Z19.708
G01 X42.653 Y39.818 Z19.708
G01 X43.109 Y39.818 Z19.608
G01 X43.565 Y39.818 Z19.551
G01 X44.476 Y39.818 Z19.368
G01 X45.388 Y39.818 Z19.251
G01 X45.844 Y39.818 Z19.217
G01 X46.756 Y39.818 Z19.213
G01 X47.668 Y39.818 Z19.274
G01 X48.579 Y39.818 Z19.397
G01 X49.491 Y39.818 Z19.585
G01 X49.947 Y39.818 Z19.647
G01 X50.403 Y39.818 Z19.781
G01 X50.859 Y39.818 Z19.670
G01 X51.771 Y39.818 Z20.000
G01 X52.226 Y39.818 
G01 X51.932 Y40.046 
G01 X51.793 Y40.135 
G01 X51.336 Y40.135 
G01 X50.879 Y40.135 Z19.859
G01 X50.422 Y40.135 Z19.852
G01 X49.508 Y40.135 Z19.728
G01 X48.594 Y40.135 Z19.534
G01 X48.138 Y40.135 Z19.526
G01 X47.224 Y40.135 Z19.430
G01 X46.310 Y40.135 Z19.397
G01 X45.853 Y40.135 Z19.406
G01 X44.939 Y40.135 Z19.493
G01 X44.483 Y40.135 Z19.516
G01 X43.569 Y40.135 Z19.687
G01 X43.112 Y40.135 Z19.800
G01 X42.655 Y40.135 Z19.770
G01 X42.198 Y40.135 Z19.819
G01 X41.741 Y40.135 Z20.000
G01 X42.266 Y40.453 
G01 X42.716 Y40.453 
G01 X43.167 Y40.453 Z19.729
G01 X43.617 Y40.453 Z19.626
G01 X44.517 Y40.453 Z19.710
G01 X45.417 Y40.453 Z19.606
G01 X46.317 Y40.453 Z19.564
G01 X47.217 Y40.453 Z19.577
G01 X48.118 Y40.453 Z19.653
G01 X48.568 Y40.453 Z19.708
G01 X49.018 Y40.453 Z19.657
G01 X49.468 Y40.453 Z19.767
G01 X49.918 Y40.453 Z19.773
G01 X50.368 Y40.453 Z20.000
G01 X51.268 Y40.453 
G01 X50.634 Y40.770 
G01 X48.811 Y40.770 
G01 X48.356 Y40.770 Z19.694
G01 X47.444 Y40.770 Z19.627
G01 X46.533 Y40.770 Z19.621
G01 X45.622 Y40.770 Z19.671
G01 X45.166 Y40.770 Z19.720
G01 X44.711 Y40.770 Z19.630
G01 X44.255 Y40.770 Z20.000
G01 X42.889 Y40.770 
G01 X43.658 Y41.084 
G01 X44.110 Y41.088 
G01 X44.550 Y41.088 Z19.855
G01 X45.431 Y41.088 Z19.762
G01 X46.312 Y41.088 Z19.728
G01 X47.192 Y41.088 Z19.746
G01 X48.073 Y41.088 Z19.823
G01 X48.513 Y41.088 Z19.884
G01 X48.953 Y41.088 Z20.000
G01 X49.834 Y41.088 
G01 X49.291 Y41.260 
G01 X48.692 Y41.405 
G01 X44.794 Y41.405 
G00 Z25.000
G00 X39.661 Y42.675  F2540.0
G01 Z19.800 F381.0 M3
G01 X39.176 Y42.675 Z19.718 F1270.0
G01 X38.691 Y42.675 Z19.669
G01 X38.206 Y42.675 Z19.653
G01 X37.721 Y42.675 Z19.690
G01 X37.236 Y42.675 Z19.767
G01 X36.941 Y42.752 Z19.711
G01 X36.554 Y42.876 Z20.000
G01 X36.246 Y42.993 Z19.707
G01 X36.675 Y42.993 Z19.618
G01 X37.105 Y42.993 Z19.759
G01 X37.534 Y42.993 Z19.694
G01 X37.963 Y42.993 Z19.652
G01 X38.393 Y42.993 Z19.632
G01 X38.822 Y42.993 Z19.638
G01 X39.252 Y42.993 Z19.699
G01 X39.681 Y42.993 Z19.730
G01 X40.110 Y42.993 Z19.719
G01 X40.540 Y42.993 Z19.839
G01 X40.768 Y43.099 Z20.000
G01 X41.149 Y43.310 
G01 X40.686 Y43.310 Z19.713
G01 X40.222 Y43.310 Z19.770
G01 X39.759 Y43.310 Z19.643
G01 X39.295 Y43.310 Z19.633
G01 X38.832 Y43.310 Z19.557
G01 X38.369 Y43.310 Z19.513
G01 X37.905 Y43.310 Z19.532
G01 X37.442 Y43.310 Z19.576
G01 X36.978 Y43.310 Z19.648
G01 X36.052 Y43.310 Z19.594
G01 X35.588 Y43.310 Z20.000
G01 X35.535 Y43.339 
G01 X35.276 Y43.508 Z19.735
G01 X35.111 Y43.628 Z19.739
G01 X35.545 Y43.628 Z19.733
G01 X35.979 Y43.628 Z19.597
G01 X36.413 Y43.628 Z19.549
G01 X36.847 Y43.628 Z19.453
G01 X37.715 Y43.628 Z19.366
G01 X38.150 Y43.628 Z19.341
G01 X38.584 Y43.628 Z19.351
G01 X39.018 Y43.628 Z19.403
G01 X39.886 Y43.628 Z19.541
G01 X40.320 Y43.628 Z19.654
G01 X40.754 Y43.628 Z19.626
G01 X41.188 Y43.628 Z20.000
G01 X41.622 Y43.628 
G01 X41.847 Y43.795 
G01 X42.024 Y43.945 Z19.925
G01 X41.567 Y43.945 Z19.725
G01 X41.111 Y43.945 Z19.639
G01 X40.654 Y43.945 Z19.590
G01 X40.197 Y43.945 Z19.498
G01 X39.741 Y43.945 Z19.378
G01 X39.284 Y43.945 Z19.286
G01 X38.827 Y43.945 Z19.221
G01 X38.370 Y43.945 Z19.188
G01 X37.914 Y43.945 Z19.193
G01 X37.457 Y43.945 Z19.230
G01 X37.000 Y43.945 Z19.292
G01 X36.544 Y43.945 Z19.380
G01 X36.087 Y43.945 Z19.496
G01 X35.174 Y43.945 Z19.794
G01 X34.717 Y43.945 Z19.744
G01 X34.543 Y44.101 Z19.747
G01 X34.386 Y44.263 Z20.000
G01 X34.830 Y44.263 Z19.653
G01 X35.274 Y44.263 Z19.606
G01 X36.161 Y44.263 Z19.318
G01 X36.604 Y44.263 Z19.213
G01 X37.048 Y44.263 Z19.134
G01 X37.492 Y44.263 Z19.078
G01 X37.935 Y44.263 Z19.052
G01 X38.379 Y44.263 Z19.057
G01 X38.823 Y44.263 Z19.085
G01 X39.266 Y44.263 Z19.135
G01 X39.710 Y44.263 Z19.219
G01 X40.153 Y44.263 Z19.328
G01 X41.041 Y44.263 Z19.589
G01 X41.484 Y44.263 Z19.777
G01 X41.928 Y44.263 Z19.844
G01 X42.371 Y44.263 Z20.000
G01 X42.676 Y44.580 
G01 X42.223 Y44.580 Z19.741
G01 X41.771 Y44.580 Z19.717
G01 X41.319 Y44.580 Z19.600
G01 X40.866 Y44.580 Z19.410
G01 X40.414 Y44.580 Z19.253
G01 X39.962 Y44.580 Z19.135
G01 X39.509 Y44.580 Z19.051
G01 X39.057 Y44.580 Z18.990
G01 X38.605 Y44.580 Z18.952
G01 X38.152 Y44.580 Z18.936
G01 X37.700 Y44.580 Z18.942
G01 X37.248 Y44.580 Z18.986
G01 X36.796 Y44.580 Z19.055
G01 X36.343 Y44.580 Z19.148
G01 X35.891 Y44.580 Z19.265
G01 X34.534 Y44.580 Z19.735
G01 X34.082 Y44.580 Z19.766
G01 X33.825 Y44.898 Z19.751
G01 X34.281 Y44.898 Z19.753
G01 X34.737 Y44.898 Z19.596
G01 X35.193 Y44.898 Z19.394
G01 X35.649 Y44.898 Z19.223
G01 X36.105 Y44.898 Z19.089
G01 X36.561 Y44.898 Z18.988
G01 X37.017 Y44.898 Z18.909
G01 X37.473 Y44.898 Z18.853
G01 X37.929 Y44.898 Z18.826
G01 X38.385 Y44.898 Z18.832
G01 X38.841 Y44.898 Z18.859
G01 X39.297 Y44.898 Z18.907
G01 X39.753 Y44.898 Z18.977
G01 X40.209 Y44.898 Z19.074
G01 X40.665 Y44.898 Z19.210
G01 X41.121 Y44.898 Z19.382
G01 X41.577 Y44.898 Z19.585
G01 X42.033 Y44.898 Z19.757
G01 X42.489 Y44.898 Z20.000
G01 X42.945 Y44.898 
G01 X43.184 Y45.215 
G01 X42.727 Y45.215 Z19.745
G01 X42.270 Y45.215 Z19.675
G01 X41.813 Y45.215 Z19.564
G01 X41.356 Y45.215 Z19.355
G01 X40.899 Y45.215 Z19.174
G01 X40.442 Y45.215 Z19.035
G01 X39.985 Y45.215 Z18.920
G01 X39.528 Y45.215 Z18.839
G01 X39.071 Y45.215 Z18.782
G01 X38.613 Y45.215 Z18.745
G01 X38.156 Y45.215 Z18.730
G01 X37.699 Y45.215 Z18.736
G01 X37.242 Y45.215 Z18.780
G01 X36.785 Y45.215 Z18.846
G01 X36.328 Y45.215 Z18.935
G01 X35.871 Y45.215 Z19.045
G01 X35.414 Y45.215 Z19.187
G01 X34.957 Y45.215 Z19.367
G01 X34.500 Y45.215 Z19.524
G01 X34.043 Y45.215 Z19.742
G01 X33.586 Y45.215 Z19.749
G01 X33.369 Y45.533 Z20.000
G01 X33.825 Y45.533 Z19.691
G01 X34.281 Y45.533 Z19.567
G01 X34.737 Y45.533 Z19.350
G01 X35.193 Y45.533 Z19.163
G01 X35.649 Y45.533 Z19.006
G01 X36.105 Y45.533 Z18.889
G01 X36.560 Y45.533 Z18.794
G01 X37.016 Y45.533 Z18.720
G01 X37.472 Y45.533 Z18.667
G01 X37.928 Y45.533 Z18.641
G01 X38.840 Y45.533 Z18.671
G01 X39.296 Y45.533 Z18.716
G01 X39.751 Y45.533 Z18.781
G01 X40.207 Y45.533 Z18.878
G01 X40.663 Y45.533 Z19.000
G01 X41.119 Y45.533 Z19.153
G01 X42.031 Y45.533 Z19.517
G01 X42.487 Y45.533 Z19.746
G01 X42.942 Y45.533 Z20.000
G01 X43.398 Y45.533 
G01 X43.590 Y45.850 
G01 X43.138 Y45.850 Z19.754
G01 X42.685 Y45.850 Z19.664
G01 X42.232 Y45.850 Z19.549
G01 X41.779 Y45.850 Z19.327
G01 X41.327 Y45.850 Z19.133
G01 X40.874 Y45.850 Z18.978
G01 X40.421 Y45.850 Z18.849
G01 X39.969 Y45.850 Z18.742
G01 X39.516 Y45.850 Z18.662
G01 X38.610 Y45.850 Z18.576
G01 X38.158 Y45.850 Z18.562
G01 X37.705 Y45.850 Z18.570
G01 X36.799 Y45.850 Z18.671
G01 X36.347 Y45.850 Z18.752
G01 X35.894 Y45.850 Z18.854
G01 X35.441 Y45.850 Z18.978
G01 X34.988 Y45.850 Z19.140
G01 X34.536 Y45.850 Z19.332
G01 X34.083 Y45.850 Z19.499
G01 X33.630 Y45.850 Z19.736
G01 X33.177 Y45.850 Z19.834
G01 X32.995 Y46.168 Z19.768
G01 X33.444 Y46.168 Z19.764
G01 X34.341 Y46.168 Z19.322
G01 X34.789 Y46.168 Z19.125
G01 X35.237 Y46.168 Z18.956
G01 X35.686 Y46.168 Z18.824
G01 X36.134 Y46.168 Z18.716
G01 X37.031 Y46.168 Z18.562
G01 X37.479 Y46.168 Z18.513
G01 X37.928 Y46.168 Z18.486
G01 X38.825 Y46.168 Z18.512
G01 X39.273 Y46.168 Z18.552
G01 X39.721 Y46.168 Z18.618
G01 X40.170 Y46.168 Z18.710
G01 X40.618 Y46.168 Z18.823
G01 X41.067 Y46.168 Z18.957
G01 X41.515 Y46.168 Z19.118
G01 X41.963 Y46.168 Z19.315
G01 X42.412 Y46.168 Z19.543
G01 X42.860 Y46.168 Z19.745
G01 X43.309 Y46.168 Z19.751
G01 X43.757 Y46.168 Z20.000
G01 X43.905 Y46.485 
G01 X43.462 Y46.485 
G01 X43.020 Y46.485 Z19.678
G01 X42.577 Y46.485 Z19.535
G01 X42.134 Y46.485 Z19.306
G01 X41.692 Y46.485 Z19.106
G01 X41.249 Y46.485 Z18.941
G01 X40.806 Y46.485 Z18.803
G01 X39.921 Y46.485 Z18.589
G01 X39.479 Y46.485 Z18.511
G01 X38.593 Y46.485 Z18.434
G01 X38.151 Y46.485 Z18.421
G01 X37.708 Y46.485 Z18.430
G01 X36.823 Y46.485 Z18.523
G01 X35.938 Y46.485 Z18.688
G01 X35.495 Y46.485 Z18.800
G01 X35.052 Y46.485 Z18.938
G01 X34.610 Y46.485 Z19.112
G01 X34.167 Y46.485 Z19.310
G01 X33.282 Y46.485 Z19.749
G01 X32.839 Y46.485 Z19.766
G01 X32.687 Y46.803 Z19.772
G01 X33.142 Y46.803 Z19.702
G01 X33.596 Y46.803 Z19.523
G01 X34.050 Y46.803 Z19.285
G01 X34.505 Y46.803 Z19.078
G01 X34.959 Y46.803 Z18.900
G01 X35.413 Y46.803 Z18.756
G01 X36.322 Y46.803 Z18.544
G01 X37.231 Y46.803 Z18.410
G01 X37.685 Y46.803 Z18.371
G01 X38.140 Y46.803 Z18.361
G01 X39.048 Y46.803 Z18.403
G01 X39.503 Y46.803 Z18.454
G01 X40.412 Y46.803 Z18.635
G01 X40.866 Y46.803 Z18.755
G01 X41.320 Y46.803 Z18.896
G01 X41.775 Y46.803 Z19.063
G01 X42.229 Y46.803 Z19.269
G01 X42.684 Y46.803 Z19.506
G01 X43.138 Y46.803 Z19.670
G01 X43.592 Y46.803 Z19.752
G01 X44.047 Y46.803 Z20.000
G01 X44.162 Y47.120 
G01 X43.716 Y47.120 Z19.849
G01 X43.270 Y47.120 Z19.724
G01 X42.377 Y47.120 Z19.268
G01 X41.931 Y47.120 Z19.060
G01 X41.485 Y47.120 Z18.892
G01 X41.038 Y47.120 Z18.746
G01 X40.146 Y47.120 Z18.518
G01 X39.253 Y47.120 Z18.365
G01 X38.361 Y47.120 Z18.316
G01 X37.468 Y47.120 Z18.334
G01 X37.022 Y47.120 Z18.377
G01 X36.130 Y47.120 Z18.523
G01 X35.684 Y47.120 Z18.623
G01 X34.791 Y47.120 Z18.902
G01 X34.345 Y47.120 Z19.073
G01 X33.899 Y47.120 Z19.282
G01 X33.452 Y47.120 Z19.521
G01 X33.006 Y47.120 Z19.695
G01 X32.560 Y47.120 Z20.000
G01 X32.435 Y47.438 Z19.786
G01 X33.345 Y47.438 Z19.503
G01 X33.801 Y47.438 Z19.260
G01 X34.256 Y47.438 Z19.054
G01 X34.711 Y47.438 Z18.877
G01 X35.166 Y47.438 Z18.723
G01 X36.077 Y47.438 Z18.480
G01 X36.532 Y47.438 Z18.394
G01 X36.987 Y47.438 Z18.329
G01 X37.898 Y47.438 Z18.275
G01 X38.808 Y47.438 Z18.289
G01 X39.263 Y47.438 Z18.322
G01 X39.719 Y47.438 Z18.387
G01 X40.629 Y47.438 Z18.579
G01 X41.084 Y47.438 Z18.706
G01 X41.540 Y47.438 Z18.854
G01 X41.995 Y47.438 Z19.025
G01 X42.450 Y47.438 Z19.235
G01 X43.360 Y47.438 Z19.704
G01 X43.816 Y47.438 Z19.749
G01 X44.271 Y47.438 Z20.000
G01 X44.357 Y47.755 
G01 X43.911 Y47.755 
G01 X43.466 Y47.755 Z19.581
G01 X43.021 Y47.755 Z19.479
G01 X42.575 Y47.755 Z19.238
G01 X42.130 Y47.755 Z19.027
G01 X41.685 Y47.755 Z18.854
G01 X41.239 Y47.755 Z18.704
G01 X40.348 Y47.755 Z18.466
G01 X39.458 Y47.755 Z18.304
G01 X38.567 Y47.755 Z18.243
G01 X37.676 Y47.755 Z18.246
G01 X36.786 Y47.755 Z18.313
G01 X36.340 Y47.755 Z18.383
G01 X35.450 Y47.755 Z18.593
G01 X35.004 Y47.755 Z18.727
G01 X34.559 Y47.755 Z18.883
G01 X34.114 Y47.755 Z19.062
G01 X33.668 Y47.755 Z19.275
G01 X32.778 Y47.755 Z19.762
G01 X32.332 Y47.755 Z19.790
G01 X32.232 Y48.073 Z19.797
G01 X32.684 Y48.073 Z19.683
G01 X33.136 Y48.073 Z19.525
G01 X33.588 Y48.073 Z19.268
G01 X34.040 Y48.073 Z19.046
G01 X34.492 Y48.073 Z18.864
G01 X34.944 Y48.073 Z18.705
G01 X35.847 Y48.073 Z18.451
G01 X36.299 Y48.073 Z18.353
G01 X36.751 Y48.073 Z18.283
G01 X37.655 Y48.073 Z18.213
G01 X38.559 Y48.073 Z18.210
G01 X39.463 Y48.073 Z18.272
G01 X39.914 Y48.073 Z18.340
G01 X40.818 Y48.073 Z18.542
G01 X41.270 Y48.073 Z18.672
G01 X41.722 Y48.073 Z18.823
G01 X42.174 Y48.073 Z18.997
G01 X42.626 Y48.073 Z19.207
G01 X43.078 Y48.073 Z19.451
G01 X43.530 Y48.073 Z19.663
G01 X43.981 Y48.073 Z19.748
G01 X44.433 Y48.073 Z20.000
G01 X44.492 Y48.390 
G01 X44.051 Y48.390 Z19.725
G01 X43.611 Y48.390 Z19.681
G01 X42.729 Y48.390 Z19.208
G01 X42.288 Y48.390 Z19.003
G01 X41.848 Y48.390 Z18.829
G01 X40.966 Y48.390 Z18.546
G01 X40.085 Y48.390 Z18.338
G01 X39.644 Y48.390 Z18.262
G01 X38.762 Y48.390 Z18.189
G01 X37.881 Y48.390 Z18.178
G01 X37.000 Y48.390 Z18.228
G01 X36.559 Y48.390 Z18.276
G01 X35.677 Y48.390 Z18.460
G01 X34.796 Y48.390 Z18.721
G01 X34.355 Y48.390 Z18.882
G01 X33.914 Y48.390 Z19.065
G01 X33.474 Y48.390 Z19.283
G01 X33.033 Y48.390 Z19.538
G01 X32.592 Y48.390 Z19.682
G01 X32.151 Y48.390 Z20.000
G01 X32.075 Y48.708 
G01 X32.521 Y48.708 Z19.676
G01 X32.966 Y48.708 Z19.508
G01 X33.857 Y48.708 Z19.056
G01 X34.302 Y48.708 Z18.870
G01 X34.747 Y48.708 Z18.706
G01 X35.638 Y48.708 Z18.442
G01 X36.083 Y48.708 Z18.338
G01 X36.529 Y48.708 Z18.255
G01 X37.419 Y48.708 Z18.172
G01 X38.310 Y48.708 Z18.151
G01 X39.201 Y48.708 Z18.192
G01 X39.646 Y48.708 Z18.237
G01 X40.091 Y48.708 Z18.308
G01 X40.982 Y48.708 Z18.517
G01 X41.873 Y48.708 Z18.802
G01 X42.318 Y48.708 Z18.977
G01 X42.763 Y48.708 Z19.189
G01 X43.654 Y48.708 Z19.658
G01 X44.099 Y48.708 Z19.763
G01 X44.544 Y48.708 Z20.000
G01 X44.581 Y49.025 
G01 X44.132 Y49.025 Z19.734
G01 X43.683 Y49.025 Z19.633
G01 X43.235 Y49.025 Z19.413
G01 X42.786 Y49.025 Z19.166
G01 X42.337 Y49.025 Z18.951
G01 X41.888 Y49.025 Z18.775
G01 X40.991 Y49.025 Z18.489
G01 X40.093 Y49.025 Z18.281
G01 X39.644 Y49.025 Z18.216
G01 X38.747 Y49.025 Z18.144
G01 X37.849 Y49.025 Z18.135
G01 X36.952 Y49.025 Z18.189
G01 X36.503 Y49.025 Z18.239
G01 X36.054 Y49.025 Z18.322
G01 X35.156 Y49.025 Z18.550
G01 X34.708 Y49.025 Z18.694
G01 X34.259 Y49.025 Z18.859
G01 X33.810 Y49.025 Z19.047
G01 X32.912 Y49.025 Z19.506
G01 X32.464 Y49.025 Z19.712
G01 X32.015 Y49.025 Z20.000
G01 X31.962 Y49.343 Z19.826
G01 X32.414 Y49.343 Z19.785
G01 X32.866 Y49.343 Z19.544
G01 X33.318 Y49.343 Z19.278
G01 X33.770 Y49.343 Z19.044
G01 X34.222 Y49.343 Z18.851
G01 X34.674 Y49.343 Z18.684
G01 X35.578 Y49.343 Z18.414
G01 X36.030 Y49.343 Z18.308
G01 X36.482 Y49.343 Z18.225
G01 X37.386 Y49.343 Z18.138
G01 X38.290 Y49.343 Z18.114
G01 X39.194 Y49.343 Z18.154
G01 X40.098 Y49.343 Z18.260
G01 X41.002 Y49.343 Z18.467
G01 X41.906 Y49.343 Z18.753
G01 X42.358 Y49.343 Z18.933
G01 X42.810 Y49.343 Z19.152
G01 X43.262 Y49.343 Z19.401
G01 X43.714 Y49.343 Z19.622
G01 X44.165 Y49.343 Z19.682
G01 X44.617 Y49.343 Z20.000
G01 X44.638 Y49.660 
G01 X44.184 Y49.660 Z19.672
G01 X43.730 Y49.660 Z19.615
G01 X43.275 Y49.660 Z19.390
G01 X42.821 Y49.660 Z19.140
G01 X42.367 Y49.660 Z18.919
G01 X41.913 Y49.660 Z18.739
G01 X41.005 Y49.660 Z18.448
G01 X40.096 Y49.660 Z18.240
G01 X39.188 Y49.660 Z18.137
G01 X38.280 Y49.660 Z18.098
G01 X37.371 Y49.660 Z18.123
G01 X36.463 Y49.660 Z18.211
G01 X36.009 Y49.660 Z18.296
G01 X35.100 Y49.660 Z18.529
G01 X34.646 Y49.660 Z18.676
G01 X34.192 Y49.660 Z18.844
G01 X33.738 Y49.660 Z19.040
G01 X33.284 Y49.660 Z19.277
G01 X32.829 Y49.660 Z19.546
G01 X32.375 Y49.660 Z19.788
G01 X31.921 Y49.660 Z19.830
G01 X31.892 Y49.978 Z19.836
G01 X32.332 Y49.978 Z19.799
G01 X32.772 Y49.978 Z19.569
G01 X33.212 Y49.978 Z19.304
G01 X33.653 Y49.978 Z19.071
G01 X34.093 Y49.978 Z18.870
G01 X34.973 Y49.978 Z18.555
G01 X35.854 Y49.978 Z18.318
G01 X36.294 Y49.978 Z18.228
G01 X37.174 Y49.978 Z18.130
G01 X38.055 Y49.978 Z18.091
G01 X38.935 Y49.978 Z18.113
G01 X39.816 Y49.978 Z18.194
G01 X40.256 Y49.978 Z18.262
G01 X41.136 Y49.978 Z18.479
G01 X42.017 Y49.978 Z18.771
G01 X42.457 Y49.978 Z18.954
G01 X42.897 Y49.978 Z19.172
G01 X43.337 Y49.978 Z19.419
G01 X43.778 Y49.978 Z19.602
G01 X44.218 Y49.978 Z19.684
G01 X44.658 Y49.978 Z20.000
G01 X44.675 Y50.295 
G01 X44.233 Y50.295 Z19.688
G01 X43.792 Y50.295 Z19.603
G01 X43.350 Y50.295 Z19.421
G01 X42.909 Y50.295 Z19.173
G01 X42.467 Y50.295 Z18.954
G01 X42.025 Y50.295 Z18.771
G01 X41.142 Y50.295 Z18.478
G01 X40.259 Y50.295 Z18.260
G01 X39.818 Y50.295 Z18.190
G01 X38.935 Y50.295 Z18.109
G01 X38.052 Y50.295 Z18.087
G01 X37.168 Y50.295 Z18.125
G01 X36.285 Y50.295 Z18.224
G01 X35.402 Y50.295 Z18.423
G01 X34.519 Y50.295 Z18.699
G01 X34.078 Y50.295 Z18.867
G01 X33.636 Y50.295 Z19.071
G01 X33.195 Y50.295 Z19.305
G01 X32.753 Y50.295 Z19.571
G01 X32.311 Y50.295 Z19.800
G01 X31.870 Y50.295 Z19.841
G01 X31.865 Y50.613 Z19.841
G01 X32.307 Y50.613 Z19.798
G01 X32.749 Y50.613 Z19.569
G01 X33.191 Y50.613 Z19.303
G01 X33.633 Y50.613 Z19.068
G01 X34.075 Y50.613 Z18.864
G01 X34.959 Y50.613 Z18.548
G01 X35.843 Y50.613 Z18.310
G01 X36.285 Y50.613 Z18.221
G01 X37.169 Y50.613 Z18.122
G01 X38.053 Y50.613 Z18.084
G01 X38.937 Y50.613 Z18.106
G01 X39.821 Y50.613 Z18.188
G01 X40.263 Y50.613 Z18.260
G01 X41.147 Y50.613 Z18.478
G01 X42.031 Y50.613 Z18.772
G01 X42.473 Y50.613 Z18.954
G01 X42.915 Y50.613 Z19.174
G01 X43.357 Y50.613 Z19.423
G01 X43.799 Y50.613 Z19.602
G01 X44.241 Y50.613 Z19.688
G01 X44.683 Y50.613 Z20.000
G01 X44.692 Y50.930 
G01 X44.249 Y50.930 Z19.694
G01 X43.807 Y50.930 Z19.603
G01 X43.365 Y50.930 Z19.428
G01 X42.922 Y50.930 Z19.178
G01 X42.480 Y50.930 Z18.958
G01 X42.037 Y50.930 Z18.776
G01 X41.153 Y50.930 Z18.481
G01 X40.268 Y50.930 Z18.262
G01 X39.826 Y50.930 Z18.190
G01 X38.941 Y50.930 Z18.107
G01 X38.056 Y50.930 Z18.085
G01 X37.171 Y50.930 Z18.123
G01 X36.286 Y50.930 Z18.222
G01 X35.844 Y50.930 Z18.310
G01 X34.959 Y50.930 Z18.548
G01 X34.075 Y50.930 Z18.864
G01 X33.632 Y50.930 Z19.070
G01 X33.190 Y50.930 Z19.305
G01 X32.747 Y50.930 Z19.572
G01 X32.305 Y50.930 Z19.800
G01 X31.863 Y50.930 Z19.844
G01 X31.882 Y51.248 Z19.853
G01 X32.324 Y51.248 Z19.793
G01 X32.766 Y51.248 Z19.567
G01 X33.208 Y51.248 Z19.302
G01 X33.650 Y51.248 Z19.068
G01 X34.092 Y51.248 Z18.862
G01 X34.976 Y51.248 Z18.547
G01 X35.860 Y51.248 Z18.310
G01 X36.302 Y51.248 Z18.226
G01 X37.186 Y51.248 Z18.128
G01 X38.070 Y51.248 Z18.091
G01 X38.954 Y51.248 Z18.114
G01 X39.838 Y51.248 Z18.197
G01 X40.280 Y51.248 Z18.270
G01 X41.164 Y51.248 Z18.488
G01 X42.047 Y51.248 Z18.783
G01 X42.489 Y51.248 Z18.964
G01 X42.931 Y51.248 Z19.185
G01 X43.373 Y51.248 Z19.435
G01 X43.815 Y51.248 Z19.609
G01 X44.257 Y51.248 Z19.700
G01 X44.699 Y51.248 Z20.000
G01 X44.700 Y51.565 
G01 X44.259 Y51.565 Z19.702
G01 X43.818 Y51.565 Z19.612
G01 X43.376 Y51.565 Z19.437
G01 X42.935 Y51.565 Z19.188
G01 X42.494 Y51.565 Z18.968
G01 X42.052 Y51.565 Z18.788
G01 X41.170 Y51.565 Z18.495
G01 X40.287 Y51.565 Z18.279
G01 X39.846 Y51.565 Z18.207
G01 X38.963 Y51.565 Z18.124
G01 X38.080 Y51.565 Z18.101
G01 X37.198 Y51.565 Z18.139
G01 X36.315 Y51.565 Z18.236
G01 X35.433 Y51.565 Z18.431
G01 X34.550 Y51.565 Z18.699
G01 X34.109 Y51.565 Z18.866
G01 X33.667 Y51.565 Z19.072
G01 X33.226 Y51.565 Z19.305
G01 X32.785 Y51.565 Z19.569
G01 X32.343 Y51.565 Z19.792
G01 X31.902 Y51.565 Z19.843
G01 X31.948 Y51.883 Z19.839
G01 X32.388 Y51.883 Z19.789
G01 X32.828 Y51.883 Z19.567
G01 X33.267 Y51.883 Z19.305
G01 X33.707 Y51.883 Z19.075
G01 X34.147 Y51.883 Z18.881
G01 X35.026 Y51.883 Z18.575
G01 X35.906 Y51.883 Z18.344
G01 X36.346 Y51.883 Z18.254
G01 X37.225 Y51.883 Z18.154
G01 X38.105 Y51.883 Z18.116
G01 X38.984 Y51.883 Z18.137
G01 X39.864 Y51.883 Z18.219
G01 X40.304 Y51.883 Z18.290
G01 X41.183 Y51.883 Z18.505
G01 X42.063 Y51.883 Z18.796
G01 X42.503 Y51.883 Z18.974
G01 X42.942 Y51.883 Z19.192
G01 X43.382 Y51.883 Z19.441
G01 X43.822 Y51.883 Z19.615
G01 X44.262 Y51.883 Z19.704
G01 X44.701 Y51.883 Z20.000
G01 X44.702 Y52.200 
G01 X44.249 Y52.200 Z19.698
G01 X43.795 Y52.200 Z19.600
G01 X43.341 Y52.200 Z19.419
G01 X42.887 Y52.200 Z19.167
G01 X42.433 Y52.200 Z18.946
G01 X41.979 Y52.200 Z18.767
G01 X41.525 Y52.200 Z18.612
G01 X40.618 Y52.200 Z18.366
G01 X40.164 Y52.200 Z18.271
G01 X39.256 Y52.200 Z18.170
G01 X38.348 Y52.200 Z18.132
G01 X37.441 Y52.200 Z18.159
G01 X36.533 Y52.200 Z18.248
G01 X35.625 Y52.200 Z18.440
G01 X34.718 Y52.200 Z18.708
G01 X34.264 Y52.200 Z18.872
G01 X33.810 Y52.200 Z19.060
G01 X33.356 Y52.200 Z19.290
G01 X32.902 Y52.200 Z19.549
G01 X32.448 Y52.200 Z19.686
G01 X31.994 Y52.200 Z20.000
G01 X32.060 Y52.518 
G01 X32.511 Y52.518 Z19.647
G01 X32.963 Y52.518 Z19.570
G01 X33.414 Y52.518 Z19.311
G01 X33.866 Y52.518 Z19.082
G01 X34.317 Y52.518 Z18.891
G01 X34.768 Y52.518 Z18.727
G01 X35.671 Y52.518 Z18.462
G01 X36.574 Y52.518 Z18.269
G01 X37.477 Y52.518 Z18.177
G01 X38.380 Y52.518 Z18.151
G01 X39.283 Y52.518 Z18.187
G01 X40.186 Y52.518 Z18.286
G01 X41.089 Y52.518 Z18.491
G01 X41.540 Y52.518 Z18.623
G01 X41.992 Y52.518 Z18.777
G01 X42.443 Y52.518 Z18.953
G01 X42.895 Y52.518 Z19.172
G01 X43.346 Y52.518 Z19.423
G01 X43.797 Y52.518 Z19.603
G01 X44.249 Y52.518 Z19.699
G01 X44.700 Y52.518 Z20.000
G01 X44.694 Y52.835 
G01 X44.246 Y52.835 Z19.699
G01 X43.798 Y52.835 Z19.604
G01 X43.349 Y52.835 Z19.427
G01 X42.901 Y52.835 Z19.178
G01 X42.453 Y52.835 Z18.962
G01 X42.004 Y52.835 Z18.788
G01 X41.556 Y52.835 Z18.636
G01 X40.659 Y52.835 Z18.394
G01 X40.211 Y52.835 Z18.302
G01 X39.314 Y52.835 Z18.204
G01 X38.417 Y52.835 Z18.170
G01 X37.521 Y52.835 Z18.197
G01 X37.072 Y52.835 Z18.234
G01 X36.624 Y52.835 Z18.292
G01 X35.727 Y52.835 Z18.484
G01 X34.831 Y52.835 Z18.748
G01 X34.382 Y52.835 Z18.911
G01 X33.934 Y52.835 Z19.103
G01 X33.037 Y52.835 Z19.571
G01 X32.589 Y52.835 Z19.592
G01 X32.141 Y52.835 Z20.000
G01 X32.157 Y52.897 
G01 X32.236 Y53.153 Z19.857
G01 X32.681 Y53.153 Z19.594
G01 X33.126 Y53.153 Z19.578
G01 X34.015 Y53.153 Z19.123
G01 X34.460 Y53.153 Z18.931
G01 X34.905 Y53.153 Z18.769
G01 X35.794 Y53.153 Z18.508
G01 X36.683 Y53.153 Z18.317
G01 X37.128 Y53.153 Z18.256
G01 X38.018 Y53.153 Z18.198
G01 X38.907 Y53.153 Z18.201
G01 X39.796 Y53.153 Z18.265
G01 X40.241 Y53.153 Z18.320
G01 X41.130 Y53.153 Z18.521
G01 X41.575 Y53.153 Z18.651
G01 X42.020 Y53.153 Z18.801
G01 X42.465 Y53.153 Z18.975
G01 X42.909 Y53.153 Z19.190
G01 X43.354 Y53.153 Z19.438
G01 X43.799 Y53.153 Z19.607
G01 X44.243 Y53.153 Z19.705
G01 X44.688 Y53.153 Z20.000
G01 X44.682 Y53.470 
G01 X44.241 Y53.470 Z19.719
G01 X43.801 Y53.470 Z19.616
G01 X43.360 Y53.470 Z19.457
G01 X42.919 Y53.470 Z19.210
G01 X42.478 Y53.470 Z18.997
G01 X42.038 Y53.470 Z18.824
G01 X41.597 Y53.470 Z18.674
G01 X40.716 Y53.470 Z18.435
G01 X40.275 Y53.470 Z18.345
G01 X39.394 Y53.470 Z18.248
G01 X38.512 Y53.470 Z18.217
G01 X37.631 Y53.470 Z18.245
G01 X37.190 Y53.470 Z18.281
G01 X36.749 Y53.470 Z18.345
G01 X35.868 Y53.470 Z18.534
G01 X34.986 Y53.470 Z18.793
G01 X34.546 Y53.470 Z18.953
G01 X34.105 Y53.470 Z19.143
G01 X33.224 Y53.470 Z19.574
G01 X32.783 Y53.470 Z19.688
G01 X32.342 Y53.470 Z20.000
G01 X32.458 Y53.788 
G01 X32.910 Y53.788 Z19.697
G01 X33.362 Y53.788 Z19.611
G01 X33.814 Y53.788 Z19.357
G01 X34.267 Y53.788 Z19.134
G01 X34.719 Y53.788 Z18.946
G01 X35.171 Y53.788 Z18.786
G01 X36.075 Y53.788 Z18.530
G01 X36.979 Y53.788 Z18.347
G01 X37.432 Y53.788 Z18.291
G01 X38.336 Y53.788 Z18.245
G01 X39.240 Y53.788 Z18.262
G01 X40.144 Y53.788 Z18.345
G01 X40.597 Y53.788 Z18.427
G01 X41.501 Y53.788 Z18.660
G01 X41.953 Y53.788 Z18.809
G01 X42.405 Y53.788 Z18.982
G01 X42.857 Y53.788 Z19.196
G01 X43.309 Y53.788 Z19.446
G01 X43.762 Y53.788 Z19.609
G01 X44.214 Y53.788 Z19.721
G01 X44.666 Y53.788 Z20.000
G01 X44.650 Y54.105 
G01 X44.203 Y54.105 Z19.735
G01 X43.756 Y54.105 Z19.692
G01 X42.862 Y54.105 Z19.216
G01 X42.415 Y54.105 Z19.004
G01 X41.968 Y54.105 Z18.833
G01 X41.521 Y54.105 Z18.685
G01 X40.628 Y54.105 Z18.453
G01 X40.181 Y54.105 Z18.373
G01 X39.287 Y54.105 Z18.290
G01 X38.393 Y54.105 Z18.273
G01 X37.499 Y54.105 Z18.318
G01 X37.053 Y54.105 Z18.377
G01 X36.159 Y54.105 Z18.559
G01 X35.265 Y54.105 Z18.812
G01 X34.818 Y54.105 Z18.969
G01 X34.371 Y54.105 Z19.159
G01 X33.924 Y54.105 Z19.379
G01 X33.477 Y54.105 Z19.629
G01 X33.030 Y54.105 Z19.605
G01 X32.584 Y54.105 Z20.000
G01 X32.722 Y54.423 Z19.863
G01 X33.163 Y54.423 Z19.612
G01 X33.604 Y54.423 Z19.598
G01 X34.487 Y54.423 Z19.183
G01 X34.928 Y54.423 Z18.994
G01 X35.369 Y54.423 Z18.838
G01 X36.251 Y54.423 Z18.588
G01 X37.134 Y54.423 Z18.409
G01 X37.575 Y54.423 Z18.349
G01 X38.457 Y54.423 Z18.305
G01 X39.339 Y54.423 Z18.321
G01 X40.222 Y54.423 Z18.402
G01 X40.663 Y54.423 Z18.483
G01 X41.545 Y54.423 Z18.713
G01 X41.986 Y54.423 Z18.858
G01 X42.428 Y54.423 Z19.027
G01 X42.869 Y54.423 Z19.239
G01 X43.310 Y54.423 Z19.486
G01 X43.751 Y54.423 Z19.710
G01 X44.192 Y54.423 Z19.749
G01 X44.633 Y54.423 Z20.000
G01 X44.609 Y54.740 
G01 X44.158 Y54.740 Z19.749
G01 X43.706 Y54.740 Z19.705
G01 X42.804 Y54.740 Z19.224
G01 X42.352 Y54.740 Z19.016
G01 X41.901 Y54.740 Z18.848
G01 X41.450 Y54.740 Z18.705
G01 X40.547 Y54.740 Z18.483
G01 X40.095 Y54.740 Z18.415
G01 X39.193 Y54.740 Z18.347
G01 X38.290 Y54.740 Z18.346
G01 X37.839 Y54.740 Z18.370
G01 X37.387 Y54.740 Z18.418
G01 X36.485 Y54.740 Z18.589
G01 X35.582 Y54.740 Z18.835
G01 X35.131 Y54.740 Z18.989
G01 X34.679 Y54.740 Z19.173
G01 X34.228 Y54.740 Z19.390
G01 X33.776 Y54.740 Z19.637
G01 X33.325 Y54.740 Z19.728
G01 X32.874 Y54.740 Z20.000
G01 X33.031 Y55.058 
G01 X33.476 Y55.058 Z19.615
G01 X33.920 Y55.058 Z19.609
G01 X34.808 Y55.058 Z19.200
G01 X35.253 Y55.058 Z19.016
G01 X35.697 Y55.058 Z18.866
G01 X36.585 Y55.058 Z18.624
G01 X37.474 Y55.058 Z18.455
G01 X37.918 Y55.058 Z18.404
G01 X38.806 Y55.058 Z18.372
G01 X39.695 Y55.058 Z18.406
G01 X40.139 Y55.058 Z18.447
G01 X40.583 Y55.058 Z18.514
G01 X41.472 Y55.058 Z18.732
G01 X41.916 Y55.058 Z18.873
G01 X42.360 Y55.058 Z19.039
G01 X42.805 Y55.058 Z19.245
G01 X43.693 Y55.058 Z19.720
G01 X44.137 Y55.058 Z19.759
G01 X44.581 Y55.058 Z20.000
G01 X44.554 Y55.375 
G01 X44.099 Y55.375 Z19.761
G01 X43.645 Y55.375 Z19.717
G01 X42.736 Y55.375 Z19.232
G01 X42.282 Y55.375 Z19.032
G01 X41.827 Y55.375 Z18.867
G01 X41.373 Y55.375 Z18.728
G01 X40.919 Y55.375 Z18.613
G01 X40.464 Y55.375 Z18.518
G01 X39.555 Y55.375 Z18.430
G01 X38.646 Y55.375 Z18.413
G01 X38.192 Y55.375 Z18.431
G01 X37.738 Y55.375 Z18.470
G01 X36.829 Y55.375 Z18.631
G01 X35.920 Y55.375 Z18.868
G01 X35.465 Y55.375 Z19.017
G01 X35.011 Y55.375 Z19.199
G01 X34.102 Y55.375 Z19.610
G01 X33.648 Y55.375 Z19.776
G01 X33.193 Y55.375 Z19.867
G01 X33.376 Y55.693 Z20.000
G01 X33.822 Y55.693 Z19.626
G01 X34.713 Y55.693 Z19.435
G01 X35.159 Y55.693 Z19.226
G01 X35.604 Y55.693 Z19.047
G01 X36.496 Y55.693 Z18.776
G01 X37.387 Y55.693 Z18.582
G01 X37.833 Y55.693 Z18.511
G01 X38.278 Y55.693 Z18.470
G01 X39.170 Y55.693 Z18.451
G01 X40.061 Y55.693 Z18.501
G01 X40.507 Y55.693 Z18.555
G01 X40.952 Y55.693 Z18.647
G01 X41.398 Y55.693 Z18.760
G01 X41.844 Y55.693 Z18.896
G01 X42.289 Y55.693 Z19.058
G01 X42.735 Y55.693 Z19.256
G01 X43.626 Y55.693 Z19.734
G01 X44.072 Y55.693 Z19.771
G01 X44.518 Y55.693 Z20.000
G01 X44.477 Y56.010 
G01 X44.022 Y56.010 Z19.770
G01 X43.567 Y56.010 Z19.729
G01 X42.658 Y56.010 Z19.242
G01 X42.203 Y56.010 Z19.051
G01 X41.748 Y56.010 Z18.892
G01 X41.293 Y56.010 Z18.759
G01 X40.838 Y56.010 Z18.651
G01 X40.383 Y56.010 Z18.568
G01 X39.473 Y56.010 Z18.498
G01 X38.563 Y56.010 Z18.500
G01 X38.108 Y56.010 Z18.531
G01 X37.198 Y56.010 Z18.679
G01 X36.288 Y56.010 Z18.905
G01 X35.833 Y56.010 Z19.048
G01 X35.379 Y56.010 Z19.228
G01 X34.469 Y56.010 Z19.624
G01 X34.014 Y56.010 Z19.626
G01 X33.559 Y56.010 Z20.000
G01 X33.759 Y56.328 
G01 X34.204 Y56.328 Z19.637
G01 X34.649 Y56.328 Z19.645
G01 X35.539 Y56.328 Z19.257
G01 X35.984 Y56.328 Z19.085
G01 X36.873 Y56.328 Z18.825
G01 X37.763 Y56.328 Z18.641
G01 X38.208 Y56.328 Z18.579
G01 X38.653 Y56.328 Z18.543
G01 X39.543 Y56.328 Z18.541
G01 X40.433 Y56.328 Z18.609
G01 X40.878 Y56.328 Z18.691
G01 X41.322 Y56.328 Z18.797
G01 X41.767 Y56.328 Z18.927
G01 X42.212 Y56.328 Z19.084
G01 X42.657 Y56.328 Z19.271
G01 X43.102 Y56.328 Z19.514
G01 X43.547 Y56.328 Z19.663
G01 X43.992 Y56.328 Z19.784
G01 X44.437 Y56.328 Z20.000
G01 X44.384 Y56.645 
G01 X43.931 Y56.645 
G01 X43.478 Y56.645 Z19.655
G01 X43.025 Y56.645 Z19.503
G01 X42.573 Y56.645 Z19.264
G01 X42.120 Y56.645 Z19.080
G01 X41.667 Y56.645 Z18.926
G01 X41.214 Y56.645 Z18.800
G01 X40.761 Y56.645 Z18.699
G01 X40.308 Y56.645 Z18.632
G01 X39.402 Y56.645 Z18.580
G01 X38.949 Y56.645 Z18.581
G01 X38.043 Y56.645 Z18.661
G01 X37.137 Y56.645 Z18.834
G01 X36.232 Y56.645 Z19.088
G01 X35.779 Y56.645 Z19.264
G01 X35.326 Y56.645 Z19.466
G01 X34.873 Y56.645 Z19.582
G01 X34.420 Y56.645 Z19.637
G01 X33.967 Y56.645 Z20.000
G01 X34.183 Y56.963 
G01 X34.624 Y56.963 Z19.654
G01 X35.065 Y56.963 Z19.669
G01 X35.506 Y56.963 Z19.464
G01 X36.388 Y56.963 Z19.130
G01 X37.271 Y56.963 Z18.882
G01 X37.712 Y56.963 Z18.787
G01 X38.153 Y56.963 Z18.713
G01 X39.035 Y56.963 Z18.633
G01 X39.918 Y56.963 Z18.645
G01 X40.359 Y56.963 Z18.679
G01 X40.800 Y56.963 Z18.743
G01 X41.241 Y56.963 Z18.842
G01 X41.682 Y56.963 Z18.966
G01 X42.123 Y56.963 Z19.116
G01 X42.564 Y56.963 Z19.297
G01 X43.005 Y56.963 Z19.532
G01 X43.447 Y56.963 Z19.675
G01 X43.888 Y56.963 Z20.000
G01 X44.329 Y56.963 
G01 X44.270 Y57.280 
G01 X43.823 Y57.280 Z19.795
G01 X43.375 Y57.280 Z19.684
G01 X42.927 Y57.280 Z19.532
G01 X42.479 Y57.280 Z19.297
G01 X42.031 Y57.280 Z19.119
G01 X41.583 Y57.280 Z18.972
G01 X41.135 Y57.280 Z18.853
G01 X40.687 Y57.280 Z18.770
G01 X40.239 Y57.280 Z18.714
G01 X39.791 Y57.280 Z18.683
G01 X39.344 Y57.280 Z18.682
G01 X38.896 Y57.280 Z18.705
G01 X38.000 Y57.280 Z18.810
G01 X37.552 Y57.280 Z18.898
G01 X36.656 Y57.280 Z19.138
G01 X36.208 Y57.280 Z19.305
G01 X35.760 Y57.280 Z19.499
G01 X35.312 Y57.280 Z19.593
G01 X34.865 Y57.280 Z20.000
G01 X34.417 Y57.280 
G01 X34.651 Y57.598 
G01 X35.105 Y57.598 Z19.664
G01 X35.560 Y57.598 Z19.620
G01 X36.014 Y57.598 Z19.507
G01 X36.469 Y57.598 Z19.317
G01 X36.924 Y57.598 Z19.157
G01 X37.378 Y57.598 Z19.030
G01 X37.833 Y57.598 Z18.925
G01 X38.288 Y57.598 Z18.843
G01 X39.197 Y57.598 Z18.753
G01 X39.652 Y57.598 Z18.738
G01 X40.106 Y57.598 Z18.754
G01 X40.561 Y57.598 Z18.802
G01 X41.015 Y57.598 Z18.873
G01 X41.470 Y57.598 Z18.980
G01 X41.925 Y57.598 Z19.122
G01 X42.379 Y57.598 Z19.296
G01 X43.289 Y57.598 Z19.763
G01 X43.743 Y57.598 Z19.801
G01 X44.198 Y57.598 Z20.000
G01 X44.125 Y57.915 
G01 X43.687 Y57.915 Z19.826
G01 X43.248 Y57.915 Z19.802
G01 X42.370 Y57.915 Z19.343
G01 X41.932 Y57.915 Z19.172
G01 X41.493 Y57.915 Z19.033
G01 X41.054 Y57.915 Z18.933
G01 X40.616 Y57.915 Z18.863
G01 X40.177 Y57.915 Z18.816
G01 X39.738 Y57.915 Z18.802
G01 X38.861 Y57.915 Z18.852
G01 X37.983 Y57.915 Z18.978
G01 X37.544 Y57.915 Z19.079
G01 X37.106 Y57.915 Z19.204
G01 X36.667 Y57.915 Z19.363
G01 X36.228 Y57.915 Z19.547
G01 X35.790 Y57.915 Z19.701
G01 X35.351 Y57.915 Z19.674
G01 X34.912 Y57.915 Z20.000
G01 X35.174 Y58.233 
G01 X35.617 Y58.233 Z19.725
G01 X36.060 Y58.233 Z19.718
G01 X37.390 Y58.233 Z19.226
G01 X37.833 Y58.233 Z19.108
G01 X38.276 Y58.233 Z19.018
G01 X39.162 Y58.233 Z18.903
G01 X39.605 Y58.233 Z18.876
G01 X40.049 Y58.233 Z18.869
G01 X40.492 Y58.233 Z18.904
G01 X40.935 Y58.233 Z18.966
G01 X41.378 Y58.233 Z19.055
G01 X41.821 Y58.233 Z19.188
G01 X42.264 Y58.233 Z19.355
G01 X42.708 Y58.233 Z19.573
G01 X43.151 Y58.233 Z19.687
G01 X43.594 Y58.233 Z20.000
G01 X44.037 Y58.233 
G01 X43.944 Y58.550 
G01 X43.497 Y58.550 
G01 X43.051 Y58.550 Z19.765
G01 X42.604 Y58.550 Z19.594
G01 X42.158 Y58.550 Z19.373
G01 X41.711 Y58.550 Z19.209
G01 X41.265 Y58.550 Z19.089
G01 X40.818 Y58.550 Z19.008
G01 X40.372 Y58.550 Z18.955
G01 X39.925 Y58.550 Z18.939
G01 X39.479 Y58.550 Z18.956
G01 X39.032 Y58.550 Z18.995
G01 X38.586 Y58.550 Z19.057
G01 X38.139 Y58.550 Z19.140
G01 X37.693 Y58.550 Z19.255
G01 X37.246 Y58.550 Z19.397
G01 X36.800 Y58.550 Z19.575
G01 X36.353 Y58.550 Z19.731
G01 X35.907 Y58.550 Z19.788
G01 X35.460 Y58.550 Z19.895
G01 X35.753 Y58.868 Z20.000
G01 X36.202 Y58.868 Z19.709
G01 X36.651 Y58.868 Z19.717
G01 X37.100 Y58.868 Z19.598
G01 X37.549 Y58.868 Z19.432
G01 X37.998 Y58.868 Z19.296
G01 X38.447 Y58.868 Z19.186
G01 X38.897 Y58.868 Z19.110
G01 X39.346 Y58.868 Z19.057
G01 X39.795 Y58.868 Z19.027
G01 X40.244 Y58.868 Z19.021
G01 X40.693 Y58.868 Z19.062
G01 X41.142 Y58.868 Z19.134
G01 X41.591 Y58.868 Z19.238
G01 X42.040 Y58.868 Z19.399
G01 X42.489 Y58.868 Z19.594
G01 X42.939 Y58.868 Z19.616
G01 X43.388 Y58.868 Z20.000
G01 X43.837 Y58.868 
G01 X43.719 Y59.185 
G01 X43.269 Y59.185 
G01 X42.819 Y59.185 Z19.703
G01 X42.369 Y59.185 Z19.604
G01 X41.919 Y59.185 Z19.428
G01 X41.470 Y59.185 Z19.280
G01 X41.020 Y59.185 Z19.185
G01 X40.570 Y59.185 Z19.123
G01 X40.120 Y59.185 Z19.108
G01 X39.670 Y59.185 Z19.127
G01 X39.221 Y59.185 Z19.170
G01 X38.771 Y59.185 Z19.238
G01 X38.321 Y59.185 Z19.335
G01 X37.871 Y59.185 Z19.468
G01 X37.421 Y59.185 Z19.627
G01 X36.972 Y59.185 Z19.763
G01 X36.522 Y59.185 Z19.722
G01 X36.072 Y59.185 Z20.000
G01 X36.400 Y59.503 Z19.922
G01 X36.849 Y59.503 Z19.807
G01 X37.298 Y59.503 Z19.645
G01 X37.747 Y59.503 Z19.626
G01 X38.196 Y59.503 Z19.522
G01 X38.644 Y59.503 Z19.397
G01 X39.093 Y59.503 Z19.297
G01 X39.542 Y59.503 Z19.239
G01 X39.991 Y59.503 Z19.206
G01 X40.440 Y59.503 Z19.200
G01 X40.889 Y59.503 Z19.242
G01 X41.338 Y59.503 Z19.326
G01 X41.787 Y59.503 Z19.465
G01 X42.236 Y59.503 Z19.629
G01 X42.685 Y59.503 Z19.657
G01 X43.134 Y59.503 Z20.000
G01 X43.582 Y59.503 
G01 X43.433 Y59.820 
G01 X42.988 Y59.820 
G01 X42.544 Y59.820 Z19.714
G01 X42.099 Y59.820 Z19.671
G01 X41.655 Y59.820 Z19.523
G01 X41.210 Y59.820 Z19.398
G01 X40.766 Y59.820 Z19.325
G01 X40.321 Y59.820 Z19.304
G01 X39.877 Y59.820 Z19.324
G01 X39.432 Y59.820 Z19.376
G01 X38.543 Y59.820 Z19.540
G01 X38.098 Y59.820 Z19.664
G01 X37.654 Y59.820 Z19.644
G01 X37.209 Y59.820 Z19.763
G01 X36.765 Y59.820 Z20.000
G01 X37.144 Y60.138 
G01 X37.581 Y60.138 Z19.788
G01 X38.018 Y60.138 Z19.650
G01 X38.455 Y60.138 Z19.589
G01 X38.891 Y60.138 Z19.615
G01 X39.328 Y60.138 Z19.529
G01 X39.765 Y60.138 Z19.471
G01 X40.202 Y60.138 Z19.435
G01 X40.639 Y60.138 Z19.431
G01 X41.076 Y60.138 Z19.487
G01 X41.949 Y60.138 Z19.696
G01 X42.386 Y60.138 Z19.736
G01 X42.823 Y60.138 Z20.000
G01 X43.260 Y60.138 
G01 X43.050 Y60.455 
G01 X42.137 Y60.455 
G01 X41.680 Y60.455 Z19.698
G01 X41.223 Y60.455 Z19.683
G01 X40.766 Y60.455 Z19.607
G01 X40.310 Y60.455 Z19.583
G01 X39.853 Y60.455 Z19.635
G01 X39.396 Y60.455 Z19.645
G01 X38.939 Y60.455 Z19.730
G01 X38.483 Y60.455 Z19.675
G01 X38.026 Y60.455 Z20.000
G01 X37.569 Y60.455 
G01 X38.029 Y60.773 
G01 X38.463 Y60.773 Z19.844
G01 X38.897 Y60.773 Z19.736
G01 X39.765 Y60.773 Z19.795
G01 X40.199 Y60.773 Z19.750
G01 X40.633 Y60.773 Z19.736
G01 X41.500 Y60.773 Z19.833
G01 X41.934 Y60.773 Z19.798
G01 X42.368 Y60.773 Z20.000
G01 X42.802 Y60.773 
G01 X42.485 Y61.090 
G01 X41.616 Y61.090 
G01 X41.181 Y61.090 Z19.775
G01 X40.746 Y61.090 Z19.760
G01 X40.311 Y61.090 Z19.723
G01 X39.877 Y61.090 Z19.750
G01 X39.442 Y61.090 Z19.808
G01 X39.007 Y61.090 Z20.000
G01 X38.572 Y61.090 
G01 X38.988 Y61.299 
G01 X39.243 Y61.408 
G01 X42.047 Y61.408 
G01 X41.664 Y61.590 
G01 X41.453 Y61.658 
G01 X41.087 Y61.725 
G01 X40.447 Y61.725 
G00 Z25.000
G00 X56.331 Y42.675  F2540.0
G01 Z19.810 F381.0 M3
G01 X55.914 Y42.675 Z19.737 F1270.0
G01 X55.497 Y42.675 Z19.686
G01 X55.079 Y42.675 Z19.659
G01 X54.662 Y42.675 Z19.654
G01 X54.245 Y42.675 Z19.699
G01 X53.828 Y42.675 Z19.769
G01 X53.482 Y42.766 Z19.712
G01 X53.078 Y42.896 Z20.000
G01 X52.824 Y42.993 Z19.716
G01 X53.266 Y42.993 Z19.620
G01 X53.707 Y42.993 Z19.759
G01 X54.148 Y42.993 Z19.691
G01 X54.590 Y42.993 Z19.649
G01 X55.031 Y42.993 Z19.633
G01 X55.472 Y42.993 Z19.645
G01 X55.913 Y42.993 Z19.683
G01 X56.355 Y42.993 Z19.747
G01 X56.796 Y42.993 Z19.731
G01 X57.237 Y42.993 Z19.857
G01 X57.385 Y43.058 Z20.000
G01 X57.843 Y43.310 
G01 X57.404 Y43.310 
G01 X56.966 Y43.310 Z19.621
G01 X56.528 Y43.310 Z19.674
G01 X55.212 Y43.310 Z19.533
G01 X54.774 Y43.310 Z19.515
G01 X54.336 Y43.310 Z19.541
G01 X53.897 Y43.310 Z19.593
G01 X53.459 Y43.310 Z19.669
G01 X52.582 Y43.310 Z19.618
G01 X52.144 Y43.310 Z20.000
G01 X52.008 Y43.385 
G01 X51.644 Y43.628 Z19.772
G01 X52.089 Y43.628 Z19.764
G01 X52.533 Y43.628 Z19.613
G01 X52.978 Y43.628 Z19.562
G01 X53.423 Y43.628 Z19.460
G01 X54.313 Y43.628 Z19.364
G01 X54.758 Y43.628 Z19.339
G01 X55.203 Y43.628 Z19.353
G01 X56.092 Y43.628 Z19.456
G01 X56.537 Y43.628 Z19.546
G01 X56.982 Y43.628 Z19.663
G01 X57.427 Y43.628 Z19.638
G01 X57.872 Y43.628 Z19.754
G01 X58.317 Y43.628 Z20.000
G01 X58.715 Y43.945 
G01 X58.275 Y43.945 Z19.771
G01 X57.835 Y43.945 Z19.790
G01 X57.395 Y43.945 Z19.672
G01 X56.515 Y43.945 Z19.410
G01 X56.075 Y43.945 Z19.314
G01 X55.635 Y43.945 Z19.242
G01 X55.195 Y43.945 Z19.198
G01 X54.755 Y43.945 Z19.183
G01 X54.315 Y43.945 Z19.203
G01 X53.875 Y43.945 Z19.250
G01 X53.435 Y43.945 Z19.320
G01 X52.995 Y43.945 Z19.416
G01 X52.555 Y43.945 Z19.538
G01 X52.115 Y43.945 Z19.707
G01 X51.675 Y43.945 Z19.722
G01 X51.236 Y43.945 Z19.786
G01 X51.210 Y43.966 Z19.788
G01 X50.892 Y44.263 Z20.000
G01 X51.346 Y44.263 Z19.694
G01 X51.799 Y44.263 Z19.643
G01 X52.706 Y44.263 Z19.338
G01 X53.160 Y44.263 Z19.226
G01 X53.613 Y44.263 Z19.141
G01 X54.067 Y44.263 Z19.081
G01 X54.520 Y44.263 Z19.053
G01 X54.974 Y44.263 Z19.057
G01 X55.427 Y44.263 Z19.083
G01 X55.881 Y44.263 Z19.133
G01 X56.334 Y44.263 Z19.218
G01 X56.788 Y44.263 Z19.328
G01 X57.241 Y44.263 Z19.467
G01 X57.695 Y44.263 Z19.636
G01 X58.148 Y44.263 Z19.687
G01 X58.602 Y44.263 Z20.000
G01 X59.055 Y44.263 
G01 X59.353 Y44.580 
G01 X58.915 Y44.580 Z19.770
G01 X58.477 Y44.580 Z19.668
G01 X58.040 Y44.580 Z19.603
G01 X57.164 Y44.580 Z19.295
G01 X56.726 Y44.580 Z19.170
G01 X56.289 Y44.580 Z19.074
G01 X55.851 Y44.580 Z19.007
G01 X55.413 Y44.580 Z18.962
G01 X54.975 Y44.580 Z18.938
G01 X54.538 Y44.580 Z18.934
G01 X54.100 Y44.580 Z18.958
G01 X53.662 Y44.580 Z19.014
G01 X53.224 Y44.580 Z19.091
G01 X52.787 Y44.580 Z19.191
G01 X52.349 Y44.580 Z19.322
G01 X51.911 Y44.580 Z19.488
G01 X51.473 Y44.580 Z19.631
G01 X51.036 Y44.580 Z19.681
G01 X50.598 Y44.580 Z19.820
G01 X50.516 Y44.671 Z20.000
G01 X50.340 Y44.898 Z19.803
G01 X50.782 Y44.898 Z19.793
G01 X51.224 Y44.898 Z19.659
G01 X51.666 Y44.898 Z19.454
G01 X52.108 Y44.898 Z19.278
G01 X52.549 Y44.898 Z19.135
G01 X52.991 Y44.898 Z19.028
G01 X53.433 Y44.898 Z18.941
G01 X53.875 Y44.898 Z18.876
G01 X54.316 Y44.898 Z18.832
G01 X54.758 Y44.898 Z18.826
G01 X55.200 Y44.898 Z18.840
G01 X55.642 Y44.898 Z18.875
G01 X56.084 Y44.898 Z18.930
G01 X56.525 Y44.898 Z19.007
G01 X56.967 Y44.898 Z19.112
G01 X57.409 Y44.898 Z19.253
G01 X57.851 Y44.898 Z19.426
G01 X58.293 Y44.898 Z19.626
G01 X58.734 Y44.898 Z19.732
G01 X59.176 Y44.898 Z19.771
G01 X59.618 Y44.898 Z20.000
G01 X59.855 Y45.215 
G01 X59.412 Y45.215 Z19.773
G01 X58.970 Y45.215 Z19.791
G01 X58.527 Y45.215 Z19.609
G01 X58.084 Y45.215 Z19.400
G01 X57.641 Y45.215 Z19.221
G01 X57.198 Y45.215 Z19.071
G01 X56.755 Y45.215 Z18.954
G01 X56.312 Y45.215 Z18.864
G01 X55.870 Y45.215 Z18.801
G01 X54.984 Y45.215 Z18.734
G01 X54.541 Y45.215 Z18.730
G01 X54.098 Y45.215 Z18.755
G01 X53.655 Y45.215 Z18.807
G01 X53.212 Y45.215 Z18.880
G01 X52.769 Y45.215 Z18.974
G01 X52.327 Y45.215 Z19.089
G01 X51.884 Y45.215 Z19.244
G01 X51.441 Y45.215 Z19.427
G01 X50.998 Y45.215 Z19.579
G01 X50.555 Y45.215 Z19.797
G01 X50.112 Y45.215 Z19.799
G01 X49.926 Y45.499 Z20.000
G01 X49.907 Y45.533 
G01 X50.349 Y45.533 Z19.742
G01 X50.791 Y45.533 Z19.624
G01 X51.232 Y45.533 Z19.405
G01 X51.674 Y45.533 Z19.215
G01 X52.116 Y45.533 Z19.052
G01 X52.558 Y45.533 Z18.929
G01 X52.999 Y45.533 Z18.829
G01 X53.883 Y45.533 Z18.689
G01 X54.325 Y45.533 Z18.649
G01 X55.208 Y45.533 Z18.657
G01 X56.092 Y45.533 Z18.740
G01 X56.533 Y45.533 Z18.811
G01 X57.417 Y45.533 Z19.039
G01 X57.858 Y45.533 Z19.193
G01 X58.300 Y45.533 Z19.381
G01 X58.742 Y45.533 Z19.600
G01 X59.184 Y45.533 Z19.750
G01 X59.625 Y45.533 Z20.000
G01 X60.067 Y45.533 
G01 X60.258 Y45.850 
G01 X59.820 Y45.850 Z19.785
G01 X59.381 Y45.850 Z19.702
G01 X58.942 Y45.850 Z19.553
G01 X58.065 Y45.850 Z19.179
G01 X57.626 Y45.850 Z19.015
G01 X57.188 Y45.850 Z18.883
G01 X56.749 Y45.850 Z18.773
G01 X56.311 Y45.850 Z18.686
G01 X55.433 Y45.850 Z18.588
G01 X54.556 Y45.850 Z18.562
G01 X54.117 Y45.850 Z18.586
G01 X53.240 Y45.850 Z18.701
G01 X52.363 Y45.850 Z18.892
G01 X51.924 Y45.850 Z19.022
G01 X51.486 Y45.850 Z19.190
G01 X51.047 Y45.850 Z19.383
G01 X50.608 Y45.850 Z19.552
G01 X50.170 Y45.850 Z19.783
G01 X49.731 Y45.850 Z19.797
G01 X49.671 Y45.959 Z19.796
G01 X49.573 Y46.168 Z20.000
G01 X50.025 Y46.168 Z19.741
G01 X50.478 Y46.168 Z19.568
G01 X50.930 Y46.168 Z19.337
G01 X51.383 Y46.168 Z19.137
G01 X51.835 Y46.168 Z18.964
G01 X52.288 Y46.168 Z18.829
G01 X52.740 Y46.168 Z18.720
G01 X53.645 Y46.168 Z18.563
G01 X54.097 Y46.168 Z18.513
G01 X54.550 Y46.168 Z18.486
G01 X55.455 Y46.168 Z18.513
G01 X55.907 Y46.168 Z18.554
G01 X56.360 Y46.168 Z18.618
G01 X57.265 Y46.168 Z18.826
G01 X57.717 Y46.168 Z18.963
G01 X58.169 Y46.168 Z19.130
G01 X58.622 Y46.168 Z19.332
G01 X59.074 Y46.168 Z19.564
G01 X59.527 Y46.168 Z19.655
G01 X59.979 Y46.168 Z20.000
G01 X60.432 Y46.168 
G01 X60.589 Y46.485 
G01 X60.142 Y46.485 
G01 X59.696 Y46.485 Z19.709
G01 X59.250 Y46.485 Z19.561
G01 X58.803 Y46.485 Z19.327
G01 X58.357 Y46.485 Z19.121
G01 X57.910 Y46.485 Z18.955
G01 X57.464 Y46.485 Z18.814
G01 X56.571 Y46.485 Z18.595
G01 X56.124 Y46.485 Z18.514
G01 X55.678 Y46.485 Z18.463
G01 X54.785 Y46.485 Z18.419
G01 X54.339 Y46.485 Z18.426
G01 X53.446 Y46.485 Z18.521
G01 X52.553 Y46.485 Z18.689
G01 X52.106 Y46.485 Z18.802
G01 X51.660 Y46.485 Z18.944
G01 X51.213 Y46.485 Z19.120
G01 X50.767 Y46.485 Z19.324
G01 X50.320 Y46.485 Z19.558
G01 X49.874 Y46.485 Z19.658
G01 X49.427 Y46.485 Z20.000
G01 X49.304 Y46.803 Z19.782
G01 X49.743 Y46.803 Z19.763
G01 X50.622 Y46.803 Z19.312
G01 X51.062 Y46.803 Z19.107
G01 X51.502 Y46.803 Z18.930
G01 X51.941 Y46.803 Z18.785
G01 X52.820 Y46.803 Z18.568
G01 X53.699 Y46.803 Z18.427
G01 X54.139 Y46.803 Z18.382
G01 X54.578 Y46.803 Z18.362
G01 X55.018 Y46.803 Z18.363
G01 X55.897 Y46.803 Z18.422
G01 X56.337 Y46.803 Z18.487
G01 X57.216 Y46.803 Z18.678
G01 X58.095 Y46.803 Z18.948
G01 X58.534 Y46.803 Z19.124
G01 X59.853 Y46.803 Z19.720
G01 X60.293 Y46.803 Z19.794
G01 X60.732 Y46.803 Z20.000
G01 X60.858 Y47.120 
G01 X60.410 Y47.120 
G01 X59.961 Y47.120 Z19.625
G01 X59.512 Y47.120 Z19.544
G01 X59.063 Y47.120 Z19.300
G01 X58.615 Y47.120 Z19.088
G01 X58.166 Y47.120 Z18.911
G01 X57.717 Y47.120 Z18.762
G01 X56.819 Y47.120 Z18.528
G01 X55.922 Y47.120 Z18.371
G01 X55.024 Y47.120 Z18.317
G01 X54.127 Y47.120 Z18.332
G01 X53.678 Y47.120 Z18.374
G01 X52.781 Y47.120 Z18.518
G01 X52.332 Y47.120 Z18.618
G01 X51.883 Y47.120 Z18.745
G01 X51.434 Y47.120 Z18.895
G01 X50.986 Y47.120 Z19.068
G01 X50.537 Y47.120 Z19.277
G01 X50.088 Y47.120 Z19.517
G01 X49.639 Y47.120 Z19.694
G01 X49.191 Y47.120 Z20.000
G01 X49.089 Y47.438 Z19.771
G01 X49.529 Y47.438 Z19.680
G01 X49.969 Y47.438 Z19.509
G01 X50.409 Y47.438 Z19.271
G01 X50.849 Y47.438 Z19.070
G01 X51.289 Y47.438 Z18.896
G01 X52.169 Y47.438 Z18.614
G01 X52.609 Y47.438 Z18.503
G01 X53.049 Y47.438 Z18.413
G01 X53.490 Y47.438 Z18.346
G01 X54.370 Y47.438 Z18.280
G01 X55.250 Y47.438 Z18.282
G01 X55.690 Y47.438 Z18.307
G01 X56.130 Y47.438 Z18.355
G01 X57.010 Y47.438 Z18.522
G01 X57.890 Y47.438 Z18.763
G01 X58.330 Y47.438 Z18.915
G01 X58.770 Y47.438 Z19.089
G01 X59.210 Y47.438 Z19.302
G01 X59.650 Y47.438 Z19.546
G01 X60.090 Y47.438 Z19.734
G01 X60.531 Y47.438 Z19.802
G01 X60.971 Y47.438 Z20.000
G01 X61.072 Y47.755 
G01 X60.625 Y47.755 Z19.798
G01 X60.178 Y47.755 Z19.758
G01 X59.284 Y47.755 Z19.278
G01 X58.837 Y47.755 Z19.062
G01 X58.390 Y47.755 Z18.884
G01 X57.943 Y47.755 Z18.730
G01 X57.049 Y47.755 Z18.485
G01 X56.154 Y47.755 Z18.315
G01 X55.260 Y47.755 Z18.246
G01 X54.366 Y47.755 Z18.244
G01 X53.472 Y47.755 Z18.308
G01 X53.025 Y47.755 Z18.374
G01 X52.131 Y47.755 Z18.581
G01 X51.684 Y47.755 Z18.713
G01 X51.237 Y47.755 Z18.867
G01 X50.790 Y47.755 Z19.044
G01 X50.343 Y47.755 Z19.251
G01 X49.449 Y47.755 Z19.739
G01 X49.002 Y47.755 Z19.767
G01 X48.920 Y48.073 Z19.762
G01 X49.373 Y48.073 Z19.739
G01 X50.280 Y48.073 Z19.234
G01 X50.734 Y48.073 Z19.021
G01 X51.187 Y48.073 Z18.842
G01 X51.641 Y48.073 Z18.686
G01 X52.547 Y48.073 Z18.437
G01 X53.001 Y48.073 Z18.341
G01 X53.454 Y48.073 Z18.276
G01 X54.361 Y48.073 Z18.212
G01 X55.268 Y48.073 Z18.214
G01 X56.175 Y48.073 Z18.282
G01 X57.082 Y48.073 Z18.453
G01 X57.989 Y48.073 Z18.701
G01 X58.442 Y48.073 Z18.858
G01 X58.896 Y48.073 Z19.037
G01 X59.349 Y48.073 Z19.257
G01 X60.256 Y48.073 Z19.747
G01 X61.163 Y48.073 Z20.000
G01 X61.238 Y48.390 
G01 X60.795 Y48.390 Z19.800
G01 X60.353 Y48.390 Z19.753
G01 X59.911 Y48.390 Z19.527
G01 X59.469 Y48.390 Z19.272
G01 X59.026 Y48.390 Z19.049
G01 X58.584 Y48.390 Z18.869
G01 X58.142 Y48.390 Z18.711
G01 X57.257 Y48.390 Z18.457
G01 X56.373 Y48.390 Z18.276
G01 X55.488 Y48.390 Z18.193
G01 X54.604 Y48.390 Z18.175
G01 X53.719 Y48.390 Z18.219
G01 X53.277 Y48.390 Z18.265
G01 X52.834 Y48.390 Z18.339
G01 X51.950 Y48.390 Z18.555
G01 X51.065 Y48.390 Z18.847
G01 X50.623 Y48.390 Z19.025
G01 X50.181 Y48.390 Z19.240
G01 X49.296 Y48.390 Z19.721
G01 X48.854 Y48.390 Z19.751
G01 X48.790 Y48.708 Z19.746
G01 X49.684 Y48.708 Z19.479
G01 X50.131 Y48.708 Z19.227
G01 X50.577 Y48.708 Z19.009
G01 X51.024 Y48.708 Z18.829
G01 X51.918 Y48.708 Z18.533
G01 X52.812 Y48.708 Z18.315
G01 X53.259 Y48.708 Z18.241
G01 X54.153 Y48.708 Z18.165
G01 X55.047 Y48.708 Z18.152
G01 X55.940 Y48.708 Z18.202
G01 X56.387 Y48.708 Z18.250
G01 X57.281 Y48.708 Z18.431
G01 X58.175 Y48.708 Z18.688
G01 X58.622 Y48.708 Z18.849
G01 X59.069 Y48.708 Z19.033
G01 X59.516 Y48.708 Z19.261
G01 X59.963 Y48.708 Z19.519
G01 X60.410 Y48.708 Z19.592
G01 X60.856 Y48.708 Z20.000
G01 X61.303 Y48.708 
G01 X61.361 Y49.025 
G01 X60.910 Y49.025 
G01 X60.459 Y49.025 Z19.574
G01 X60.009 Y49.025 Z19.515
G01 X59.558 Y49.025 Z19.253
G01 X59.107 Y49.025 Z19.023
G01 X58.656 Y49.025 Z18.830
G01 X58.206 Y49.025 Z18.669
G01 X57.304 Y49.025 Z18.409
G01 X56.854 Y49.025 Z18.308
G01 X56.403 Y49.025 Z18.232
G01 X55.502 Y49.025 Z18.149
G01 X54.600 Y49.025 Z18.130
G01 X53.699 Y49.025 Z18.174
G01 X53.248 Y49.025 Z18.221
G01 X52.798 Y49.025 Z18.293
G01 X51.896 Y49.025 Z18.512
G01 X51.446 Y49.025 Z18.651
G01 X50.995 Y49.025 Z18.811
G01 X50.544 Y49.025 Z18.993
G01 X50.094 Y49.025 Z19.212
G01 X49.643 Y49.025 Z19.466
G01 X49.192 Y49.025 Z19.614
G01 X48.742 Y49.025 Z20.000
G01 X48.694 Y49.343 
G01 X49.147 Y49.343 Z19.635
G01 X49.601 Y49.343 Z19.458
G01 X50.055 Y49.343 Z19.202
G01 X50.509 Y49.343 Z18.981
G01 X50.963 Y49.343 Z18.797
G01 X51.417 Y49.343 Z18.636
G01 X52.325 Y49.343 Z18.376
G01 X52.779 Y49.343 Z18.276
G01 X53.233 Y49.343 Z18.204
G01 X54.141 Y49.343 Z18.127
G01 X55.049 Y49.343 Z18.114
G01 X55.956 Y49.343 Z18.166
G01 X56.410 Y49.343 Z18.216
G01 X56.864 Y49.343 Z18.289
G01 X57.772 Y49.343 Z18.511
