%
( 3xpeppar3xgran ) ( File created: Tuesday December 10 2024 - 07:45 PM)
( for LinuxCNC )
( Material Size) ( X= 620.000, Y= 720.000, Z= 28.000)
G90 (Incremental distance mode)
G17 G21 (Active Plane: XY)(Metric Mode)
G40 G49 G80(Tool Diameter, Length compensation & canned cycles OFF)
G64 P0.05 Q0.05(Path Blending)
T6 M06 (TOOL USE End Mill 1.1 mm)
G90 (absolute distance mode)
G54 (Coordinate System)
S19000M3
G00 Z48.320
G4 P6
( gran )
G00 X18.053 Y360.687 Z33.080 F8000.0
G01 Z24.000 F1200.0 M3
G03 X31.567 Y362.335 I4.332 J20.718
G02 X57.768 Y358.610 I10.318 J-21.429
G03 X66.042 Y356.818 I5.709 J6.364
G03 X73.590 Y359.778 I-17.666 J56.162
G02 X87.758 Y360.098 I7.442 J-15.703
G02 X95.645 Y355.270 I-11.828 J-28.176
G03 X107.535 Y355.395 I5.872 J6.955
G02 X129.656 Y363.788 I22.219 J-25.216
G02 X138.597 Y362.110 I0.071 J-24.287
G02 X153.158 Y354.596 I-29.239 J-74.526
G03 X161.407 Y353.937 I4.729 J7.236
G03 X166.654 Y357.261 I-8.732 J19.587
G02 X181.041 Y360.927 I10.890 J-12.671
G02 X191.182 Y357.374 I-8.941 J-41.768
G03 X202.270 Y358.852 I4.454 J8.919
G02 X224.007 Y364.325 I16.105 J-18.063
G01 X224.008 Y364.324  F4000.0
G01 X240.736 Y360.296 
G03 X244.763 Y364.236 I0.782 J3.228
G03 X238.163 Y374.522 I-17.198 J-3.774
G02 X201.688 Y409.076 I134.696 J178.715
G02 X185.788 Y432.829 I99.532 J83.827
G03 X179.859 Y435.875 I-5.115 J-2.662
G02 X171.738 Y436.175 I-3.229 J22.629
G02 X162.139 Y439.743 I7.841 J35.793
G03 X159.212 Y440.315 I-2.379 J-4.395
G03 X156.908 Y439.570 I0.660 J-5.973
G02 X132.605 Y439.620 I-12.107 J21.358
G03 X127.215 Y439.602 I-2.679 J-4.682
G02 X111.397 Y436.706 I-11.933 J20.530
G02 X102.834 Y439.716 I4.300 J25.924
G03 X99.406 Y440.236 I-2.404 J-4.282
G03 X97.336 Y439.453 I1.528 J-7.168
G02 X79.345 Y436.104 I-13.896 J24.654
G03 X75.809 Y434.441 I-0.512 J-3.502
G02 X55.921 Y406.893 I-183.962 J111.855
G02 X30.749 Y381.405 I-182.445 J155.011
G03 X15.983 Y367.878 I264.326 J-303.361
G03 X18.053 Y360.687 I2.936 J-3.049
G00 Z33.080
G00 X54.033 Y448.652  F8000.0
G01 Z24.000 F1200.0 M3
G01 X54.046 Y448.656  F4000.0
G01 X54.178 Y448.706 
G02 X78.146 Y447.512 I10.647 J-27.436
G03 X90.295 Y447.896 I5.725 J11.278
G02 X110.738 Y448.231 I10.516 J-17.831
G03 X120.916 Y448.335 I4.997 J9.145
G02 X140.149 Y448.082 I9.403 J-16.407
G03 X149.644 Y447.965 I4.847 J7.965
G02 X172.704 Y446.732 I10.579 J-18.394
G03 X177.741 Y446.300 I2.877 J3.956
G02 X206.226 Y448.524 I17.030 J-34.590
G03 X209.792 Y454.102 I1.020 J3.277
G03 X198.326 Y465.476 I-109.873 J-99.291
G02 X154.580 Y513.470 I206.206 J231.890
G03 X150.790 Y514.747 I-2.806 J-2.065
G02 X132.067 Y517.551 I-6.345 J21.549
G03 X128.781 Y517.767 I-1.833 J-2.776
G03 X125.614 Y516.017 I15.080 J-31.040
G02 X110.676 Y515.469 I-7.946 J12.755
G03 X107.640 Y515.317 I-1.389 J-2.643
G03 X100.217 Y508.062 I15.212 J-22.991
G02 X73.236 Y475.372 I-211.199 J146.833
G02 X50.540 Y455.716 I-127.293 J124.049
G03 X54.033 Y448.652 I2.352 J-3.232
G00 Z33.080
G00 X97.598 Y525.852  F8000.0
G01 Z24.000 F1200.0 M3
G02 X115.707 Y524.456 I6.046 J-39.699
G03 X116.879 Y524.433 I0.624 J1.981
G03 X123.006 Y526.540 I-13.386 J48.905
G02 X137.042 Y526.932 I7.528 J-18.053
G03 X150.334 Y526.765 I6.893 J19.535
G02 X159.955 Y525.680 I3.616 J-11.133
G03 X167.962 Y528.228 I2.877 J4.814
G03 X166.939 Y533.127 I-3.930 J1.735
G02 X151.150 Y548.133 I435.605 J474.159
G02 X134.945 Y572.122 I51.126 J52.005
G03 X128.686 Y574.410 I-4.184 J-1.741
G03 X123.518 Y569.203 I5.443 J-10.570
G02 X105.476 Y544.243 I-87.428 J44.195
G02 X102.840 Y541.791 I-33.766 J33.654
G02 X93.860 Y534.226 I-334.520 J388.000
G03 X97.598 Y525.852 I3.022 J-3.672
G00 Z33.080
G00 X115.652 Y586.995  F8000.0
G01 Z24.000 F1200.0 M3
G03 X120.284 Y586.121 I2.533 J0.712
G02 X130.000 Y590.958 I9.716 J-7.338
G02 X139.716 Y586.121 I0.000 J-12.175
G03 X144.348 Y586.995 I2.099 J1.586
G03 X142.853 Y592.624 I-5.513 J1.549
G02 X142.194 Y599.686 I3.861 J3.922
G02 X149.631 Y606.979 I22.873 J-15.891
G03 X149.634 Y611.740 I-1.586 J2.381
G03 X143.427 Y612.111 I-3.422 J-5.125
G02 X136.175 Y614.056 I-2.541 J5.015
G02 X132.740 Y622.697 I19.683 J12.828
G03 X128.923 Y624.261 I-2.408 J-0.436
G03 X125.941 Y618.255 I4.056 J-5.757
G02 X120.830 Y612.147 I-5.954 J-0.210
G02 X112.111 Y612.211 I-4.147 J29.029
G03 X109.373 Y609.481 I-0.373 J-2.364
G03 X114.140 Y603.863 I6.966 J1.079
G02 X118.487 Y596.355 I-2.032 J-6.189
G02 X116.410 Y591.512 I-12.907 J2.669
G03 X115.652 Y586.995 I4.417 J-3.064
G00 Z33.080
G00 X107.455 Y591.379  F8000.0
G01 Z24.000 F1200.0 M3
G03 X107.725 Y597.693 I-4.018 J3.335
G03 X94.684 Y611.413 I-51.065 J-35.476
G02 X92.038 Y615.897 I4.297 J5.559
G02 X96.095 Y620.285 I3.770 J0.584
G03 X115.164 Y620.918 I6.629 J87.720
G03 X120.637 Y626.095 I-0.922 J6.457
G02 X126.331 Y640.223 I40.489 J-8.105
G02 X133.669 Y640.223 I3.669 J-2.345
G02 X139.363 Y626.095 I-34.795 J-22.234
G03 X144.836 Y620.918 I6.395 J1.280
G03 X158.350 Y621.551 I5.099 J35.699
G02 X166.083 Y620.172 I2.288 J-9.535
G02 X166.507 Y613.589 I-2.306 J-3.454
G03 X152.275 Y597.693 I57.151 J-65.487
G03 X152.545 Y591.379 I4.288 J-2.979
G02 X158.411 Y579.657 I-22.247 J-18.462
G02 X154.862 Y574.753 I-3.879 J-0.930
G02 X150.541 Y575.277 I-0.890 J10.736
G03 X146.725 Y569.961 I-1.090 J-3.245
G03 X157.455 Y556.928 I172.038 J130.713
G03 X178.037 Y538.200 I99.468 J88.638
G02 X172.698 Y517.747 I-6.734 J-9.165
G03 X169.804 Y516.566 I0.732 J-5.927
G03 X168.934 Y512.293 I2.013 J-2.635
G03 X175.550 Y503.027 I47.839 J27.163
G03 X199.325 Y477.919 I376.858 J333.040
G03 X219.894 Y460.259 I138.365 J140.349
G02 X218.957 Y439.194 I-7.615 J-10.215
G02 X202.248 Y439.466 I-8.142 J13.227
G03 X196.250 Y434.397 I-2.257 J-3.413
G03 X205.374 Y420.157 I50.706 J22.445
G03 X234.399 Y391.188 I242.469 J213.919
G02 X251.609 Y375.387 I-353.719 J-402.511
G02 X250.653 Y353.329 I-10.176 J-10.609
G02 X229.224 Y352.151 I-11.534 J14.321
G03 X209.139 Y350.489 I-8.951 J-14.020
G02 X193.408 Y346.178 I-12.154 J13.491
G02 X182.203 Y349.964 I9.158 J45.577
G03 X175.791 Y350.147 I-3.408 J-6.995
G03 X172.184 Y347.890 I5.064 J-12.104
G02 X150.673 Y343.787 I-14.229 J16.160
G03 X146.406 Y342.022 I-1.162 J-3.232
G03 X145.982 Y334.537 I9.031 J-4.266
G02 X155.096 Y304.614 I-456.171 J-155.299
G02 X151.324 Y295.266 I-8.075 J-2.176
G02 X145.194 Y293.471 I-6.502 J10.839
G02 X119.237 Y293.169 I-21.429 J726.825
G02 X112.193 Y293.681 I0.332 J53.303
G02 X105.240 Y304.598 I1.177 J8.422
G01 X109.343 Y317.979  F4000.0
G03 X113.432 Y341.981 I-90.809 J27.818
G03 X111.047 Y344.042 I-2.013 J0.081
G02 X109.917 Y343.907 I-1.585 J8.445
G03 X109.098 Y343.694 I0.113 J-2.123
G02 X98.993 Y342.508 I-6.747 J13.835
G02 X87.040 Y348.571 I5.921 J26.485
G03 X79.591 Y350.152 I-5.138 J-5.870
G03 X72.953 Y347.527 I13.977 J-45.053
G02 X50.862 Y351.097 I-8.505 J17.505
G03 X40.133 Y354.358 I-8.514 J-8.732
G03 X21.005 Y350.462 I97.331 J-526.821
G02 X5.994 Y357.325 I-2.973 J13.347
G02 X10.440 Y377.477 I13.917 J7.496
G03 X63.309 Y433.735 I-133.590 J178.514
G03 X59.461 Y438.542 I-2.708 J1.776
G02 X46.531 Y437.216 I-8.982 J23.882
G02 X39.593 Y457.364 I1.865 J11.911
G02 X55.123 Y472.653 I193.666 J-181.194
G03 X89.605 Y508.808 I-231.262 J255.081
G03 X91.790 Y514.086 I-7.540 J6.212
G03 X88.242 Y517.935 I-3.498 J0.336
G02 X78.604 Y524.872 I-0.142 J9.967
G02 X81.975 Y536.680 I10.561 J3.370
G03 X113.222 Y569.748 I-136.959 J160.714
G03 X108.715 Y574.609 I-2.681 J2.034
G02 X101.589 Y579.657 I-2.552 J3.951
G02 X107.455 Y591.379 I28.113 J-6.741
G00 Z33.080
G00 X295.652 Y398.246  F8000.0
G01 Z24.000 F1200.0 M3
G03 X296.410 Y393.729 I5.175 J-1.454
G02 X298.487 Y388.886 I-10.830 J-7.512
G02 X295.173 Y381.745 I-6.468 J-1.338
G03 X290.021 Y377.070 I7.014 J-12.907
G03 X292.391 Y373.186 I2.071 J-1.401
G02 X300.830 Y373.094 I3.868 J-32.092
G02 X305.940 Y367.939 I-0.850 J-5.954
G03 X308.118 Y361.964 I14.673 J1.966
G03 X312.308 Y362.593 I1.956 J1.243
G02 X316.175 Y371.185 I29.493 J-8.110
G02 X322.451 Y373.497 I4.690 J-3.057
G03 X328.231 Y373.093 I3.805 J12.890
G03 X329.483 Y377.847 I-0.393 J2.646
G02 X322.194 Y385.555 I21.788 J27.908
G02 X322.853 Y392.617 I4.520 J3.140
G03 X324.348 Y398.246 I-4.017 J4.080
G03 X319.716 Y399.120 I-2.533 J-0.712
G02 X310.000 Y394.283 I-9.716 J7.338
G02 X300.284 Y399.120 I0.000 J12.175
G03 X295.652 Y398.246 I-2.099 J-1.586
G00 Z33.080
G00 X305.852 Y413.071  F8000.0
G01 Z24.000 F1200.0 M3
G03 X312.872 Y412.307 I3.682 J1.199
G02 X328.509 Y434.171 I130.146 J-76.555
G02 X346.150 Y451.023 I94.248 J-81.006
G03 X345.335 Y457.939 I-2.513 J3.210
G03 X339.666 Y458.775 I-4.271 J-9.327
G02 X326.144 Y460.421 I-3.640 J26.460
G03 X319.488 Y459.732 I-2.670 J-6.704
G02 X299.229 Y460.524 I-9.580 J14.457
G03 X294.920 Y461.018 I-2.559 J-3.274
G02 X279.371 Y458.810 I-11.427 J24.610
G03 X275.679 Y458.826 I-1.901 J-12.368
G03 X273.158 Y453.128 I0.526 J-3.639
G03 X277.435 Y448.304 I20.434 J13.808
G02 X288.838 Y437.460 I-112.374 J-129.586
G02 X299.003 Y425.821 I-119.347 J-114.492
G02 X305.852 Y413.071 I-31.963 J-25.384
G00 Z33.080
G00 X307.397 Y468.050  F8000.0
G01 Z24.000 F1200.0 M3
G03 X313.899 Y468.496 I2.966 J4.380
G02 X327.443 Y471.546 I9.495 J-10.565
G03 X331.365 Y470.548 I14.469 J48.646
G03 X334.580 Y471.771 I0.659 J3.104
G02 X358.903 Y501.160 I269.482 J-198.265
G02 X389.224 Y530.617 I301.132 J-279.631
G03 X386.191 Y535.690 I-1.980 J2.259
G02 X360.371 Y537.378 I-11.038 J29.468
G03 X352.630 Y538.183 I-4.864 J-9.142
G03 X347.363 Y535.974 I6.879 J-23.781
G02 X332.745 Y536.536 I-6.853 J12.171
G03 X319.278 Y537.018 I-7.123 J-10.648
G02 X299.805 Y537.142 I-9.629 J16.894
G03 X290.169 Y537.169 I-4.840 J-8.245
G02 X267.718 Y538.536 I-10.196 J17.590
G03 X262.828 Y539.194 I-3.030 J-4.010
G02 X250.800 Y535.393 I-31.972 J80.237
G02 X234.178 Y536.535 I-6.476 J27.288
G03 X230.087 Y535.483 I-1.312 J-3.380
G03 X229.916 Y531.503 I2.508 J-2.101
G03 X236.778 Y524.164 I29.455 J20.663
G02 X266.258 Y495.837 I-148.482 J-184.029
G02 X283.625 Y472.544 I-140.113 J-122.587
G03 X290.018 Y470.170 I4.749 J2.994
G02 X299.488 Y471.009 I6.712 J-21.914
G02 X307.397 Y468.050 I-2.161 J-17.828
G00 Z33.080
G00 X307.395 Y545.621  F8000.0
G01 Z24.000 F1200.0 M3
G03 X312.785 Y545.639 I2.679 J4.682
G02 X328.603 Y548.535 I11.933 J-20.530
G02 X337.166 Y545.525 I-4.300 J-25.924
G03 X340.594 Y545.005 I2.404 J4.282
G03 X342.664 Y545.788 I-1.528 J7.168
G02 X360.655 Y549.137 I13.896 J-24.654
G03 X364.191 Y550.800 I0.512 J3.502
G02 X384.079 Y578.348 I183.962 J-111.855
G02 X409.251 Y603.836 I182.445 J-155.011
G03 X424.017 Y617.363 I-264.326 J303.361
G03 X421.947 Y624.554 I-2.936 J3.049
G03 X408.433 Y622.906 I-4.332 J-20.718
G02 X382.232 Y626.631 I-10.318 J21.429
G03 X373.958 Y628.423 I-5.709 J-6.364
G03 X366.410 Y625.463 I17.666 J-56.162
G02 X352.242 Y625.143 I-7.442 J15.703
G02 X344.355 Y629.971 I11.828 J28.177
G03 X332.465 Y629.846 I-5.872 J-6.955
G02 X310.344 Y621.453 I-22.219 J25.216
G02 X301.403 Y623.131 I-0.071 J24.287
G02 X286.842 Y630.645 I29.239 J74.526
G03 X278.593 Y631.304 I-4.729 J-7.236
G03 X273.346 Y627.980 I8.732 J-19.587
G02 X258.959 Y624.314 I-10.890 J12.671
G02 X248.818 Y627.867 I8.941 J41.768
G03 X237.730 Y626.389 I-4.454 J-8.919
G02 X215.993 Y620.916 I-16.105 J18.063
G01 X215.992 Y620.917  F4000.0
G01 X199.264 Y624.945 
G03 X195.237 Y621.005 I-0.782 J-3.228
G03 X201.837 Y610.719 I17.198 J3.774
G02 X238.312 Y576.165 I-134.696 J-178.715
G02 X254.212 Y552.412 I-99.532 J-83.827
G03 X260.141 Y549.366 I5.115 J2.662
G02 X268.262 Y549.066 I3.229 J-22.629
G02 X277.861 Y545.498 I-7.841 J-35.793
G03 X280.788 Y544.926 I2.379 J4.395
G03 X283.092 Y545.671 I-0.660 J5.973
G02 X307.395 Y545.621 I12.107 J-21.358
G00 Z33.080
G00 X243.309 Y551.506  F8000.0
G01 Z24.000 F1200.0 M3
G03 X195.439 Y602.582 I-170.378 J-111.712
G02 X185.144 Y617.253 I17.458 J23.198
G02 X197.937 Y634.433 I12.694 J3.901
G02 X216.371 Y631.791 I-0.516 J-69.228
G03 X232.017 Y635.772 I4.398 J15.452
G02 X240.268 Y640.129 I11.432 J-11.658
G02 X256.443 Y635.214 I3.492 J-17.582
G03 X264.548 Y634.600 I4.409 J4.403
G02 X274.958 Y641.282 I57.083 J-77.482
G02 X289.033 Y641.665 I7.406 J-13.355
G03 X291.676 Y641.504 I1.518 J3.126
G03 X293.595 Y643.219 I-1.071 J3.127
G03 X294.018 Y650.704 I-9.031 J4.266
G02 X284.904 Y680.627 I456.171 J155.299
G02 X288.676 Y689.975 I8.075 J2.176
G02 X294.806 Y691.770 I6.502 J-10.839
G02 X319.570 Y692.081 I21.567 J-731.487
G02 X327.293 Y691.625 I-0.310 J-70.928
G02 X334.860 Y679.208 I-1.043 J-9.149
G03 X329.361 Y662.966 I220.933 J-83.853
G03 X325.230 Y645.862 I158.563 J-47.346
G03 X330.902 Y641.547 I3.923 J-0.729
G02 X341.007 Y642.733 I6.747 J-13.835
G02 X352.960 Y636.670 I-5.921 J-26.485
G03 X360.409 Y635.089 I5.138 J5.870
G03 X367.047 Y637.714 I-13.977 J45.053
G02 X389.138 Y634.144 I8.505 J-17.505
G03 X399.867 Y630.883 I8.514 J8.732
G03 X418.995 Y634.779 I-97.331 J526.821
G02 X434.006 Y627.916 I2.973 J-13.347
G02 X429.560 Y607.764 I-13.917 J-7.496
G03 X376.691 Y551.506 I133.590 J-178.514
G03 X380.539 Y546.699 I2.708 J-1.776
G02 X393.469 Y548.025 I8.982 J-23.882
G02 X400.407 Y527.877 I-1.865 J-11.911
G02 X384.877 Y512.588 I-193.666 J181.194
G03 X350.395 Y476.433 I231.262 J-255.081
G03 X348.210 Y471.155 I7.540 J-6.212
G03 X351.758 Y467.306 I3.497 J-0.336
G02 X361.396 Y460.369 I0.142 J-9.967
G02 X358.025 Y448.561 I-10.561 J-3.370
G03 X326.778 Y415.493 I136.959 J-160.714
G03 X331.285 Y410.632 I2.681 J-2.034
G02 X338.411 Y405.584 I2.552 J-3.951
G02 X332.545 Y393.862 I-28.113 J6.741
G03 X332.275 Y387.548 I4.018 J-3.335
G03 X345.316 Y373.828 I51.065 J35.476
G02 X347.962 Y369.344 I-4.297 J-5.559
G02 X343.905 Y364.956 I-3.770 J-0.584
G03 X324.836 Y364.323 I-6.629 J-87.720
G03 X319.363 Y359.146 I0.922 J-6.457
G02 X313.669 Y345.018 I-40.488 J8.105
G02 X306.331 Y345.018 I-3.669 J2.345
G02 X300.637 Y359.146 I34.795 J22.234
G03 X295.164 Y364.323 I-6.395 J-1.280
G03 X281.650 Y363.690 I-5.099 J-35.699
G02 X273.917 Y365.069 I-2.288 J9.535
G02 X273.493 Y371.652 I2.306 J3.454
G03 X287.725 Y387.548 I-57.151 J65.487
G03 X287.455 Y393.862 I-4.288 J2.979
G02 X281.589 Y405.584 I22.247 J18.462
G02 X285.138 Y410.488 I3.879 J0.930
G02 X289.459 Y409.964 I0.890 J-10.736
G03 X293.275 Y415.280 I1.090 J3.245
G03 X282.545 Y428.313 I-172.038 J-130.713
G03 X261.963 Y447.041 I-99.468 J-88.638
G02 X267.302 Y467.494 I6.734 J9.165
G03 X270.328 Y468.773 I-0.736 J5.957
G03 X270.853 Y473.215 I-2.001 J2.489
G03 X229.224 Y516.770 I-227.830 J-176.088
G02 X218.659 Y527.698 I49.670 J58.591
G02 X224.006 Y546.561 I9.481 J7.502
G02 X237.465 Y546.764 I7.022 J-19.299
G03 X241.512 Y546.680 I2.159 J6.542
G03 X243.309 Y551.506 I-0.876 J3.073
G00 Z33.080
G00 X386.890 Y386.223  F8000.0
G01 Z24.000 F1200.0 M3
G03 X372.125 Y372.697 I264.326 J-303.361
G03 X374.194 Y365.506 I2.936 J-3.049
G03 X387.708 Y367.153 I4.332 J20.718
G02 X413.909 Y363.428 I10.318 J-21.429
G03 X422.183 Y361.637 I5.709 J6.364
G03 X429.731 Y364.596 I-17.666 J56.162
G02 X443.899 Y364.916 I7.442 J-15.703
G02 X451.786 Y360.088 I-11.828 J-28.176
G03 X463.676 Y360.214 I5.872 J6.955
G02 X485.797 Y368.606 I22.219 J-25.216
G02 X494.738 Y366.929 I0.071 J-24.287
G02 X509.299 Y359.415 I-29.239 J-74.526
G03 X517.548 Y358.755 I4.729 J7.236
G03 X522.795 Y362.079 I-8.732 J19.587
G02 X537.182 Y365.746 I10.890 J-12.671
G02 X547.323 Y362.193 I-8.941 J-41.768
G03 X558.411 Y363.671 I4.454 J8.919
G02 X580.148 Y369.143 I16.105 J-18.063
G01 X580.149 Y369.143  F4000.0
G01 X596.877 Y365.114 
G01 X596.878 Y365.114 
G03 X600.904 Y369.055 I0.782 J3.228
G03 X594.304 Y379.341 I-17.198 J-3.774
G02 X557.829 Y413.894 I134.696 J178.715
G02 X541.929 Y437.647 I99.532 J83.827
G03 X536.000 Y440.693 I-5.115 J-2.662
G02 X527.880 Y440.994 I-3.229 J22.629
G02 X518.281 Y444.562 I7.841 J35.793
G03 X515.353 Y445.134 I-2.379 J-4.395
G03 X513.049 Y444.388 I0.660 J-5.973
G02 X488.746 Y444.439 I-12.107 J21.358
G03 X483.356 Y444.421 I-2.679 J-4.682
G02 X467.538 Y441.525 I-11.933 J20.530
G02 X458.975 Y444.534 I4.300 J25.924
G03 X455.547 Y445.055 I-2.404 J-4.282
G03 X453.477 Y444.271 I1.529 J-7.168
G02 X435.486 Y440.922 I-13.896 J24.654
G03 X431.950 Y439.259 I-0.512 J-3.502
G02 X412.062 Y411.711 I-183.963 J111.855
G02 X386.890 Y386.223 I-182.445 J155.011
G00 Z33.080
G00 X410.174 Y453.471  F8000.0
G01 Z24.000 F1200.0 M3
G01 X410.187 Y453.475  F4000.0
G01 X410.319 Y453.525 
G02 X434.287 Y452.331 I10.647 J-27.436
G03 X446.436 Y452.714 I5.725 J11.278
G02 X466.879 Y453.050 I10.516 J-17.831
G03 X477.057 Y453.153 I4.997 J9.145
G02 X496.290 Y452.901 I9.403 J-16.407
G03 X505.785 Y452.783 I4.847 J7.965
G02 X528.845 Y451.551 I10.579 J-18.394
G03 X533.882 Y451.118 I2.877 J3.956
G02 X562.367 Y453.342 I17.030 J-34.590
G03 X565.933 Y458.921 I1.020 J3.277
G03 X554.467 Y470.295 I-109.873 J-99.291
G02 X510.721 Y518.288 I206.206 J231.890
G03 X506.931 Y519.566 I-2.806 J-2.065
G02 X488.208 Y522.369 I-6.345 J21.549
G03 X484.922 Y522.585 I-1.833 J-2.776
G03 X481.755 Y520.836 I15.080 J-31.040
G02 X466.817 Y520.288 I-7.946 J12.755
G03 X463.781 Y520.135 I-1.389 J-2.643
G03 X456.358 Y512.881 I15.212 J-22.991
G02 X429.377 Y480.190 I-211.199 J146.833
G02 X406.681 Y460.534 I-127.293 J124.049
G03 X410.174 Y453.471 I2.352 J-3.232
G00 Z33.080
G00 X450.686 Y532.189  F8000.0
G01 Z24.000 F1200.0 M3
G03 X456.168 Y531.245 I4.316 J8.671
G02 X471.882 Y529.262 I3.912 J-32.250
G03 X475.313 Y529.497 I1.466 J3.759
G02 X483.168 Y532.773 I18.276 J-32.774
G02 X494.657 Y530.980 I3.821 J-13.219
G03 X501.044 Y529.827 I4.509 J6.720
G03 X506.436 Y531.569 I-8.403 J35.237
G02 X517.300 Y530.830 I4.684 J-11.373
G03 X523.741 Y537.585 I2.411 J4.149
G03 X518.750 Y542.991 I-18.121 J-11.719
G02 X497.138 Y564.239 I75.304 J98.214
G02 X490.289 Y576.988 I31.963 J25.384
G03 X483.269 Y577.753 I-3.682 J-1.199
G02 X468.642 Y556.819 I-140.941 J82.905
G02 X453.883 Y542.011 I-84.521 J69.482
G02 X451.925 Y540.493 I-24.568 J29.684
G03 X449.991 Y539.036 I38.277 J-52.822
G03 X450.686 Y532.189 I2.508 J-3.204
G00 Z33.080
G00 X471.793 Y591.813  F8000.0
G01 Z24.000 F1200.0 M3
G03 X476.426 Y590.939 I2.533 J0.712
G02 X486.141 Y595.777 I9.716 J-7.338
G02 X495.857 Y590.939 I0.000 J-12.175
G03 X500.489 Y591.813 I2.099 J1.586
G03 X498.994 Y597.443 I-5.513 J1.549
G02 X498.335 Y604.505 I3.861 J3.922
G02 X505.772 Y611.797 I22.873 J-15.891
G03 X505.775 Y616.558 I-1.586 J2.381
G03 X499.568 Y616.930 I-3.422 J-5.125
G02 X492.316 Y618.875 I-2.541 J5.015
G02 X488.881 Y627.516 I19.683 J12.828
G03 X485.064 Y629.080 I-2.408 J-0.436
G03 X482.082 Y623.074 I4.056 J-5.757
G02 X476.971 Y616.966 I-5.954 J-0.210
G02 X468.252 Y617.030 I-4.147 J29.029
G03 X465.514 Y614.299 I-0.373 J-2.364
G03 X470.281 Y608.681 I6.966 J1.079
G02 X474.628 Y601.174 I-2.032 J-6.189
G02 X472.551 Y596.331 I-12.907 J2.669
G03 X471.793 Y591.813 I4.417 J-3.064
G00 Z33.080
G00 X463.596 Y596.197  F8000.0
G01 Z24.000 F1200.0 M3
G03 X463.866 Y602.511 I-4.018 J3.335
G03 X450.825 Y616.232 I-51.065 J-35.476
G02 X448.179 Y620.715 I4.297 J5.559
G02 X452.236 Y625.103 I3.770 J0.584
G03 X471.305 Y625.737 I6.629 J87.720
G03 X476.778 Y630.913 I-0.922 J6.457
G02 X482.472 Y645.042 I40.489 J-8.105
G02 X489.810 Y645.042 I3.669 J-2.345
G02 X495.504 Y630.913 I-34.795 J-22.234
G03 X500.977 Y625.737 I6.395 J1.280
G03 X514.491 Y626.370 I5.099 J35.699
G02 X522.224 Y624.990 I2.288 J-9.535
G02 X522.649 Y618.407 I-2.306 J-3.454
G03 X508.416 Y602.511 I57.151 J-65.487
G03 X508.687 Y596.197 I4.288 J-2.979
G02 X514.552 Y584.476 I-22.247 J-18.462
G02 X511.003 Y579.571 I-3.879 J-0.930
G02 X506.682 Y580.095 I-0.890 J10.736
G03 X502.866 Y574.779 I-1.090 J-3.245
G03 X513.596 Y561.747 I172.038 J130.713
G03 X534.178 Y543.018 I99.468 J88.638
G02 X528.839 Y522.565 I-6.734 J-9.165
G03 X525.945 Y521.384 I0.732 J-5.927
G03 X525.075 Y517.111 I2.013 J-2.635
G03 X531.691 Y507.845 I47.839 J27.163
G03 X555.466 Y482.738 I376.858 J333.040
G03 X576.035 Y465.078 I138.365 J140.349
G02 X575.098 Y444.012 I-7.615 J-10.215
G02 X558.389 Y444.284 I-8.142 J13.227
G03 X552.391 Y439.215 I-2.257 J-3.413
G03 X561.516 Y424.975 I50.706 J22.445
G03 X590.540 Y396.007 I242.469 J213.919
G02 X607.750 Y380.206 I-353.719 J-402.511
G02 X606.794 Y358.147 I-10.176 J-10.609
G02 X585.365 Y356.970 I-11.534 J14.321
G03 X565.280 Y355.308 I-8.951 J-14.020
G02 X549.549 Y350.996 I-12.154 J13.491
G02 X538.344 Y354.782 I9.158 J45.577
G03 X531.932 Y354.966 I-3.408 J-6.995
G03 X528.325 Y352.709 I5.064 J-12.104
G02 X506.814 Y348.606 I-14.229 J16.160
G03 X502.547 Y346.840 I-1.162 J-3.232
G03 X502.123 Y339.356 I9.031 J-4.266
G02 X511.238 Y309.432 I-456.171 J-155.299
G02 X507.465 Y300.085 I-8.075 J-2.176
G02 X501.335 Y298.289 I-6.502 J10.839
G02 X475.378 Y297.988 I-21.429 J726.825
G02 X468.334 Y298.500 I0.332 J53.303
G02 X461.381 Y309.416 I1.177 J8.422
G01 X465.484 Y322.797  F4000.0
G03 X469.573 Y346.799 I-90.809 J27.818
G03 X467.188 Y348.860 I-2.013 J0.081
G02 X466.058 Y348.725 I-1.585 J8.445
G03 X465.239 Y348.513 I0.113 J-2.123
G02 X455.134 Y347.326 I-6.747 J13.835
G02 X443.182 Y353.390 I5.921 J26.485
G03 X435.732 Y354.971 I-5.138 J-5.870
G03 X429.094 Y352.346 I13.977 J-45.053
G02 X407.003 Y355.916 I-8.505 J17.505
G03 X396.274 Y359.176 I-8.514 J-8.732
G03 X377.147 Y355.281 I97.331 J-526.821
G02 X362.135 Y362.143 I-2.973 J13.347
G02 X366.581 Y382.295 I13.917 J7.496
G03 X419.450 Y438.554 I-133.590 J178.514
G03 X415.602 Y443.361 I-2.708 J1.776
G02 X402.673 Y442.035 I-8.982 J23.882
G02 X395.734 Y462.183 I1.865 J11.911
G02 X411.265 Y477.471 I193.666 J-181.194
G03 X445.747 Y513.626 I-231.262 J255.081
G03 X447.931 Y518.904 I-7.540 J6.212
G03 X444.384 Y522.753 I-3.497 J0.336
G02 X434.745 Y529.691 I-0.142 J9.967
G02 X438.116 Y541.498 I10.561 J3.370
G03 X469.363 Y574.567 I-136.959 J160.714
G03 X464.857 Y579.428 I-2.681 J2.034
G02 X457.730 Y584.476 I-2.552 J3.951
G02 X463.596 Y596.197 I28.113 J-6.741
G00 Z33.080
G00 Z48.320
M05
M1
( bowl [3] )
T22 M6( TOOL USE Radiused End Mill Tip 0.25 - 3/4 Fine )
S18000 M03
( bowl [3] )
G00 X159.374 Y398.603 Z33.080 F7000.0
G01 Z28.000 F300.0 M3
G01 Z27.737 
G01 Z27.600 
G01 Z27.375 
G01 Z27.361 
G01 Z27.285 
G01 Z27.023 
G01 Z26.886 
G01 Z26.660 
G01 Z26.646 
G01 Z26.570 
G01 Z26.308 
G01 Z26.171 
G01 Z25.946 
G01 Z25.931 
G01 Z25.856 
G01 Z25.593 
G01 Z25.456 
G01 Z25.231 
G01 Z25.216 
G01 Z25.141 
G01 Z24.878 
G01 Z24.741 
G01 Z24.667 
G01 Z24.592 
G01 Z24.455 
G01 Z24.192 
G01 Z24.117 
G01 Z24.103 
G01 Z23.877 
G01 Z23.740 
G01 Z23.478 
G01 Z23.402 
G01 Z23.388 
G01 Z23.162 
G01 Z23.026 
G01 Z22.763 
G01 Z22.687 
G01 Z22.673 
G01 Z22.448 
G01 Z22.311 
G01 Z22.048 
G01 Z21.973 
G01 Z21.958 
G01 Z21.733 
G01 Z21.596 
G01 Z21.333 
G01 X155.511 Y397.824  F3500.0
G01 X157.399 Y397.015 
G01 X160.589 Y398.132 
G01 X160.468 Y398.310 
G01 X159.374 Y398.603 
G01 X159.412 Y400.570  
G02 X147.033 Y398.867 I-14.611 J60.358
G01 X152.312 Y397.066  
G01 X157.354 Y394.951 
G02 X163.648 Y397.038 I20.189 J-50.361
G01 X161.646 Y399.977  
G01 X159.412 Y400.570 
G01 X159.448 Y402.541  
G02 X129.973 Y402.587 I-14.648 J58.387
G02 X105.565 Y401.542 I-14.691 J57.546
G01 X100.729 Y402.543  
G01 X96.864 Y401.586 
G01 X92.660 Y395.807 
G02 X101.014 Y393.188 I-11.627 J-51.732
G02 X129.552 Y399.433 I28.740 J-63.009
G02 X151.616 Y395.293 I0.175 J-59.932
G01 X157.318 Y392.878  
G02 X166.836 Y395.836 I20.226 J-48.288
G01 X162.822 Y401.651  
G01 X159.448 Y402.541 
G01 X159.484 Y404.516  
G02 X129.972 Y404.555 I-14.683 J56.412
G02 X105.876 Y403.421 I-14.689 J55.578
G01 X100.700 Y404.516  
G01 X95.739 Y403.298 
G01 X89.292 Y394.520 
G02 X100.818 Y391.208 I-8.260 J-50.446
G01 X101.056 Y391.107  
G02 X129.557 Y397.528 I28.699 J-60.928
G02 X150.920 Y393.519 I0.170 J-58.027
G01 X157.291 Y390.793  
G02 X170.187 Y394.498 I20.253 J-46.203
G01 X163.996 Y403.333  
G01 X159.484 Y404.516 
G01 X159.517 Y406.496  
G02 X129.971 Y406.527 I-14.717 J54.432
G02 X106.188 Y405.300 I-14.688 J53.605
G01 X100.671 Y406.493  
G01 X94.618 Y405.020 
G02 X85.740 Y393.061 I-202.772 J141.276
G02 X100.080 Y389.451 I-4.707 J-48.987
G01 X101.096 Y389.014  
G02 X129.563 Y395.623 I28.658 J-58.835
G02 X150.224 Y391.746 I0.164 J-56.122
G01 X157.273 Y388.697  
G02 X173.750 Y392.984 I20.271 J-44.108
G02 X165.169 Y405.025 I127.470 J99.919
G01 X164.926 Y405.078  
G01 X159.517 Y406.496 
G01 X159.550 Y408.481  
G02 X129.969 Y408.505 I-14.749 J52.447
G02 X106.500 Y407.180 I-14.687 J51.628
G01 X100.643 Y408.476  
G02 X93.502 Y406.752 I-17.203 J55.632
G02 X81.942 Y391.373 I-201.656 J139.544
G02 X99.343 Y387.695 I-0.910 J-47.299
G01 X101.136 Y386.908  
G02 X129.569 Y393.718 I28.619 J-56.729
G02 X149.529 Y389.973 I0.158 J-54.217
G01 X157.266 Y386.589  
G02 X177.604 Y391.227 I20.277 J-41.999
G02 X166.339 Y406.729 I123.617 J101.675
G01 X165.334 Y406.939  
G01 X159.550 Y408.481 
G01 X159.580 Y410.472  
G02 X129.968 Y410.488 I-14.779 J50.456
G02 X106.811 Y409.059 I-14.685 J49.645
G01 X100.614 Y410.464  
G02 X92.391 Y408.497 I-17.175 J53.644
G02 X77.799 Y389.362 I-200.545 J137.799
G02 X98.606 Y385.938 I3.233 J-45.287
G01 X101.175 Y384.786  
G02 X129.574 Y391.813 I28.579 J-54.607
G02 X148.833 Y388.199 I0.153 J-52.312
G02 X157.272 Y384.465 I-39.474 J-100.615
G02 X181.878 Y389.112 I20.272 J-39.875
G01 X180.253 Y391.023  
G02 X167.505 Y408.446 I120.968 J101.880
G01 X165.741 Y408.799  
G01 X159.580 Y410.472 
G01 X159.608 Y412.469  
G02 X129.966 Y412.477 I-14.807 J48.459
G02 X107.123 Y410.938 I-14.684 J47.655
G02 X100.586 Y412.458 I8.574 J51.692
G02 X91.286 Y410.255 I-17.147 J51.649
G02 X75.827 Y389.981 I-199.440 J136.041
G01 X73.122 Y386.847  
G02 X97.868 Y384.182 I7.911 J-42.772
G01 X101.214 Y382.648  
G02 X129.580 Y389.908 I28.541 J-52.469
G02 X148.137 Y386.426 I0.147 J-50.407
G02 X157.290 Y382.326 I-38.778 J-98.842
G02 X186.509 Y386.469 I20.253 J-37.736
G01 X186.786 Y386.409  
G01 X181.710 Y392.250 
G02 X168.667 Y410.177 I119.511 J100.653
G01 X166.149 Y410.660  
G01 X159.608 Y412.469 
G01 X159.634 Y414.473  
G02 X129.964 Y414.474 I-14.834 J46.455
G02 X107.435 Y412.818 I-14.682 J45.659
G02 X100.558 Y414.460 I8.262 J49.812
G02 X90.187 Y412.027 I-17.119 J49.647
G02 X74.375 Y391.214 I-198.340 J134.269
G01 X67.455 Y383.388  
G02 X97.131 Y382.425 I13.578 J-39.314
G01 X101.252 Y380.490  
G02 X129.585 Y388.003 I28.502 J-50.311
G02 X147.441 Y384.652 I0.142 J-48.502
G02 X157.324 Y380.168 I-38.082 J-97.068
G02 X186.110 Y384.606 I20.219 J-35.578
G01 X192.645 Y382.857  
G02 X183.167 Y393.477 I180.214 J170.380
G02 X169.825 Y411.925 I118.054 J99.425
G01 X166.557 Y412.521  
G02 X159.634 Y414.473 I13.023 J59.447
G01 X159.658 Y416.485  
G02 X129.962 Y416.478 I-14.857 J44.444
G02 X107.747 Y414.697 I-14.680 J43.654
G02 X100.531 Y416.470 I7.950 J47.933
G02 X89.094 Y413.813 I-17.092 J47.638
G02 X72.923 Y392.448 I-197.247 J132.483
G02 X63.294 Y381.727 I-199.447 J169.456
G01 X65.397 Y380.552  
G02 X96.394 Y380.669 I15.635 J-36.478
G01 X101.289 Y378.311  
G02 X129.591 Y386.098 I28.465 J-48.132
G02 X146.746 Y382.879 I0.136 J-46.597
G02 X157.375 Y377.990 I-37.387 J-95.295
G02 X185.711 Y382.743 I20.168 J-33.401
G02 X193.984 Y380.390 I-13.611 J-63.583
G01 X196.344 Y381.751  
G02 X184.624 Y394.704 I176.515 J171.487
G02 X170.978 Y413.691 I116.596 J98.198
G01 X166.964 Y414.382  
G02 X159.658 Y416.485 I12.615 J57.586
G01 X159.679 Y418.505  
G02 X129.960 Y418.492 I-14.878 J42.423
G02 X108.058 Y416.576 I-14.677 J41.640
G02 X100.504 Y418.489 I7.638 J46.054
G02 X88.008 Y415.616 I-17.065 J45.619
G02 X71.472 Y393.681 I-196.161 J130.680
G02 X60.112 Y381.161 I-197.995 J168.223
G02 X65.259 Y378.407 I-18.226 J-40.255
G02 X95.656 Y378.912 I15.773 J-34.333
G02 X101.326 Y376.106 I-19.725 J-46.991
G02 X129.596 Y384.193 I28.428 J-45.927
G02 X146.050 Y381.106 I0.131 J-44.692
G02 X157.446 Y375.789 I-36.691 J-93.522
G02 X185.312 Y380.880 I20.098 J-31.199
G02 X194.208 Y378.280 I-13.212 J-61.720
G02 X199.535 Y381.220 I24.167 J-37.491
G02 X186.081 Y395.931 I173.324 J172.017
G02 X172.125 Y415.476 I115.139 J96.971
G01 X167.372 Y416.243  
G02 X159.679 Y418.505 I12.208 J55.725
G01 X159.696 Y420.536  
G02 X129.957 Y420.517 I-14.896 J40.392
G02 X108.370 Y418.456 I-14.675 J39.616
G02 X100.477 Y420.518 I7.327 J44.174
G02 X86.929 Y417.437 I-17.038 J43.589
G02 X70.020 Y394.915 I-195.083 J128.859
G02 X56.780 Y380.480 I-196.544 J166.989
G02 X65.114 Y376.238 I-14.894 J-39.574
G01 X65.667 Y376.495  
G02 X94.919 Y377.156 I15.365 J-32.421
G02 X101.362 Y373.873 I-18.988 J-45.235
G02 X129.602 Y382.288 I28.393 J-43.694
G02 X145.354 Y379.332 I0.125 J-42.787
G02 X157.538 Y373.561 I-35.995 J-91.748
G02 X184.914 Y379.017 I20.005 J-28.972
G02 X194.441 Y376.151 I-12.814 J-59.858
G02 X202.879 Y380.578 I23.934 J-35.362
G02 X187.538 Y397.159 I169.980 J172.659
G02 X173.266 Y417.283 I113.682 J95.744
G01 X167.780 Y418.104  
G02 X159.696 Y420.536 I11.800 J53.864
G01 X159.710 Y422.578  
G02 X129.954 Y422.554 I-14.910 J38.350
G02 X108.682 Y420.335 I-14.672 J37.579
G02 X100.451 Y422.559 I7.015 J42.295
G02 X85.859 Y419.277 I-17.012 J41.548
G02 X68.568 Y396.148 I-194.013 J127.019
G02 X53.254 Y379.651 I-195.092 J165.756
G02 X64.919 Y374.071 I-11.368 J-38.745
G01 X66.483 Y374.774  
G02 X94.182 Y375.399 I14.549 J-30.699
G02 X101.396 Y371.607 I-18.251 J-43.478
G02 X129.608 Y380.383 I28.358 J-41.427
G02 X144.658 Y377.559 I0.119 J-40.882
G02 X157.657 Y371.303 I-35.299 J-89.975
G02 X184.515 Y377.155 I19.887 J-26.713
G02 X194.684 Y374.000 I-12.415 J-57.995
G02 X206.419 Y379.793 I23.691 J-33.211
G02 X188.995 Y398.386 I166.439 J173.444
G02 X174.401 Y419.114 I112.225 J94.517
G02 X168.187 Y419.965 I2.229 J39.391
G02 X159.710 Y422.578 I11.392 J52.004
G01 X159.720 Y424.634  
G02 X129.951 Y424.605 I-14.919 J36.294
G02 X108.993 Y422.214 I-14.668 J35.527
G02 X100.426 Y424.615 I6.703 J40.416
G02 X84.798 Y421.138 I-16.987 J39.493
G02 X67.116 Y397.381 I-192.952 J125.158
G02 X49.468 Y378.625 I-193.640 J164.522
G02 X64.668 Y371.909 I-7.582 J-37.719
G01 X67.299 Y373.053  
G02 X93.444 Y373.643 I13.733 J-28.978
G02 X101.429 Y369.301 I-17.513 J-41.722
G02 X129.613 Y378.478 I28.325 J-39.121
G02 X143.963 Y375.785 I0.114 J-38.977
G02 X157.806 Y369.008 I-34.604 J-88.201
G02 X184.116 Y375.292 I19.738 J-24.418
G02 X194.939 Y371.825 I-12.016 J-56.132
G02 X210.225 Y378.816 I23.436 J-31.035
G02 X190.452 Y399.613 I162.634 J174.421
G02 X175.528 Y420.972 I110.768 J93.290
G02 X168.595 Y421.826 I1.102 J37.532
G02 X159.720 Y424.634 I10.985 J50.143
G01 X159.725 Y426.704  
G02 X129.947 Y426.674 I-14.924 J34.224
G02 X109.305 Y424.094 I-14.665 J33.459
G02 X100.401 Y426.686 I6.392 J38.536
G02 X83.748 Y423.022 I-16.962 J37.421
G02 X65.664 Y398.615 I-191.901 J123.273
G02 X45.308 Y377.314 I-192.188 J163.289
G02 X64.362 Y369.752 I-3.423 J-36.408
G01 X68.115 Y371.331  
G02 X92.707 Y371.886 I12.917 J-27.257
G02 X101.461 Y366.947 I-16.776 J-39.965
G02 X129.619 Y376.573 I28.293 J-36.768
G02 X143.267 Y374.012 I0.108 J-37.072
G02 X157.978 Y366.677 I-33.908 J-86.428
G01 X158.320 Y366.956  
G02 X183.717 Y373.429 I19.224 J-22.367
G02 X195.207 Y369.619 I-11.617 J-54.269
G02 X214.411 Y377.561 I23.167 J-28.830
G02 X191.909 Y400.840 I158.448 J175.676
G02 X176.647 Y422.861 I109.311 J92.062
G02 X169.003 Y423.686 I-0.017 J35.644
G02 X159.725 Y426.704 I10.577 J48.282
G01 X159.724 Y428.793  
G02 X129.943 Y428.763 I-14.924 J32.135
G02 X109.617 Y425.973 I-14.660 J31.370
G02 X100.378 Y428.777 I6.080 J36.657
G02 X82.708 Y424.933 I-16.938 J35.330
G02 X64.213 Y399.848 I-190.862 J121.363
G02 X40.546 Y375.544 I-190.737 J162.055
G02 X64.000 Y367.600 I1.340 J-34.638
G01 X68.931 Y369.610  
G02 X91.969 Y370.130 I12.102 J-25.535
G02 X101.491 Y364.537 I-16.039 J-38.208
G02 X129.624 Y374.668 I28.263 J-34.358
G02 X142.571 Y372.239 I0.103 J-35.167
G02 X158.016 Y364.408 I-33.212 J-84.655
G01 X159.562 Y365.512  
G02 X183.318 Y371.566 I17.982 J-20.922
G02 X195.492 Y367.379 I-11.219 J-52.406
G02 X219.213 Y375.859 I22.882 J-26.589
G02 X193.366 Y402.067 I153.646 J177.378
G02 X177.756 Y424.785 I107.854 J90.835
G02 X169.410 Y425.547 I-1.126 J33.720
G02 X159.724 Y428.793 I10.169 J46.421
G01 X159.717 Y430.903  
G02 X129.938 Y430.877 I-14.916 J30.025
G02 X109.929 Y427.852 I-14.655 J29.256
G02 X100.355 Y430.891 I5.768 J34.778
G02 X81.681 Y426.873 I-16.916 J33.217
G02 X62.761 Y401.082 I-189.834 J119.423
G02 X36.645 Y374.638 I-189.285 J160.822
G01 X34.601 Y372.844  
G02 X63.579 Y365.453 I7.285 J-31.938
G03 X69.747 Y367.888 I-15.203 J47.528
G02 X91.232 Y368.373 I11.286 J-23.814
G02 X101.435 Y362.127 I-15.301 J-36.452
G01 X101.602 Y362.129  
G02 X129.630 Y372.763 I28.153 J-31.950
G02 X141.875 Y370.465 I0.097 J-33.262
G02 X157.916 Y362.209 I-32.516 J-82.881
G03 X160.804 Y364.067 I-5.241 J11.316
G02 X182.920 Y369.703 I16.740 J-19.477
G02 X195.191 Y365.404 I-10.820 J-50.544
G03 X196.297 Y365.551 I0.444 J0.889
G02 X225.279 Y373.238 I22.078 J-24.762
G02 X194.823 Y403.294 I147.580 J179.999
G02 X178.854 Y426.749 I106.397 J89.608
G02 X169.818 Y427.408 I-2.224 J31.756
G02 X159.717 Y430.903 I9.762 J44.560
G00 Z33.080
G00 X100.788 Y398.610  F7000.0
G01 Z28.000 F300.0 M3
G01 Z27.886 
G01 Z27.870 
G01 Z27.733 
G01 Z27.587 
G01 Z27.440 
G01 Z27.326 
G01 Z27.310 
G01 Z27.173 
G01 Z27.027 
G01 Z26.880 
G01 Z26.766 
G01 Z26.750 
G01 Z26.613 
G01 Z26.467 
G01 Z26.321 
G01 Z26.206 
G01 Z26.190 
G01 Z26.053 
G01 Z25.908 
G01 Z25.761 
G01 Z25.646 
G01 Z25.630 
G01 Z25.494 
G01 Z25.348 
G01 Z25.201 
G01 Z25.087 
G01 Z25.071 
G01 Z24.934 
G01 Z24.788 
G01 Z24.667 
G01 Z24.545 
G01 Z24.400 
G01 Z24.263 
G01 Z24.247 
G01 Z24.132 
G01 Z23.986 
G01 Z23.840 
G01 Z23.703 
G01 Z23.687 
G01 Z23.573 
G01 Z23.426 
G01 Z23.280 
G01 Z23.143 
G01 Z23.127 
G01 Z23.013 
G01 Z22.866 
G01 Z22.720 
G01 Z22.583 
G01 Z22.567 
G01 Z22.453 
G01 Z22.306 
G01 Z22.160 
G01 Z22.023 
G01 Z22.007 
G01 Z21.893 
G01 Z21.746 
G01 Z21.600 
G01 Z21.464 
G01 Z21.448 
G01 Z21.333 
G01 X99.127 Y398.192  F3500.0
G01 X98.987 Y397.997 
G01 X100.921 Y397.313 
G01 X102.943 Y398.146 
G01 X100.788 Y398.610 
G01 X100.759 Y400.575  
G01 X97.993 Y399.885  
G01 X95.882 Y396.957 
G01 X100.969 Y395.256 
G02 X111.488 Y398.954 I28.785 J-65.077
G01 X105.253 Y399.662  
G01 X100.759 Y400.575 
G00 Z33.080
G00 X159.374 Y398.603  F7000.0
G01 Z21.333 F300.0 M3
G01 Z21.071 
G01 Z20.934 
G01 Z20.708 
G01 Z20.694 
G01 Z20.619 
G01 Z20.356 
G01 Z20.219 
G01 Z19.994 
G01 Z19.979 
G01 Z19.904 
G01 Z19.641 
G01 Z19.504 
G01 Z19.279 
G01 Z19.265 
G01 Z19.189 
G01 Z18.926 
G01 Z18.789 
G01 Z18.564 
G01 Z18.550 
G01 Z18.474 
G01 Z18.212 
G01 Z18.075 
G01 Z18.000 
G01 Z17.925 
G01 Z17.788 
G01 Z17.526 
G01 Z17.450 
G01 Z17.436 
G01 Z17.211 
G01 Z17.074 
G01 Z16.811 
G01 Z16.735 
G01 Z16.721 
G01 Z16.496 
G01 Z16.359 
G01 Z16.096 
G01 Z16.021 
G01 Z16.006 
G01 Z15.781 
G01 Z15.644 
G01 Z15.381 
G01 Z15.306 
G01 Z15.292 
G01 Z15.066 
G01 Z14.929 
G01 Z14.667 
G01 X155.511 Y397.824  F3500.0
G01 X157.399 Y397.015 
G01 X160.589 Y398.132 
G01 X160.468 Y398.310 
G01 X159.374 Y398.603 
G01 X159.412 Y400.570  
G02 X147.033 Y398.867 I-14.611 J60.358
G01 X152.312 Y397.066  
G01 X157.354 Y394.951 
G02 X163.648 Y397.038 I20.189 J-50.361
G01 X161.646 Y399.977  
G01 X159.412 Y400.570 
G01 X159.448 Y402.541  
G02 X129.973 Y402.587 I-14.648 J58.387
G02 X105.565 Y401.542 I-14.691 J57.546
G01 X100.729 Y402.543  
G01 X96.864 Y401.586 
G01 X92.660 Y395.807 
G02 X101.014 Y393.188 I-11.627 J-51.732
G02 X129.552 Y399.433 I28.740 J-63.009
G02 X151.616 Y395.293 I0.175 J-59.932
G01 X157.318 Y392.878  
G02 X166.836 Y395.836 I20.226 J-48.288
G01 X162.822 Y401.651  
G01 X159.448 Y402.541 
G01 X159.484 Y404.516  
G02 X129.972 Y404.555 I-14.683 J56.412
G02 X105.876 Y403.421 I-14.689 J55.578
G01 X100.700 Y404.516  
G01 X95.739 Y403.298 
G01 X89.292 Y394.520 
G02 X100.818 Y391.208 I-8.260 J-50.446
G01 X101.056 Y391.107  
G02 X129.557 Y397.528 I28.699 J-60.928
G02 X150.920 Y393.519 I0.170 J-58.027
G01 X157.291 Y390.793  
G02 X170.187 Y394.498 I20.253 J-46.203
G01 X163.996 Y403.333  
G01 X159.484 Y404.516 
G01 X159.517 Y406.496  
G02 X129.971 Y406.527 I-14.717 J54.432
G02 X106.188 Y405.300 I-14.688 J53.605
G01 X100.671 Y406.493  
G01 X94.618 Y405.020 
G02 X85.740 Y393.061 I-202.772 J141.276
G02 X100.080 Y389.451 I-4.707 J-48.987
G01 X101.096 Y389.014  
G02 X129.563 Y395.623 I28.658 J-58.835
G02 X150.224 Y391.746 I0.164 J-56.122
G01 X157.273 Y388.697  
G02 X173.750 Y392.984 I20.271 J-44.108
G02 X165.169 Y405.025 I127.470 J99.919
G01 X164.926 Y405.078  
G01 X159.517 Y406.496 
G01 X159.550 Y408.481  
G02 X129.969 Y408.505 I-14.749 J52.447
G02 X106.500 Y407.180 I-14.687 J51.628
G01 X100.643 Y408.476  
G02 X93.502 Y406.752 I-17.203 J55.632
G02 X81.942 Y391.373 I-201.656 J139.544
G02 X99.343 Y387.695 I-0.910 J-47.299
G01 X101.136 Y386.908  
G02 X129.569 Y393.718 I28.619 J-56.729
G02 X149.529 Y389.973 I0.158 J-54.217
G01 X157.266 Y386.589  
G02 X177.604 Y391.227 I20.277 J-41.999
G02 X166.339 Y406.729 I123.617 J101.675
G01 X165.334 Y406.939  
G01 X159.550 Y408.481 
G01 X159.580 Y410.472  
G02 X129.968 Y410.488 I-14.779 J50.456
G02 X106.811 Y409.059 I-14.685 J49.645
G01 X100.614 Y410.464  
G02 X92.391 Y408.497 I-17.175 J53.644
G02 X77.799 Y389.362 I-200.545 J137.799
G02 X98.606 Y385.938 I3.233 J-45.287
G01 X101.175 Y384.786  
G02 X129.574 Y391.813 I28.579 J-54.607
G02 X148.833 Y388.199 I0.153 J-52.312
G02 X157.272 Y384.465 I-39.474 J-100.615
G02 X181.878 Y389.112 I20.272 J-39.875
G01 X180.253 Y391.023  
G02 X167.505 Y408.446 I120.968 J101.880
G01 X165.741 Y408.799  
G01 X159.580 Y410.472 
G01 X159.608 Y412.469  
G02 X129.966 Y412.477 I-14.807 J48.459
G02 X107.123 Y410.938 I-14.684 J47.655
G02 X100.586 Y412.458 I8.574 J51.692
G02 X91.286 Y410.255 I-17.147 J51.649
G02 X75.827 Y389.981 I-199.440 J136.041
G01 X73.122 Y386.847  
G02 X97.868 Y384.182 I7.911 J-42.772
G01 X101.214 Y382.648  
G02 X129.580 Y389.908 I28.541 J-52.469
G02 X148.137 Y386.426 I0.147 J-50.407
G02 X157.290 Y382.326 I-38.778 J-98.842
G02 X186.509 Y386.469 I20.253 J-37.736
G01 X186.786 Y386.409  
G01 X181.710 Y392.250 
G02 X168.667 Y410.177 I119.511 J100.653
G01 X166.149 Y410.660  
G01 X159.608 Y412.469 
G01 X159.634 Y414.473  
G02 X129.964 Y414.474 I-14.834 J46.455
G02 X107.435 Y412.818 I-14.682 J45.659
G02 X100.558 Y414.460 I8.262 J49.812
G02 X90.187 Y412.027 I-17.119 J49.647
G02 X74.375 Y391.214 I-198.340 J134.269
G01 X67.455 Y383.388  
G02 X97.131 Y382.425 I13.578 J-39.314
G01 X101.252 Y380.490  
G02 X129.585 Y388.003 I28.502 J-50.311
G02 X147.441 Y384.652 I0.142 J-48.502
G02 X157.324 Y380.168 I-38.082 J-97.068
G02 X186.110 Y384.606 I20.219 J-35.578
G01 X192.645 Y382.857  
G02 X183.167 Y393.477 I180.214 J170.380
G02 X169.825 Y411.925 I118.054 J99.425
G01 X166.557 Y412.521  
G02 X159.634 Y414.473 I13.023 J59.447
G01 X159.658 Y416.485  
G02 X129.962 Y416.478 I-14.857 J44.444
G02 X107.747 Y414.697 I-14.680 J43.654
G02 X100.531 Y416.470 I7.950 J47.933
G02 X89.094 Y413.813 I-17.092 J47.638
G02 X72.923 Y392.448 I-197.247 J132.483
G02 X63.294 Y381.727 I-199.447 J169.456
G01 X65.397 Y380.552  
G02 X96.394 Y380.669 I15.635 J-36.478
G01 X101.289 Y378.311  
G02 X129.591 Y386.098 I28.465 J-48.132
G02 X146.746 Y382.879 I0.136 J-46.597
G02 X157.375 Y377.990 I-37.387 J-95.295
G02 X185.711 Y382.743 I20.168 J-33.401
G02 X193.984 Y380.390 I-13.611 J-63.583
G01 X196.344 Y381.751  
G02 X184.624 Y394.704 I176.515 J171.487
G02 X170.978 Y413.691 I116.596 J98.198
G01 X166.964 Y414.382  
G02 X159.658 Y416.485 I12.615 J57.586
G01 X159.679 Y418.505  
G02 X129.960 Y418.492 I-14.878 J42.423
G02 X108.058 Y416.576 I-14.677 J41.640
G02 X100.504 Y418.489 I7.638 J46.054
G02 X88.008 Y415.616 I-17.065 J45.619
G02 X71.472 Y393.681 I-196.161 J130.680
G02 X60.112 Y381.161 I-197.995 J168.223
G02 X65.259 Y378.407 I-18.226 J-40.255
G02 X95.656 Y378.912 I15.773 J-34.333
G02 X101.326 Y376.106 I-19.725 J-46.991
G02 X129.596 Y384.193 I28.428 J-45.927
G02 X146.050 Y381.106 I0.131 J-44.692
G02 X157.446 Y375.789 I-36.691 J-93.522
G02 X185.312 Y380.880 I20.098 J-31.199
G02 X194.208 Y378.280 I-13.212 J-61.720
G02 X199.535 Y381.220 I24.167 J-37.491
G02 X186.081 Y395.931 I173.324 J172.017
G02 X172.125 Y415.476 I115.139 J96.971
G01 X167.372 Y416.243  
G02 X159.679 Y418.505 I12.208 J55.725
G01 X159.696 Y420.536  
G02 X129.957 Y420.517 I-14.896 J40.392
G02 X108.370 Y418.456 I-14.675 J39.616
G02 X100.477 Y420.518 I7.327 J44.174
G02 X86.929 Y417.437 I-17.038 J43.589
G02 X70.020 Y394.915 I-195.083 J128.859
G02 X56.780 Y380.480 I-196.544 J166.989
G02 X65.114 Y376.238 I-14.894 J-39.574
G01 X65.667 Y376.495  
G02 X94.919 Y377.156 I15.365 J-32.421
G02 X101.362 Y373.873 I-18.988 J-45.235
G02 X129.602 Y382.288 I28.393 J-43.694
G02 X145.354 Y379.332 I0.125 J-42.787
G02 X157.538 Y373.561 I-35.995 J-91.748
G02 X184.914 Y379.017 I20.005 J-28.972
G02 X194.441 Y376.151 I-12.814 J-59.858
G02 X202.879 Y380.578 I23.934 J-35.362
G02 X187.538 Y397.159 I169.980 J172.659
G02 X173.266 Y417.283 I113.682 J95.744
G01 X167.780 Y418.104  
G02 X159.696 Y420.536 I11.800 J53.864
G01 X159.710 Y422.578  
G02 X129.954 Y422.554 I-14.910 J38.350
G02 X108.682 Y420.335 I-14.672 J37.579
G02 X100.451 Y422.559 I7.015 J42.295
G02 X85.859 Y419.277 I-17.012 J41.548
G02 X68.568 Y396.148 I-194.013 J127.019
G02 X53.254 Y379.651 I-195.092 J165.756
G02 X64.919 Y374.071 I-11.368 J-38.745
G01 X66.483 Y374.774  
G02 X94.182 Y375.399 I14.549 J-30.699
G02 X101.396 Y371.607 I-18.251 J-43.478
G02 X129.608 Y380.383 I28.358 J-41.427
G02 X144.658 Y377.559 I0.119 J-40.882
G02 X157.657 Y371.303 I-35.299 J-89.975
G02 X184.515 Y377.155 I19.887 J-26.713
G02 X194.684 Y374.000 I-12.415 J-57.995
G02 X206.419 Y379.793 I23.691 J-33.211
G02 X188.995 Y398.386 I166.439 J173.444
G02 X174.401 Y419.114 I112.225 J94.517
G02 X168.187 Y419.965 I2.229 J39.391
G02 X159.710 Y422.578 I11.392 J52.004
G01 X159.720 Y424.634  
G02 X129.951 Y424.605 I-14.919 J36.294
G02 X108.993 Y422.214 I-14.668 J35.527
G02 X100.426 Y424.615 I6.703 J40.416
G02 X84.798 Y421.138 I-16.987 J39.493
G02 X67.116 Y397.381 I-192.952 J125.158
G02 X49.468 Y378.625 I-193.640 J164.522
G02 X64.668 Y371.909 I-7.582 J-37.719
G01 X67.299 Y373.053  
G02 X93.444 Y373.643 I13.733 J-28.978
G02 X101.429 Y369.301 I-17.513 J-41.722
G02 X129.613 Y378.478 I28.325 J-39.121
G02 X143.963 Y375.785 I0.114 J-38.977
G02 X157.806 Y369.008 I-34.604 J-88.201
G02 X184.116 Y375.292 I19.738 J-24.418
G02 X194.939 Y371.825 I-12.016 J-56.132
G02 X210.225 Y378.816 I23.436 J-31.035
G02 X190.452 Y399.613 I162.634 J174.421
G02 X175.528 Y420.972 I110.768 J93.290
G02 X168.595 Y421.826 I1.102 J37.532
G02 X159.720 Y424.634 I10.985 J50.143
G01 X159.725 Y426.704  
G02 X129.947 Y426.674 I-14.924 J34.224
G02 X109.305 Y424.094 I-14.665 J33.459
G02 X100.401 Y426.686 I6.392 J38.536
G02 X83.748 Y423.022 I-16.962 J37.421
G02 X65.664 Y398.615 I-191.901 J123.273
G02 X45.308 Y377.314 I-192.188 J163.289
G02 X64.362 Y369.752 I-3.423 J-36.408
G01 X68.115 Y371.331  
G02 X92.707 Y371.886 I12.917 J-27.257
G02 X101.461 Y366.947 I-16.776 J-39.965
G02 X129.619 Y376.573 I28.293 J-36.768
G02 X143.267 Y374.012 I0.108 J-37.072
G02 X157.978 Y366.677 I-33.908 J-86.428
G01 X158.320 Y366.956  
G02 X183.717 Y373.429 I19.224 J-22.367
G02 X195.207 Y369.619 I-11.617 J-54.269
G02 X214.411 Y377.561 I23.167 J-28.830
G02 X191.909 Y400.840 I158.448 J175.676
G02 X176.647 Y422.861 I109.311 J92.062
G02 X169.003 Y423.686 I-0.017 J35.644
G02 X159.725 Y426.704 I10.577 J48.282
G01 X159.724 Y428.793  
G02 X129.943 Y428.763 I-14.924 J32.135
G02 X109.617 Y425.973 I-14.660 J31.370
G02 X100.378 Y428.777 I6.080 J36.657
G02 X82.708 Y424.933 I-16.938 J35.330
G02 X64.213 Y399.848 I-190.862 J121.363
G02 X40.546 Y375.544 I-190.737 J162.055
G02 X64.000 Y367.600 I1.340 J-34.638
G01 X68.931 Y369.610  
G02 X91.969 Y370.130 I12.102 J-25.535
G02 X101.491 Y364.537 I-16.039 J-38.208
G02 X129.624 Y374.668 I28.263 J-34.358
G02 X142.571 Y372.239 I0.103 J-35.167
G02 X158.016 Y364.408 I-33.212 J-84.655
G01 X159.562 Y365.512  
G02 X183.318 Y371.566 I17.982 J-20.922
G02 X195.492 Y367.379 I-11.219 J-52.406
G02 X219.213 Y375.859 I22.882 J-26.589
G02 X193.366 Y402.067 I153.646 J177.378
G02 X177.756 Y424.785 I107.854 J90.835
G02 X169.410 Y425.547 I-1.126 J33.720
G02 X159.724 Y428.793 I10.169 J46.421
G01 X159.717 Y430.903  
G02 X129.938 Y430.877 I-14.916 J30.025
G02 X109.929 Y427.852 I-14.655 J29.256
G02 X100.355 Y430.891 I5.768 J34.778
G02 X81.681 Y426.873 I-16.916 J33.217
G02 X62.761 Y401.082 I-189.834 J119.423
G02 X36.645 Y374.638 I-189.285 J160.822
G01 X34.601 Y372.844  
G02 X63.579 Y365.453 I7.285 J-31.938
G03 X69.747 Y367.888 I-15.203 J47.528
G02 X91.232 Y368.373 I11.286 J-23.814
G02 X101.435 Y362.127 I-15.301 J-36.452
G01 X101.602 Y362.129  
G02 X129.630 Y372.763 I28.153 J-31.950
G02 X141.875 Y370.465 I0.097 J-33.262
G02 X157.916 Y362.209 I-32.516 J-82.881
G03 X160.804 Y364.067 I-5.241 J11.316
G02 X182.920 Y369.703 I16.740 J-19.477
G02 X195.191 Y365.404 I-10.820 J-50.544
G03 X196.297 Y365.551 I0.444 J0.889
G02 X225.279 Y373.238 I22.078 J-24.762
G02 X194.823 Y403.294 I147.580 J179.999
G02 X178.854 Y426.749 I106.397 J89.608
G02 X169.818 Y427.408 I-2.224 J31.756
G02 X159.717 Y430.903 I9.762 J44.560
G00 Z33.080
G00 X100.788 Y398.610  F7000.0
G01 Z21.333 F300.0 M3
G01 Z21.219 
G01 Z21.203 
G01 Z21.066 
G01 Z20.920 
G01 Z20.774 
G01 Z20.659 
G01 Z20.643 
G01 Z20.506 
G01 Z20.361 
G01 Z20.214 
G01 Z20.099 
G01 Z20.083 
G01 Z19.947 
G01 Z19.801 
G01 Z19.654 
G01 Z19.540 
G01 Z19.524 
G01 Z19.387 
G01 Z19.241 
G01 Z19.094 
G01 Z18.980 
G01 Z18.964 
G01 Z18.827 
G01 Z18.681 
G01 Z18.534 
G01 Z18.420 
G01 Z18.404 
G01 Z18.267 
G01 Z18.121 
G01 Z18.000 
G01 Z17.879 
G01 Z17.733 
G01 Z17.596 
G01 Z17.580 
G01 Z17.466 
G01 Z17.319 
G01 Z17.173 
G01 Z17.036 
G01 Z17.020 
G01 Z16.906 
G01 Z16.759 
G01 Z16.613 
G01 Z16.476 
G01 Z16.460 
G01 Z16.346 
G01 Z16.199 
G01 Z16.053 
G01 Z15.917 
G01 Z15.901 
G01 Z15.786 
G01 Z15.639 
G01 Z15.494 
G01 Z15.357 
G01 Z15.341 
G01 Z15.226 
G01 Z15.080 
G01 Z14.934 
G01 Z14.797 
G01 Z14.781 
G01 Z14.667 
G01 X99.127 Y398.192  F3500.0
G01 X98.987 Y397.997 
G01 X100.921 Y397.313 
G01 X102.943 Y398.146 
G01 X100.788 Y398.610 
G01 X100.759 Y400.575  
G01 X97.993 Y399.885  
G01 X95.882 Y396.957 
G01 X100.969 Y395.256 
G02 X111.488 Y398.954 I28.785 J-65.077
G01 X105.253 Y399.662  
G01 X100.759 Y400.575 
G00 Z33.080
G00 X159.374 Y398.603  F7000.0
G01 Z14.667 F300.0 M3
G01 Z14.404 
G01 Z14.267 
G01 Z14.042 
G01 Z14.027 
G01 Z13.952 
G01 Z13.689 
G01 Z13.552 
G01 Z13.327 
G01 Z13.313 
G01 Z13.237 
G01 Z12.974 
G01 Z12.838 
G01 Z12.612 
G01 Z12.598 
G01 Z12.522 
G01 Z12.260 
G01 Z12.123 
G01 Z11.897 
G01 Z11.883 
G01 Z11.808 
G01 Z11.545 
G01 Z11.408 
G01 Z11.333 
G01 Z11.259 
G01 Z11.122 
G01 Z10.859 
G01 Z10.784 
G01 Z10.769 
G01 Z10.544 
G01 Z10.407 
G01 Z10.144 
G01 Z10.069 
G01 Z10.054 
G01 Z9.829 
G01 Z9.692 
G01 Z9.430 
G01 Z9.354 
G01 Z9.340 
G01 Z9.114 
G01 Z8.977 
G01 Z8.715 
G01 Z8.639 
G01 Z8.625 
G01 Z8.400 
G01 Z8.263 
G01 Z8.000 
G01 X155.511 Y397.824  F3500.0
G01 X157.399 Y397.015 
G01 X160.589 Y398.132 
G01 X160.468 Y398.310 
G01 X159.374 Y398.603 
G01 X159.412 Y400.570  
G02 X147.033 Y398.867 I-14.611 J60.358
G01 X152.312 Y397.066  
G01 X157.354 Y394.951 
G02 X163.648 Y397.038 I20.189 J-50.361
G01 X161.646 Y399.977  
G01 X159.412 Y400.570 
G01 X159.448 Y402.541  
G02 X129.973 Y402.587 I-14.648 J58.387
G02 X105.565 Y401.542 I-14.691 J57.546
G01 X100.729 Y402.543  
G01 X96.864 Y401.586 
G01 X92.660 Y395.807 
G02 X101.014 Y393.188 I-11.627 J-51.732
G02 X129.552 Y399.433 I28.740 J-63.009
G02 X151.616 Y395.293 I0.175 J-59.932
G01 X157.318 Y392.878  
G02 X166.836 Y395.836 I20.226 J-48.288
G01 X162.822 Y401.651  
G01 X159.448 Y402.541 
G01 X159.484 Y404.516  
G02 X129.972 Y404.555 I-14.683 J56.412
G02 X105.876 Y403.421 I-14.689 J55.578
G01 X100.700 Y404.516  
G01 X95.739 Y403.298 
G01 X89.292 Y394.520 
G02 X100.818 Y391.208 I-8.260 J-50.446
G01 X101.056 Y391.107  
G02 X129.557 Y397.528 I28.699 J-60.928
G02 X150.920 Y393.519 I0.170 J-58.027
G01 X157.291 Y390.793  
G02 X170.187 Y394.498 I20.253 J-46.203
G01 X163.996 Y403.333  
G01 X159.484 Y404.516 
G01 X159.517 Y406.496  
G02 X129.971 Y406.527 I-14.717 J54.432
G02 X106.188 Y405.300 I-14.688 J53.605
G01 X100.671 Y406.493  
G01 X94.618 Y405.020 
G02 X85.740 Y393.061 I-202.772 J141.276
G02 X100.080 Y389.451 I-4.707 J-48.987
G01 X101.096 Y389.014  
G02 X129.563 Y395.623 I28.658 J-58.835
G02 X150.224 Y391.746 I0.164 J-56.122
G01 X157.273 Y388.697  
G02 X173.750 Y392.984 I20.271 J-44.108
G02 X165.169 Y405.025 I127.470 J99.919
G01 X164.926 Y405.078  
G01 X159.517 Y406.496 
G01 X159.550 Y408.481  
G02 X129.969 Y408.505 I-14.749 J52.447
G02 X106.500 Y407.180 I-14.687 J51.628
G01 X100.643 Y408.476  
G02 X93.502 Y406.752 I-17.203 J55.632
G02 X81.942 Y391.373 I-201.656 J139.544
G02 X99.343 Y387.695 I-0.910 J-47.299
G01 X101.136 Y386.908  
G02 X129.569 Y393.718 I28.619 J-56.729
G02 X149.529 Y389.973 I0.158 J-54.217
G01 X157.266 Y386.589  
G02 X177.604 Y391.227 I20.277 J-41.999
G02 X166.339 Y406.729 I123.617 J101.675
G01 X165.334 Y406.939  
G01 X159.550 Y408.481 
G01 X159.580 Y410.472  
G02 X129.968 Y410.488 I-14.779 J50.456
G02 X106.811 Y409.059 I-14.685 J49.645
G01 X100.614 Y410.464  
G02 X92.391 Y408.497 I-17.175 J53.644
G02 X77.799 Y389.362 I-200.545 J137.799
G02 X98.606 Y385.938 I3.233 J-45.287
G01 X101.175 Y384.786  
G02 X129.574 Y391.813 I28.579 J-54.607
G02 X148.833 Y388.199 I0.153 J-52.312
G02 X157.272 Y384.465 I-39.474 J-100.615
G02 X181.878 Y389.112 I20.272 J-39.875
G01 X180.253 Y391.023  
G02 X167.505 Y408.446 I120.968 J101.880
G01 X165.741 Y408.799  
G01 X159.580 Y410.472 
G01 X159.608 Y412.469  
G02 X129.966 Y412.477 I-14.807 J48.459
G02 X107.123 Y410.938 I-14.684 J47.655
G02 X100.586 Y412.458 I8.574 J51.692
G02 X91.286 Y410.255 I-17.147 J51.649
G02 X75.827 Y389.981 I-199.440 J136.041
G01 X73.122 Y386.847  
G02 X97.868 Y384.182 I7.911 J-42.772
G01 X101.214 Y382.648  
G02 X129.580 Y389.908 I28.541 J-52.469
G02 X148.137 Y386.426 I0.147 J-50.407
G02 X157.290 Y382.326 I-38.778 J-98.842
G02 X186.509 Y386.469 I20.253 J-37.736
G01 X186.786 Y386.409  
G01 X181.710 Y392.250 
G02 X168.667 Y410.177 I119.511 J100.653
G01 X166.149 Y410.660  
G01 X159.608 Y412.469 
G01 X159.634 Y414.473  
G02 X129.964 Y414.474 I-14.834 J46.455
G02 X107.435 Y412.818 I-14.682 J45.659
G02 X100.558 Y414.460 I8.262 J49.812
G02 X90.187 Y412.027 I-17.119 J49.647
G02 X74.375 Y391.214 I-198.340 J134.269
G01 X67.455 Y383.388  
G02 X97.131 Y382.425 I13.578 J-39.314
G01 X101.252 Y380.490  
G02 X129.585 Y388.003 I28.502 J-50.311
G02 X147.441 Y384.652 I0.142 J-48.502
G02 X157.324 Y380.168 I-38.082 J-97.068
G02 X186.110 Y384.606 I20.219 J-35.578
G01 X192.645 Y382.857  
G02 X183.167 Y393.477 I180.214 J170.380
G02 X169.825 Y411.925 I118.054 J99.425
G01 X166.557 Y412.521  
G02 X159.634 Y414.473 I13.023 J59.447
G01 X159.658 Y416.485  
G02 X129.962 Y416.478 I-14.857 J44.444
G02 X107.747 Y414.697 I-14.680 J43.654
G02 X100.531 Y416.470 I7.950 J47.933
G02 X89.094 Y413.813 I-17.092 J47.638
G02 X72.923 Y392.448 I-197.247 J132.483
G02 X63.294 Y381.727 I-199.447 J169.456
G01 X65.397 Y380.552  
G02 X96.394 Y380.669 I15.635 J-36.478
G01 X101.289 Y378.311  
G02 X129.591 Y386.098 I28.465 J-48.132
G02 X146.746 Y382.879 I0.136 J-46.597
G02 X157.375 Y377.990 I-37.387 J-95.295
G02 X185.711 Y382.743 I20.168 J-33.401
G02 X193.984 Y380.390 I-13.611 J-63.583
G01 X196.344 Y381.751  
G02 X184.624 Y394.704 I176.515 J171.487
G02 X170.978 Y413.691 I116.596 J98.198
G01 X166.964 Y414.382  
G02 X159.658 Y416.485 I12.615 J57.586
G01 X159.679 Y418.505  
G02 X129.960 Y418.492 I-14.878 J42.423
G02 X108.058 Y416.576 I-14.677 J41.640
G02 X100.504 Y418.489 I7.638 J46.054
G02 X88.008 Y415.616 I-17.065 J45.619
G02 X71.472 Y393.681 I-196.161 J130.680
G02 X60.112 Y381.161 I-197.995 J168.223
G02 X65.259 Y378.407 I-18.226 J-40.255
G02 X95.656 Y378.912 I15.773 J-34.333
G02 X101.326 Y376.106 I-19.725 J-46.991
G02 X129.596 Y384.193 I28.428 J-45.927
G02 X146.050 Y381.106 I0.131 J-44.692
G02 X157.446 Y375.789 I-36.691 J-93.522
G02 X185.312 Y380.880 I20.098 J-31.199
G02 X194.208 Y378.280 I-13.212 J-61.720
G02 X199.535 Y381.220 I24.167 J-37.491
G02 X186.081 Y395.931 I173.324 J172.017
G02 X172.125 Y415.476 I115.139 J96.971
G01 X167.372 Y416.243  
G02 X159.679 Y418.505 I12.208 J55.725
G01 X159.696 Y420.536  
G02 X129.957 Y420.517 I-14.896 J40.392
G02 X108.370 Y418.456 I-14.675 J39.616
G02 X100.477 Y420.518 I7.327 J44.174
G02 X86.929 Y417.437 I-17.038 J43.589
G02 X70.020 Y394.915 I-195.083 J128.859
G02 X56.780 Y380.480 I-196.544 J166.989
G02 X65.114 Y376.238 I-14.894 J-39.574
G01 X65.667 Y376.495  
G02 X94.919 Y377.156 I15.365 J-32.421
G02 X101.362 Y373.873 I-18.988 J-45.235
G02 X129.602 Y382.288 I28.393 J-43.694
G02 X145.354 Y379.332 I0.125 J-42.787
G02 X157.538 Y373.561 I-35.995 J-91.748
G02 X184.914 Y379.017 I20.005 J-28.972
G02 X194.441 Y376.151 I-12.814 J-59.858
G02 X202.879 Y380.578 I23.934 J-35.362
G02 X187.538 Y397.159 I169.980 J172.659
G02 X173.266 Y417.283 I113.682 J95.744
G01 X167.780 Y418.104  
G02 X159.696 Y420.536 I11.800 J53.864
G01 X159.710 Y422.578  
G02 X129.954 Y422.554 I-14.910 J38.350
G02 X108.682 Y420.335 I-14.672 J37.579
G02 X100.451 Y422.559 I7.015 J42.295
G02 X85.859 Y419.277 I-17.012 J41.548
G02 X68.568 Y396.148 I-194.013 J127.019
G02 X53.254 Y379.651 I-195.092 J165.756
G02 X64.919 Y374.071 I-11.368 J-38.745
G01 X66.483 Y374.774  
G02 X94.182 Y375.399 I14.549 J-30.699
G02 X101.396 Y371.607 I-18.251 J-43.478
G02 X129.608 Y380.383 I28.358 J-41.427
G02 X144.658 Y377.559 I0.119 J-40.882
G02 X157.657 Y371.303 I-35.299 J-89.975
G02 X184.515 Y377.155 I19.887 J-26.713
G02 X194.684 Y374.000 I-12.415 J-57.995
G02 X206.419 Y379.793 I23.691 J-33.211
G02 X188.995 Y398.386 I166.439 J173.444
G02 X174.401 Y419.114 I112.225 J94.517
G02 X168.187 Y419.965 I2.229 J39.391
G02 X159.710 Y422.578 I11.392 J52.004
G01 X159.720 Y424.634  
G02 X129.951 Y424.605 I-14.919 J36.294
G02 X108.993 Y422.214 I-14.668 J35.527
G02 X100.426 Y424.615 I6.703 J40.416
G02 X84.798 Y421.138 I-16.987 J39.493
G02 X67.116 Y397.381 I-192.952 J125.158
G02 X49.468 Y378.625 I-193.640 J164.522
G02 X64.668 Y371.909 I-7.582 J-37.719
G01 X67.299 Y373.053  
G02 X93.444 Y373.643 I13.733 J-28.978
G02 X101.429 Y369.301 I-17.513 J-41.722
G02 X129.613 Y378.478 I28.325 J-39.121
G02 X143.963 Y375.785 I0.114 J-38.977
G02 X157.806 Y369.008 I-34.604 J-88.201
G02 X184.116 Y375.292 I19.738 J-24.418
G02 X194.939 Y371.825 I-12.016 J-56.132
G02 X210.225 Y378.816 I23.436 J-31.035
G02 X190.452 Y399.613 I162.634 J174.421
G02 X175.528 Y420.972 I110.768 J93.290
G02 X168.595 Y421.826 I1.102 J37.532
G02 X159.720 Y424.634 I10.985 J50.143
G01 X159.725 Y426.704  
G02 X129.947 Y426.674 I-14.924 J34.224
G02 X109.305 Y424.094 I-14.665 J33.459
G02 X100.401 Y426.686 I6.392 J38.536
G02 X83.748 Y423.022 I-16.962 J37.421
G02 X65.664 Y398.615 I-191.901 J123.273
G02 X45.308 Y377.314 I-192.188 J163.289
G02 X64.362 Y369.752 I-3.423 J-36.408
G01 X68.115 Y371.331  
G02 X92.707 Y371.886 I12.917 J-27.257
G02 X101.461 Y366.947 I-16.776 J-39.965
G02 X129.619 Y376.573 I28.293 J-36.768
G02 X143.267 Y374.012 I0.108 J-37.072
G02 X157.978 Y366.677 I-33.908 J-86.428
G01 X158.320 Y366.956  
G02 X183.717 Y373.429 I19.224 J-22.367
G02 X195.207 Y369.619 I-11.617 J-54.269
G02 X214.411 Y377.561 I23.167 J-28.830
G02 X191.909 Y400.840 I158.448 J175.676
G02 X176.647 Y422.861 I109.311 J92.062
G02 X169.003 Y423.686 I-0.017 J35.644
G02 X159.725 Y426.704 I10.577 J48.282
G01 X159.724 Y428.793  
G02 X129.943 Y428.763 I-14.924 J32.135
G02 X109.617 Y425.973 I-14.660 J31.370
G02 X100.378 Y428.777 I6.080 J36.657
G02 X82.708 Y424.933 I-16.938 J35.330
G02 X64.213 Y399.848 I-190.862 J121.363
G02 X40.546 Y375.544 I-190.737 J162.055
G02 X64.000 Y367.600 I1.340 J-34.638
G01 X68.931 Y369.610  
G02 X91.969 Y370.130 I12.102 J-25.535
G02 X101.491 Y364.537 I-16.039 J-38.208
G02 X129.624 Y374.668 I28.263 J-34.358
G02 X142.571 Y372.239 I0.103 J-35.167
G02 X158.016 Y364.408 I-33.212 J-84.655
G01 X159.562 Y365.512  
G02 X183.318 Y371.566 I17.982 J-20.922
G02 X195.492 Y367.379 I-11.219 J-52.406
G02 X219.213 Y375.859 I22.882 J-26.589
G02 X193.366 Y402.067 I153.646 J177.378
G02 X177.756 Y424.785 I107.854 J90.835
G02 X169.410 Y425.547 I-1.126 J33.720
G02 X159.724 Y428.793 I10.169 J46.421
G01 X159.717 Y430.903  
G02 X129.938 Y430.877 I-14.916 J30.025
G02 X109.929 Y427.852 I-14.655 J29.256
G02 X100.355 Y430.891 I5.768 J34.778
G02 X81.681 Y426.873 I-16.916 J33.217
G02 X62.761 Y401.082 I-189.834 J119.423
G02 X36.645 Y374.638 I-189.285 J160.822
G01 X34.601 Y372.844  
G02 X63.579 Y365.453 I7.285 J-31.938
G03 X69.747 Y367.888 I-15.203 J47.528
G02 X91.232 Y368.373 I11.286 J-23.814
G02 X101.435 Y362.127 I-15.301 J-36.452
G01 X101.602 Y362.129  
G02 X129.630 Y372.763 I28.153 J-31.950
G02 X141.875 Y370.465 I0.097 J-33.262
G02 X157.916 Y362.209 I-32.516 J-82.881
G03 X160.804 Y364.067 I-5.241 J11.316
G02 X182.920 Y369.703 I16.740 J-19.477
G02 X195.191 Y365.404 I-10.820 J-50.544
G03 X196.297 Y365.551 I0.444 J0.889
G02 X225.279 Y373.238 I22.078 J-24.762
G02 X194.823 Y403.294 I147.580 J179.999
G02 X178.854 Y426.749 I106.397 J89.608
G02 X169.818 Y427.408 I-2.224 J31.756
G02 X159.717 Y430.903 I9.762 J44.560
G00 Z33.080
G00 X100.788 Y398.610  F7000.0
G01 Z14.667 F300.0 M3
G01 Z14.552 
G01 Z14.536 
G01 Z14.400 
G01 Z14.254 
G01 Z14.107 
G01 Z13.993 
G01 Z13.977 
G01 Z13.840 
G01 Z13.694 
G01 Z13.547 
G01 Z13.433 
G01 Z13.417 
G01 Z13.280 
G01 Z13.134 
G01 Z12.987 
G01 Z12.873 
G01 Z12.857 
G01 Z12.720 
G01 Z12.574 
G01 Z12.427 
G01 Z12.313 
G01 Z12.297 
G01 Z12.160 
G01 Z12.014 
G01 Z11.868 
G01 Z11.753 
G01 Z11.737 
G01 Z11.600 
G01 Z11.455 
G01 Z11.333 
G01 Z11.212 
G01 Z11.066 
G01 Z10.929 
G01 Z10.913 
G01 Z10.799 
G01 Z10.652 
G01 Z10.506 
G01 Z10.370 
G01 Z10.354 
G01 Z10.239 
G01 Z10.092 
G01 Z9.947 
G01 Z9.810 
G01 Z9.794 
G01 Z9.679 
G01 Z9.533 
G01 Z9.387 
G01 Z9.250 
G01 Z9.234 
G01 Z9.120 
G01 Z8.973 
G01 Z8.827 
G01 Z8.690 
G01 Z8.674 
G01 Z8.560 
G01 Z8.413 
G01 Z8.267 
G01 Z8.130 
G01 Z8.114 
G01 Z8.000 
G01 X99.127 Y398.192  F3500.0
G01 X98.987 Y397.997 
G01 X100.921 Y397.313 
G01 X102.943 Y398.146 
G01 X100.788 Y398.610 
G01 X100.759 Y400.575  
G01 X97.993 Y399.885  
G01 X95.882 Y396.957 
G01 X100.969 Y395.256 
G02 X111.488 Y398.954 I28.785 J-65.077
G01 X105.253 Y399.662  
G01 X100.759 Y400.575 
G00 Z33.080
G00 X120.393 Y481.668  F7000.0
G01 Z28.000 F300.0 M3
G01 Z27.591 
G01 Z27.180 
G01 Z26.770 
G01 Z26.735 
G01 Z26.474 
G01 Z26.212 
G01 Z25.872 
G01 Z25.531 
G01 Z25.501 
G01 Z25.223 
G01 Z24.944 
G01 Z24.667 
G01 Z24.388 
G01 Z24.110 
G01 Z23.831 
G01 Z23.801 
G01 Z23.461 
G01 Z23.120 
G01 Z22.859 
G01 Z22.598 
G01 Z22.562 
G01 Z22.153 
G01 Z21.742 
G01 Z21.333 
G02 X138.747 Y481.944 I9.926 J-49.741
G01 X138.412 Y482.358  F3500.0
G02 X130.715 Y483.787 I6.033 J53.938
G02 X120.663 Y482.029 I-13.047 J44.985
G01 X120.393 Y481.668  
G01 X115.562 Y478.477  
G01 X115.585 Y478.470  
G02 X143.754 Y478.861 I14.733 J-46.542
G01 X139.397 Y484.169  
G02 X130.688 Y485.764 I5.048 J52.127
G02 X119.669 Y483.881 I-13.020 J43.008
G01 X115.562 Y478.477  
G01 X112.292 Y477.399  
G01 X115.596 Y476.473  
G02 X145.160 Y476.434 I14.723 J-44.545
G01 X147.681 Y477.170  
G01 X140.374 Y485.992 
G02 X130.659 Y487.747 I4.072 J50.304
G02 X118.685 Y485.751 I-12.992 J41.025
G01 X112.292 Y477.399  
G01 X108.863 Y476.170  
G02 X115.607 Y474.468 I-8.052 J-46.106
G02 X145.149 Y474.427 I14.712 J-42.540
G02 X151.192 Y476.022 I15.075 J-44.856
G01 X141.342 Y487.830  
G02 X130.628 Y489.738 I3.104 J48.466
G02 X117.712 Y487.642 I-12.961 J39.035
G01 X108.863 Y476.170  
G01 X105.227 Y474.747  
G02 X115.619 Y472.453 I-4.416 J-44.683
G02 X145.137 Y472.410 I14.700 J-40.526
G02 X154.917 Y474.678 I15.087 J-42.840
G02 X142.300 Y489.683 I249.615 J222.688
G02 X130.595 Y491.737 I2.145 J46.613
G02 X116.752 Y489.556 I-12.928 J37.036
G02 X105.227 Y474.747 I-227.734 J165.339
G01 X101.310 Y473.059  
G02 X115.631 Y470.427 I-0.499 J-42.995
G02 X145.124 Y470.382 I14.688 J-38.500
G02 X158.934 Y473.067 I15.100 J-40.812
G02 X143.248 Y491.553 I245.598 J224.299
G02 X130.559 Y493.745 I1.197 J44.743
G02 X115.806 Y491.495 I-12.892 J35.027
G02 X101.310 Y473.059 I-226.788 J163.400
G01 X96.978 Y470.980  
G02 X115.644 Y468.389 I3.834 J-40.915
G02 X145.110 Y468.342 I14.675 J-36.461
G02 X163.383 Y471.063 I15.114 J-38.771
G02 X144.186 Y493.441 I241.149 J226.303
G02 X130.520 Y495.765 I0.260 J42.856
G02 X114.875 Y493.462 I-12.852 J33.007
G02 X96.978 Y470.980 I-225.857 J161.433
G01 X91.943 Y468.240  
G02 X115.659 Y466.335 I8.868 J-38.175
G02 X145.095 Y466.285 I14.660 J-34.407
G02 X168.559 Y468.396 I15.129 J-36.715
G02 X145.110 Y495.348 I235.973 J228.971
G02 X130.477 Y497.799 I-0.665 J40.948
G02 X113.961 Y495.460 I-12.810 J30.974
G02 X91.943 Y468.240 I-224.943 J159.435
G01 X85.280 Y463.964  
G02 X115.674 Y464.263 I15.532 J-33.900
G02 X145.078 Y464.211 I14.645 J-32.336
G02 X175.424 Y464.187 I15.145 J-34.640
G02 X146.022 Y497.278 I229.108 J233.179
G02 X130.430 Y499.848 I-1.576 J39.018
G02 X113.067 Y497.494 I-12.762 J28.925
G02 X85.280 Y463.964 I-224.050 J157.401
G01 X80.968 Y462.324  
G01 X83.801 Y461.093  
G02 X115.691 Y462.170 I17.010 J-31.029
G02 X145.060 Y462.115 I14.628 J-30.242
G02 X176.336 Y461.656 I15.163 J-32.544
G01 X179.635 Y462.752  
G02 X146.918 Y499.231 I224.897 J234.614
G02 X130.377 Y501.916 I-2.473 J37.065
G02 X112.196 Y499.568 I-12.709 J26.856
G02 X83.752 Y465.123 I-223.178 J155.326
G01 X80.968 Y462.324  
G01 X77.437 Y461.552  
G02 X83.866 Y458.942 I-12.612 J-40.282
G02 X115.709 Y460.050 I16.946 J-28.877
G02 X145.040 Y459.992 I14.610 J-28.123
G02 X176.216 Y459.575 I15.184 J-30.422
G02 X183.428 Y461.777 I18.555 J-47.866
G02 X147.798 Y501.212 I221.104 J235.589
G02 X130.318 Y504.007 I-3.352 J35.085
G02 X111.399 Y501.679 I-12.650 J24.765
G01 X110.711 Y500.766  
G02 X82.390 Y466.452 I-221.693 J154.128
G01 X77.437 Y461.552  
G01 X73.639 Y460.602  
G02 X83.069 Y457.212 I-8.814 J-39.332
G03 X84.769 Y457.266 I0.801 J1.578
G02 X115.729 Y457.898 I16.042 J-27.201
G02 X145.017 Y457.837 I14.590 J-25.971
G02 X176.085 Y457.475 I15.207 J-28.267
G02 X187.491 Y460.604 I18.686 J-45.766
G02 X148.659 Y503.222 I217.041 J236.762
G02 X130.250 Y506.127 I-4.213 J33.074
G02 X110.741 Y503.809 I-12.583 J22.645
G01 X109.149 Y501.853  
G02 X81.027 Y467.780 I-220.131 J153.042
G01 X73.639 Y460.602  
G01 X69.455 Y459.394  
G02 X82.208 Y455.515 I-4.631 J-38.125
G03 X85.736 Y455.627 I1.662 J3.275
G02 X115.041 Y456.107 I15.076 J-25.562
G03 X116.454 Y456.121 I0.694 J1.269
G02 X144.815 Y455.749 I13.865 J-24.194
G01 X145.170 Y455.745  
G02 X175.942 Y455.351 I15.054 J-26.174
G02 X191.930 Y459.155 I18.829 J-43.642
G02 X149.499 Y505.267 I212.602 J238.211
G02 X130.173 Y508.284 I-5.053 J31.030
G02 X110.208 Y505.958 I-12.505 J20.488
G03 X107.586 Y502.939 I12.644 J-13.632
G02 X79.664 Y469.108 I-218.568 J151.956
G02 X69.455 Y459.394 I-133.721 J130.313
G00 Z33.080
G00 X120.393 Y481.668  F7000.0
G01 Z21.333 F300.0 M3
G01 Z20.924 
G01 Z20.513 
G01 Z20.104 
G01 Z20.068 
G01 Z19.807 
G01 Z19.546 
G01 Z19.205 
G01 Z18.864 
G01 Z18.834 
G01 Z18.556 
G01 Z18.277 
G01 Z18.000 
G01 Z17.722 
G01 Z17.443 
G01 Z17.165 
G01 Z17.135 
G01 Z16.794 
G01 Z16.453 
G01 Z16.192 
G01 Z15.931 
G01 Z15.896 
G01 Z15.486 
G01 Z15.075 
G01 Z14.667 
G02 X138.747 Y481.944 I9.926 J-49.741
G01 X138.412 Y482.358  F3500.0
G02 X130.715 Y483.787 I6.033 J53.938
G02 X120.663 Y482.029 I-13.047 J44.985
G01 X120.393 Y481.668  
G01 X115.562 Y478.477  
G01 X115.585 Y478.470  
G02 X143.754 Y478.861 I14.733 J-46.542
G01 X139.397 Y484.169  
G02 X130.688 Y485.764 I5.048 J52.127
G02 X119.669 Y483.881 I-13.020 J43.008
G01 X115.562 Y478.477  
G01 X112.292 Y477.399  
G01 X115.596 Y476.473  
G02 X145.160 Y476.434 I14.723 J-44.545
G01 X147.681 Y477.170  
G01 X140.374 Y485.992 
G02 X130.659 Y487.747 I4.072 J50.304
G02 X118.685 Y485.751 I-12.992 J41.025
G01 X112.292 Y477.399  
G01 X108.863 Y476.170  
G02 X115.607 Y474.468 I-8.052 J-46.106
G02 X145.149 Y474.427 I14.712 J-42.540
G02 X151.192 Y476.022 I15.075 J-44.856
G01 X141.342 Y487.830  
G02 X130.628 Y489.738 I3.104 J48.466
G02 X117.712 Y487.642 I-12.961 J39.035
G01 X108.863 Y476.170  
G01 X105.227 Y474.747  
G02 X115.619 Y472.453 I-4.416 J-44.683
G02 X145.137 Y472.410 I14.700 J-40.526
G02 X154.917 Y474.678 I15.087 J-42.840
G02 X142.300 Y489.683 I249.615 J222.688
G02 X130.595 Y491.737 I2.145 J46.613
G02 X116.752 Y489.556 I-12.928 J37.036
G02 X105.227 Y474.747 I-227.734 J165.339
G01 X101.310 Y473.059  
G02 X115.631 Y470.427 I-0.499 J-42.995
G02 X145.124 Y470.382 I14.688 J-38.500
G02 X158.934 Y473.067 I15.100 J-40.812
G02 X143.248 Y491.553 I245.598 J224.299
G02 X130.559 Y493.745 I1.197 J44.743
G02 X115.806 Y491.495 I-12.892 J35.027
G02 X101.310 Y473.059 I-226.788 J163.400
G01 X96.978 Y470.980  
G02 X115.644 Y468.389 I3.834 J-40.915
G02 X145.110 Y468.342 I14.675 J-36.461
G02 X163.383 Y471.063 I15.114 J-38.771
G02 X144.186 Y493.441 I241.149 J226.303
G02 X130.520 Y495.765 I0.260 J42.856
G02 X114.875 Y493.462 I-12.852 J33.007
G02 X96.978 Y470.980 I-225.857 J161.433
G01 X91.943 Y468.240  
G02 X115.659 Y466.335 I8.868 J-38.175
G02 X145.095 Y466.285 I14.660 J-34.407
G02 X168.559 Y468.396 I15.129 J-36.715
G02 X145.110 Y495.348 I235.973 J228.971
G02 X130.477 Y497.799 I-0.665 J40.948
G02 X113.961 Y495.460 I-12.810 J30.974
G02 X91.943 Y468.240 I-224.943 J159.435
G01 X85.280 Y463.964  
G02 X115.674 Y464.263 I15.532 J-33.900
G02 X145.078 Y464.211 I14.645 J-32.336
G02 X175.424 Y464.187 I15.145 J-34.640
G02 X146.022 Y497.278 I229.108 J233.179
G02 X130.430 Y499.848 I-1.576 J39.018
G02 X113.067 Y497.494 I-12.762 J28.925
G02 X85.280 Y463.964 I-224.050 J157.401
G01 X80.968 Y462.324  
G01 X83.801 Y461.093  
G02 X115.691 Y462.170 I17.010 J-31.029
G02 X145.060 Y462.115 I14.628 J-30.242
G02 X176.336 Y461.656 I15.163 J-32.544
G01 X179.635 Y462.752  
G02 X146.918 Y499.231 I224.897 J234.614
G02 X130.377 Y501.916 I-2.473 J37.065
G02 X112.196 Y499.568 I-12.709 J26.856
G02 X83.752 Y465.123 I-223.178 J155.326
G01 X80.968 Y462.324  
G01 X77.437 Y461.552  
G02 X83.866 Y458.942 I-12.612 J-40.282
G02 X115.709 Y460.050 I16.946 J-28.877
G02 X145.040 Y459.992 I14.610 J-28.123
G02 X176.216 Y459.575 I15.184 J-30.422
G02 X183.428 Y461.777 I18.555 J-47.866
G02 X147.798 Y501.212 I221.104 J235.589
G02 X130.318 Y504.007 I-3.352 J35.085
G02 X111.399 Y501.679 I-12.650 J24.765
G01 X110.711 Y500.766  
G02 X82.390 Y466.452 I-221.693 J154.128
G01 X77.437 Y461.552  
G01 X73.639 Y460.602  
G02 X83.069 Y457.212 I-8.814 J-39.332
G03 X84.769 Y457.266 I0.801 J1.578
G02 X115.729 Y457.898 I16.042 J-27.201
G02 X145.017 Y457.837 I14.590 J-25.971
G02 X176.085 Y457.475 I15.207 J-28.267
G02 X187.491 Y460.604 I18.686 J-45.766
G02 X148.659 Y503.222 I217.041 J236.762
G02 X130.250 Y506.127 I-4.213 J33.074
G02 X110.741 Y503.809 I-12.583 J22.645
G01 X109.149 Y501.853  
G02 X81.027 Y467.780 I-220.131 J153.042
G01 X73.639 Y460.602  
G01 X69.455 Y459.394  
G02 X82.208 Y455.515 I-4.631 J-38.125
G03 X85.736 Y455.627 I1.662 J3.275
G02 X115.041 Y456.107 I15.076 J-25.562
G03 X116.454 Y456.121 I0.694 J1.269
G02 X144.815 Y455.749 I13.865 J-24.194
G01 X145.170 Y455.745  
G02 X175.942 Y455.351 I15.054 J-26.174
G02 X191.930 Y459.155 I18.829 J-43.642
G02 X149.499 Y505.267 I212.602 J238.211
G02 X130.173 Y508.284 I-5.053 J31.030
G02 X110.208 Y505.958 I-12.505 J20.488
G03 X107.586 Y502.939 I12.644 J-13.632
G02 X79.664 Y469.108 I-218.568 J151.956
G02 X69.455 Y459.394 I-133.721 J130.313
G00 Z33.080
G00 X120.393 Y481.668  F7000.0
G01 Z14.667 F300.0 M3
G01 Z14.257 
G01 Z13.846 
G01 Z13.437 
G01 Z13.401 
G01 Z13.140 
G01 Z12.879 
G01 Z12.538 
G01 Z12.198 
G01 Z12.168 
G01 Z11.890 
G01 Z11.611 
G01 Z11.333 
G01 Z11.055 
G01 Z10.776 
G01 Z10.498 
G01 Z10.468 
G01 Z10.127 
G01 Z9.787 
G01 Z9.526 
G01 Z9.264 
G01 Z9.229 
G01 Z8.820 
G01 Z8.409 
G01 Z8.000 
G02 X138.747 Y481.944 I9.926 J-49.741
G01 X138.412 Y482.358  F3500.0
G02 X130.715 Y483.787 I6.033 J53.938
G02 X120.663 Y482.029 I-13.047 J44.985
G01 X120.393 Y481.668  
G01 X115.562 Y478.477  
G01 X115.585 Y478.470  
G02 X143.754 Y478.861 I14.733 J-46.542
G01 X139.397 Y484.169  
G02 X130.688 Y485.764 I5.048 J52.127
G02 X119.669 Y483.881 I-13.020 J43.008
G01 X115.562 Y478.477  
G01 X112.292 Y477.399  
G01 X115.596 Y476.473  
G02 X145.160 Y476.434 I14.723 J-44.545
G01 X147.681 Y477.170  
G01 X140.374 Y485.992 
G02 X130.659 Y487.747 I4.072 J50.304
G02 X118.685 Y485.751 I-12.992 J41.025
G01 X112.292 Y477.399  
G01 X108.863 Y476.170  
G02 X115.607 Y474.468 I-8.052 J-46.106
G02 X145.149 Y474.427 I14.712 J-42.540
G02 X151.192 Y476.022 I15.075 J-44.856
G01 X141.342 Y487.830  
G02 X130.628 Y489.738 I3.104 J48.466
G02 X117.712 Y487.642 I-12.961 J39.035
G01 X108.863 Y476.170  
G01 X105.227 Y474.747  
G02 X115.619 Y472.453 I-4.416 J-44.683
G02 X145.137 Y472.410 I14.700 J-40.526
G02 X154.917 Y474.678 I15.087 J-42.840
G02 X142.300 Y489.683 I249.615 J222.688
G02 X130.595 Y491.737 I2.145 J46.613
G02 X116.752 Y489.556 I-12.928 J37.036
G02 X105.227 Y474.747 I-227.734 J165.339
G01 X101.310 Y473.059  
G02 X115.631 Y470.427 I-0.499 J-42.995
G02 X145.124 Y470.382 I14.688 J-38.500
G02 X158.934 Y473.067 I15.100 J-40.812
G02 X143.248 Y491.553 I245.598 J224.299
G02 X130.559 Y493.745 I1.197 J44.743
G02 X115.806 Y491.495 I-12.892 J35.027
G02 X101.310 Y473.059 I-226.788 J163.400
G01 X96.978 Y470.980  
G02 X115.644 Y468.389 I3.834 J-40.915
G02 X145.110 Y468.342 I14.675 J-36.461
G02 X163.383 Y471.063 I15.114 J-38.771
G02 X144.186 Y493.441 I241.149 J226.303
G02 X130.520 Y495.765 I0.260 J42.856
G02 X114.875 Y493.462 I-12.852 J33.007
G02 X96.978 Y470.980 I-225.857 J161.433
G01 X91.943 Y468.240  
G02 X115.659 Y466.335 I8.868 J-38.175
G02 X145.095 Y466.285 I14.660 J-34.407
G02 X168.559 Y468.396 I15.129 J-36.715
G02 X145.110 Y495.348 I235.973 J228.971
G02 X130.477 Y497.799 I-0.665 J40.948
G02 X113.961 Y495.460 I-12.810 J30.974
G02 X91.943 Y468.240 I-224.943 J159.435
G01 X85.280 Y463.964  
G02 X115.674 Y464.263 I15.532 J-33.900
G02 X145.078 Y464.211 I14.645 J-32.336
G02 X175.424 Y464.187 I15.145 J-34.640
G02 X146.022 Y497.278 I229.108 J233.179
G02 X130.430 Y499.848 I-1.576 J39.018
G02 X113.067 Y497.494 I-12.762 J28.925
G02 X85.280 Y463.964 I-224.050 J157.401
G01 X80.968 Y462.324  
G01 X83.801 Y461.093  
G02 X115.691 Y462.170 I17.010 J-31.029
G02 X145.060 Y462.115 I14.628 J-30.242
G02 X176.336 Y461.656 I15.163 J-32.544
G01 X179.635 Y462.752  
G02 X146.918 Y499.231 I224.897 J234.614
G02 X130.377 Y501.916 I-2.473 J37.065
G02 X112.196 Y499.568 I-12.709 J26.856
G02 X83.752 Y465.123 I-223.178 J155.326
G01 X80.968 Y462.324  
G01 X77.437 Y461.552  
G02 X83.866 Y458.942 I-12.612 J-40.282
G02 X115.709 Y460.050 I16.946 J-28.877
G02 X145.040 Y459.992 I14.610 J-28.123
G02 X176.216 Y459.575 I15.184 J-30.422
G02 X183.428 Y461.777 I18.555 J-47.866
G02 X147.798 Y501.212 I221.104 J235.589
G02 X130.318 Y504.007 I-3.352 J35.085
G02 X111.399 Y501.679 I-12.650 J24.765
G01 X110.711 Y500.766  
G02 X82.390 Y466.452 I-221.693 J154.128
G01 X77.437 Y461.552  
G01 X73.639 Y460.602  
G02 X83.069 Y457.212 I-8.814 J-39.332
G03 X84.769 Y457.266 I0.801 J1.578
G02 X115.729 Y457.898 I16.042 J-27.201
G02 X145.017 Y457.837 I14.590 J-25.971
G02 X176.085 Y457.475 I15.207 J-28.267
G02 X187.491 Y460.604 I18.686 J-45.766
G02 X148.659 Y503.222 I217.041 J236.762
G02 X130.250 Y506.127 I-4.213 J33.074
G02 X110.741 Y503.809 I-12.583 J22.645
G01 X109.149 Y501.853  
G02 X81.027 Y467.780 I-220.131 J153.042
G01 X73.639 Y460.602  
G01 X69.455 Y459.394  
G02 X82.208 Y455.515 I-4.631 J-38.125
G03 X85.736 Y455.627 I1.662 J3.275
G02 X115.041 Y456.107 I15.076 J-25.562
G03 X116.454 Y456.121 I0.694 J1.269
G02 X144.815 Y455.749 I13.865 J-24.194
G01 X145.170 Y455.745  
G02 X175.942 Y455.351 I15.054 J-26.174
G02 X191.930 Y459.155 I18.829 J-43.642
G02 X149.499 Y505.267 I212.602 J238.211
G02 X130.173 Y508.284 I-5.053 J31.030
G02 X110.208 Y505.958 I-12.505 J20.488
G03 X107.586 Y502.939 I12.644 J-13.632
G02 X79.664 Y469.108 I-218.568 J151.956
G02 X69.455 Y459.394 I-133.721 J130.313
G00 Z33.080
G00 X127.633 Y544.525  F7000.0
G01 Z28.000 F300.0 M3
G01 Z27.705 
G01 Z27.459 
G01 Z27.210 
G01 Z26.915 
G01 Z26.670 
G01 Z26.421 
G01 Z26.126 
G01 Z25.880 
G01 Z25.631 
G01 Z25.336 
G01 Z25.090 
G01 Z24.841 
G01 Z24.667 
G01 Z24.492 
G01 Z24.243 
G01 Z23.997 
G01 Z23.702 
G01 Z23.453 
G01 Z23.207 
G01 Z22.913 
G01 Z22.664 
G01 Z22.418 
G01 Z22.123 
G01 Z21.874 
G01 Z21.628 
G01 Z21.333 
G01 X132.056 Y544.609  F3500.0
G01 X129.830 Y547.546 
G01 X127.633 Y544.525 
G01 X123.177 Y541.937  
G02 X136.545 Y542.205 I7.357 J-33.450
G02 X129.810 Y550.889 I65.732 J57.933
G02 X123.177 Y541.937 I-93.719 J62.510
G01 X117.191 Y537.980  
G01 X118.086 Y538.340  
G02 X141.296 Y538.988 I12.448 J-29.854
G01 X142.551 Y538.658  
G01 X142.187 Y539.015 
G02 X129.801 Y554.377 I60.089 J61.123
G02 X117.191 Y537.980 I-93.711 J59.021
G01 X113.182 Y536.563  
G01 X112.953 Y536.334  
G01 X116.243 Y535.611 
G01 X118.819 Y536.582 
G02 X140.662 Y537.192 I11.715 J-28.095
G03 X146.891 Y537.086 I3.273 J9.275
G01 X143.523 Y540.374  
G02 X129.807 Y558.044 I58.754 J59.764
G02 X113.182 Y536.563 I-93.716 J55.355
G01 X111.833 Y537.907  
G01 X108.732 Y535.021  
G02 X116.306 Y533.625 I-5.088 J-48.868
G01 X119.552 Y534.824  
G02 X140.028 Y535.396 I10.982 J-26.337
G03 X147.562 Y535.301 I3.906 J11.072
G01 X150.704 Y536.056  
G01 X144.858 Y541.732 
G02 X129.830 Y561.933 I57.418 J58.406
G02 X111.833 Y537.907 I-93.740 J51.465
G00 Z33.080
G00 X127.633 Y544.525  F7000.0
G01 Z21.333 F300.0 M3
G01 Z21.038 
G01 Z20.793 
G01 Z20.544 
G01 Z20.249 
G01 Z20.003 
G01 Z19.754 
G01 Z19.459 
G01 Z19.213 
G01 Z18.964 
G01 Z18.669 
G01 Z18.424 
G01 Z18.175 
G01 Z18.000 
G01 Z17.825 
G01 Z17.576 
G01 Z17.330 
G01 Z17.036 
G01 Z16.787 
G01 Z16.541 
G01 Z16.246 
G01 Z15.997 
G01 Z15.751 
G01 Z15.456 
G01 Z15.207 
G01 Z14.962 
G01 Z14.667 
G01 X132.056 Y544.609  F3500.0
G01 X129.830 Y547.546 
G01 X127.633 Y544.525 
G01 X123.177 Y541.937  
G02 X136.545 Y542.205 I7.357 J-33.450
G02 X129.810 Y550.889 I65.732 J57.933
G02 X123.177 Y541.937 I-93.719 J62.510
G01 X117.191 Y537.980  
G01 X118.086 Y538.340  
G02 X141.296 Y538.988 I12.448 J-29.854
G01 X142.551 Y538.658  
G01 X142.187 Y539.015 
G02 X129.801 Y554.377 I60.089 J61.123
G02 X117.191 Y537.980 I-93.711 J59.021
G01 X113.182 Y536.563  
G01 X112.953 Y536.334  
G01 X116.243 Y535.611 
G01 X118.819 Y536.582 
G02 X140.662 Y537.192 I11.715 J-28.095
G03 X146.891 Y537.086 I3.273 J9.275
G01 X143.523 Y540.374  
G02 X129.807 Y558.044 I58.754 J59.764
G02 X113.182 Y536.563 I-93.716 J55.355
G01 X111.833 Y537.907  
G01 X108.732 Y535.021  
G02 X116.306 Y533.625 I-5.088 J-48.868
G01 X119.552 Y534.824  
G02 X140.028 Y535.396 I10.982 J-26.337
G03 X147.562 Y535.301 I3.906 J11.072
G01 X150.704 Y536.056  
G01 X144.858 Y541.732 
G02 X129.830 Y561.933 I57.418 J58.406
G02 X111.833 Y537.907 I-93.740 J51.465
G00 Z33.080
G00 X127.633 Y544.525  F7000.0
G01 Z14.667 F300.0 M3
G01 Z14.372 
G01 Z14.126 
G01 Z13.877 
G01 Z13.582 
G01 Z13.336 
G01 Z13.087 
G01 Z12.792 
G01 Z12.547 
G01 Z12.298 
G01 Z12.003 
G01 Z11.757 
G01 Z11.508 
G01 Z11.333 
G01 Z11.159 
G01 Z10.910 
G01 Z10.664 
G01 Z10.369 
G01 Z10.120 
G01 Z9.874 
G01 Z9.579 
G01 Z9.330 
G01 Z9.085 
G01 Z8.790 
G01 Z8.541 
G01 Z8.295 
G01 Z8.000 
G01 X132.056 Y544.609  F3500.0
G01 X129.830 Y547.546 
G01 X127.633 Y544.525 
G01 X123.177 Y541.937  
G02 X136.545 Y542.205 I7.357 J-33.450
G02 X129.810 Y550.889 I65.732 J57.933
G02 X123.177 Y541.937 I-93.719 J62.510
G01 X117.191 Y537.980  
G01 X118.086 Y538.340  
G02 X141.296 Y538.988 I12.448 J-29.854
G01 X142.551 Y538.658  
G01 X142.187 Y539.015 
G02 X129.801 Y554.377 I60.089 J61.123
G02 X117.191 Y537.980 I-93.711 J59.021
G01 X113.182 Y536.563  
G01 X112.953 Y536.334  
G01 X116.243 Y535.611 
G01 X118.819 Y536.582 
G02 X140.662 Y537.192 I11.715 J-28.095
G03 X146.891 Y537.086 I3.273 J9.275
G01 X143.523 Y540.374  
G02 X129.807 Y558.044 I58.754 J59.764
G02 X113.182 Y536.563 I-93.716 J55.355
G01 X111.833 Y537.907  
G01 X108.732 Y535.021  
G02 X116.306 Y533.625 I-5.088 J-48.868
G01 X119.552 Y534.824  
G02 X140.028 Y535.396 I10.982 J-26.337
G03 X147.562 Y535.301 I3.906 J11.072
G01 X150.704 Y536.056  
G01 X144.858 Y541.732 
G02 X129.830 Y561.933 I57.418 J58.406
G02 X111.833 Y537.907 I-93.740 J51.465
G00 Z33.080
G00 X280.626 Y586.638  F7000.0
G01 Z28.000 F300.0 M3
G01 Z27.737 
G01 Z27.600 
G01 Z27.375 
G01 Z27.361 
G01 Z27.285 
G01 Z27.023 
G01 Z26.886 
G01 Z26.660 
G01 Z26.646 
G01 Z26.570 
G01 Z26.308 
G01 Z26.171 
G01 Z25.946 
G01 Z25.931 
G01 Z25.856 
G01 Z25.593 
G01 Z25.456 
G01 Z25.231 
G01 Z25.216 
G01 Z25.141 
G01 Z24.878 
G01 Z24.741 
G01 Z24.667 
G01 Z24.592 
G01 Z24.455 
G01 Z24.192 
G01 Z24.117 
G01 Z24.103 
G01 Z23.877 
G01 Z23.740 
G01 Z23.478 
G01 Z23.402 
G01 Z23.388 
G01 Z23.162 
G01 Z23.026 
G01 Z22.763 
G01 Z22.687 
G01 Z22.673 
G01 Z22.448 
G01 Z22.311 
G01 Z22.048 
G01 Z21.973 
G01 Z21.958 
G01 Z21.733 
G01 Z21.596 
G01 Z21.333 
G01 X284.489 Y587.417  F3500.0
G01 X282.601 Y588.226 
G01 X279.411 Y587.109 
G01 X279.532 Y586.931 
G01 X280.626 Y586.638 
G01 X280.588 Y584.671  
G02 X292.967 Y586.374 I14.611 J-60.358
G01 X287.688 Y588.175  
G01 X282.646 Y590.290 
G02 X276.352 Y588.203 I-20.189 J50.361
G01 X278.354 Y585.264  
G01 X280.588 Y584.671 
G01 X280.552 Y582.700  
G02 X310.027 Y582.654 I14.648 J-58.387
G02 X334.435 Y583.699 I14.691 J-57.546
G01 X339.271 Y582.698  
G01 X343.136 Y583.655 
G01 X347.340 Y589.434 
G02 X338.986 Y592.053 I11.627 J51.732
G02 X310.448 Y585.808 I-28.740 J63.009
G02 X288.384 Y589.948 I-0.175 J59.932
G01 X282.682 Y592.363  
G02 X273.164 Y589.405 I-20.226 J48.288
G01 X277.178 Y583.590  
G01 X280.552 Y582.700 
G01 X280.516 Y580.725  
G02 X310.028 Y580.686 I14.683 J-56.412
G02 X334.124 Y581.820 I14.689 J-55.578
G01 X339.300 Y580.725  
G01 X344.261 Y581.943 
G01 X350.708 Y590.721 
G02 X339.182 Y594.033 I8.260 J50.446
G01 X338.944 Y594.134  
G02 X310.443 Y587.713 I-28.699 J60.928
G02 X289.080 Y591.722 I-0.170 J58.027
G01 X282.709 Y594.448  
G02 X269.813 Y590.743 I-20.253 J46.203
G01 X276.004 Y581.908  
G01 X280.516 Y580.725 
G01 X280.483 Y578.745  
G02 X310.029 Y578.714 I14.717 J-54.432
G02 X333.812 Y579.941 I14.688 J-53.605
G01 X339.329 Y578.748  
G01 X345.382 Y580.221 
G02 X354.260 Y592.180 I202.772 J-141.276
G02 X339.920 Y595.790 I4.707 J48.987
G01 X338.904 Y596.227  
G02 X310.437 Y589.618 I-28.658 J58.835
G02 X289.776 Y593.495 I-0.164 J56.122
G01 X282.727 Y596.544  
G02 X266.250 Y592.257 I-20.271 J44.108
G02 X274.831 Y580.216 I-127.470 J-99.919
G01 X275.074 Y580.163  
G01 X280.483 Y578.745 
G01 X280.450 Y576.760  
G02 X310.031 Y576.736 I14.749 J-52.447
G02 X333.500 Y578.061 I14.687 J-51.628
G01 X339.357 Y576.765  
G02 X346.498 Y578.489 I17.203 J-55.632
G02 X358.058 Y593.868 I201.656 J-139.544
G02 X340.657 Y597.546 I0.910 J47.299
G01 X338.864 Y598.333  
G02 X310.431 Y591.523 I-28.619 J56.729
G02 X290.471 Y595.268 I-0.158 J54.217
G01 X282.734 Y598.652  
G02 X262.396 Y594.014 I-20.277 J41.999
G02 X273.661 Y578.512 I-123.617 J-101.675
G01 X274.666 Y578.302  
G01 X280.450 Y576.760 
G01 X280.420 Y574.769  
G02 X310.032 Y574.753 I14.779 J-50.456
G02 X333.189 Y576.182 I14.685 J-49.645
G01 X339.386 Y574.777  
G02 X347.609 Y576.744 I17.175 J-53.644
G02 X362.201 Y595.879 I200.545 J-137.799
G02 X341.394 Y599.303 I-3.233 J45.287
G01 X338.825 Y600.455  
G02 X310.426 Y593.428 I-28.579 J54.607
G02 X291.167 Y597.042 I-0.153 J52.312
G02 X282.728 Y600.776 I39.474 J100.615
G02 X258.122 Y596.129 I-20.272 J39.875
G01 X259.747 Y594.218  
G02 X272.495 Y576.795 I-120.968 J-101.880
G01 X274.259 Y576.441  
G01 X280.420 Y574.769 
G01 X280.392 Y572.772  
G02 X310.034 Y572.764 I14.807 J-48.459
G02 X332.877 Y574.303 I14.684 J-47.655
G02 X339.414 Y572.783 I-8.574 J-51.692
G02 X348.714 Y574.986 I17.147 J-51.649
G02 X364.173 Y595.260 I199.440 J-136.041
G01 X366.878 Y598.394  
G02 X342.132 Y601.059 I-7.911 J42.772
G01 X338.786 Y602.593  
G02 X310.420 Y595.333 I-28.541 J52.469
G02 X291.863 Y598.815 I-0.147 J50.407
G02 X282.710 Y602.915 I38.778 J98.842
G02 X253.491 Y598.772 I-20.253 J37.736
G01 X253.214 Y598.832  
G01 X258.290 Y592.991 
G02 X271.333 Y575.064 I-119.511 J-100.653
G01 X273.851 Y574.581  
G01 X280.392 Y572.772 
G01 X280.366 Y570.768  
G02 X310.036 Y570.767 I14.834 J-46.455
G02 X332.565 Y572.423 I14.682 J-45.659
G02 X339.442 Y570.781 I-8.262 J-49.812
G02 X349.813 Y573.214 I17.119 J-49.647
G02 X365.625 Y594.027 I198.340 J-134.269
G01 X372.545 Y601.853  
G02 X342.869 Y602.816 I-13.578 J39.314
G01 X338.748 Y604.751  
G02 X310.415 Y597.238 I-28.502 J50.311
G02 X292.559 Y600.589 I-0.142 J48.502
G02 X282.676 Y605.073 I38.082 J97.068
G02 X253.890 Y600.635 I-20.219 J35.578
G01 X247.355 Y602.384  
G02 X256.833 Y591.764 I-180.214 J-170.380
G02 X270.175 Y573.316 I-118.054 J-99.426
G01 X273.443 Y572.720  
G02 X280.366 Y570.768 I-13.023 J-59.447
G01 X280.342 Y568.756  
G02 X310.038 Y568.763 I14.857 J-44.444
G02 X332.253 Y570.544 I14.680 J-43.654
G02 X339.469 Y568.771 I-7.950 J-47.933
G02 X350.906 Y571.428 I17.092 J-47.638
G02 X367.077 Y592.793 I197.247 J-132.483
G02 X376.706 Y603.514 I199.447 J-169.456
G01 X374.603 Y604.688  
G02 X343.606 Y604.572 I-15.635 J36.478
G01 X338.711 Y606.930  
G02 X310.409 Y599.143 I-28.465 J48.131
G02 X293.254 Y602.362 I-0.136 J46.597
G02 X282.625 Y607.251 I37.387 J95.295
G02 X254.289 Y602.498 I-20.168 J33.401
G02 X246.016 Y604.851 I13.611 J63.583
G01 X243.656 Y603.490  
G02 X255.376 Y590.537 I-176.515 J-171.487
G02 X269.022 Y571.550 I-116.596 J-98.198
G01 X273.036 Y570.859  
G02 X280.342 Y568.756 I-12.615 J-57.586
G01 X280.321 Y566.736  
G02 X310.040 Y566.749 I14.878 J-42.423
G02 X331.942 Y568.665 I14.677 J-41.640
G02 X339.496 Y566.752 I-7.639 J-46.054
G02 X351.992 Y569.625 I17.065 J-45.619
G02 X368.528 Y591.560 I196.161 J-130.680
G02 X379.888 Y604.080 I197.995 J-168.223
G02 X374.741 Y606.834 I18.226 J40.255
G02 X344.344 Y606.329 I-15.773 J34.333
G02 X338.674 Y609.135 I19.725 J46.991
G02 X310.404 Y601.048 I-28.428 J45.927
G02 X293.950 Y604.135 I-0.131 J44.692
G02 X282.554 Y609.452 I36.691 J93.522
G02 X254.688 Y604.361 I-20.098 J31.199
G02 X245.792 Y606.961 I13.212 J61.720
G02 X240.465 Y604.021 I-24.167 J37.491
G02 X253.919 Y589.310 I-173.324 J-172.017
G02 X267.875 Y569.765 I-115.139 J-96.971
G01 X272.628 Y568.998  
G02 X280.321 Y566.736 I-12.208 J-55.725
G01 X280.304 Y564.705  
G02 X310.043 Y564.724 I14.896 J-40.392
G02 X331.630 Y566.785 I14.675 J-39.616
G02 X339.523 Y564.723 I-7.327 J-44.174
G02 X353.071 Y567.804 I17.038 J-43.589
G02 X369.980 Y590.326 I195.083 J-128.859
G02 X383.220 Y604.761 I196.544 J-166.989
G02 X374.886 Y609.003 I14.894 J39.574
G01 X374.333 Y608.746  
G02 X345.081 Y608.085 I-15.365 J32.421
G02 X338.638 Y611.368 I18.988 J45.235
G02 X310.398 Y602.953 I-28.393 J43.694
G02 X294.646 Y605.909 I-0.125 J42.787
G02 X282.462 Y611.680 I35.995 J91.748
G02 X255.086 Y606.224 I-20.005 J28.972
G02 X245.559 Y609.090 I12.814 J59.858
G02 X237.121 Y604.663 I-23.934 J35.362
G02 X252.462 Y588.082 I-169.980 J-172.659
G02 X266.734 Y567.958 I-113.682 J-95.744
G01 X272.220 Y567.137  
G02 X280.304 Y564.705 I-11.800 J-53.864
G01 X280.290 Y562.663  
G02 X310.046 Y562.687 I14.910 J-38.350
G02 X331.318 Y564.906 I14.672 J-37.579
G02 X339.549 Y562.682 I-7.015 J-42.295
G02 X354.141 Y565.964 I17.012 J-41.548
G02 X371.432 Y589.093 I194.013 J-127.019
G02 X386.746 Y605.590 I195.092 J-165.756
G02 X375.081 Y611.170 I11.368 J38.745
G01 X373.517 Y610.467  
G02 X345.818 Y609.842 I-14.549 J30.699
G02 X338.604 Y613.634 I18.251 J43.478
G02 X310.392 Y604.858 I-28.358 J41.427
G02 X295.342 Y607.682 I-0.120 J40.882
G02 X282.343 Y613.938 I35.299 J89.975
G02 X255.485 Y608.086 I-19.887 J26.713
G02 X245.316 Y611.241 I12.415 J57.995
G02 X233.581 Y605.448 I-23.691 J33.211
G02 X251.005 Y586.855 I-166.439 J-173.444
G02 X265.599 Y566.127 I-112.225 J-94.517
G02 X271.813 Y565.276 I-2.229 J-39.391
G02 X280.290 Y562.663 I-11.392 J-52.004
G01 X280.280 Y560.607  
G02 X310.049 Y560.636 I14.919 J-36.294
G02 X331.007 Y563.027 I14.668 J-35.527
G02 X339.574 Y560.626 I-6.703 J-40.416
G02 X355.202 Y564.103 I16.987 J-39.493
G02 X372.884 Y587.860 I192.952 J-125.158
G02 X390.532 Y606.616 I193.640 J-164.522
G02 X375.332 Y613.332 I7.582 J37.719
G01 X372.701 Y612.188  
G02 X346.556 Y611.598 I-13.733 J28.978
G02 X338.570 Y615.940 I17.513 J41.721
G02 X310.387 Y606.763 I-28.325 J39.121
G02 X296.037 Y609.456 I-0.114 J38.977
G02 X282.194 Y616.233 I34.604 J88.201
G02 X255.884 Y609.949 I-19.738 J24.418
G02 X245.061 Y613.417 I12.016 J56.132
G02 X229.775 Y606.425 I-23.436 J31.035
G02 X249.548 Y585.628 I-162.634 J-174.421
G02 X264.472 Y564.269 I-110.768 J-93.290
G02 X271.405 Y563.415 I-1.102 J-37.532
G02 X280.280 Y560.607 I-10.985 J-50.143
G01 X280.275 Y558.536  
G02 X310.053 Y558.567 I14.924 J-34.224
G02 X330.695 Y561.147 I14.665 J-33.459
G02 X339.599 Y558.555 I-6.392 J-38.536
G02 X356.252 Y562.219 I16.962 J-37.421
G02 X374.336 Y586.626 I191.901 J-123.273
G02 X394.692 Y607.927 I192.188 J-163.289
G02 X375.638 Y615.489 I3.423 J36.408
G01 X371.885 Y613.910  
G02 X347.293 Y613.355 I-12.917 J27.257
G02 X338.539 Y618.294 I16.776 J39.965
G02 X310.381 Y608.668 I-28.293 J36.768
G02 X296.733 Y611.229 I-0.108 J37.072
G02 X282.022 Y618.564 I33.908 J86.428
G01 X281.680 Y618.285  
G02 X256.283 Y611.812 I-19.224 J22.367
G02 X244.793 Y615.622 I11.617 J54.269
G02 X225.589 Y607.680 I-23.167 J28.830
G02 X248.091 Y584.401 I-158.448 J-175.676
G02 X263.353 Y562.380 I-109.311 J-92.063
G02 X270.997 Y561.555 I0.017 J-35.643
G02 X280.275 Y558.536 I-10.577 J-48.282
G01 X280.276 Y556.448  
G02 X310.057 Y556.478 I14.924 J-32.135
G02 X330.383 Y559.268 I14.660 J-31.370
G02 X339.622 Y556.464 I-6.080 J-36.657
G02 X357.292 Y560.308 I16.938 J-35.330
G02 X375.787 Y585.393 I190.862 J-121.363
G02 X399.454 Y609.697 I190.737 J-162.055
G02 X376.000 Y617.641 I-1.340 J34.638
G01 X371.069 Y615.631  
G02 X348.030 Y615.111 I-12.102 J25.535
G02 X338.509 Y620.704 I16.039 J38.208
G02 X310.376 Y610.573 I-28.263 J34.358
G02 X297.429 Y613.002 I-0.103 J35.167
G02 X281.984 Y620.833 I33.212 J84.655
G01 X280.438 Y619.729  
G02 X256.682 Y613.675 I-17.982 J20.922
G02 X244.508 Y617.862 I11.219 J52.406
G02 X220.787 Y609.382 I-22.882 J26.589
G02 X246.634 Y583.174 I-153.646 J-177.378
G02 X262.244 Y560.456 I-107.854 J-90.835
G02 X270.590 Y559.694 I1.126 J-33.720
G02 X280.276 Y556.448 I-10.169 J-46.421
G01 X280.283 Y554.338  
G02 X310.062 Y554.364 I14.916 J-30.025
G02 X330.072 Y557.389 I14.655 J-29.256
G02 X339.645 Y554.351 I-5.768 J-34.778
G02 X358.319 Y558.368 I16.916 J-33.217
G02 X377.239 Y584.159 I189.834 J-119.423
G02 X403.355 Y610.603 I189.285 J-160.822
G01 X405.399 Y612.397  
G02 X376.421 Y619.788 I-7.285 J31.938
G03 X370.253 Y617.353 I15.203 J-47.528
G02 X348.768 Y616.868 I-11.286 J23.814
G02 X338.565 Y623.114 I15.301 J36.452
G01 X338.398 Y623.112  
G02 X310.370 Y612.478 I-28.153 J31.950
G02 X298.125 Y614.776 I-0.097 J33.262
G02 X282.084 Y623.032 I32.516 J82.881
G03 X279.196 Y621.174 I5.241 J-11.316
G02 X257.080 Y615.538 I-16.740 J19.477
G02 X244.809 Y619.837 I10.820 J50.544
G03 X243.703 Y619.690 I-0.444 J-0.889
G02 X214.721 Y612.003 I-22.078 J24.762
G02 X245.177 Y581.947 I-147.579 J-179.999
G02 X261.146 Y558.492 I-106.397 J-89.608
G02 X270.182 Y557.833 I2.224 J-31.756
G02 X280.283 Y554.338 I-9.762 J-44.560
G00 Z33.080
G00 X339.212 Y586.631  F7000.0
G01 Z28.000 F300.0 M3
G01 Z27.886 
G01 Z27.870 
G01 Z27.733 
G01 Z27.587 
G01 Z27.440 
G01 Z27.326 
G01 Z27.310 
G01 Z27.173 
G01 Z27.027 
G01 Z26.880 
G01 Z26.766 
G01 Z26.750 
G01 Z26.613 
G01 Z26.467 
G01 Z26.321 
G01 Z26.206 
G01 Z26.190 
G01 Z26.053 
G01 Z25.908 
G01 Z25.761 
G01 Z25.646 
G01 Z25.630 
G01 Z25.494 
G01 Z25.348 
G01 Z25.201 
G01 Z25.087 
G01 Z25.071 
G01 Z24.934 
G01 Z24.788 
G01 Z24.667 
G01 Z24.545 
G01 Z24.400 
G01 Z24.263 
G01 Z24.247 
G01 Z24.132 
G01 Z23.986 
G01 Z23.840 
G01 Z23.703 
G01 Z23.687 
G01 Z23.573 
G01 Z23.426 
G01 Z23.280 
G01 Z23.143 
G01 Z23.127 
G01 Z23.013 
G01 Z22.866 
G01 Z22.720 
G01 Z22.583 
G01 Z22.567 
G01 Z22.453 
G01 Z22.306 
G01 Z22.160 
G01 Z22.023 
G01 Z22.007 
G01 Z21.893 
G01 Z21.746 
G01 Z21.600 
G01 Z21.464 
G01 Z21.448 
G01 Z21.333 
G01 X340.873 Y587.049  F3500.0
G01 X341.013 Y587.244 
G01 X339.079 Y587.928 
G01 X337.057 Y587.095 
G01 X339.212 Y586.631 
G01 X339.241 Y584.666  
G01 X342.007 Y585.356  
G01 X344.118 Y588.284 
G01 X339.031 Y589.985 
G02 X328.512 Y586.287 I-28.785 J65.077
G01 X334.747 Y585.579  
G01 X339.241 Y584.666 
G00 Z33.080
G00 X280.626 Y586.638  F7000.0
G01 Z21.333 F300.0 M3
G01 Z21.071 
G01 Z20.934 
G01 Z20.708 
G01 Z20.694 
G01 Z20.619 
G01 Z20.356 
G01 Z20.219 
G01 Z19.994 
G01 Z19.979 
G01 Z19.904 
G01 Z19.641 
G01 Z19.504 
G01 Z19.279 
G01 Z19.265 
G01 Z19.189 
G01 Z18.926 
G01 Z18.789 
G01 Z18.564 
G01 Z18.550 
G01 Z18.474 
G01 Z18.212 
G01 Z18.075 
G01 Z18.000 
G01 Z17.925 
G01 Z17.788 
G01 Z17.526 
G01 Z17.450 
G01 Z17.436 
G01 Z17.211 
G01 Z17.074 
G01 Z16.811 
G01 Z16.735 
G01 Z16.721 
G01 Z16.496 
G01 Z16.359 
G01 Z16.096 
G01 Z16.021 
G01 Z16.006 
G01 Z15.781 
G01 Z15.644 
G01 Z15.381 
G01 Z15.306 
G01 Z15.292 
G01 Z15.066 
G01 Z14.929 
G01 Z14.667 
G01 X284.489 Y587.417  F3500.0
G01 X282.601 Y588.226 
G01 X279.411 Y587.109 
G01 X279.532 Y586.931 
G01 X280.626 Y586.638 
G01 X280.588 Y584.671  
G02 X292.967 Y586.374 I14.611 J-60.358
G01 X287.688 Y588.175  
G01 X282.646 Y590.290 
G02 X276.352 Y588.203 I-20.189 J50.361
G01 X278.354 Y585.264  
G01 X280.588 Y584.671 
G01 X280.552 Y582.700  
G02 X310.027 Y582.654 I14.648 J-58.387
G02 X334.435 Y583.699 I14.691 J-57.546
G01 X339.271 Y582.698  
G01 X343.136 Y583.655 
G01 X347.340 Y589.434 
G02 X338.986 Y592.053 I11.627 J51.732
G02 X310.448 Y585.808 I-28.740 J63.009
G02 X288.384 Y589.948 I-0.175 J59.932
G01 X282.682 Y592.363  
G02 X273.164 Y589.405 I-20.226 J48.288
G01 X277.178 Y583.590  
G01 X280.552 Y582.700 
G01 X280.516 Y580.725  
G02 X310.028 Y580.686 I14.683 J-56.412
G02 X334.124 Y581.820 I14.689 J-55.578
G01 X339.300 Y580.725  
G01 X344.261 Y581.943 
G01 X350.708 Y590.721 
G02 X339.182 Y594.033 I8.260 J50.446
G01 X338.944 Y594.134  
G02 X310.443 Y587.713 I-28.699 J60.928
G02 X289.080 Y591.722 I-0.170 J58.027
G01 X282.709 Y594.448  
G02 X269.813 Y590.743 I-20.253 J46.203
G01 X276.004 Y581.908  
G01 X280.516 Y580.725 
G01 X280.483 Y578.745  
G02 X310.029 Y578.714 I14.717 J-54.432
G02 X333.812 Y579.941 I14.688 J-53.605
G01 X339.329 Y578.748  
G01 X345.382 Y580.221 
G02 X354.260 Y592.180 I202.772 J-141.276
G02 X339.920 Y595.790 I4.707 J48.987
G01 X338.904 Y596.227  
G02 X310.437 Y589.618 I-28.658 J58.835
G02 X289.776 Y593.495 I-0.164 J56.122
G01 X282.727 Y596.544  
G02 X266.250 Y592.257 I-20.271 J44.108
G02 X274.831 Y580.216 I-127.470 J-99.919
G01 X275.074 Y580.163  
G01 X280.483 Y578.745 
G01 X280.450 Y576.760  
G02 X310.031 Y576.736 I14.749 J-52.447
G02 X333.500 Y578.061 I14.687 J-51.628
G01 X339.357 Y576.765  
G02 X346.498 Y578.489 I17.203 J-55.632
G02 X358.058 Y593.868 I201.656 J-139.544
G02 X340.657 Y597.546 I0.910 J47.299
G01 X338.864 Y598.333  
G02 X310.431 Y591.523 I-28.619 J56.729
G02 X290.471 Y595.268 I-0.158 J54.217
G01 X282.734 Y598.652  
G02 X262.396 Y594.014 I-20.277 J41.999
G02 X273.661 Y578.512 I-123.617 J-101.675
G01 X274.666 Y578.302  
G01 X280.450 Y576.760 
G01 X280.420 Y574.769  
G02 X310.032 Y574.753 I14.779 J-50.456
G02 X333.189 Y576.182 I14.685 J-49.645
G01 X339.386 Y574.777  
G02 X347.609 Y576.744 I17.175 J-53.644
G02 X362.201 Y595.879 I200.545 J-137.799
G02 X341.394 Y599.303 I-3.233 J45.287
G01 X338.825 Y600.455  
G02 X310.426 Y593.428 I-28.579 J54.607
G02 X291.167 Y597.042 I-0.153 J52.312
G02 X282.728 Y600.776 I39.474 J100.615
G02 X258.122 Y596.129 I-20.272 J39.875
G01 X259.747 Y594.218  
G02 X272.495 Y576.795 I-120.968 J-101.880
G01 X274.259 Y576.441  
G01 X280.420 Y574.769 
G01 X280.392 Y572.772  
G02 X310.034 Y572.764 I14.807 J-48.459
G02 X332.877 Y574.303 I14.684 J-47.655
G02 X339.414 Y572.783 I-8.574 J-51.692
G02 X348.714 Y574.986 I17.147 J-51.649
G02 X364.173 Y595.260 I199.440 J-136.041
G01 X366.878 Y598.394  
G02 X342.132 Y601.059 I-7.911 J42.772
G01 X338.786 Y602.593  
G02 X310.420 Y595.333 I-28.541 J52.469
G02 X291.863 Y598.815 I-0.147 J50.407
G02 X282.710 Y602.915 I38.778 J98.842
G02 X253.491 Y598.772 I-20.253 J37.736
G01 X253.214 Y598.832  
G01 X258.290 Y592.991 
G02 X271.333 Y575.064 I-119.511 J-100.653
G01 X273.851 Y574.581  
G01 X280.392 Y572.772 
G01 X280.366 Y570.768  
G02 X310.036 Y570.767 I14.834 J-46.455
G02 X332.565 Y572.423 I14.682 J-45.659
G02 X339.442 Y570.781 I-8.262 J-49.812
G02 X349.813 Y573.214 I17.119 J-49.647
G02 X365.625 Y594.027 I198.340 J-134.269
G01 X372.545 Y601.853  
G02 X342.869 Y602.816 I-13.578 J39.314
G01 X338.748 Y604.751  
G02 X310.415 Y597.238 I-28.502 J50.311
G02 X292.559 Y600.589 I-0.142 J48.502
G02 X282.676 Y605.073 I38.082 J97.068
G02 X253.890 Y600.635 I-20.219 J35.578
G01 X247.355 Y602.384  
G02 X256.833 Y591.764 I-180.214 J-170.380
G02 X270.175 Y573.316 I-118.054 J-99.426
G01 X273.443 Y572.720  
G02 X280.366 Y570.768 I-13.023 J-59.447
G01 X280.342 Y568.756  
G02 X310.038 Y568.763 I14.857 J-44.444
G02 X332.253 Y570.544 I14.680 J-43.654
G02 X339.469 Y568.771 I-7.950 J-47.933
G02 X350.906 Y571.428 I17.092 J-47.638
G02 X367.077 Y592.793 I197.247 J-132.483
G02 X376.706 Y603.514 I199.447 J-169.456
G01 X374.603 Y604.688  
G02 X343.606 Y604.572 I-15.635 J36.478
G01 X338.711 Y606.930  
G02 X310.409 Y599.143 I-28.465 J48.131
G02 X293.254 Y602.362 I-0.136 J46.597
G02 X282.625 Y607.251 I37.387 J95.295
G02 X254.289 Y602.498 I-20.168 J33.401
G02 X246.016 Y604.851 I13.611 J63.583
G01 X243.656 Y603.490  
G02 X255.376 Y590.537 I-176.515 J-171.487
G02 X269.022 Y571.550 I-116.596 J-98.198
G01 X273.036 Y570.859  
G02 X280.342 Y568.756 I-12.615 J-57.586
G01 X280.321 Y566.736  
G02 X310.040 Y566.749 I14.878 J-42.423
G02 X331.942 Y568.665 I14.677 J-41.640
G02 X339.496 Y566.752 I-7.639 J-46.054
G02 X351.992 Y569.625 I17.065 J-45.619
G02 X368.528 Y591.560 I196.161 J-130.680
G02 X379.888 Y604.080 I197.995 J-168.223
G02 X374.741 Y606.834 I18.226 J40.255
G02 X344.344 Y606.329 I-15.773 J34.333
G02 X338.674 Y609.135 I19.725 J46.991
G02 X310.404 Y601.048 I-28.428 J45.927
G02 X293.950 Y604.135 I-0.131 J44.692
G02 X282.554 Y609.452 I36.691 J93.522
G02 X254.688 Y604.361 I-20.098 J31.199
G02 X245.792 Y606.961 I13.212 J61.720
G02 X240.465 Y604.021 I-24.167 J37.491
G02 X253.919 Y589.310 I-173.324 J-172.017
G02 X267.875 Y569.765 I-115.139 J-96.971
G01 X272.628 Y568.998  
G02 X280.321 Y566.736 I-12.208 J-55.725
G01 X280.304 Y564.705  
G02 X310.043 Y564.724 I14.896 J-40.392
G02 X331.630 Y566.785 I14.675 J-39.616
G02 X339.523 Y564.723 I-7.327 J-44.174
G02 X353.071 Y567.804 I17.038 J-43.589
G02 X369.980 Y590.326 I195.083 J-128.859
G02 X383.220 Y604.761 I196.544 J-166.989
G02 X374.886 Y609.003 I14.894 J39.574
G01 X374.333 Y608.746  
G02 X345.081 Y608.085 I-15.365 J32.421
G02 X338.638 Y611.368 I18.988 J45.235
G02 X310.398 Y602.953 I-28.393 J43.694
G02 X294.646 Y605.909 I-0.125 J42.787
G02 X282.462 Y611.680 I35.995 J91.748
G02 X255.086 Y606.224 I-20.005 J28.972
G02 X245.559 Y609.090 I12.814 J59.858
G02 X237.121 Y604.663 I-23.934 J35.362
G02 X252.462 Y588.082 I-169.980 J-172.659
G02 X266.734 Y567.958 I-113.682 J-95.744
G01 X272.220 Y567.137  
G02 X280.304 Y564.705 I-11.800 J-53.864
G01 X280.290 Y562.663  
G02 X310.046 Y562.687 I14.910 J-38.350
G02 X331.318 Y564.906 I14.672 J-37.579
G02 X339.549 Y562.682 I-7.015 J-42.295
G02 X354.141 Y565.964 I17.012 J-41.548
G02 X371.432 Y589.093 I194.013 J-127.019
G02 X386.746 Y605.590 I195.092 J-165.756
G02 X375.081 Y611.170 I11.368 J38.745
G01 X373.517 Y610.467  
G02 X345.818 Y609.842 I-14.549 J30.699
G02 X338.604 Y613.634 I18.251 J43.478
G02 X310.392 Y604.858 I-28.358 J41.427
G02 X295.342 Y607.682 I-0.120 J40.882
G02 X282.343 Y613.938 I35.299 J89.975
G02 X255.485 Y608.086 I-19.887 J26.713
G02 X245.316 Y611.241 I12.415 J57.995
G02 X233.581 Y605.448 I-23.691 J33.211
G02 X251.005 Y586.855 I-166.439 J-173.444
G02 X265.599 Y566.127 I-112.225 J-94.517
G02 X271.813 Y565.276 I-2.229 J-39.391
G02 X280.290 Y562.663 I-11.392 J-52.004
G01 X280.280 Y560.607  
G02 X310.049 Y560.636 I14.919 J-36.294
G02 X331.007 Y563.027 I14.668 J-35.527
G02 X339.574 Y560.626 I-6.703 J-40.416
G02 X355.202 Y564.103 I16.987 J-39.493
G02 X372.884 Y587.860 I192.952 J-125.158
G02 X390.532 Y606.616 I193.640 J-164.522
G02 X375.332 Y613.332 I7.582 J37.719
G01 X372.701 Y612.188  
G02 X346.556 Y611.598 I-13.733 J28.978
G02 X338.570 Y615.940 I17.513 J41.721
G02 X310.387 Y606.763 I-28.325 J39.121
G02 X296.037 Y609.456 I-0.114 J38.977
G02 X282.194 Y616.233 I34.604 J88.201
G02 X255.884 Y609.949 I-19.738 J24.418
G02 X245.061 Y613.417 I12.016 J56.132
G02 X229.775 Y606.425 I-23.436 J31.035
G02 X249.548 Y585.628 I-162.634 J-174.421
G02 X264.472 Y564.269 I-110.768 J-93.290
G02 X271.405 Y563.415 I-1.102 J-37.532
G02 X280.280 Y560.607 I-10.985 J-50.143
G01 X280.275 Y558.536  
G02 X310.053 Y558.567 I14.924 J-34.224
G02 X330.695 Y561.147 I14.665 J-33.459
G02 X339.599 Y558.555 I-6.392 J-38.536
G02 X356.252 Y562.219 I16.962 J-37.421
G02 X374.336 Y586.626 I191.901 J-123.273
G02 X394.692 Y607.927 I192.188 J-163.289
G02 X375.638 Y615.489 I3.423 J36.408
G01 X371.885 Y613.910  
G02 X347.293 Y613.355 I-12.917 J27.257
G02 X338.539 Y618.294 I16.776 J39.965
G02 X310.381 Y608.668 I-28.293 J36.768
G02 X296.733 Y611.229 I-0.108 J37.072
G02 X282.022 Y618.564 I33.908 J86.428
G01 X281.680 Y618.285  
G02 X256.283 Y611.812 I-19.224 J22.367
G02 X244.793 Y615.622 I11.617 J54.269
G02 X225.589 Y607.680 I-23.167 J28.830
G02 X248.091 Y584.401 I-158.448 J-175.676
G02 X263.353 Y562.380 I-109.311 J-92.063
G02 X270.997 Y561.555 I0.017 J-35.643
G02 X280.275 Y558.536 I-10.577 J-48.282
G01 X280.276 Y556.448  
G02 X310.057 Y556.478 I14.924 J-32.135
G02 X330.383 Y559.268 I14.660 J-31.370
G02 X339.622 Y556.464 I-6.080 J-36.657
G02 X357.292 Y560.308 I16.938 J-35.330
G02 X375.787 Y585.393 I190.862 J-121.363
G02 X399.454 Y609.697 I190.737 J-162.055
G02 X376.000 Y617.641 I-1.340 J34.638
G01 X371.069 Y615.631  
G02 X348.030 Y615.111 I-12.102 J25.535
G02 X338.509 Y620.704 I16.039 J38.208
G02 X310.376 Y610.573 I-28.263 J34.358
G02 X297.429 Y613.002 I-0.103 J35.167
G02 X281.984 Y620.833 I33.212 J84.655
G01 X280.438 Y619.729  
G02 X256.682 Y613.675 I-17.982 J20.922
G02 X244.508 Y617.862 I11.219 J52.406
G02 X220.787 Y609.382 I-22.882 J26.589
G02 X246.634 Y583.174 I-153.646 J-177.378
G02 X262.244 Y560.456 I-107.854 J-90.835
G02 X270.590 Y559.694 I1.126 J-33.720
G02 X280.276 Y556.448 I-10.169 J-46.421
G01 X280.283 Y554.338  
G02 X310.062 Y554.364 I14.916 J-30.025
G02 X330.072 Y557.389 I14.655 J-29.256
G02 X339.645 Y554.351 I-5.768 J-34.778
G02 X358.319 Y558.368 I16.916 J-33.217
G02 X377.239 Y584.159 I189.834 J-119.423
G02 X403.355 Y610.603 I189.285 J-160.822
G01 X405.399 Y612.397  
G02 X376.421 Y619.788 I-7.285 J31.938
G03 X370.253 Y617.353 I15.203 J-47.528
G02 X348.768 Y616.868 I-11.286 J23.814
G02 X338.565 Y623.114 I15.301 J36.452
G01 X338.398 Y623.112  
G02 X310.370 Y612.478 I-28.153 J31.950
G02 X298.125 Y614.776 I-0.097 J33.262
G02 X282.084 Y623.032 I32.516 J82.881
G03 X279.196 Y621.174 I5.241 J-11.316
G02 X257.080 Y615.538 I-16.740 J19.477
G02 X244.809 Y619.837 I10.820 J50.544
G03 X243.703 Y619.690 I-0.444 J-0.889
G02 X214.721 Y612.003 I-22.078 J24.762
G02 X245.177 Y581.947 I-147.579 J-179.999
G02 X261.146 Y558.492 I-106.397 J-89.608
G02 X270.182 Y557.833 I2.224 J-31.756
G02 X280.283 Y554.338 I-9.762 J-44.560
G00 Z33.080
G00 X339.212 Y586.631  F7000.0
G01 Z21.333 F300.0 M3
G01 Z21.219 
G01 Z21.203 
G01 Z21.066 
G01 Z20.920 
G01 Z20.774 
G01 Z20.659 
G01 Z20.643 
G01 Z20.506 
G01 Z20.361 
G01 Z20.214 
G01 Z20.099 
G01 Z20.083 
G01 Z19.947 
G01 Z19.801 
G01 Z19.654 
G01 Z19.540 
G01 Z19.524 
G01 Z19.387 
G01 Z19.241 
G01 Z19.094 
G01 Z18.980 
G01 Z18.964 
G01 Z18.827 
G01 Z18.681 
G01 Z18.534 
G01 Z18.420 
G01 Z18.404 
G01 Z18.267 
G01 Z18.121 
G01 Z18.000 
G01 Z17.879 
G01 Z17.733 
G01 Z17.596 
G01 Z17.580 
G01 Z17.466 
G01 Z17.319 
G01 Z17.173 
G01 Z17.036 
G01 Z17.020 
G01 Z16.906 
G01 Z16.759 
G01 Z16.613 
G01 Z16.476 
G01 Z16.460 
G01 Z16.346 
G01 Z16.199 
G01 Z16.053 
G01 Z15.917 
G01 Z15.901 
G01 Z15.786 
G01 Z15.639 
G01 Z15.494 
G01 Z15.357 
G01 Z15.341 
G01 Z15.226 
G01 Z15.080 
G01 Z14.934 
G01 Z14.797 
G01 Z14.781 
G01 Z14.667 
G01 X340.873 Y587.049  F3500.0
G01 X341.013 Y587.244 
G01 X339.079 Y587.928 
G01 X337.057 Y587.095 
G01 X339.212 Y586.631 
G01 X339.241 Y584.666  
G01 X342.007 Y585.356  
G01 X344.118 Y588.284 
G01 X339.031 Y589.985 
G02 X328.512 Y586.287 I-28.785 J65.077
G01 X334.747 Y585.579  
G01 X339.241 Y584.666 
G00 Z33.080
G00 X280.626 Y586.638  F7000.0
G01 Z14.667 F300.0 M3
G01 Z14.404 
G01 Z14.267 
G01 Z14.042 
G01 Z14.027 
G01 Z13.952 
G01 Z13.689 
G01 Z13.552 
G01 Z13.327 
G01 Z13.313 
G01 Z13.237 
G01 Z12.974 
G01 Z12.838 
G01 Z12.612 
G01 Z12.598 
G01 Z12.522 
G01 Z12.260 
G01 Z12.123 
G01 Z11.897 
G01 Z11.883 
G01 Z11.808 
G01 Z11.545 
G01 Z11.408 
G01 Z11.333 
G01 Z11.259 
G01 Z11.122 
G01 Z10.859 
G01 Z10.784 
G01 Z10.769 
G01 Z10.544 
G01 Z10.407 
