%
( Array Toolpath GRAN PEPPARKAKAfix ) ( File created: Monday December 09 2024 - 12:18 PM)
( for LinuxCNC )
( Material Size) ( X= 800.000, Y= 660.000, Z= 28.000)
G90 (Incremental distance mode)
G17 G21 (Active Plane: XY)(Metric Mode)
G40 G49 G80(Tool Diameter, Length compensation & canned cycles OFF)
G64 P0.05 Q0.05(Path Blending)
T2 M06 (TOOL USE End Mill 4 mm)
G90 (absolute distance mode)
G54 (Coordinate System)
S18000M3
G00 Z48.320
G4 P6
( Array Toolpath 1 [2] )
G00 X83.583 Y112.005 Z33.080 F4000.0
G01 Z7.500 F1200.0 M3
G01 X82.952 Y112.423  F2000.0
G01 X82.835 Y112.644 
G03 X81.944 Y112.642 I-0.445 J-0.239
G01 X81.783 Y112.333  
G01 X81.091 Y111.787 
G01 X81.783 Y112.333 
G02 X82.952 Y112.423 I1.080 J-6.453
G01 X83.583 Y112.005  
G01 X84.951 Y113.778  
G03 X79.822 Y113.765 I-2.561 J-1.372
G03 X77.070 Y106.570 I28.073 J-14.862
G03 X74.988 Y97.430 I229.861 J-57.176
G01 X75.260 Y97.350  
G03 X75.997 Y97.629 I0.209 J0.560
G02 X79.147 Y107.714 I20.627 J-0.910
G02 X86.639 Y107.586 I3.715 J-1.834
G03 X90.508 Y101.278 I32.805 J15.784
G01 X90.643 Y101.077  
G03 X93.714 Y101.346 I1.471 J0.864
G01 X93.773 Y101.488  
G02 X97.254 Y108.796 I316.156 J-146.122
G02 X105.721 Y108.197 I4.129 J-1.769
G03 X108.431 Y101.589 I28.778 J7.941
G01 X108.434 Y101.582  
G03 X113.655 Y101.537 I2.623 J1.451
G02 X116.068 Y109.036 I227.538 J-69.097
G01 X116.239 Y109.408  
G02 X123.803 Y108.236 I3.548 J-2.092
G03 X127.399 Y100.879 I28.691 J9.468
G01 X127.497 Y100.717  
G03 X129.856 Y101.009 I1.122 J0.607
G02 X131.837 Y106.264 I24.589 J-6.267
G02 X126.227 Y106.354 I-2.773 J2.044
G02 X122.100 Y114.280 I7.459 J8.920
G01 X122.095 Y114.537  
G03 X120.279 Y115.832 I-1.328 J0.057
G01 X120.145 Y115.785  
G03 X115.343 Y109.178 I2.054 J-6.541
G02 X111.017 Y102.780 I-5.324 J-1.062
G02 X110.374 Y102.765 I-0.368 J1.966
G02 X106.272 Y107.185 I0.657 J4.723
G03 X102.687 Y113.858 I-19.508 J-6.181
G01 X102.550 Y114.051  
G03 X99.164 Y113.720 I-1.610 J-1.011
G01 X99.082 Y113.535  
G01 X95.443 Y106.199 
G02 X87.340 Y107.067 I-3.924 J1.627
G03 X84.951 Y113.778 I-23.407 J-4.553
G00 Z33.080
G00 X119.837 Y113.459  F4000.0
G01 Z7.500 F1200.0 M3
G01 X120.083 Y113.516  F2000.0
G01 X120.157 Y113.448 
G01 X120.083 Y113.516 
G01 X120.135 Y113.613 
G01 X120.083 Y113.516 
G01 X119.837 Y113.459 
G00 Z33.080
G00 X132.304 Y107.138  F4000.0
G01 Z7.500 F1200.0 M3
G02 X135.304 Y111.401 I22.141 J-12.396
G02 X142.713 Y109.911 I3.280 J-2.855
G01 X142.757 Y109.760  F2000.0
G03 X145.333 Y99.809 I385.820 J94.571
G02 X145.146 Y98.303 I-1.930 J-0.526
G03 X145.338 Y97.426 I0.588 J-0.331
G03 X145.894 Y100.156 I-8.982 J3.251
G03 X140.418 Y115.366 I-33.608 J-3.510
G01 X140.386 Y115.417  
G03 X137.819 Y115.884 I-1.496 J-0.932
G01 X137.655 Y115.771  
G03 X132.403 Y107.561 I5.933 J-9.581
G01 X132.304 Y107.138  
G00 Z33.080
G00 X110.463 Y128.306  F4000.0
G01 Z7.500 F1200.0 M3
G01 X110.472 Y128.282  F2000.0
G01 X110.448 Y128.291 
G01 X110.474 Y128.281 
G01 X110.448 Y128.270 
G01 X110.472 Y128.279 
G01 X110.463 Y128.255 
G01 X110.474 Y128.281 
G01 X110.485 Y128.255 
G01 X110.476 Y128.279 
G01 X110.500 Y128.270 
G01 X110.474 Y128.281 
G01 X110.500 Y128.291 
G01 X110.476 Y128.282 
G01 X110.485 Y128.306 
G01 X110.474 Y128.281 
G01 X110.463 Y128.306 
G01 X110.474 Y130.648  
G01 X110.229 Y130.636  
G01 X109.994 Y130.600 
G01 X109.769 Y130.542 
G01 X109.552 Y130.463 
G01 X109.346 Y130.364 
G01 X109.151 Y130.245 
G01 X108.968 Y130.109 
G01 X108.799 Y129.955 
G01 X108.646 Y129.786 
G01 X108.509 Y129.603 
G01 X108.391 Y129.408 
G01 X108.291 Y129.202 
G01 X108.212 Y128.986 
G01 X108.154 Y128.760 
G01 X108.119 Y128.526 
G01 X108.106 Y128.281 
G01 X108.119 Y128.036 
G01 X108.154 Y127.801 
G01 X108.212 Y127.575 
G01 X108.291 Y127.359 
G01 X108.391 Y127.153 
G01 X108.509 Y126.958 
G01 X108.646 Y126.775 
G01 X108.799 Y126.606 
G01 X108.968 Y126.453 
G01 X109.151 Y126.316 
G01 X109.346 Y126.197 
G01 X109.552 Y126.098 
G01 X109.769 Y126.019 
G01 X109.994 Y125.961 
G01 X110.229 Y125.925 
G01 X110.474 Y125.913 
G01 X110.719 Y125.925 
G01 X110.954 Y125.961 
G01 X111.179 Y126.019 
G01 X111.395 Y126.098 
G01 X111.602 Y126.197 
G01 X111.797 Y126.316 
G01 X111.979 Y126.453 
G01 X112.148 Y126.606 
G01 X112.302 Y126.775 
G01 X112.439 Y126.958 
G01 X112.557 Y127.153 
G01 X112.656 Y127.359 
G01 X112.735 Y127.575 
G01 X112.793 Y127.801 
G01 X112.829 Y128.036 
G01 X112.842 Y128.281 
G01 X112.829 Y128.526 
G01 X112.793 Y128.760 
G01 X112.735 Y128.986 
G01 X112.656 Y129.202 
G01 X112.557 Y129.408 
G01 X112.439 Y129.603 
G01 X112.302 Y129.786 
G01 X112.148 Y129.955 
G01 X111.979 Y130.109 
G01 X111.797 Y130.245 
G01 X111.602 Y130.364 
G01 X111.395 Y130.463 
G01 X111.179 Y130.542 
G01 X110.954 Y130.600 
G01 X110.719 Y130.636 
G01 X110.474 Y130.648 
G00 Z33.080
G00 X109.151 Y144.177  F4000.0
G01 Z7.500 F1200.0 M3
G01 X109.346 Y144.059  F2000.0
G01 X109.552 Y143.959 
G01 X109.769 Y143.880 
G01 X109.994 Y143.822 
G01 X110.229 Y143.786 
G01 X110.474 Y143.774 
G01 X110.719 Y143.786 
G01 X110.954 Y143.822 
G01 X111.179 Y143.880 
G01 X111.395 Y143.959 
G01 X111.602 Y144.059 
G01 X111.797 Y144.177 
G01 X111.979 Y144.314 
G01 X112.148 Y144.467 
G01 X112.302 Y144.636 
G01 X112.439 Y144.819 
G01 X112.557 Y145.014 
G01 X112.656 Y145.220 
G01 X112.735 Y145.436 
G01 X112.793 Y145.662 
G01 X112.829 Y145.897 
G01 X112.842 Y146.142 
G01 X112.829 Y146.387 
G01 X112.793 Y146.622 
G01 X112.735 Y146.847 
G01 X112.656 Y147.063 
G01 X112.557 Y147.270 
G01 X112.439 Y147.465 
G01 X112.302 Y147.647 
G01 X112.148 Y147.816 
G01 X111.979 Y147.970 
G01 X111.797 Y148.106 
G01 X111.602 Y148.225 
G01 X111.395 Y148.324 
G01 X111.179 Y148.403 
G01 X110.954 Y148.461 
G01 X110.719 Y148.497 
G01 X110.474 Y148.510 
G01 X110.229 Y148.497 
G01 X109.994 Y148.461 
G01 X109.769 Y148.403 
G01 X109.552 Y148.324 
G01 X109.346 Y148.225 
G01 X109.151 Y148.106 
G01 X108.968 Y147.970 
G01 X108.799 Y147.816 
G01 X108.646 Y147.647 
G01 X108.509 Y147.465 
G01 X108.391 Y147.270 
G01 X108.291 Y147.063 
G01 X108.212 Y146.847 
G01 X108.154 Y146.622 
G01 X108.119 Y146.387 
G01 X108.106 Y146.142 
G01 X108.119 Y145.897 
G01 X108.154 Y145.662 
G01 X108.212 Y145.436 
G01 X108.291 Y145.220 
G01 X108.391 Y145.014 
G01 X108.509 Y144.819 
G01 X108.646 Y144.636 
G01 X108.799 Y144.467 
G01 X108.968 Y144.314 
G01 X109.151 Y144.177 
G00 Z33.080
G00 X110.466 Y146.124  F4000.0
G01 Z7.500 F1200.0 M3
G01 X110.463 Y146.116  F2000.0
G01 X110.474 Y146.142 
G01 X110.485 Y146.116 
G01 X110.476 Y146.140 
G01 X110.500 Y146.131 
G01 X110.474 Y146.142 
G01 X110.500 Y146.153 
G01 X110.476 Y146.143 
G01 X110.485 Y146.168 
G01 X110.474 Y146.142 
G01 X110.463 Y146.168 
G01 X110.472 Y146.143 
G01 X110.448 Y146.153 
G01 X110.474 Y146.142 
G01 X110.448 Y146.131 
G01 X110.472 Y146.140 
G01 X110.466 Y146.124 
G00 Z33.080
G00 X110.463 Y164.029  F4000.0
G01 Z7.500 F1200.0 M3
G01 X110.472 Y164.005  F2000.0
G01 X110.448 Y164.014 
G01 X110.474 Y164.003 
G01 X110.448 Y163.993 
G01 X110.472 Y164.002 
G01 X110.463 Y163.977 
G01 X110.474 Y164.003 
G01 X110.485 Y163.977 
G01 X110.476 Y164.002 
G01 X110.500 Y163.993 
G01 X110.474 Y164.003 
G01 X110.500 Y164.014 
G01 X110.476 Y164.005 
G01 X110.485 Y164.029 
G01 X110.474 Y164.003 
G01 X110.463 Y164.029 
G01 X110.474 Y166.371  
G01 X110.229 Y166.359  
G01 X109.994 Y166.323 
G01 X109.769 Y166.265 
G01 X109.552 Y166.186 
G01 X109.346 Y166.086 
G01 X109.151 Y165.968 
G01 X108.968 Y165.831 
G01 X108.799 Y165.678 
G01 X108.646 Y165.509 
G01 X108.509 Y165.326 
G01 X108.391 Y165.131 
G01 X108.291 Y164.925 
G01 X108.212 Y164.709 
G01 X108.154 Y164.483 
G01 X108.119 Y164.248 
G01 X108.106 Y164.003 
G01 X108.119 Y163.758 
G01 X108.154 Y163.523 
G01 X108.212 Y163.298 
G01 X108.291 Y163.082 
G01 X108.391 Y162.876 
G01 X108.509 Y162.680 
G01 X108.646 Y162.498 
G01 X108.799 Y162.329 
G01 X108.968 Y162.175 
G01 X109.151 Y162.039 
G01 X109.346 Y161.920 
G01 X109.552 Y161.821 
G01 X109.769 Y161.742 
G01 X109.994 Y161.684 
G01 X110.229 Y161.648 
G01 X110.474 Y161.635 
G01 X110.719 Y161.648 
G01 X110.954 Y161.684 
G01 X111.179 Y161.742 
G01 X111.395 Y161.821 
G01 X111.602 Y161.920 
G01 X111.797 Y162.039 
G01 X111.979 Y162.175 
G01 X112.148 Y162.329 
G01 X112.302 Y162.498 
G01 X112.439 Y162.680 
G01 X112.557 Y162.876 
G01 X112.656 Y163.082 
G01 X112.735 Y163.298 
G01 X112.793 Y163.523 
G01 X112.829 Y163.758 
G01 X112.842 Y164.003 
G01 X112.829 Y164.248 
G01 X112.793 Y164.483 
G01 X112.735 Y164.709 
G01 X112.656 Y164.925 
G01 X112.557 Y165.131 
G01 X112.439 Y165.326 
G01 X112.302 Y165.509 
G01 X112.148 Y165.678 
G01 X111.979 Y165.831 
G01 X111.797 Y165.968 
G01 X111.602 Y166.086 
G01 X111.395 Y166.186 
G01 X111.179 Y166.265 
G01 X110.954 Y166.323 
G01 X110.719 Y166.359 
G01 X110.474 Y166.371 
G00 Z33.080
G00 X122.606 Y179.437  F4000.0
G01 Z7.500 F1200.0 M3
G01 X123.045 Y179.437  F2000.0
G01 X123.215 Y179.183 
G01 X123.045 Y179.437 
G01 X123.215 Y179.692 
G01 X123.045 Y179.437 
G01 X122.606 Y179.437 
G01 X121.765 Y177.595  
G01 X123.596 Y176.854  
G01 X124.792 Y176.438 
G01 X125.119 Y176.342 
G01 X125.419 Y175.904 
G01 X125.119 Y176.342 
G01 X125.205 Y177.579 
G01 X125.239 Y179.437 
G01 X125.205 Y181.296 
G01 X125.119 Y182.532 
G01 X125.419 Y182.971 
G01 X125.112 Y182.530 
G01 X124.070 Y182.195 
G01 X122.489 Y181.582 
G01 X119.508 Y180.297 
G01 X117.571 Y179.437 
G01 X116.704 Y179.437 
G01 X117.571 Y179.437 
G01 X121.765 Y177.595 
G01 X120.837 Y175.408  
G01 X122.755 Y174.631  
G01 X124.014 Y174.191 
G01 X124.918 Y173.942 
G01 X125.624 Y173.814 
G01 X126.129 Y173.784 
G01 X126.504 Y173.822 
G01 X126.748 Y173.910 
G01 X126.914 Y174.052 
G01 X127.076 Y174.306 
G01 X127.236 Y174.727 
G01 X127.386 Y175.389 
G01 X127.508 Y176.356 
G01 X127.589 Y177.732 
G01 X127.614 Y179.744 
G01 X127.571 Y181.578 
G01 X127.479 Y182.810 
G01 X127.353 Y183.666 
G01 X127.198 Y184.268 
G01 X127.032 Y184.650 
G01 X126.867 Y184.873 
G01 X126.693 Y184.992 
G01 X126.421 Y185.067 
G01 X125.993 Y185.089 
G01 X125.446 Y185.035 
G01 X124.703 Y184.880 
G01 X123.690 Y184.578 
G01 X122.312 Y184.072 
G01 X120.164 Y183.178 
G01 X111.997 Y179.553 
G01 X111.738 Y179.437 
G01 X120.066 Y175.739 
G01 X120.837 Y175.408 
G00 Z33.080
G00 X97.957 Y179.692  F4000.0
G01 Z7.500 F1200.0 M3
G01 X98.126 Y179.437  F2000.0
G01 X97.957 Y179.183 
G01 X98.126 Y179.437 
G01 X98.565 Y179.437 
G01 X98.126 Y179.437 
G01 X97.957 Y179.692 
G01 X95.933 Y179.732  
G01 X95.959 Y177.754  
G01 X96.038 Y176.483 
G01 X96.052 Y176.342 
G01 X95.752 Y175.904 
G01 X96.059 Y176.344 
G01 X97.101 Y176.679 
G01 X98.681 Y177.292 
G01 X101.664 Y178.578 
G01 X103.601 Y179.437 
G01 X104.467 Y179.437 
G01 X103.601 Y179.437 
G01 X99.406 Y181.279 
G01 X97.575 Y182.021 
G01 X96.379 Y182.437 
G01 X96.052 Y182.532 
G01 X95.752 Y182.971 
G01 X96.052 Y182.532 
G01 X95.966 Y181.296 
G01 X95.933 Y179.732 
G01 X93.557 Y179.744  
G01 X93.583 Y177.732  
G01 X93.663 Y176.356 
G01 X93.785 Y175.389 
G01 X93.935 Y174.727 
G01 X94.095 Y174.306 
G01 X94.257 Y174.052 
G01 X94.423 Y173.910 
G01 X94.667 Y173.822 
G01 X95.043 Y173.784 
G01 X95.547 Y173.814 
G01 X96.254 Y173.942 
G01 X97.157 Y174.191 
G01 X98.417 Y174.631 
G01 X100.334 Y175.408 
G01 X104.838 Y177.387 
G01 X109.433 Y179.437 
G01 X101.106 Y183.135 
G01 X99.039 Y184.001 
G01 X97.647 Y184.522 
G01 X96.616 Y184.841 
G01 X95.851 Y185.014 
G01 X95.227 Y185.087 
G01 X94.782 Y185.072 
G01 X94.494 Y184.999 
G01 X94.315 Y184.883 
G01 X94.153 Y184.675 
G01 X93.989 Y184.312 
G01 X93.832 Y183.734 
G01 X93.702 Y182.903 
G01 X93.606 Y181.697 
G01 X93.558 Y179.894 
G01 X93.557 Y179.744 
G00 Z33.080
G00 X82.867 Y211.978  F4000.0
G01 Z7.500 F1200.0 M3
G01 X82.865 Y211.819  F2000.0
G01 X82.904 Y211.705 
G01 X83.603 Y210.672 
G01 X84.473 Y209.508 
G01 X85.403 Y208.376 
G01 X86.393 Y207.277 
G01 X87.441 Y206.214 
G01 X88.547 Y205.188 
G01 X89.711 Y204.202 
G01 X90.931 Y203.258 
G01 X92.205 Y202.359 
G01 X93.527 Y201.511 
G01 X94.893 Y200.717 
G01 X96.297 Y199.980 
G01 X97.733 Y199.303 
G01 X99.195 Y198.691 
G01 X100.677 Y198.145 
G01 X102.175 Y197.670 
G01 X103.682 Y197.267 
G01 X105.199 Y196.935 
G01 X106.723 Y196.673 
G01 X108.253 Y196.479 
G01 X109.788 Y196.352 
G01 X110.489 Y196.317 
G01 X111.958 Y196.393 
G01 X113.492 Y196.538 
G01 X115.021 Y196.751 
G01 X116.545 Y197.033 
G01 X118.061 Y197.385 
G01 X119.568 Y197.809 
G01 X121.064 Y198.306 
G01 X122.542 Y198.871 
G01 X123.998 Y199.501 
G01 X125.425 Y200.194 
G01 X126.818 Y200.946 
G01 X128.171 Y201.755 
G01 X129.479 Y202.616 
G01 X130.735 Y203.526 
G01 X131.937 Y204.479 
G01 X133.081 Y205.474 
G01 X134.169 Y206.509 
G01 X135.199 Y207.580 
G01 X136.169 Y208.686 
G01 X137.081 Y209.826 
G01 X137.932 Y210.996 
G01 X138.254 Y211.469 
G01 X138.445 Y211.728 
G01 X138.479 Y211.889 
G01 X138.447 Y212.055 
G01 X138.354 Y212.191 
G01 X138.201 Y212.286 
G01 X138.038 Y212.308 
G01 X137.875 Y212.263 
G01 X137.746 Y212.160 
G01 X136.780 Y210.777 
G01 X135.916 Y209.656 
G01 X134.993 Y208.566 
G01 X134.011 Y207.507 
G01 X132.970 Y206.481 
G01 X131.870 Y205.491 
G01 X130.713 Y204.540 
G01 X129.501 Y203.631 
G01 X128.240 Y202.767 
G01 X126.933 Y201.954 
G01 X125.586 Y201.194 
G01 X124.204 Y200.492 
G01 X122.794 Y199.852 
G01 X121.360 Y199.277 
G01 X119.908 Y198.770 
G01 X118.443 Y198.332 
G01 X116.967 Y197.963 
G01 X115.483 Y197.662 
G01 X113.993 Y197.428 
G01 X112.498 Y197.261 
G01 X110.998 Y197.158 
G01 X110.669 Y197.144 
G01 X109.089 Y197.239 
G01 X107.593 Y197.396 
G01 X106.102 Y197.618 
G01 X104.618 Y197.908 
G01 X103.140 Y198.266 
G01 X101.672 Y198.692 
G01 X100.218 Y199.188 
G01 X98.781 Y199.752 
G01 X97.366 Y200.381 
G01 X95.980 Y201.073 
G01 X94.627 Y201.823 
G01 X93.313 Y202.628 
G01 X92.043 Y203.483 
G01 X90.823 Y204.385 
G01 X89.656 Y205.330 
G01 X88.547 Y206.314 
G01 X87.496 Y207.334 
G01 X86.504 Y208.387 
G01 X85.571 Y209.472 
G01 X84.697 Y210.588 
G01 X83.881 Y211.734 
G01 X83.566 Y212.189 
G01 X83.435 Y212.276 
G01 X83.277 Y212.309 
G01 X83.123 Y212.281 
G01 X82.978 Y212.186 
G01 X82.891 Y212.056 
G01 X82.867 Y211.978 
G00 Z33.080
G00 X97.566 Y232.868  F4000.0
G01 Z7.500 F1200.0 M3
G01 X97.261 Y232.834  F2000.0
G01 X96.989 Y232.749 
G01 X96.738 Y232.613 
G01 X96.516 Y232.430 
G01 X96.332 Y232.207 
G01 X96.197 Y231.957 
G01 X96.112 Y231.684 
G01 X96.077 Y231.379 
G01 X96.112 Y231.074 
G01 X96.197 Y230.801 
G01 X96.332 Y230.551 
G01 X96.516 Y230.329 
G01 X96.738 Y230.145 
G01 X96.989 Y230.009 
G01 X97.261 Y229.925 
G01 X97.566 Y229.890 
G01 X97.871 Y229.925 
G01 X98.144 Y230.009 
G01 X98.394 Y230.145 
G01 X98.617 Y230.329 
G01 X98.800 Y230.551 
G01 X98.936 Y230.801 
G01 X99.021 Y231.074 
G01 X99.055 Y231.379 
G01 X99.021 Y231.684 
G01 X98.936 Y231.957 
G01 X98.800 Y232.207 
G01 X98.617 Y232.430 
G01 X98.394 Y232.613 
G01 X98.144 Y232.749 
G01 X97.871 Y232.834 
G01 X97.566 Y232.868 
G01 X97.566 Y235.269  
G01 X97.191 Y235.251  
G01 X96.780 Y235.188 
G01 X96.409 Y235.093 
G01 X96.053 Y234.962 
G01 X95.714 Y234.799 
G01 X95.394 Y234.604 
G01 X95.094 Y234.380 
G01 X94.817 Y234.129 
G01 X94.565 Y233.852 
G01 X94.341 Y233.552 
G01 X94.147 Y233.231 
G01 X93.983 Y232.892 
G01 X93.853 Y232.537 
G01 X93.758 Y232.165 
G01 X93.682 Y231.581 
G01 X93.695 Y231.004 
G01 X93.758 Y230.593 
G01 X93.853 Y230.222 
G01 X93.983 Y229.866 
G01 X94.147 Y229.527 
G01 X94.341 Y229.206 
G01 X94.565 Y228.907 
G01 X94.817 Y228.630 
G01 X95.094 Y228.378 
G01 X95.394 Y228.154 
G01 X95.714 Y227.959 
G01 X96.053 Y227.796 
G01 X96.409 Y227.666 
G01 X96.780 Y227.570 
G01 X97.364 Y227.495 
G01 X97.942 Y227.508 
G01 X98.353 Y227.570 
G01 X98.724 Y227.666 
G01 X99.080 Y227.796 
G01 X99.419 Y227.959 
G01 X99.739 Y228.154 
G01 X100.039 Y228.378 
G01 X100.316 Y228.630 
G01 X100.567 Y228.907 
G01 X100.791 Y229.206 
G01 X100.986 Y229.527 
G01 X101.149 Y229.866 
G01 X101.280 Y230.222 
G01 X101.375 Y230.593 
G01 X101.451 Y231.177 
G01 X101.438 Y231.754 
G01 X101.375 Y232.165 
G01 X101.280 Y232.537 
G01 X101.149 Y232.892 
G01 X100.986 Y233.231 
G01 X100.791 Y233.552 
G01 X100.567 Y233.852 
G01 X100.316 Y234.129 
G01 X100.039 Y234.380 
G01 X99.739 Y234.604 
G01 X99.419 Y234.799 
G01 X99.080 Y234.962 
G01 X98.724 Y235.093 
G01 X98.353 Y235.188 
G01 X97.768 Y235.264 
G01 X97.566 Y235.269 
G00 Z33.080
G00 X95.201 Y244.271  F4000.0
G01 Z7.500 F1200.0 M3
G01 X94.010 Y243.835  F2000.0
G01 X92.764 Y243.297 
G01 X91.568 Y242.699 
G01 X90.431 Y242.050 
G01 X89.278 Y241.305 
G01 X88.122 Y240.461 
G01 X87.129 Y239.647 
G01 X86.217 Y238.809 
G01 X85.388 Y237.948 
G01 X84.638 Y237.064 
G01 X83.967 Y236.158 
G01 X83.599 Y235.600 
G01 X83.629 Y235.520 
G01 X83.723 Y235.468 
G01 X83.803 Y235.479 
G01 X84.340 Y236.274 
G01 X85.024 Y237.157 
G01 X85.790 Y238.023 
G01 X86.635 Y238.871 
G01 X87.561 Y239.698 
G01 X88.569 Y240.502 
G01 X89.651 Y241.273 
G01 X90.808 Y242.004 
G01 X91.945 Y242.637 
G01 X93.137 Y243.217 
G01 X94.282 Y243.696 
G01 X95.466 Y244.115 
G01 X96.685 Y244.469 
G01 X97.936 Y244.755 
G01 X99.216 Y244.972 
G01 X100.526 Y245.122 
G01 X101.976 Y245.212 
G01 X103.462 Y245.227 
G01 X105.104 Y245.165 
G01 X105.682 Y245.136 
G01 X105.708 Y245.273 
G01 X105.698 Y245.351 
G01 X104.879 Y245.415 
G01 X103.229 Y245.466 
G01 X101.736 Y245.439 
G01 X100.279 Y245.337 
G01 X98.964 Y245.174 
G01 X97.678 Y244.943 
G01 X96.425 Y244.642 
G01 X95.201 Y244.271 
G00 Z33.080
G00 X115.490 Y245.136  F4000.0
G01 Z7.500 F1200.0 M3
G01 X117.478 Y245.223  F2000.0
G01 X118.969 Y245.219 
G01 X120.425 Y245.141 
G01 X121.738 Y245.002 
G01 X123.023 Y244.796 
G01 X124.279 Y244.521 
G01 X125.504 Y244.179 
G01 X126.695 Y243.770 
G01 X127.847 Y243.300 
G01 X129.047 Y242.730 
G01 X130.192 Y242.104 
G01 X131.359 Y241.380 
G01 X132.454 Y240.613 
G01 X133.471 Y239.814 
G01 X134.409 Y238.990 
G01 X135.266 Y238.145 
G01 X136.042 Y237.282 
G01 X136.738 Y236.401 
G01 X137.355 Y235.501 
G01 X137.394 Y235.471 
G01 X137.496 Y235.484 
G01 X137.561 Y235.548 
G01 X137.572 Y235.600 
G01 X137.021 Y236.419 
G01 X136.327 Y237.319 
G01 X135.555 Y238.196 
G01 X134.701 Y239.050 
G01 X133.767 Y239.881 
G01 X132.750 Y240.689 
G01 X131.653 Y241.468 
G01 X130.484 Y242.204 
G01 X129.332 Y242.842 
G01 X128.124 Y243.427 
G01 X126.867 Y243.949 
G01 X125.667 Y244.370 
G01 X124.435 Y244.725 
G01 X123.175 Y245.008 
G01 X121.881 Y245.221 
G01 X120.560 Y245.367 
G01 X119.094 Y245.452 
G01 X117.711 Y245.464 
G01 X116.053 Y245.401 
G01 X115.474 Y245.351 
G01 X115.468 Y245.211 
G01 X115.490 Y245.136 
G00 Z33.080
G00 X123.605 Y232.868  F4000.0
G01 Z7.500 F1200.0 M3
G01 X123.300 Y232.834  F2000.0
G01 X123.027 Y232.749 
G01 X122.777 Y232.613 
G01 X122.555 Y232.430 
G01 X122.371 Y232.207 
G01 X122.235 Y231.957 
G01 X122.150 Y231.684 
G01 X122.116 Y231.379 
G01 X122.150 Y231.074 
G01 X122.235 Y230.801 
G01 X122.371 Y230.551 
G01 X122.555 Y230.329 
G01 X122.777 Y230.145 
G01 X123.027 Y230.009 
G01 X123.300 Y229.925 
G01 X123.605 Y229.890 
G01 X123.910 Y229.925 
G01 X124.183 Y230.009 
G01 X124.433 Y230.145 
G01 X124.655 Y230.329 
G01 X124.839 Y230.551 
G01 X124.975 Y230.801 
G01 X125.059 Y231.074 
G01 X125.094 Y231.379 
G01 X125.059 Y231.684 
G01 X124.975 Y231.957 
G01 X124.839 Y232.207 
G01 X124.655 Y232.430 
G01 X124.433 Y232.613 
G01 X124.183 Y232.749 
G01 X123.910 Y232.834 
G01 X123.605 Y232.868 
G01 X123.605 Y235.269  
G01 X123.230 Y235.251  
G01 X122.819 Y235.188 
G01 X122.447 Y235.093 
G01 X122.092 Y234.962 
G01 X121.753 Y234.799 
G01 X121.432 Y234.604 
G01 X121.132 Y234.380 
G01 X120.856 Y234.129 
G01 X120.604 Y233.852 
G01 X120.380 Y233.552 
G01 X120.185 Y233.231 
G01 X120.022 Y232.892 
G01 X119.892 Y232.537 
G01 X119.796 Y232.165 
G01 X119.720 Y231.581 
G01 X119.733 Y231.004 
G01 X119.796 Y230.593 
G01 X119.892 Y230.222 
G01 X120.022 Y229.866 
G01 X120.185 Y229.527 
G01 X120.380 Y229.206 
G01 X120.604 Y228.907 
G01 X120.856 Y228.630 
G01 X121.132 Y228.378 
G01 X121.432 Y228.154 
G01 X121.753 Y227.959 
G01 X122.092 Y227.796 
G01 X122.447 Y227.666 
G01 X122.819 Y227.570 
G01 X123.403 Y227.495 
G01 X123.980 Y227.508 
G01 X124.391 Y227.570 
G01 X124.762 Y227.666 
G01 X125.118 Y227.796 
G01 X125.457 Y227.959 
G01 X125.778 Y228.154 
G01 X126.077 Y228.378 
G01 X126.354 Y228.630 
G01 X126.606 Y228.907 
G01 X126.830 Y229.206 
G01 X127.025 Y229.527 
G01 X127.188 Y229.866 
G01 X127.318 Y230.222 
G01 X127.414 Y230.593 
G01 X127.490 Y231.177 
G01 X127.476 Y231.754 
G01 X127.414 Y232.165 
G01 X127.318 Y232.537 
G01 X127.188 Y232.892 
G01 X127.025 Y233.231 
G01 X126.830 Y233.552 
G01 X126.606 Y233.852 
G01 X126.354 Y234.129 
G01 X126.077 Y234.380 
G01 X125.778 Y234.604 
G01 X125.457 Y234.799 
G01 X125.118 Y234.962 
G01 X124.762 Y235.093 
G01 X124.391 Y235.188 
G01 X123.807 Y235.264 
G01 X123.605 Y235.269 
G00 Z33.080
G00 X111.598 Y380.415  F4000.0
G01 Z7.500 F1200.0 M3
G01 X111.334 Y380.376  F2000.0
G01 X111.110 Y380.268 
G01 X110.920 Y380.095 
G01 X110.789 Y379.880 
G01 X110.726 Y379.635 
G01 X110.739 Y379.356 
G01 X110.825 Y379.123 
G01 X110.978 Y378.919 
G01 X111.182 Y378.766 
G01 X111.415 Y378.681 
G01 X111.694 Y378.667 
G01 X111.939 Y378.730 
G01 X112.154 Y378.861 
G01 X112.327 Y379.051 
G01 X112.435 Y379.275 
G01 X112.474 Y379.539 
G01 X112.435 Y379.802 
G01 X112.327 Y380.027 
G01 X112.154 Y380.217 
G01 X111.939 Y380.348 
G01 X111.694 Y380.410 
G01 X111.598 Y380.415 
G01 X111.598 Y382.818  
G01 X111.259 Y382.801  
G01 X110.934 Y382.752 
G01 X110.621 Y382.671 
G01 X110.321 Y382.561 
G01 X110.035 Y382.424 
G01 X109.765 Y382.260 
G01 X109.512 Y382.070 
G01 X109.279 Y381.858 
G01 X109.066 Y381.624 
G01 X108.877 Y381.372 
G01 X108.713 Y381.101 
G01 X108.575 Y380.815 
G01 X108.465 Y380.516 
G01 X108.385 Y380.203 
G01 X108.335 Y379.877 
G01 X108.318 Y379.539 
G01 X108.335 Y379.201 
G01 X108.385 Y378.875 
G01 X108.465 Y378.562 
G01 X108.575 Y378.263 
G01 X108.713 Y377.977 
G01 X108.877 Y377.706 
G01 X109.066 Y377.453 
G01 X109.279 Y377.220 
G01 X109.512 Y377.007 
G01 X109.765 Y376.818 
G01 X110.035 Y376.654 
G01 X110.321 Y376.516 
G01 X110.621 Y376.407 
G01 X110.934 Y376.326 
G01 X111.260 Y376.277 
G01 X111.598 Y376.259 
G01 X111.936 Y376.277 
G01 X112.261 Y376.326 
G01 X112.574 Y376.407 
G01 X112.874 Y376.516 
G01 X113.160 Y376.654 
G01 X113.430 Y376.818 
G01 X113.683 Y377.007 
G01 X113.917 Y377.220 
G01 X114.129 Y377.453 
G01 X114.318 Y377.706 
G01 X114.483 Y377.977 
G01 X114.620 Y378.263 
G01 X114.730 Y378.562 
G01 X114.810 Y378.875 
G01 X114.860 Y379.201 
G01 X114.877 Y379.539 
G01 X114.860 Y379.877 
G01 X114.810 Y380.203 
G01 X114.730 Y380.516 
G01 X114.620 Y380.815 
G01 X114.483 Y381.101 
G01 X114.318 Y381.372 
G01 X114.129 Y381.624 
G01 X113.917 Y381.858 
G01 X113.683 Y382.070 
G01 X113.430 Y382.260 
G01 X113.160 Y382.424 
G01 X112.874 Y382.561 
G01 X112.574 Y382.671 
G01 X112.261 Y382.752 
G01 X111.936 Y382.801 
G01 X111.598 Y382.818 
G00 Z33.080
G00 X88.254 Y381.002  F4000.0
G01 Z7.500 F1200.0 M3
G01 X86.341 Y383.702  F2000.0
G01 X84.938 Y385.577 
G01 X83.702 Y387.110 
G01 X82.846 Y388.082 
G01 X82.100 Y388.831 
G01 X81.374 Y389.458 
G01 X80.735 Y389.928 
G01 X80.124 Y390.292 
G01 X79.494 Y390.581 
G01 X78.838 Y390.795 
G01 X78.249 Y390.909 
G01 X77.609 Y390.958 
G01 X76.959 Y390.934 
G01 X76.336 Y390.838 
G01 X75.764 Y390.672 
G01 X75.216 Y390.438 
G01 X74.669 Y390.123 
G01 X74.207 Y389.780 
G01 X73.718 Y389.326 
G01 X73.289 Y388.823 
G01 X72.925 Y388.286 
G01 X72.625 Y387.724 
G01 X72.353 Y387.055 
G01 X72.153 Y386.373 
G01 X72.006 Y385.588 
G01 X71.933 Y384.785 
G01 X71.930 Y383.876 
G01 X71.998 Y382.965 
G01 X72.150 Y381.970 
G01 X72.375 Y380.981 
G01 X72.689 Y379.935 
G01 X73.090 Y378.869 
G01 X73.528 Y377.908 
G01 X73.876 Y377.252 
G01 X73.989 Y377.090 
G01 X74.156 Y376.956 
G01 X74.364 Y376.874 
G01 X74.589 Y376.858 
G01 X74.807 Y376.909 
G01 X75.048 Y377.050 
G01 X75.242 Y377.221 
G01 X75.347 Y377.393 
G01 X75.402 Y377.588 
G01 X75.402 Y377.790 
G01 X75.346 Y377.987 
G01 X74.929 Y378.725 
G01 X74.546 Y379.572 
G01 X74.204 Y380.522 
G01 X73.940 Y381.454 
G01 X73.734 Y382.429 
G01 X73.616 Y383.319 
G01 X73.573 Y384.164 
G01 X73.605 Y384.927 
G01 X73.697 Y385.601 
G01 X73.854 Y386.253 
G01 X74.081 Y386.874 
G01 X74.344 Y387.393 
G01 X74.666 Y387.875 
G01 X75.000 Y388.262 
G01 X75.386 Y388.608 
G01 X75.830 Y388.907 
G01 X76.255 Y389.113 
G01 X76.717 Y389.262 
G01 X77.204 Y389.345 
G01 X77.698 Y389.355 
G01 X78.187 Y389.296 
G01 X78.653 Y389.176 
G01 X79.160 Y388.973 
G01 X79.695 Y388.679 
G01 X80.255 Y388.285 
G01 X80.907 Y387.723 
G01 X81.669 Y386.951 
G01 X82.624 Y385.850 
G01 X83.890 Y384.248 
G01 X85.634 Y381.888 
G01 X87.252 Y379.581 
G01 X88.874 Y377.114 
G01 X96.397 Y365.348 
G01 X96.555 Y365.201 
G01 X96.746 Y365.107 
G01 X96.957 Y365.071 
G01 X97.168 Y365.096 
G01 X97.304 Y365.149 
G01 X97.573 Y365.321 
G01 X97.721 Y365.479 
G01 X97.814 Y365.670 
G01 X97.850 Y365.881 
G01 X97.825 Y366.092 
G01 X97.773 Y366.227 
G01 X89.896 Y378.554 
G01 X88.254 Y381.002 
G00 Z33.080
G00 X76.574 Y406.126  F4000.0
G01 Z7.500 F1200.0 M3
G01 X76.310 Y406.088  F2000.0
G01 X76.086 Y405.979 
G01 X75.896 Y405.806 
G01 X75.765 Y405.591 
G01 X75.702 Y405.346 
G01 X75.716 Y405.068 
G01 X75.801 Y404.834 
G01 X75.954 Y404.630 
G01 X76.158 Y404.477 
G01 X76.391 Y404.392 
G01 X76.670 Y404.379 
G01 X76.915 Y404.441 
G01 X77.130 Y404.572 
G01 X77.303 Y404.762 
G01 X77.411 Y404.987 
G01 X77.450 Y405.250 
G01 X77.411 Y405.514 
G01 X77.303 Y405.738 
G01 X77.130 Y405.928 
G01 X76.915 Y406.059 
G01 X76.670 Y406.122 
G01 X76.574 Y406.126 
G01 X76.574 Y408.530  
G01 X76.236 Y408.512  
G01 X75.910 Y408.463 
G01 X75.597 Y408.382 
G01 X75.297 Y408.273 
G01 X75.012 Y408.135 
G01 X74.741 Y407.971 
G01 X74.488 Y407.782 
G01 X74.255 Y407.569 
G01 X74.042 Y407.336 
G01 X73.853 Y407.083 
G01 X73.689 Y406.812 
G01 X73.551 Y406.527 
G01 X73.442 Y406.227 
G01 X73.361 Y405.914 
G01 X73.312 Y405.588 
G01 X73.294 Y405.250 
G01 X73.312 Y404.912 
G01 X73.361 Y404.586 
G01 X73.442 Y404.274 
G01 X73.551 Y403.974 
G01 X73.689 Y403.688 
G01 X73.853 Y403.418 
G01 X74.042 Y403.165 
G01 X74.255 Y402.931 
G01 X74.488 Y402.719 
G01 X74.741 Y402.529 
G01 X75.012 Y402.365 
G01 X75.297 Y402.228 
G01 X75.597 Y402.118 
G01 X75.910 Y402.037 
G01 X76.236 Y401.988 
G01 X76.574 Y401.971 
G01 X76.912 Y401.988 
G01 X77.238 Y402.037 
G01 X77.550 Y402.118 
G01 X77.850 Y402.228 
G01 X78.136 Y402.365 
G01 X78.406 Y402.529 
G01 X78.659 Y402.719 
G01 X78.893 Y402.931 
G01 X79.105 Y403.165 
G01 X79.295 Y403.418 
G01 X79.459 Y403.688 
G01 X79.596 Y403.974 
G01 X79.706 Y404.274 
G01 X79.787 Y404.586 
G01 X79.836 Y404.912 
G01 X79.853 Y405.250 
G01 X79.836 Y405.588 
G01 X79.787 Y405.914 
G01 X79.706 Y406.227 
G01 X79.596 Y406.527 
G01 X79.459 Y406.812 
G01 X79.295 Y407.083 
G01 X79.105 Y407.336 
G01 X78.893 Y407.569 
G01 X78.659 Y407.782 
G01 X78.406 Y407.971 
G01 X78.136 Y408.135 
G01 X77.850 Y408.273 
G01 X77.550 Y408.382 
G01 X77.238 Y408.463 
G01 X76.912 Y408.512 
G01 X76.574 Y408.530 
G00 Z33.080
G00 X47.624 Y379.403  F4000.0
G01 Z7.500 F1200.0 M3
G01 X47.360 Y379.364  F2000.0
G01 X47.136 Y379.256 
G01 X46.945 Y379.083 
G01 X46.814 Y378.868 
G01 X46.752 Y378.623 
G01 X46.765 Y378.344 
G01 X46.850 Y378.111 
G01 X47.003 Y377.907 
G01 X47.208 Y377.754 
G01 X47.441 Y377.668 
G01 X47.720 Y377.655 
G01 X47.965 Y377.717 
G01 X48.180 Y377.849 
G01 X48.353 Y378.039 
G01 X48.461 Y378.263 
G01 X48.500 Y378.527 
G01 X48.461 Y378.790 
G01 X48.353 Y379.015 
G01 X48.180 Y379.205 
G01 X47.965 Y379.336 
G01 X47.720 Y379.398 
G01 X47.624 Y379.403 
G01 X47.624 Y381.806  
G01 X47.285 Y381.789  
G01 X46.960 Y381.740 
G01 X46.647 Y381.659 
G01 X46.347 Y381.549 
G01 X46.061 Y381.412 
G01 X45.791 Y381.247 
G01 X45.538 Y381.058 
G01 X45.304 Y380.846 
G01 X45.092 Y380.612 
G01 X44.903 Y380.359 
G01 X44.739 Y380.089 
G01 X44.601 Y379.803 
G01 X44.491 Y379.503 
G01 X44.411 Y379.190 
G01 X44.361 Y378.865 
G01 X44.344 Y378.527 
G01 X44.361 Y378.188 
G01 X44.411 Y377.863 
G01 X44.491 Y377.550 
G01 X44.601 Y377.250 
G01 X44.739 Y376.964 
G01 X44.903 Y376.694 
G01 X45.092 Y376.441 
G01 X45.304 Y376.208 
G01 X45.538 Y375.995 
G01 X45.791 Y375.806 
G01 X46.061 Y375.642 
G01 X46.347 Y375.504 
G01 X46.647 Y375.394 
G01 X46.960 Y375.314 
G01 X47.285 Y375.264 
G01 X47.624 Y375.247 
G01 X47.962 Y375.264 
G01 X48.287 Y375.314 
G01 X48.600 Y375.394 
G01 X48.900 Y375.504 
G01 X49.186 Y375.642 
G01 X49.456 Y375.806 
G01 X49.709 Y375.995 
G01 X49.943 Y376.208 
G01 X50.155 Y376.441 
G01 X50.344 Y376.694 
G01 X50.508 Y376.964 
G01 X50.646 Y377.250 
G01 X50.756 Y377.550 
G01 X50.836 Y377.863 
G01 X50.886 Y378.188 
G01 X50.903 Y378.527 
G01 X50.886 Y378.865 
G01 X50.836 Y379.190 
G01 X50.756 Y379.503 
G01 X50.646 Y379.803 
G01 X50.508 Y380.089 
G01 X50.344 Y380.359 
G01 X50.155 Y380.612 
G01 X49.943 Y380.846 
G01 X49.709 Y381.058 
G01 X49.456 Y381.247 
G01 X49.186 Y381.412 
G01 X48.900 Y381.549 
G01 X48.600 Y381.659 
G01 X48.287 Y381.740 
G01 X47.962 Y381.789 
G01 X47.624 Y381.806 
G00 Z33.080
G00 X130.830 Y420.298  F4000.0
G01 Z7.500 F1200.0 M3
G01 X130.567 Y420.259  F2000.0
G01 X130.343 Y420.151 
G01 X130.152 Y419.978 
G01 X130.021 Y419.763 
G01 X129.959 Y419.518 
G01 X129.972 Y419.239 
G01 X130.057 Y419.006 
G01 X130.210 Y418.801 
G01 X130.415 Y418.648 
G01 X130.648 Y418.563 
G01 X130.927 Y418.550 
G01 X131.171 Y418.612 
G01 X131.387 Y418.743 
G01 X131.560 Y418.934 
G01 X131.668 Y419.158 
G01 X131.707 Y419.422 
G01 X131.668 Y419.685 
G01 X131.560 Y419.909 
G01 X131.387 Y420.100 
G01 X131.171 Y420.231 
G01 X130.927 Y420.293 
G01 X130.830 Y420.298 
G01 X130.830 Y422.701  
G01 X130.492 Y422.684  
G01 X130.167 Y422.634 
G01 X129.854 Y422.554 
G01 X129.554 Y422.444 
G01 X129.268 Y422.306 
G01 X128.998 Y422.142 
G01 X128.745 Y421.953 
G01 X128.511 Y421.741 
G01 X128.299 Y421.507 
G01 X128.110 Y421.254 
G01 X127.946 Y420.984 
G01 X127.808 Y420.698 
G01 X127.698 Y420.398 
G01 X127.618 Y420.085 
G01 X127.568 Y419.760 
G01 X127.551 Y419.422 
G01 X127.568 Y419.083 
G01 X127.618 Y418.758 
G01 X127.698 Y418.445 
G01 X127.808 Y418.145 
G01 X127.946 Y417.859 
G01 X128.110 Y417.589 
G01 X128.299 Y417.336 
G01 X128.511 Y417.102 
G01 X128.745 Y416.890 
G01 X128.998 Y416.701 
G01 X129.268 Y416.537 
G01 X129.554 Y416.399 
G01 X129.854 Y416.289 
G01 X130.167 Y416.209 
G01 X130.492 Y416.159 
G01 X130.830 Y416.142 
G01 X131.169 Y416.159 
G01 X131.494 Y416.209 
G01 X131.807 Y416.289 
G01 X132.107 Y416.399 
G01 X132.393 Y416.537 
G01 X132.663 Y416.701 
G01 X132.916 Y416.890 
G01 X133.150 Y417.102 
G01 X133.362 Y417.336 
G01 X133.551 Y417.589 
G01 X133.715 Y417.859 
G01 X133.853 Y418.145 
G01 X133.963 Y418.445 
G01 X134.043 Y418.758 
G01 X134.093 Y419.083 
G01 X134.110 Y419.422 
G01 X134.093 Y419.760 
G01 X134.043 Y420.085 
G01 X133.963 Y420.398 
G01 X133.853 Y420.698 
G01 X133.715 Y420.984 
G01 X133.551 Y421.254 
G01 X133.362 Y421.507 
G01 X133.150 Y421.741 
G01 X132.916 Y421.953 
G01 X132.663 Y422.142 
G01 X132.393 Y422.306 
G01 X132.107 Y422.444 
G01 X131.807 Y422.554 
G01 X131.494 Y422.634 
G01 X131.169 Y422.684 
G01 X130.830 Y422.701 
G00 Z33.080
G00 X124.680 Y464.985  F4000.0
G01 Z7.500 F1200.0 M3
G01 X124.416 Y464.946  F2000.0
G01 X124.192 Y464.838 
G01 X124.001 Y464.665 
G01 X123.870 Y464.449 
G01 X123.808 Y464.204 
G01 X123.821 Y463.926 
G01 X123.906 Y463.692 
G01 X124.060 Y463.488 
G01 X124.264 Y463.335 
G01 X124.497 Y463.250 
G01 X124.776 Y463.237 
G01 X125.021 Y463.299 
G01 X125.236 Y463.430 
G01 X125.409 Y463.620 
G01 X125.517 Y463.845 
G01 X125.556 Y464.108 
G01 X125.517 Y464.372 
G01 X125.409 Y464.596 
G01 X125.236 Y464.786 
G01 X125.021 Y464.917 
G01 X124.776 Y464.980 
G01 X124.680 Y464.985 
G01 X124.680 Y467.388  
G01 X124.341 Y467.371  
G01 X124.016 Y467.321 
G01 X123.703 Y467.241 
G01 X123.403 Y467.131 
G01 X123.117 Y466.993 
G01 X122.847 Y466.829 
G01 X122.594 Y466.640 
G01 X122.361 Y466.427 
G01 X122.148 Y466.194 
G01 X121.959 Y465.941 
G01 X121.795 Y465.671 
G01 X121.657 Y465.385 
G01 X121.547 Y465.085 
G01 X121.467 Y464.772 
G01 X121.417 Y464.446 
G01 X121.400 Y464.108 
G01 X121.417 Y463.770 
G01 X121.467 Y463.445 
G01 X121.547 Y463.132 
G01 X121.657 Y462.832 
G01 X121.795 Y462.546 
G01 X121.959 Y462.276 
G01 X122.148 Y462.023 
G01 X122.361 Y461.789 
G01 X122.594 Y461.577 
G01 X122.847 Y461.388 
G01 X123.117 Y461.223 
G01 X123.403 Y461.086 
G01 X123.703 Y460.976 
G01 X124.016 Y460.895 
G01 X124.341 Y460.846 
G01 X124.680 Y460.829 
G01 X125.018 Y460.846 
G01 X125.343 Y460.895 
G01 X125.656 Y460.976 
G01 X125.956 Y461.086 
G01 X126.242 Y461.223 
G01 X126.512 Y461.388 
G01 X126.765 Y461.577 
G01 X126.999 Y461.789 
G01 X127.211 Y462.023 
G01 X127.400 Y462.276 
G01 X127.564 Y462.546 
G01 X127.702 Y462.832 
G01 X127.812 Y463.132 
G01 X127.892 Y463.445 
G01 X127.942 Y463.770 
G01 X127.959 Y464.108 
G01 X127.942 Y464.446 
G01 X127.892 Y464.772 
G01 X127.812 Y465.085 
G01 X127.702 Y465.385 
G01 X127.564 Y465.671 
G01 X127.400 Y465.941 
G01 X127.211 Y466.194 
G01 X126.999 Y466.427 
G01 X126.765 Y466.640 
G01 X126.512 Y466.829 
G01 X126.242 Y466.993 
G01 X125.956 Y467.131 
G01 X125.656 Y467.241 
G01 X125.343 Y467.321 
G01 X125.018 Y467.371 
G01 X124.680 Y467.388 
G00 Z33.080
G00 X94.997 Y485.082  F4000.0
G01 Z7.500 F1200.0 M3
G01 X94.733 Y485.043  F2000.0
G01 X94.509 Y484.935 
G01 X94.319 Y484.762 
G01 X94.188 Y484.546 
G01 X94.125 Y484.302 
G01 X94.138 Y484.023 
G01 X94.224 Y483.790 
G01 X94.377 Y483.585 
G01 X94.581 Y483.432 
G01 X94.814 Y483.347 
G01 X95.093 Y483.334 
G01 X95.338 Y483.396 
G01 X95.553 Y483.527 
G01 X95.726 Y483.718 
G01 X95.834 Y483.942 
G01 X95.873 Y484.206 
G01 X95.834 Y484.469 
G01 X95.726 Y484.693 
G01 X95.553 Y484.884 
G01 X95.338 Y485.015 
G01 X95.093 Y485.077 
G01 X94.997 Y485.082 
G01 X94.997 Y487.485  
G01 X94.659 Y487.468  
G01 X94.333 Y487.418 
G01 X94.020 Y487.338 
G01 X93.720 Y487.228 
G01 X93.435 Y487.090 
G01 X93.164 Y486.926 
G01 X92.911 Y486.737 
G01 X92.678 Y486.525 
G01 X92.465 Y486.291 
G01 X92.276 Y486.038 
G01 X92.112 Y485.768 
G01 X91.974 Y485.482 
G01 X91.865 Y485.182 
G01 X91.784 Y484.869 
G01 X91.734 Y484.544 
G01 X91.717 Y484.206 
G01 X91.734 Y483.867 
G01 X91.784 Y483.542 
G01 X91.865 Y483.229 
G01 X91.974 Y482.929 
G01 X92.112 Y482.643 
G01 X92.276 Y482.373 
G01 X92.465 Y482.120 
G01 X92.678 Y481.886 
G01 X92.911 Y481.674 
G01 X93.164 Y481.485 
G01 X93.435 Y481.321 
G01 X93.720 Y481.183 
G01 X94.020 Y481.073 
G01 X94.333 Y480.993 
G01 X94.659 Y480.943 
G01 X94.997 Y480.926 
G01 X95.335 Y480.943 
G01 X95.660 Y480.993 
G01 X95.973 Y481.073 
G01 X96.273 Y481.183 
G01 X96.559 Y481.321 
G01 X96.829 Y481.485 
G01 X97.082 Y481.674 
G01 X97.316 Y481.886 
G01 X97.528 Y482.120 
G01 X97.717 Y482.373 
G01 X97.882 Y482.643 
G01 X98.019 Y482.929 
G01 X98.129 Y483.229 
G01 X98.210 Y483.542 
G01 X98.259 Y483.867 
G01 X98.276 Y484.206 
G01 X98.259 Y484.544 
G01 X98.210 Y484.869 
G01 X98.129 Y485.182 
G01 X98.019 Y485.482 
G01 X97.882 Y485.768 
G01 X97.717 Y486.038 
G01 X97.528 Y486.291 
G01 X97.316 Y486.525 
G01 X97.082 Y486.737 
G01 X96.829 Y486.926 
G01 X96.559 Y487.090 
G01 X96.273 Y487.228 
G01 X95.973 Y487.338 
G01 X95.660 Y487.418 
G01 X95.335 Y487.468 
G01 X94.997 Y487.485 
G00 Z33.080
G00 X83.816 Y472.556  F4000.0
G01 Z7.500 F1200.0 M3
G01 X83.147 Y472.534  F2000.0
G01 X82.561 Y472.450 
G01 X81.961 Y472.288 
G01 X81.357 Y472.050 
G01 X80.787 Y471.747 
G01 X80.285 Y471.396 
G01 X79.844 Y470.994 
G01 X79.429 Y470.511 
G01 X79.084 Y469.993 
G01 X78.818 Y469.478 
G01 X78.580 Y468.857 
G01 X78.415 Y468.222 
G01 X78.322 Y467.587 
G01 X78.296 Y466.860 
G01 X78.346 Y466.147 
G01 X78.464 Y465.448 
G01 X78.673 Y464.674 
G01 X78.953 Y463.913 
G01 X79.337 Y463.083 
G01 X79.780 Y462.288 
G01 X80.338 Y461.443 
G01 X81.011 Y460.569 
G01 X81.726 Y459.761 
G01 X82.516 Y458.979 
G01 X83.283 Y458.316 
G01 X83.675 Y458.020 
G01 X83.875 Y457.940 
G01 X84.094 Y457.925 
G01 X84.314 Y457.977 
G01 X84.507 Y458.091 
G01 X84.615 Y458.200 
G01 X84.789 Y458.471 
G01 X84.856 Y458.665 
G01 X84.866 Y458.866 
G01 X84.821 Y459.064 
G01 X84.726 Y459.241 
G01 X84.596 Y459.376 
G01 X83.992 Y459.832 
G01 X83.311 Y460.450 
G01 X82.625 Y461.179 
G01 X81.976 Y461.978 
G01 X81.403 Y462.793 
G01 X80.943 Y463.565 
G01 X80.572 Y464.325 
G01 X80.300 Y465.038 
G01 X80.120 Y465.694 
G01 X80.008 Y466.355 
G01 X79.972 Y467.015 
G01 X80.009 Y467.596 
G01 X80.115 Y468.166 
G01 X80.270 Y468.653 
G01 X80.489 Y469.123 
G01 X80.779 Y469.572 
G01 X81.088 Y469.930 
G01 X81.454 Y470.249 
G01 X81.869 Y470.516 
G01 X82.319 Y470.721 
G01 X82.793 Y470.859 
G01 X83.268 Y470.931 
G01 X83.813 Y470.945 
G01 X84.422 Y470.885 
G01 X85.091 Y470.743 
G01 X85.911 Y470.484 
G01 X86.916 Y470.074 
G01 X88.228 Y469.438 
G01 X90.023 Y468.464 
G01 X92.555 Y466.982 
G01 X94.950 Y465.498 
G01 X97.412 Y463.868 
G01 X108.961 Y456.015 
G01 X109.164 Y455.942 
G01 X109.376 Y455.931 
G01 X109.585 Y455.981 
G01 X109.769 Y456.087 
G01 X109.873 Y456.189 
G01 X110.053 Y456.454 
G01 X110.126 Y456.656 
G01 X110.137 Y456.869 
G01 X110.087 Y457.078 
G01 X109.981 Y457.261 
G01 X109.879 Y457.365 
G01 X97.785 Y465.595 
G01 X95.312 Y467.199 
G01 X92.491 Y468.927 
G01 X90.462 Y470.098 
G01 X88.723 Y471.021 
G01 X87.553 Y471.577 
G01 X86.572 Y471.972 
G01 X85.658 Y472.263 
G01 X84.885 Y472.442 
G01 X84.181 Y472.537 
G01 X83.816 Y472.556 
G00 Z33.080
G00 X139.998 Y499.854  F4000.0
G01 Z7.500 F1200.0 M3
G01 X138.085 Y502.553  F2000.0
G01 X136.681 Y504.428 
G01 X135.446 Y505.962 
G01 X134.590 Y506.934 
G01 X133.844 Y507.682 
G01 X133.118 Y508.310 
G01 X132.478 Y508.779 
G01 X131.868 Y509.144 
G01 X131.238 Y509.433 
G01 X130.581 Y509.646 
G01 X129.993 Y509.761 
G01 X129.353 Y509.809 
G01 X128.702 Y509.785 
G01 X128.080 Y509.689 
G01 X127.507 Y509.523 
G01 X126.960 Y509.290 
G01 X126.413 Y508.974 
G01 X125.950 Y508.632 
G01 X125.461 Y508.177 
G01 X125.033 Y507.674 
G01 X124.668 Y507.137 
G01 X124.369 Y506.575 
G01 X124.096 Y505.906 
G01 X123.896 Y505.224 
G01 X123.749 Y504.440 
G01 X123.677 Y503.636 
G01 X123.674 Y502.728 
G01 X123.741 Y501.817 
G01 X123.893 Y500.821 
G01 X124.118 Y499.832 
G01 X124.433 Y498.786 
G01 X124.834 Y497.721 
G01 X125.271 Y496.759 
G01 X125.619 Y496.104 
G01 X125.733 Y495.942 
G01 X125.899 Y495.807 
G01 X126.107 Y495.726 
G01 X126.332 Y495.709 
G01 X126.551 Y495.760 
G01 X126.792 Y495.902 
G01 X126.986 Y496.073 
G01 X127.091 Y496.244 
G01 X127.145 Y496.440 
G01 X127.146 Y496.641 
G01 X127.090 Y496.838 
G01 X126.673 Y497.576 
G01 X126.289 Y498.423 
G01 X125.947 Y499.373 
G01 X125.683 Y500.306 
G01 X125.478 Y501.281 
G01 X125.359 Y502.171 
G01 X125.317 Y503.016 
G01 X125.348 Y503.779 
G01 X125.440 Y504.453 
G01 X125.598 Y505.104 
G01 X125.825 Y505.725 
G01 X126.087 Y506.244 
G01 X126.410 Y506.727 
G01 X126.744 Y507.113 
G01 X127.130 Y507.459 
G01 X127.573 Y507.758 
G01 X127.999 Y507.964 
G01 X128.461 Y508.114 
G01 X128.947 Y508.196 
G01 X129.442 Y508.207 
G01 X129.931 Y508.148 
G01 X130.397 Y508.027 
G01 X130.903 Y507.825 
G01 X131.439 Y507.530 
G01 X131.998 Y507.136 
G01 X132.650 Y506.575 
G01 X133.412 Y505.802 
G01 X134.368 Y504.702 
G01 X135.634 Y503.099 
G01 X137.378 Y500.740 
G01 X138.996 Y498.432 
G01 X140.617 Y495.965 
G01 X148.141 Y484.199 
G01 X148.298 Y484.052 
G01 X148.489 Y483.958 
G01 X148.701 Y483.922 
G01 X148.912 Y483.948 
G01 X149.047 Y484.000 
G01 X149.317 Y484.173 
G01 X149.464 Y484.330 
G01 X149.558 Y484.521 
G01 X149.594 Y484.733 
G01 X149.569 Y484.943 
G01 X149.516 Y485.079 
G01 X141.639 Y497.405 
G01 X139.998 Y499.854 
G00 Z33.080
G00 X163.425 Y482.045  F4000.0
G01 Z7.500 F1200.0 M3
G01 X163.161 Y482.006  F2000.0
G01 X162.937 Y481.898 
G01 X162.747 Y481.725 
G01 X162.616 Y481.510 
G01 X162.553 Y481.265 
G01 X162.567 Y480.986 
G01 X162.652 Y480.753 
G01 X162.805 Y480.549 
G01 X163.009 Y480.396 
G01 X163.242 Y480.310 
G01 X163.521 Y480.297 
G01 X163.766 Y480.360 
G01 X163.981 Y480.491 
G01 X164.154 Y480.681 
G01 X164.262 Y480.905 
G01 X164.301 Y481.169 
G01 X164.262 Y481.432 
G01 X164.154 Y481.657 
G01 X163.981 Y481.847 
G01 X163.766 Y481.978 
G01 X163.521 Y482.040 
G01 X163.425 Y482.045 
G01 X163.425 Y484.448  
G01 X163.087 Y484.431  
G01 X162.761 Y484.382 
G01 X162.448 Y484.301 
G01 X162.148 Y484.191 
G01 X161.863 Y484.054 
G01 X161.592 Y483.889 
G01 X161.339 Y483.700 
G01 X161.106 Y483.488 
G01 X160.893 Y483.254 
G01 X160.704 Y483.001 
G01 X160.540 Y482.731 
G01 X160.402 Y482.445 
G01 X160.293 Y482.145 
G01 X160.212 Y481.832 
G01 X160.163 Y481.507 
G01 X160.145 Y481.169 
G01 X160.163 Y480.831 
G01 X160.212 Y480.505 
G01 X160.293 Y480.192 
G01 X160.402 Y479.892 
G01 X160.540 Y479.606 
G01 X160.704 Y479.336 
G01 X160.893 Y479.083 
G01 X161.106 Y478.850 
G01 X161.339 Y478.637 
G01 X161.592 Y478.448 
G01 X161.863 Y478.284 
G01 X162.148 Y478.146 
G01 X162.448 Y478.036 
G01 X162.761 Y477.956 
G01 X163.087 Y477.906 
G01 X163.425 Y477.889 
G01 X163.763 Y477.906 
G01 X164.089 Y477.956 
G01 X164.401 Y478.036 
G01 X164.701 Y478.146 
G01 X164.987 Y478.284 
G01 X165.257 Y478.448 
G01 X165.510 Y478.637 
G01 X165.744 Y478.850 
G01 X165.956 Y479.083 
G01 X166.146 Y479.336 
G01 X166.310 Y479.606 
G01 X166.447 Y479.892 
G01 X166.557 Y480.192 
G01 X166.638 Y480.505 
G01 X166.687 Y480.831 
G01 X166.704 Y481.169 
G01 X166.687 Y481.507 
G01 X166.638 Y481.832 
G01 X166.557 Y482.145 
G01 X166.447 Y482.445 
G01 X166.310 Y482.731 
G01 X166.146 Y483.001 
G01 X165.956 Y483.254 
G01 X165.744 Y483.488 
G01 X165.510 Y483.700 
G01 X165.257 Y483.889 
G01 X164.987 Y484.054 
G01 X164.701 Y484.191 
G01 X164.401 Y484.301 
G01 X164.089 Y484.382 
G01 X163.763 Y484.431 
G01 X163.425 Y484.448 
G00 Z33.080
G00 X171.127 Y456.082  F4000.0
G01 Z7.500 F1200.0 M3
G03 X173.891 Y455.807 I3.793 J24.039
G01 X174.099 Y455.787  F2000.0
G03 X174.662 Y457.843 I0.157 J1.062
G01 X174.290 Y458.043  
G03 X172.525 Y459.089 I-8.908 J-13.030
G02 X133.966 Y476.703 I60.087 J182.544
G02 X106.045 Y495.992 I104.037 J180.445
G02 X103.975 Y494.205 I-22.868 J24.391
G03 X171.127 Y456.082 I138.582 J165.905
G00 Z33.080
G00 X174.762 Y425.562  F4000.0
G01 Z7.500 F1200.0 M3
G01 X174.499 Y425.523  F2000.0
G01 X174.274 Y425.415 
G01 X174.084 Y425.242 
G01 X173.953 Y425.026 
G01 X173.891 Y424.781 
G01 X173.904 Y424.503 
G01 X173.989 Y424.270 
G01 X174.142 Y424.065 
G01 X174.346 Y423.912 
G01 X174.580 Y423.827 
G01 X174.858 Y423.814 
G01 X175.103 Y423.876 
G01 X175.318 Y424.007 
G01 X175.492 Y424.197 
G01 X175.600 Y424.422 
G01 X175.639 Y424.685 
G01 X175.600 Y424.949 
G01 X175.492 Y425.173 
G01 X175.318 Y425.363 
G01 X175.103 Y425.495 
G01 X174.858 Y425.557 
G01 X174.762 Y425.562 
G01 X174.762 Y427.965  
G01 X174.424 Y427.948  
G01 X174.098 Y427.898 
G01 X173.786 Y427.818 
G01 X173.486 Y427.708 
G01 X173.200 Y427.570 
G01 X172.930 Y427.406 
G01 X172.677 Y427.217 
G01 X172.443 Y427.004 
G01 X172.231 Y426.771 
G01 X172.041 Y426.518 
G01 X171.877 Y426.248 
G01 X171.740 Y425.962 
G01 X171.630 Y425.662 
G01 X171.549 Y425.349 
G01 X171.500 Y425.024 
G01 X171.483 Y424.685 
G01 X171.500 Y424.347 
G01 X171.549 Y424.022 
G01 X171.630 Y423.709 
G01 X171.740 Y423.409 
G01 X171.877 Y423.123 
G01 X172.041 Y422.853 
G01 X172.231 Y422.600 
G01 X172.443 Y422.366 
G01 X172.677 Y422.154 
G01 X172.930 Y421.965 
G01 X173.200 Y421.800 
G01 X173.486 Y421.663 
G01 X173.786 Y421.553 
G01 X174.098 Y421.473 
G01 X174.424 Y421.423 
G01 X174.762 Y421.406 
G01 X175.100 Y421.423 
G01 X175.426 Y421.473 
G01 X175.739 Y421.553 
G01 X176.039 Y421.663 
G01 X176.324 Y421.800 
G01 X176.595 Y421.965 
G01 X176.848 Y422.154 
G01 X177.081 Y422.366 
G01 X177.294 Y422.600 
G01 X177.483 Y422.853 
G01 X177.647 Y423.123 
G01 X177.785 Y423.409 
G01 X177.894 Y423.709 
G01 X177.975 Y424.022 
G01 X178.025 Y424.347 
G01 X178.042 Y424.685 
G01 X178.025 Y425.024 
G01 X177.975 Y425.349 
G01 X177.894 Y425.662 
G01 X177.785 Y425.962 
G01 X177.647 Y426.248 
G01 X177.483 Y426.518 
G01 X177.294 Y426.771 
G01 X177.081 Y427.004 
G01 X176.848 Y427.217 
G01 X176.595 Y427.406 
G01 X176.324 Y427.570 
G01 X176.039 Y427.708 
G01 X175.739 Y427.818 
G01 X175.426 Y427.898 
G01 X175.100 Y427.948 
G01 X174.762 Y427.965 
G00 Z33.080
G00 X175.997 Y404.932  F4000.0
G01 Z7.500 F1200.0 M3
G01 X174.084 Y407.632  F2000.0
G01 X172.680 Y409.506 
G01 X171.445 Y411.040 
G01 X170.589 Y412.012 
G01 X169.843 Y412.761 
G01 X169.117 Y413.388 
G01 X168.477 Y413.858 
G01 X167.867 Y414.222 
G01 X167.237 Y414.511 
G01 X166.580 Y414.725 
G01 X165.992 Y414.839 
G01 X165.352 Y414.888 
G01 X164.701 Y414.864 
G01 X164.079 Y414.767 
G01 X163.506 Y414.602 
G01 X162.959 Y414.368 
G01 X162.412 Y414.053 
G01 X161.949 Y413.710 
G01 X161.460 Y413.255 
G01 X161.032 Y412.752 
G01 X160.667 Y412.215 
G01 X160.368 Y411.653 
G01 X160.095 Y410.985 
G01 X159.896 Y410.303 
G01 X159.748 Y409.518 
G01 X159.676 Y408.715 
G01 X159.673 Y407.806 
G01 X159.740 Y406.895 
G01 X159.892 Y405.899 
G01 X160.117 Y404.911 
G01 X160.432 Y403.864 
G01 X160.833 Y402.799 
G01 X161.270 Y401.838 
G01 X161.618 Y401.182 
G01 X161.732 Y401.020 
G01 X161.898 Y400.886 
G01 X162.106 Y400.804 
G01 X162.332 Y400.787 
G01 X162.550 Y400.839 
G01 X162.791 Y400.980 
G01 X162.985 Y401.151 
G01 X163.090 Y401.323 
G01 X163.144 Y401.518 
G01 X163.145 Y401.720 
G01 X163.089 Y401.916 
G01 X162.672 Y402.655 
G01 X162.289 Y403.502 
G01 X161.946 Y404.452 
G01 X161.683 Y405.384 
G01 X161.477 Y406.359 
G01 X161.358 Y407.249 
G01 X161.316 Y408.094 
G01 X161.347 Y408.857 
G01 X161.439 Y409.531 
G01 X161.597 Y410.183 
G01 X161.824 Y410.804 
G01 X162.086 Y411.323 
G01 X162.409 Y411.805 
G01 X162.743 Y412.191 
G01 X163.129 Y412.538 
G01 X163.572 Y412.836 
G01 X163.998 Y413.043 
G01 X164.460 Y413.192 
G01 X164.947 Y413.275 
G01 X165.441 Y413.285 
G01 X165.930 Y413.226 
G01 X166.396 Y413.106 
G01 X166.902 Y412.903 
G01 X167.438 Y412.609 
G01 X167.997 Y412.214 
G01 X168.649 Y411.653 
G01 X169.411 Y410.881 
G01 X170.367 Y409.780 
G01 X171.633 Y408.178 
G01 X173.377 Y405.818 
G01 X174.995 Y403.511 
G01 X176.616 Y401.044 
G01 X184.140 Y389.278 
G01 X184.297 Y389.130 
G01 X184.488 Y389.037 
G01 X184.700 Y389.001 
G01 X184.911 Y389.026 
G01 X185.046 Y389.078 
G01 X185.316 Y389.251 
G01 X185.463 Y389.409 
G01 X185.557 Y389.600 
G01 X185.593 Y389.811 
G01 X185.568 Y390.022 
G01 X185.515 Y390.157 
G01 X177.638 Y402.484 
G01 X175.997 Y404.932 
G00 Z33.080
G00 X190.925 Y376.957  F4000.0
G01 Z7.500 F1200.0 M3
G02 X149.757 Y387.733 I27.781 J190.160
G02 X110.229 Y406.970 I91.854 J238.974
G02 X82.972 Y427.411 I83.735 J140.047
G03 X82.763 Y426.936 I0.516 J-0.511
G02 X82.276 Y425.726 I-1.997 J0.101
G03 X115.045 Y401.110 I129.033 J137.649
G03 X190.090 Y373.749 I110.295 J185.915
G03 X200.923 Y372.621 I14.780 J89.422
G03 X201.074 Y374.741 I-0.078 J1.071
G01 X200.943 Y374.775  F2000.0
G03 X190.925 Y376.957 I-20.697 J-70.920
G00 Z33.080
G00 X114.027 Y537.719  F4000.0
G01 Z7.500 F1200.0 M3
G01 X113.764 Y537.680  F2000.0
G01 X113.539 Y537.572 
G01 X113.349 Y537.399 
G01 X113.218 Y537.183 
G01 X113.156 Y536.939 
G01 X113.169 Y536.660 
G01 X113.254 Y536.427 
G01 X113.407 Y536.222 
G01 X113.611 Y536.069 
G01 X113.845 Y535.984 
G01 X114.123 Y535.971 
G01 X114.368 Y536.033 
G01 X114.583 Y536.164 
G01 X114.757 Y536.355 
G01 X114.865 Y536.579 
G01 X114.904 Y536.843 
G01 X114.865 Y537.106 
G01 X114.757 Y537.330 
G01 X114.583 Y537.521 
G01 X114.368 Y537.652 
G01 X114.123 Y537.714 
G01 X114.027 Y537.719 
G01 X114.027 Y540.122  
G01 X113.689 Y540.105  
G01 X113.364 Y540.055 
G01 X113.051 Y539.975 
G01 X112.751 Y539.865 
G01 X112.465 Y539.727 
G01 X112.195 Y539.563 
G01 X111.942 Y539.374 
G01 X111.708 Y539.162 
G01 X111.496 Y538.928 
G01 X111.307 Y538.675 
G01 X111.142 Y538.405 
G01 X111.005 Y538.119 
G01 X110.895 Y537.819 
G01 X110.814 Y537.506 
G01 X110.765 Y537.181 
G01 X110.748 Y536.843 
G01 X110.765 Y536.504 
G01 X110.814 Y536.179 
G01 X110.895 Y535.866 
G01 X111.005 Y535.566 
G01 X111.142 Y535.280 
G01 X111.307 Y535.010 
G01 X111.496 Y534.757 
G01 X111.708 Y534.523 
G01 X111.942 Y534.311 
G01 X112.195 Y534.122 
G01 X112.465 Y533.958 
G01 X112.751 Y533.820 
G01 X113.051 Y533.710 
G01 X113.364 Y533.630 
G01 X113.689 Y533.580 
G01 X114.027 Y533.563 
G01 X114.365 Y533.580 
G01 X114.691 Y533.630 
G01 X115.004 Y533.710 
G01 X115.304 Y533.820 
G01 X115.589 Y533.958 
G01 X115.860 Y534.122 
G01 X116.113 Y534.311 
G01 X116.346 Y534.523 
G01 X116.559 Y534.757 
G01 X116.748 Y535.010 
G01 X116.912 Y535.280 
G01 X117.050 Y535.566 
G01 X117.159 Y535.866 
G01 X117.240 Y536.179 
G01 X117.290 Y536.504 
G01 X117.307 Y536.843 
G01 X117.290 Y537.181 
G01 X117.240 Y537.506 
G01 X117.159 Y537.819 
G01 X117.050 Y538.119 
G01 X116.912 Y538.405 
G01 X116.748 Y538.675 
G01 X116.559 Y538.928 
G01 X116.346 Y539.162 
G01 X116.113 Y539.374 
G01 X115.860 Y539.563 
G01 X115.589 Y539.727 
G01 X115.304 Y539.865 
G01 X115.004 Y539.975 
G01 X114.691 Y540.055 
G01 X114.365 Y540.105 
G01 X114.027 Y540.122 
G00 Z33.080
G00 X139.998 Y548.245  F4000.0
G01 Z7.500 F1200.0 M3
G01 X138.085 Y550.945  F2000.0
G01 X136.681 Y552.819 
G01 X135.446 Y554.353 
G01 X134.590 Y555.325 
G01 X133.844 Y556.074 
G01 X133.118 Y556.701 
G01 X132.478 Y557.171 
G01 X131.868 Y557.535 
G01 X131.238 Y557.824 
G01 X130.581 Y558.038 
G01 X129.993 Y558.152 
G01 X129.353 Y558.201 
G01 X128.702 Y558.177 
G01 X128.080 Y558.080 
G01 X127.507 Y557.915 
G01 X126.960 Y557.681 
G01 X126.413 Y557.366 
G01 X125.950 Y557.023 
G01 X125.461 Y556.568 
G01 X125.033 Y556.065 
G01 X124.668 Y555.529 
G01 X124.369 Y554.966 
G01 X124.096 Y554.298 
G01 X123.896 Y553.616 
G01 X123.749 Y552.831 
G01 X123.677 Y552.028 
G01 X123.674 Y551.119 
G01 X123.741 Y550.208 
G01 X123.893 Y549.212 
G01 X124.118 Y548.224 
G01 X124.433 Y547.177 
G01 X124.834 Y546.112 
G01 X125.271 Y545.151 
G01 X125.619 Y544.495 
G01 X125.733 Y544.333 
G01 X125.899 Y544.199 
G01 X126.107 Y544.117 
G01 X126.332 Y544.100 
G01 X126.551 Y544.152 
G01 X126.792 Y544.293 
G01 X126.986 Y544.464 
G01 X127.091 Y544.636 
G01 X127.145 Y544.831 
G01 X127.146 Y545.033 
G01 X127.090 Y545.229 
G01 X126.673 Y545.968 
G01 X126.289 Y546.815 
G01 X125.947 Y547.765 
G01 X125.683 Y548.697 
G01 X125.478 Y549.672 
G01 X125.359 Y550.562 
G01 X125.317 Y551.407 
G01 X125.348 Y552.170 
G01 X125.440 Y552.844 
G01 X125.598 Y553.496 
G01 X125.825 Y554.117 
G01 X126.087 Y554.636 
G01 X126.410 Y555.118 
G01 X126.744 Y555.504 
G01 X127.130 Y555.851 
G01 X127.573 Y556.149 
G01 X127.999 Y556.356 
G01 X128.461 Y556.505 
G01 X128.947 Y556.588 
G01 X129.442 Y556.598 
G01 X129.931 Y556.539 
G01 X130.397 Y556.419 
G01 X130.903 Y556.216 
G01 X131.439 Y555.922 
G01 X131.998 Y555.527 
G01 X132.650 Y554.966 
G01 X133.412 Y554.194 
G01 X134.368 Y553.093 
G01 X135.634 Y551.491 
G01 X137.378 Y549.131 
G01 X138.996 Y546.824 
G01 X140.617 Y544.357 
G01 X148.141 Y532.591 
G01 X148.298 Y532.443 
G01 X148.489 Y532.350 
G01 X148.701 Y532.314 
G01 X148.912 Y532.339 
G01 X149.047 Y532.392 
G01 X149.317 Y532.564 
G01 X149.464 Y532.722 
G01 X149.558 Y532.913 
G01 X149.594 Y533.124 
G01 X149.569 Y533.335 
G01 X149.516 Y533.470 
G01 X141.639 Y545.797 
G01 X139.998 Y548.245 
G00 Z33.080
G00 X349.583 Y112.005  F4000.0
G01 Z7.500 F1200.0 M3
G01 X348.953 Y112.423  F2000.0
G01 X348.836 Y112.644 
G03 X347.944 Y112.642 I-0.445 J-0.239
G01 X347.783 Y112.333  
G01 X347.091 Y111.787 
G01 X347.783 Y112.333 
G02 X348.953 Y112.423 I1.080 J-6.453
G01 X349.583 Y112.005  
G01 X350.951 Y113.778  
G03 X345.823 Y113.765 I-2.561 J-1.372
G03 X343.071 Y106.570 I28.073 J-14.862
G03 X340.988 Y97.430 I229.861 J-57.176
G01 X341.260 Y97.350  
G03 X341.997 Y97.629 I0.209 J0.560
G02 X345.148 Y107.714 I20.627 J-0.910
G02 X352.639 Y107.586 I3.715 J-1.834
G03 X356.509 Y101.278 I32.805 J15.784
G01 X356.644 Y101.077  
G03 X359.714 Y101.346 I1.471 J0.864
G01 X359.773 Y101.488  
G02 X363.254 Y108.796 I316.156 J-146.122
G02 X371.721 Y108.197 I4.129 J-1.769
G03 X374.431 Y101.589 I28.778 J7.941
G01 X374.435 Y101.582  
G03 X379.655 Y101.537 I2.623 J1.451
G02 X382.069 Y109.036 I227.538 J-69.097
G01 X382.239 Y109.408  
G02 X389.803 Y108.236 I3.548 J-2.092
G03 X393.399 Y100.879 I28.691 J9.468
G01 X393.497 Y100.717  
G03 X395.856 Y101.009 I1.122 J0.607
G02 X397.837 Y106.264 I24.589 J-6.267
G02 X392.227 Y106.354 I-2.773 J2.044
G02 X388.101 Y114.280 I7.459 J8.920
G01 X388.095 Y114.537  
G03 X386.279 Y115.832 I-1.328 J0.057
G01 X386.145 Y115.785  
G03 X381.343 Y109.178 I2.054 J-6.541
G02 X377.017 Y102.780 I-5.324 J-1.062
G02 X376.374 Y102.765 I-0.368 J1.966
G02 X372.272 Y107.185 I0.657 J4.723
G03 X368.687 Y113.858 I-19.508 J-6.181
G01 X368.550 Y114.051  
G03 X365.164 Y113.720 I-1.610 J-1.011
G01 X365.082 Y113.535  
G01 X361.443 Y106.199 
G02 X353.340 Y107.067 I-3.924 J1.627
G03 X350.951 Y113.778 I-23.407 J-4.553
G00 Z33.080
G00 X385.837 Y113.459  F4000.0
G01 Z7.500 F1200.0 M3
G01 X386.083 Y113.516  F2000.0
G01 X386.157 Y113.448 
G01 X386.083 Y113.516 
G01 X386.136 Y113.613 
G01 X386.083 Y113.516 
G01 X385.837 Y113.459 
G00 Z33.080
G00 X398.304 Y107.138  F4000.0
G01 Z7.500 F1200.0 M3
G02 X401.304 Y111.401 I22.141 J-12.396
G02 X408.713 Y109.911 I3.280 J-2.855
G01 X408.757 Y109.760  F2000.0
G03 X411.333 Y99.809 I385.820 J94.571
G02 X411.147 Y98.303 I-1.930 J-0.526
G03 X411.339 Y97.426 I0.588 J-0.331
G03 X411.895 Y100.156 I-8.982 J3.251
G03 X406.419 Y115.366 I-33.608 J-3.510
G01 X406.386 Y115.417  
G03 X403.819 Y115.884 I-1.496 J-0.932
G01 X403.655 Y115.771  
G03 X398.403 Y107.561 I5.933 J-9.581
G01 X398.304 Y107.138  
G00 Z33.080
G00 X376.464 Y128.306  F4000.0
G01 Z7.500 F1200.0 M3
G01 X376.473 Y128.282  F2000.0
G01 X376.448 Y128.291 
G01 X376.474 Y128.281 
G01 X376.448 Y128.270 
G01 X376.473 Y128.279 
G01 X376.464 Y128.255 
G01 X376.474 Y128.281 
G01 X376.485 Y128.255 
G01 X376.476 Y128.279 
G01 X376.500 Y128.270 
G01 X376.474 Y128.281 
G01 X376.500 Y128.291 
G01 X376.476 Y128.282 
G01 X376.485 Y128.306 
G01 X376.474 Y128.281 
G01 X376.464 Y128.306 
G01 X376.474 Y130.648  
G01 X376.229 Y130.636  
G01 X375.994 Y130.600 
G01 X375.769 Y130.542 
G01 X375.553 Y130.463 
G01 X375.346 Y130.364 
G01 X375.151 Y130.245 
G01 X374.969 Y130.109 
G01 X374.800 Y129.955 
G01 X374.646 Y129.786 
G01 X374.510 Y129.603 
G01 X374.391 Y129.408 
G01 X374.292 Y129.202 
G01 X374.213 Y128.986 
G01 X374.155 Y128.760 
G01 X374.119 Y128.526 
G01 X374.106 Y128.281 
G01 X374.119 Y128.036 
G01 X374.155 Y127.801 
G01 X374.213 Y127.575 
G01 X374.292 Y127.359 
G01 X374.391 Y127.153 
G01 X374.510 Y126.958 
G01 X374.646 Y126.775 
G01 X374.800 Y126.606 
G01 X374.969 Y126.453 
G01 X375.151 Y126.316 
G01 X375.346 Y126.197 
G01 X375.553 Y126.098 
G01 X375.769 Y126.019 
G01 X375.994 Y125.961 
G01 X376.229 Y125.925 
G01 X376.474 Y125.913 
G01 X376.719 Y125.925 
G01 X376.954 Y125.961 
G01 X377.180 Y126.019 
G01 X377.396 Y126.098 
G01 X377.602 Y126.197 
G01 X377.797 Y126.316 
G01 X377.980 Y126.453 
G01 X378.149 Y126.606 
G01 X378.302 Y126.775 
G01 X378.439 Y126.958 
G01 X378.557 Y127.153 
G01 X378.657 Y127.359 
G01 X378.736 Y127.575 
G01 X378.794 Y127.801 
G01 X378.830 Y128.036 
G01 X378.842 Y128.281 
G01 X378.830 Y128.526 
G01 X378.794 Y128.760 
G01 X378.736 Y128.986 
G01 X378.657 Y129.202 
G01 X378.557 Y129.408 
G01 X378.439 Y129.603 
G01 X378.302 Y129.786 
G01 X378.149 Y129.955 
G01 X377.980 Y130.109 
G01 X377.797 Y130.245 
G01 X377.602 Y130.364 
G01 X377.396 Y130.463 
G01 X377.180 Y130.542 
G01 X376.954 Y130.600 
G01 X376.719 Y130.636 
G01 X376.474 Y130.648 
G00 Z33.080
G00 X375.151 Y144.177  F4000.0
G01 Z7.500 F1200.0 M3
G01 X375.346 Y144.059  F2000.0
G01 X375.553 Y143.959 
G01 X375.769 Y143.880 
G01 X375.994 Y143.822 
G01 X376.229 Y143.786 
G01 X376.474 Y143.774 
G01 X376.719 Y143.786 
G01 X376.954 Y143.822 
G01 X377.180 Y143.880 
G01 X377.396 Y143.959 
G01 X377.602 Y144.059 
G01 X377.797 Y144.177 
G01 X377.980 Y144.314 
G01 X378.149 Y144.467 
G01 X378.302 Y144.636 
G01 X378.439 Y144.819 
G01 X378.557 Y145.014 
G01 X378.657 Y145.220 
G01 X378.736 Y145.436 
G01 X378.794 Y145.662 
G01 X378.830 Y145.897 
G01 X378.842 Y146.142 
G01 X378.830 Y146.387 
G01 X378.794 Y146.622 
G01 X378.736 Y146.847 
G01 X378.657 Y147.063 
G01 X378.557 Y147.270 
G01 X378.439 Y147.465 
G01 X378.302 Y147.647 
G01 X378.149 Y147.816 
G01 X377.980 Y147.970 
G01 X377.797 Y148.106 
G01 X377.602 Y148.225 
G01 X377.396 Y148.324 
G01 X377.180 Y148.403 
G01 X376.954 Y148.461 
G01 X376.719 Y148.497 
G01 X376.474 Y148.510 
G01 X376.229 Y148.497 
G01 X375.994 Y148.461 
G01 X375.769 Y148.403 
G01 X375.553 Y148.324 
G01 X375.346 Y148.225 
G01 X375.151 Y148.106 
G01 X374.969 Y147.970 
G01 X374.800 Y147.816 
G01 X374.646 Y147.647 
G01 X374.510 Y147.465 
G01 X374.391 Y147.270 
G01 X374.292 Y147.063 
G01 X374.213 Y146.847 
G01 X374.155 Y146.622 
G01 X374.119 Y146.387 
G01 X374.106 Y146.142 
G01 X374.119 Y145.897 
G01 X374.155 Y145.662 
G01 X374.213 Y145.436 
G01 X374.292 Y145.220 
G01 X374.391 Y145.014 
G01 X374.510 Y144.819 
G01 X374.646 Y144.636 
G01 X374.800 Y144.467 
G01 X374.969 Y144.314 
G01 X375.151 Y144.177 
G00 Z33.080
G00 X376.466 Y146.124  F4000.0
G01 Z7.500 F1200.0 M3
G01 X376.464 Y146.116  F2000.0
G01 X376.474 Y146.142 
G01 X376.485 Y146.116 
G01 X376.476 Y146.140 
G01 X376.500 Y146.131 
G01 X376.474 Y146.142 
G01 X376.500 Y146.153 
G01 X376.476 Y146.143 
G01 X376.485 Y146.168 
G01 X376.474 Y146.142 
G01 X376.464 Y146.168 
G01 X376.473 Y146.143 
G01 X376.448 Y146.153 
G01 X376.474 Y146.142 
G01 X376.448 Y146.131 
G01 X376.473 Y146.140 
G01 X376.466 Y146.124 
G00 Z33.080
G00 X376.464 Y164.029  F4000.0
G01 Z7.500 F1200.0 M3
G01 X376.473 Y164.005  F2000.0
G01 X376.448 Y164.014 
G01 X376.474 Y164.003 
G01 X376.448 Y163.993 
G01 X376.473 Y164.002 
G01 X376.464 Y163.977 
G01 X376.474 Y164.003 
G01 X376.485 Y163.977 
G01 X376.476 Y164.002 
G01 X376.500 Y163.993 
G01 X376.474 Y164.003 
G01 X376.500 Y164.014 
G01 X376.476 Y164.005 
G01 X376.485 Y164.029 
G01 X376.474 Y164.003 
G01 X376.464 Y164.029 
G01 X376.474 Y166.371  
G01 X376.229 Y166.359  
G01 X375.994 Y166.323 
G01 X375.769 Y166.265 
G01 X375.553 Y166.186 
G01 X375.346 Y166.086 
G01 X375.151 Y165.968 
G01 X374.969 Y165.831 
G01 X374.800 Y165.678 
G01 X374.646 Y165.509 
G01 X374.510 Y165.326 
G01 X374.391 Y165.131 
G01 X374.292 Y164.925 
G01 X374.213 Y164.709 
G01 X374.155 Y164.483 
G01 X374.119 Y164.248 
G01 X374.106 Y164.003 
G01 X374.119 Y163.758 
G01 X374.155 Y163.523 
G01 X374.213 Y163.298 
G01 X374.292 Y163.082 
G01 X374.391 Y162.876 
G01 X374.510 Y162.680 
G01 X374.646 Y162.498 
G01 X374.800 Y162.329 
G01 X374.969 Y162.175 
G01 X375.151 Y162.039 
G01 X375.346 Y161.920 
G01 X375.553 Y161.821 
G01 X375.769 Y161.742 
G01 X375.994 Y161.684 
G01 X376.229 Y161.648 
G01 X376.474 Y161.635 
G01 X376.719 Y161.648 
G01 X376.954 Y161.684 
G01 X377.180 Y161.742 
G01 X377.396 Y161.821 
G01 X377.602 Y161.920 
G01 X377.797 Y162.039 
G01 X377.980 Y162.175 
G01 X378.149 Y162.329 
G01 X378.302 Y162.498 
G01 X378.439 Y162.680 
G01 X378.557 Y162.876 
G01 X378.657 Y163.082 
G01 X378.736 Y163.298 
G01 X378.794 Y163.523 
G01 X378.830 Y163.758 
G01 X378.842 Y164.003 
G01 X378.830 Y164.248 
G01 X378.794 Y164.483 
G01 X378.736 Y164.709 
G01 X378.657 Y164.925 
G01 X378.557 Y165.131 
G01 X378.439 Y165.326 
G01 X378.302 Y165.509 
G01 X378.149 Y165.678 
G01 X377.980 Y165.831 
G01 X377.797 Y165.968 
G01 X377.602 Y166.086 
G01 X377.396 Y166.186 
G01 X377.180 Y166.265 
G01 X376.954 Y166.323 
G01 X376.719 Y166.359 
G01 X376.474 Y166.371 
G00 Z33.080
G00 X388.606 Y179.437  F4000.0
G01 Z7.500 F1200.0 M3
G01 X389.045 Y179.437  F2000.0
G01 X389.215 Y179.183 
G01 X389.045 Y179.437 
G01 X389.215 Y179.692 
G01 X389.045 Y179.437 
G01 X388.606 Y179.437 
G01 X387.766 Y177.595  
G01 X389.596 Y176.854  
G01 X390.793 Y176.438 
G01 X391.120 Y176.342 
G01 X391.419 Y175.904 
G01 X391.120 Y176.342 
G01 X391.205 Y177.579 
G01 X391.239 Y179.437 
G01 X391.205 Y181.296 
G01 X391.120 Y182.532 
G01 X391.419 Y182.971 
G01 X391.112 Y182.530 
G01 X390.070 Y182.195 
G01 X388.490 Y181.582 
G01 X385.508 Y180.297 
G01 X383.571 Y179.437 
G01 X382.705 Y179.437 
G01 X383.571 Y179.437 
G01 X387.766 Y177.595 
G01 X386.838 Y175.408  
G01 X388.755 Y174.631  
G01 X390.014 Y174.191 
G01 X390.918 Y173.942 
G01 X391.624 Y173.814 
G01 X392.129 Y173.784 
G01 X392.505 Y173.822 
G01 X392.748 Y173.910 
G01 X392.914 Y174.052 
G01 X393.076 Y174.306 
G01 X393.236 Y174.727 
G01 X393.387 Y175.389 
G01 X393.508 Y176.356 
G01 X393.589 Y177.732 
G01 X393.615 Y179.744 
G01 X393.571 Y181.578 
G01 X393.479 Y182.810 
G01 X393.353 Y183.666 
G01 X393.198 Y184.268 
G01 X393.033 Y184.650 
G01 X392.868 Y184.873 
G01 X392.693 Y184.992 
G01 X392.421 Y185.067 
G01 X391.993 Y185.089 
G01 X391.446 Y185.035 
G01 X390.703 Y184.880 
G01 X389.690 Y184.578 
G01 X388.312 Y184.072 
G01 X386.164 Y183.178 
G01 X377.998 Y179.553 
G01 X377.739 Y179.437 
G01 X386.066 Y175.739 
G01 X386.838 Y175.408 
G00 Z33.080
G00 X363.957 Y179.692  F4000.0
G01 Z7.500 F1200.0 M3
G01 X364.126 Y179.437  F2000.0
G01 X363.957 Y179.183 
G01 X364.126 Y179.437 
G01 X364.565 Y179.437 
G01 X364.126 Y179.437 
G01 X363.957 Y179.692 
G01 X361.933 Y179.732  
G01 X361.960 Y177.754  
G01 X362.038 Y176.483 
G01 X362.052 Y176.342 
G01 X361.752 Y175.904 
G01 X362.059 Y176.344 
G01 X363.101 Y176.679 
G01 X364.682 Y177.292 
G01 X367.664 Y178.578 
G01 X369.601 Y179.437 
G01 X370.467 Y179.437 
G01 X369.601 Y179.437 
G01 X365.406 Y181.279 
G01 X363.575 Y182.021 
G01 X362.379 Y182.437 
G01 X362.052 Y182.532 
G01 X361.752 Y182.971 
G01 X362.052 Y182.532 
G01 X361.966 Y181.296 
G01 X361.933 Y179.732 
G01 X359.557 Y179.744  
G01 X359.583 Y177.732  
G01 X359.663 Y176.356 
G01 X359.785 Y175.389 
G01 X359.935 Y174.727 
G01 X360.096 Y174.306 
G01 X360.257 Y174.052 
G01 X360.424 Y173.910 
G01 X360.667 Y173.822 
G01 X361.043 Y173.784 
G01 X361.547 Y173.814 
G01 X362.254 Y173.942 
G01 X363.157 Y174.191 
G01 X364.417 Y174.631 
G01 X366.334 Y175.408 
G01 X370.838 Y177.387 
G01 X375.433 Y179.437 
G01 X367.106 Y183.135 
G01 X365.039 Y184.001 
G01 X363.647 Y184.522 
G01 X362.616 Y184.841 
G01 X361.851 Y185.014 
G01 X361.227 Y185.087 
G01 X360.782 Y185.072 
G01 X360.494 Y184.999 
G01 X360.315 Y184.883 
G01 X360.153 Y184.675 
G01 X359.989 Y184.312 
G01 X359.832 Y183.734 
G01 X359.703 Y182.903 
G01 X359.606 Y181.697 
G01 X359.558 Y179.894 
G01 X359.557 Y179.744 
G00 Z33.080
G00 X348.867 Y211.978  F4000.0
G01 Z7.500 F1200.0 M3
G01 X348.865 Y211.819  F2000.0
G01 X348.904 Y211.705 
G01 X349.603 Y210.672 
G01 X350.473 Y209.508 
G01 X351.403 Y208.376 
G01 X352.393 Y207.277 
G01 X353.441 Y206.214 
G01 X354.547 Y205.188 
G01 X355.711 Y204.202 
G01 X356.931 Y203.258 
G01 X358.205 Y202.359 
G01 X359.527 Y201.511 
G01 X360.893 Y200.717 
G01 X362.297 Y199.980 
G01 X363.733 Y199.303 
G01 X365.195 Y198.691 
G01 X366.678 Y198.145 
G01 X368.175 Y197.670 
G01 X369.682 Y197.267 
G01 X371.199 Y196.935 
G01 X372.723 Y196.673 
G01 X374.253 Y196.479 
G01 X375.788 Y196.352 
G01 X376.489 Y196.317 
G01 X377.958 Y196.393 
G01 X379.492 Y196.538 
G01 X381.021 Y196.751 
G01 X382.545 Y197.033 
G01 X384.061 Y197.385 
G01 X385.568 Y197.809 
G01 X387.064 Y198.306 
G01 X388.543 Y198.871 
G01 X389.998 Y199.501 
G01 X391.426 Y200.194 
G01 X392.819 Y200.946 
G01 X394.172 Y201.755 
G01 X395.479 Y202.616 
G01 X396.736 Y203.526 
G01 X397.937 Y204.479 
G01 X399.082 Y205.474 
G01 X400.169 Y206.509 
G01 X401.199 Y207.580 
G01 X402.170 Y208.686 
G01 X403.081 Y209.826 
G01 X403.932 Y210.996 
G01 X404.254 Y211.469 
G01 X404.445 Y211.728 
G01 X404.479 Y211.889 
G01 X404.447 Y212.055 
G01 X404.354 Y212.191 
G01 X404.201 Y212.286 
G01 X404.038 Y212.308 
G01 X403.875 Y212.263 
G01 X403.746 Y212.160 
G01 X402.780 Y210.777 
G01 X401.916 Y209.656 
G01 X400.993 Y208.566 
G01 X400.012 Y207.507 
G01 X398.970 Y206.481 
G01 X397.870 Y205.491 
G01 X396.713 Y204.540 
G01 X395.502 Y203.631 
G01 X394.240 Y202.767 
G01 X392.933 Y201.954 
G01 X391.586 Y201.194 
G01 X390.205 Y200.492 
G01 X388.794 Y199.852 
G01 X387.361 Y199.277 
G01 X385.909 Y198.770 
G01 X384.443 Y198.332 
G01 X382.967 Y197.963 
G01 X381.483 Y197.662 
G01 X379.993 Y197.428 
G01 X378.498 Y197.261 
G01 X376.998 Y197.158 
G01 X376.669 Y197.144 
G01 X375.090 Y197.239 
G01 X373.594 Y197.396 
G01 X372.103 Y197.618 
G01 X370.618 Y197.908 
G01 X369.140 Y198.266 
G01 X367.673 Y198.692 
G01 X366.218 Y199.188 
G01 X364.781 Y199.752 
G01 X363.366 Y200.381 
G01 X361.980 Y201.073 
G01 X360.627 Y201.823 
G01 X359.313 Y202.628 
G01 X358.043 Y203.483 
G01 X356.823 Y204.385 
G01 X355.657 Y205.330 
G01 X354.547 Y206.314 
G01 X353.496 Y207.334 
G01 X352.504 Y208.387 
G01 X351.572 Y209.472 
G01 X350.698 Y210.588 
G01 X349.882 Y211.734 
G01 X349.566 Y212.189 
G01 X349.436 Y212.276 
G01 X349.277 Y212.309 
G01 X349.123 Y212.281 
G01 X348.979 Y212.186 
G01 X348.891 Y212.056 
G01 X348.867 Y211.978 
G00 Z33.080
G00 X363.567 Y232.868  F4000.0
G01 Z7.500 F1200.0 M3
G01 X363.261 Y232.834  F2000.0
G01 X362.989 Y232.749 
G01 X362.739 Y232.613 
G01 X362.516 Y232.430 
G01 X362.333 Y232.207 
G01 X362.197 Y231.957 
G01 X362.112 Y231.684 
G01 X362.078 Y231.379 
G01 X362.112 Y231.074 
G01 X362.197 Y230.801 
G01 X362.333 Y230.551 
G01 X362.516 Y230.329 
G01 X362.739 Y230.145 
G01 X362.989 Y230.009 
G01 X363.261 Y229.925 
G01 X363.567 Y229.890 
G01 X363.872 Y229.925 
G01 X364.144 Y230.009 
G01 X364.395 Y230.145 
G01 X364.617 Y230.329 
G01 X364.800 Y230.551 
G01 X364.936 Y230.801 
G01 X365.021 Y231.074 
G01 X365.056 Y231.379 
G01 X365.021 Y231.684 
G01 X364.936 Y231.957 
G01 X364.800 Y232.207 
G01 X364.617 Y232.430 
G01 X364.395 Y232.613 
G01 X364.144 Y232.749 
G01 X363.872 Y232.834 
G01 X363.567 Y232.868 
G01 X363.567 Y235.269  
G01 X363.191 Y235.251  
G01 X362.780 Y235.188 
G01 X362.409 Y235.093 
G01 X362.053 Y234.962 
G01 X361.714 Y234.799 
G01 X361.394 Y234.604 
G01 X361.094 Y234.380 
G01 X360.817 Y234.129 
G01 X360.566 Y233.852 
G01 X360.341 Y233.552 
G01 X360.147 Y233.231 
G01 X359.983 Y232.892 
G01 X359.853 Y232.537 
G01 X359.758 Y232.165 
G01 X359.682 Y231.581 
G01 X359.695 Y231.004 
G01 X359.758 Y230.593 
G01 X359.853 Y230.222 
G01 X359.983 Y229.866 
G01 X360.147 Y229.527 
G01 X360.341 Y229.206 
G01 X360.566 Y228.907 
G01 X360.817 Y228.630 
G01 X361.094 Y228.378 
G01 X361.394 Y228.154 
G01 X361.714 Y227.959 
G01 X362.053 Y227.796 
G01 X362.409 Y227.666 
G01 X362.780 Y227.570 
G01 X363.365 Y227.495 
G01 X363.942 Y227.508 
G01 X364.353 Y227.570 
G01 X364.724 Y227.666 
G01 X365.080 Y227.796 
G01 X365.419 Y227.959 
G01 X365.739 Y228.154 
G01 X366.039 Y228.378 
G01 X366.316 Y228.630 
G01 X366.568 Y228.907 
G01 X366.792 Y229.206 
G01 X366.986 Y229.527 
G01 X367.150 Y229.866 
G01 X367.280 Y230.222 
G01 X367.375 Y230.593 
G01 X367.451 Y231.177 
G01 X367.438 Y231.754 
G01 X367.375 Y232.165 
G01 X367.280 Y232.537 
G01 X367.150 Y232.892 
G01 X366.986 Y233.231 
G01 X366.792 Y233.552 
G01 X366.568 Y233.852 
G01 X366.316 Y234.129 
G01 X366.039 Y234.380 
G01 X365.739 Y234.604 
G01 X365.419 Y234.799 
G01 X365.080 Y234.962 
G01 X364.724 Y235.093 
G01 X364.353 Y235.188 
G01 X363.769 Y235.264 
G01 X363.567 Y235.269 
G00 Z33.080
G00 X361.201 Y244.271  F4000.0
G01 Z7.500 F1200.0 M3
G01 X360.011 Y243.835  F2000.0
G01 X358.764 Y243.297 
G01 X357.568 Y242.699 
G01 X356.431 Y242.050 
G01 X355.278 Y241.305 
G01 X354.123 Y240.461 
G01 X353.129 Y239.647 
G01 X352.218 Y238.809 
G01 X351.388 Y237.948 
G01 X350.638 Y237.064 
G01 X349.967 Y236.158 
G01 X349.600 Y235.600 
G01 X349.630 Y235.520 
G01 X349.723 Y235.468 
G01 X349.803 Y235.479 
G01 X350.340 Y236.274 
G01 X351.025 Y237.157 
G01 X351.790 Y238.023 
G01 X352.635 Y238.871 
G01 X353.561 Y239.698 
G01 X354.569 Y240.502 
G01 X355.651 Y241.273 
G01 X356.809 Y242.004 
G01 X357.945 Y242.637 
G01 X359.137 Y243.217 
G01 X360.282 Y243.696 
G01 X361.466 Y244.115 
G01 X362.685 Y244.469 
G01 X363.936 Y244.755 
G01 X365.217 Y244.972 
G01 X366.526 Y245.122 
G01 X367.976 Y245.212 
G01 X369.462 Y245.227 
G01 X371.104 Y245.165 
G01 X371.682 Y245.136 
G01 X371.708 Y245.273 
G01 X371.698 Y245.351 
G01 X370.879 Y245.415 
G01 X369.229 Y245.466 
G01 X367.736 Y245.439 
G01 X366.279 Y245.337 
G01 X364.964 Y245.174 
G01 X363.678 Y244.943 
G01 X362.425 Y244.642 
G01 X361.201 Y244.271 
G00 Z33.080
G00 X381.490 Y245.136  F4000.0
G01 Z7.500 F1200.0 M3
G01 X383.478 Y245.223  F2000.0
G01 X384.970 Y245.219 
G01 X386.425 Y245.141 
G01 X387.739 Y245.002 
G01 X389.024 Y244.796 
G01 X390.280 Y244.521 
G01 X391.505 Y244.179 
G01 X392.695 Y243.770 
G01 X393.847 Y243.300 
G01 X395.047 Y242.730 
G01 X396.192 Y242.104 
G01 X397.359 Y241.380 
G01 X398.454 Y240.613 
G01 X399.471 Y239.814 
G01 X400.409 Y238.990 
G01 X401.266 Y238.145 
G01 X402.043 Y237.282 
G01 X402.739 Y236.401 
G01 X403.355 Y235.501 
G01 X403.394 Y235.471 
G01 X403.496 Y235.484 
G01 X403.561 Y235.548 
G01 X403.572 Y235.600 
G01 X403.021 Y236.419 
G01 X402.328 Y237.319 
G01 X401.555 Y238.196 
G01 X400.702 Y239.050 
G01 X399.767 Y239.881 
G01 X398.750 Y240.689 
G01 X397.653 Y241.468 
G01 X396.484 Y242.204 
G01 X395.332 Y242.842 
G01 X394.124 Y243.427 
G01 X392.867 Y243.949 
G01 X391.667 Y244.370 
G01 X390.436 Y244.725 
G01 X389.175 Y245.008 
G01 X387.882 Y245.221 
G01 X386.560 Y245.367 
G01 X385.094 Y245.452 
G01 X383.711 Y245.464 
G01 X382.053 Y245.401 
G01 X381.474 Y245.351 
G01 X381.468 Y245.211 
G01 X381.490 Y245.136 
G00 Z33.080
G00 X389.605 Y232.868  F4000.0
G01 Z7.500 F1200.0 M3
G01 X389.300 Y232.834  F2000.0
G01 X389.027 Y232.749 
G01 X388.777 Y232.613 
G01 X388.555 Y232.430 
G01 X388.371 Y232.207 
G01 X388.235 Y231.957 
G01 X388.151 Y231.684 
G01 X388.116 Y231.379 
G01 X388.151 Y231.074 
G01 X388.235 Y230.801 
G01 X388.371 Y230.551 
G01 X388.555 Y230.329 
G01 X388.777 Y230.145 
G01 X389.027 Y230.009 
G01 X389.300 Y229.925 
G01 X389.605 Y229.890 
G01 X389.910 Y229.925 
G01 X390.183 Y230.009 
G01 X390.433 Y230.145 
G01 X390.655 Y230.329 
G01 X390.839 Y230.551 
G01 X390.975 Y230.801 
G01 X391.060 Y231.074 
G01 X391.094 Y231.379 
G01 X391.060 Y231.684 
G01 X390.975 Y231.957 
G01 X390.839 Y232.207 
G01 X390.655 Y232.430 
G01 X390.433 Y232.613 
G01 X390.183 Y232.749 
G01 X389.910 Y232.834 
G01 X389.605 Y232.868 
G01 X389.605 Y235.269  
G01 X389.230 Y235.251  
G01 X388.819 Y235.188 
G01 X388.448 Y235.093 
G01 X388.092 Y234.962 
G01 X387.753 Y234.799 
G01 X387.432 Y234.604 
G01 X387.133 Y234.380 
G01 X386.856 Y234.129 
G01 X386.604 Y233.852 
G01 X386.380 Y233.552 
G01 X386.185 Y233.231 
G01 X386.022 Y232.892 
G01 X385.892 Y232.537 
G01 X385.796 Y232.165 
G01 X385.720 Y231.581 
G01 X385.734 Y231.004 
G01 X385.796 Y230.593 
G01 X385.892 Y230.222 
G01 X386.022 Y229.866 
G01 X386.185 Y229.527 
G01 X386.380 Y229.206 
G01 X386.604 Y228.907 
G01 X386.856 Y228.630 
G01 X387.133 Y228.378 
G01 X387.432 Y228.154 
G01 X387.753 Y227.959 
G01 X388.092 Y227.796 
G01 X388.448 Y227.666 
G01 X388.819 Y227.570 
G01 X389.403 Y227.495 
G01 X389.980 Y227.508 
G01 X390.391 Y227.570 
G01 X390.763 Y227.666 
G01 X391.118 Y227.796 
G01 X391.457 Y227.959 
G01 X391.778 Y228.154 
G01 X392.078 Y228.378 
G01 X392.354 Y228.630 
G01 X392.606 Y228.907 
G01 X392.830 Y229.206 
G01 X393.025 Y229.527 
G01 X393.188 Y229.866 
G01 X393.318 Y230.222 
G01 X393.414 Y230.593 
G01 X393.490 Y231.177 
G01 X393.477 Y231.754 
G01 X393.414 Y232.165 
G01 X393.318 Y232.537 
G01 X393.188 Y232.892 
G01 X393.025 Y233.231 
G01 X392.830 Y233.552 
G01 X392.606 Y233.852 
G01 X392.354 Y234.129 
G01 X392.078 Y234.380 
G01 X391.778 Y234.604 
G01 X391.457 Y234.799 
G01 X391.118 Y234.962 
G01 X390.763 Y235.093 
G01 X390.391 Y235.188 
G01 X389.807 Y235.264 
G01 X389.605 Y235.269 
G00 Z33.080
G00 X377.598 Y380.415  F4000.0
G01 Z7.500 F1200.0 M3
G01 X377.334 Y380.376  F2000.0
G01 X377.110 Y380.268 
G01 X376.920 Y380.095 
G01 X376.789 Y379.880 
G01 X376.726 Y379.635 
G01 X376.740 Y379.356 
G01 X376.825 Y379.123 
G01 X376.978 Y378.919 
G01 X377.182 Y378.766 
G01 X377.415 Y378.681 
G01 X377.694 Y378.667 
G01 X377.939 Y378.730 
G01 X378.154 Y378.861 
G01 X378.327 Y379.051 
G01 X378.436 Y379.275 
G01 X378.474 Y379.539 
G01 X378.436 Y379.802 
G01 X378.327 Y380.027 
G01 X378.154 Y380.217 
G01 X377.939 Y380.348 
G01 X377.694 Y380.410 
G01 X377.598 Y380.415 
G01 X377.598 Y382.818  
G01 X377.260 Y382.801  
G01 X376.934 Y382.752 
G01 X376.621 Y382.671 
G01 X376.322 Y382.561 
G01 X376.036 Y382.424 
G01 X375.765 Y382.260 
G01 X375.512 Y382.070 
G01 X375.279 Y381.858 
G01 X375.066 Y381.624 
G01 X374.877 Y381.372 
G01 X374.713 Y381.101 
G01 X374.575 Y380.815 
G01 X374.466 Y380.516 
G01 X374.385 Y380.203 
G01 X374.336 Y379.877 
G01 X374.319 Y379.539 
G01 X374.336 Y379.201 
G01 X374.385 Y378.875 
G01 X374.466 Y378.562 
G01 X374.575 Y378.263 
G01 X374.713 Y377.977 
G01 X374.877 Y377.706 
G01 X375.067 Y377.453 
G01 X375.279 Y377.220 
G01 X375.512 Y377.007 
G01 X375.765 Y376.818 
G01 X376.036 Y376.654 
G01 X376.322 Y376.516 
G01 X376.621 Y376.407 
G01 X376.934 Y376.326 
G01 X377.260 Y376.277 
G01 X377.598 Y376.259 
G01 X377.936 Y376.277 
G01 X378.262 Y376.326 
G01 X378.574 Y376.407 
G01 X378.874 Y376.516 
G01 X379.160 Y376.654 
G01 X379.431 Y376.818 
G01 X379.684 Y377.007 
G01 X379.917 Y377.220 
G01 X380.129 Y377.453 
G01 X380.319 Y377.706 
G01 X380.483 Y377.977 
G01 X380.621 Y378.263 
G01 X380.730 Y378.562 
G01 X380.811 Y378.875 
G01 X380.860 Y379.201 
G01 X380.877 Y379.539 
G01 X380.860 Y379.877 
G01 X380.811 Y380.203 
G01 X380.730 Y380.516 
G01 X380.621 Y380.815 
G01 X380.483 Y381.101 
G01 X380.319 Y381.372 
G01 X380.129 Y381.624 
G01 X379.917 Y381.858 
G01 X379.684 Y382.070 
G01 X379.431 Y382.260 
G01 X379.160 Y382.424 
G01 X378.874 Y382.561 
G01 X378.575 Y382.671 
G01 X378.262 Y382.752 
G01 X377.936 Y382.801 
G01 X377.598 Y382.818 
G00 Z33.080
G00 X354.254 Y381.002  F4000.0
G01 Z7.500 F1200.0 M3
G01 X352.341 Y383.702  F2000.0
G01 X350.938 Y385.577 
G01 X349.703 Y387.110 
G01 X348.846 Y388.082 
G01 X348.100 Y388.831 
G01 X347.374 Y389.458 
G01 X346.735 Y389.928 
G01 X346.124 Y390.292 
G01 X345.494 Y390.581 
G01 X344.838 Y390.795 
G01 X344.249 Y390.909 
G01 X343.610 Y390.958 
G01 X342.959 Y390.934 
G01 X342.337 Y390.838 
G01 X341.764 Y390.672 
G01 X341.217 Y390.438 
G01 X340.670 Y390.123 
G01 X340.207 Y389.780 
G01 X339.718 Y389.326 
G01 X339.289 Y388.823 
G01 X338.925 Y388.286 
G01 X338.626 Y387.724 
G01 X338.353 Y387.055 
G01 X338.153 Y386.373 
G01 X338.006 Y385.588 
G01 X337.933 Y384.785 
G01 X337.930 Y383.876 
G01 X337.998 Y382.965 
G01 X338.150 Y381.970 
G01 X338.375 Y380.981 
G01 X338.689 Y379.935 
G01 X339.090 Y378.869 
G01 X339.528 Y377.908 
G01 X339.876 Y377.252 
G01 X339.989 Y377.090 
G01 X340.156 Y376.956 
G01 X340.364 Y376.874 
G01 X340.589 Y376.858 
G01 X340.807 Y376.909 
G01 X341.049 Y377.050 
G01 X341.242 Y377.221 
G01 X341.347 Y377.393 
G01 X341.402 Y377.588 
G01 X341.402 Y377.790 
G01 X341.346 Y377.987 
G01 X340.929 Y378.725 
G01 X340.546 Y379.572 
G01 X340.204 Y380.522 
G01 X339.940 Y381.454 
G01 X339.735 Y382.429 
G01 X339.616 Y383.319 
G01 X339.574 Y384.164 
G01 X339.605 Y384.927 
G01 X339.697 Y385.601 
G01 X339.854 Y386.253 
G01 X340.082 Y386.874 
G01 X340.344 Y387.393 
G01 X340.666 Y387.875 
G01 X341.000 Y388.262 
G01 X341.386 Y388.608 
G01 X341.830 Y388.907 
G01 X342.255 Y389.113 
G01 X342.717 Y389.262 
G01 X343.204 Y389.345 
G01 X343.698 Y389.355 
G01 X344.187 Y389.296 
G01 X344.653 Y389.176 
G01 X345.160 Y388.973 
G01 X345.695 Y388.679 
G01 X346.255 Y388.285 
G01 X346.907 Y387.723 
G01 X347.669 Y386.951 
G01 X348.625 Y385.850 
G01 X349.891 Y384.248 
G01 X351.634 Y381.888 
G01 X353.252 Y379.581 
G01 X354.874 Y377.114 
G01 X362.397 Y365.348 
G01 X362.555 Y365.201 
G01 X362.746 Y365.107 
G01 X362.958 Y365.071 
G01 X363.168 Y365.096 
G01 X363.304 Y365.149 
G01 X363.574 Y365.321 
G01 X363.721 Y365.479 
G01 X363.815 Y365.670 
G01 X363.851 Y365.881 
G01 X363.825 Y366.092 
G01 X363.773 Y366.227 
G01 X355.896 Y378.554 
G01 X354.254 Y381.002 
G00 Z33.080
G00 X342.574 Y406.126  F4000.0
G01 Z7.500 F1200.0 M3
G01 X342.311 Y406.088  F2000.0
G01 X342.086 Y405.979 
G01 X341.896 Y405.806 
G01 X341.765 Y405.591 
G01 X341.703 Y405.346 
G01 X341.716 Y405.068 
G01 X341.801 Y404.834 
G01 X341.954 Y404.630 
G01 X342.158 Y404.477 
G01 X342.392 Y404.392 
G01 X342.670 Y404.379 
G01 X342.915 Y404.441 
G01 X343.130 Y404.572 
G01 X343.304 Y404.762 
G01 X343.412 Y404.987 
G01 X343.451 Y405.250 
G01 X343.412 Y405.514 
G01 X343.304 Y405.738 
G01 X343.130 Y405.928 
G01 X342.915 Y406.059 
G01 X342.670 Y406.122 
G01 X342.574 Y406.126 
G01 X342.574 Y408.530  
G01 X342.236 Y408.512  
G01 X341.911 Y408.463 
G01 X341.598 Y408.382 
G01 X341.298 Y408.273 
G01 X341.012 Y408.135 
G01 X340.742 Y407.971 
G01 X340.489 Y407.782 
G01 X340.255 Y407.569 
G01 X340.043 Y407.336 
G01 X339.854 Y407.083 
G01 X339.689 Y406.812 
G01 X339.552 Y406.527 
G01 X339.442 Y406.227 
G01 X339.361 Y405.914 
G01 X339.312 Y405.588 
G01 X339.295 Y405.250 
G01 X339.312 Y404.912 
G01 X339.361 Y404.586 
G01 X339.442 Y404.274 
G01 X339.552 Y403.974 
G01 X339.689 Y403.688 
G01 X339.854 Y403.418 
G01 X340.043 Y403.165 
G01 X340.255 Y402.931 
G01 X340.489 Y402.719 
G01 X340.742 Y402.529 
G01 X341.012 Y402.365 
G01 X341.298 Y402.228 
G01 X341.598 Y402.118 
G01 X341.911 Y402.037 
G01 X342.236 Y401.988 
G01 X342.574 Y401.971 
G01 X342.912 Y401.988 
G01 X343.238 Y402.037 
G01 X343.551 Y402.118 
G01 X343.851 Y402.228 
G01 X344.136 Y402.365 
G01 X344.407 Y402.529 
G01 X344.660 Y402.719 
G01 X344.893 Y402.931 
G01 X345.106 Y403.165 
G01 X345.295 Y403.418 
G01 X345.459 Y403.688 
G01 X345.597 Y403.974 
G01 X345.706 Y404.274 
G01 X345.787 Y404.586 
G01 X345.837 Y404.912 
G01 X345.854 Y405.250 
G01 X345.837 Y405.588 
G01 X345.787 Y405.914 
G01 X345.706 Y406.227 
G01 X345.597 Y406.527 
G01 X345.459 Y406.812 
G01 X345.295 Y407.083 
G01 X345.106 Y407.336 
G01 X344.893 Y407.569 
G01 X344.660 Y407.782 
G01 X344.407 Y407.971 
G01 X344.136 Y408.135 
G01 X343.851 Y408.273 
G01 X343.551 Y408.382 
G01 X343.238 Y408.463 
G01 X342.912 Y408.512 
G01 X342.574 Y408.530 
G00 Z33.080
G00 X313.624 Y379.403  F4000.0
G01 Z7.500 F1200.0 M3
G01 X313.360 Y379.364  F2000.0
G01 X313.136 Y379.256 
G01 X312.946 Y379.083 
G01 X312.815 Y378.868 
G01 X312.752 Y378.623 
G01 X312.765 Y378.344 
G01 X312.851 Y378.111 
G01 X313.004 Y377.907 
G01 X313.208 Y377.754 
G01 X313.441 Y377.668 
G01 X313.720 Y377.655 
G01 X313.965 Y377.717 
G01 X314.180 Y377.849 
G01 X314.353 Y378.039 
G01 X314.461 Y378.263 
G01 X314.500 Y378.527 
G01 X314.461 Y378.790 
G01 X314.353 Y379.015 
G01 X314.180 Y379.205 
G01 X313.965 Y379.336 
G01 X313.720 Y379.398 
G01 X313.624 Y379.403 
G01 X313.624 Y381.806  
G01 X313.286 Y381.789  
G01 X312.960 Y381.740 
G01 X312.647 Y381.659 
G01 X312.347 Y381.549 
G01 X312.062 Y381.412 
G01 X311.791 Y381.247 
G01 X311.538 Y381.058 
G01 X311.305 Y380.846 
G01 X311.092 Y380.612 
G01 X310.903 Y380.359 
G01 X310.739 Y380.089 
G01 X310.601 Y379.803 
G01 X310.492 Y379.503 
G01 X310.411 Y379.190 
G01 X310.361 Y378.865 
G01 X310.344 Y378.527 
G01 X310.361 Y378.188 
G01 X310.411 Y377.863 
G01 X310.492 Y377.550 
G01 X310.601 Y377.250 
G01 X310.739 Y376.964 
G01 X310.903 Y376.694 
G01 X311.092 Y376.441 
G01 X311.305 Y376.208 
G01 X311.538 Y375.995 
G01 X311.791 Y375.806 
G01 X312.062 Y375.642 
G01 X312.347 Y375.504 
G01 X312.647 Y375.394 
G01 X312.960 Y375.314 
G01 X313.286 Y375.264 
G01 X313.624 Y375.247 
G01 X313.962 Y375.264 
G01 X314.287 Y375.314 
G01 X314.600 Y375.394 
G01 X314.900 Y375.504 
G01 X315.186 Y375.642 
G01 X315.456 Y375.806 
G01 X315.709 Y375.995 
G01 X315.943 Y376.208 
G01 X316.155 Y376.441 
G01 X316.344 Y376.694 
G01 X316.509 Y376.964 
G01 X316.646 Y377.250 
G01 X316.756 Y377.550 
G01 X316.837 Y377.863 
G01 X316.886 Y378.188 
G01 X316.903 Y378.527 
G01 X316.886 Y378.865 
G01 X316.837 Y379.190 
G01 X316.756 Y379.503 
G01 X316.646 Y379.803 
G01 X316.509 Y380.089 
G01 X316.344 Y380.359 
G01 X316.155 Y380.612 
G01 X315.943 Y380.846 
G01 X315.709 Y381.058 
G01 X315.456 Y381.247 
G01 X315.186 Y381.412 
G01 X314.900 Y381.549 
G01 X314.600 Y381.659 
G01 X314.287 Y381.740 
G01 X313.962 Y381.789 
G01 X313.624 Y381.806 
G00 Z33.080
G00 X396.831 Y420.298  F4000.0
G01 Z7.500 F1200.0 M3
G01 X396.567 Y420.259  F2000.0
G01 X396.343 Y420.151 
G01 X396.153 Y419.978 
G01 X396.022 Y419.763 
G01 X395.959 Y419.518 
G01 X395.972 Y419.239 
G01 X396.058 Y419.006 
G01 X396.211 Y418.801 
G01 X396.415 Y418.648 
G01 X396.648 Y418.563 
G01 X396.927 Y418.550 
G01 X397.172 Y418.612 
G01 X397.387 Y418.743 
G01 X397.560 Y418.934 
G01 X397.668 Y419.158 
G01 X397.707 Y419.422 
G01 X397.668 Y419.685 
G01 X397.560 Y419.909 
G01 X397.387 Y420.100 
G01 X397.172 Y420.231 
G01 X396.927 Y420.293 
G01 X396.831 Y420.298 
G01 X396.831 Y422.701  
G01 X396.492 Y422.684  
G01 X396.167 Y422.634 
G01 X395.854 Y422.554 
G01 X395.554 Y422.444 
G01 X395.268 Y422.306 
G01 X394.998 Y422.142 
G01 X394.745 Y421.953 
G01 X394.512 Y421.741 
G01 X394.299 Y421.507 
G01 X394.110 Y421.254 
G01 X393.946 Y420.984 
G01 X393.808 Y420.698 
G01 X393.698 Y420.398 
G01 X393.618 Y420.085 
G01 X393.568 Y419.760 
G01 X393.551 Y419.422 
G01 X393.568 Y419.083 
G01 X393.618 Y418.758 
G01 X393.698 Y418.445 
G01 X393.808 Y418.145 
G01 X393.946 Y417.859 
G01 X394.110 Y417.589 
G01 X394.299 Y417.336 
G01 X394.512 Y417.102 
G01 X394.745 Y416.890 
G01 X394.998 Y416.701 
G01 X395.268 Y416.537 
G01 X395.554 Y416.399 
G01 X395.854 Y416.289 
G01 X396.167 Y416.209 
G01 X396.492 Y416.159 
G01 X396.831 Y416.142 
G01 X397.169 Y416.159 
G01 X397.494 Y416.209 
G01 X397.807 Y416.289 
G01 X398.107 Y416.399 
G01 X398.393 Y416.537 
G01 X398.663 Y416.701 
G01 X398.916 Y416.890 
G01 X399.150 Y417.102 
G01 X399.362 Y417.336 
G01 X399.551 Y417.589 
G01 X399.716 Y417.859 
G01 X399.853 Y418.145 
G01 X399.963 Y418.445 
G01 X400.043 Y418.758 
G01 X400.093 Y419.083 
G01 X400.110 Y419.422 
G01 X400.093 Y419.760 
G01 X400.043 Y420.085 
G01 X399.963 Y420.398 
G01 X399.853 Y420.698 
G01 X399.716 Y420.984 
G01 X399.551 Y421.254 
G01 X399.362 Y421.507 
G01 X399.150 Y421.741 
G01 X398.916 Y421.953 
G01 X398.663 Y422.142 
G01 X398.393 Y422.306 
G01 X398.107 Y422.444 
G01 X397.807 Y422.554 
G01 X397.494 Y422.634 
G01 X397.169 Y422.684 
G01 X396.831 Y422.701 
G00 Z33.080
G00 X390.680 Y464.985  F4000.0
G01 Z7.500 F1200.0 M3
G01 X390.416 Y464.946  F2000.0
G01 X390.192 Y464.838 
G01 X390.002 Y464.665 
G01 X389.871 Y464.449 
G01 X389.808 Y464.204 
G01 X389.822 Y463.926 
G01 X389.907 Y463.692 
G01 X390.060 Y463.488 
G01 X390.264 Y463.335 
G01 X390.497 Y463.250 
G01 X390.776 Y463.237 
G01 X391.021 Y463.299 
G01 X391.236 Y463.430 
G01 X391.409 Y463.620 
G01 X391.517 Y463.845 
G01 X391.556 Y464.108 
G01 X391.517 Y464.372 
G01 X391.409 Y464.596 
G01 X391.236 Y464.786 
G01 X391.021 Y464.917 
G01 X390.776 Y464.980 
G01 X390.680 Y464.985 
G01 X390.680 Y467.388  
G01 X390.342 Y467.371  
G01 X390.016 Y467.321 
G01 X389.703 Y467.241 
G01 X389.403 Y467.131 
G01 X389.118 Y466.993 
G01 X388.847 Y466.829 
G01 X388.594 Y466.640 
G01 X388.361 Y466.427 
G01 X388.148 Y466.194 
G01 X387.959 Y465.941 
G01 X387.795 Y465.671 
G01 X387.657 Y465.385 
G01 X387.548 Y465.085 
G01 X387.467 Y464.772 
G01 X387.417 Y464.446 
G01 X387.400 Y464.108 
G01 X387.417 Y463.770 
G01 X387.467 Y463.445 
G01 X387.548 Y463.132 
G01 X387.657 Y462.832 
G01 X387.795 Y462.546 
G01 X387.959 Y462.276 
G01 X388.148 Y462.023 
G01 X388.361 Y461.789 
G01 X388.594 Y461.577 
G01 X388.847 Y461.388 
G01 X389.118 Y461.223 
G01 X389.403 Y461.086 
G01 X389.703 Y460.976 
G01 X390.016 Y460.895 
G01 X390.342 Y460.846 
G01 X390.680 Y460.829 
G01 X391.018 Y460.846 
G01 X391.344 Y460.895 
G01 X391.656 Y460.976 
G01 X391.956 Y461.086 
G01 X392.242 Y461.223 
G01 X392.512 Y461.388 
G01 X392.765 Y461.577 
G01 X392.999 Y461.789 
G01 X393.211 Y462.023 
G01 X393.401 Y462.276 
G01 X393.565 Y462.546 
G01 X393.702 Y462.832 
G01 X393.812 Y463.132 
G01 X393.893 Y463.445 
G01 X393.942 Y463.770 
G01 X393.959 Y464.108 
G01 X393.942 Y464.446 
G01 X393.893 Y464.772 
G01 X393.812 Y465.085 
G01 X393.702 Y465.385 
G01 X393.565 Y465.671 
G01 X393.401 Y465.941 
G01 X393.211 Y466.194 
G01 X392.999 Y466.427 
G01 X392.765 Y466.640 
G01 X392.512 Y466.829 
G01 X392.242 Y466.993 
G01 X391.956 Y467.131 
G01 X391.656 Y467.241 
G01 X391.344 Y467.321 
G01 X391.018 Y467.371 
G01 X390.680 Y467.388 
G00 Z33.080
G00 X360.997 Y485.082  F4000.0
G01 Z7.500 F1200.0 M3
G01 X360.734 Y485.043  F2000.0
G01 X360.509 Y484.935 
G01 X360.319 Y484.762 
G01 X360.188 Y484.546 
G01 X360.126 Y484.302 
G01 X360.139 Y484.023 
G01 X360.224 Y483.790 
G01 X360.377 Y483.585 
G01 X360.581 Y483.432 
G01 X360.815 Y483.347 
G01 X361.093 Y483.334 
G01 X361.338 Y483.396 
G01 X361.553 Y483.527 
G01 X361.727 Y483.718 
G01 X361.835 Y483.942 
G01 X361.874 Y484.206 
G01 X361.835 Y484.469 
G01 X361.727 Y484.693 
G01 X361.553 Y484.884 
G01 X361.338 Y485.015 
G01 X361.093 Y485.077 
G01 X360.997 Y485.082 
G01 X360.997 Y487.485  
G01 X360.659 Y487.468  
G01 X360.333 Y487.418 
G01 X360.021 Y487.338 
G01 X359.721 Y487.228 
G01 X359.435 Y487.090 
G01 X359.165 Y486.926 
G01 X358.912 Y486.737 
G01 X358.678 Y486.525 
G01 X358.466 Y486.291 
G01 X358.276 Y486.038 
G01 X358.112 Y485.768 
G01 X357.975 Y485.482 
G01 X357.865 Y485.182 
G01 X357.784 Y484.869 
G01 X357.735 Y484.544 
G01 X357.718 Y484.206 
G01 X357.735 Y483.867 
G01 X357.784 Y483.542 
G01 X357.865 Y483.229 
G01 X357.975 Y482.929 
G01 X358.112 Y482.643 
G01 X358.276 Y482.373 
G01 X358.466 Y482.120 
G01 X358.678 Y481.886 
G01 X358.912 Y481.674 
G01 X359.165 Y481.485 
G01 X359.435 Y481.321 
G01 X359.721 Y481.183 
G01 X360.021 Y481.073 
G01 X360.333 Y480.993 
G01 X360.659 Y480.943 
G01 X360.997 Y480.926 
G01 X361.335 Y480.943 
G01 X361.661 Y480.993 
G01 X361.974 Y481.073 
G01 X362.274 Y481.183 
G01 X362.559 Y481.321 
G01 X362.830 Y481.485 
G01 X363.083 Y481.674 
G01 X363.316 Y481.886 
G01 X363.529 Y482.120 
G01 X363.718 Y482.373 
G01 X363.882 Y482.643 
G01 X364.020 Y482.929 
G01 X364.129 Y483.229 
G01 X364.210 Y483.542 
G01 X364.259 Y483.867 
G01 X364.277 Y484.206 
G01 X364.259 Y484.544 
G01 X364.210 Y484.869 
G01 X364.129 Y485.182 
G01 X364.020 Y485.482 
G01 X363.882 Y485.768 
G01 X363.718 Y486.038 
G01 X363.529 Y486.291 
G01 X363.316 Y486.525 
G01 X363.083 Y486.737 
G01 X362.830 Y486.926 
G01 X362.559 Y487.090 
G01 X362.274 Y487.228 
G01 X361.974 Y487.338 
G01 X361.661 Y487.418 
G01 X361.335 Y487.468 
G01 X360.997 Y487.485 
G00 Z33.080
G00 X349.816 Y472.556  F4000.0
G01 Z7.500 F1200.0 M3
G01 X349.147 Y472.534  F2000.0
G01 X348.561 Y472.450 
G01 X347.961 Y472.288 
G01 X347.357 Y472.050 
G01 X346.787 Y471.747 
G01 X346.286 Y471.396 
G01 X345.845 Y470.994 
G01 X345.429 Y470.511 
G01 X345.084 Y469.993 
G01 X344.818 Y469.478 
G01 X344.580 Y468.857 
G01 X344.415 Y468.222 
G01 X344.322 Y467.587 
G01 X344.296 Y466.860 
G01 X344.346 Y466.147 
G01 X344.464 Y465.448 
G01 X344.673 Y464.674 
G01 X344.953 Y463.913 
G01 X345.337 Y463.083 
G01 X345.781 Y462.288 
G01 X346.338 Y461.443 
G01 X347.011 Y460.569 
G01 X347.727 Y459.761 
G01 X348.516 Y458.979 
G01 X349.283 Y458.316 
G01 X349.675 Y458.020 
G01 X349.875 Y457.940 
G01 X350.094 Y457.925 
G01 X350.314 Y457.977 
G01 X350.507 Y458.091 
G01 X350.615 Y458.200 
G01 X350.789 Y458.471 
G01 X350.856 Y458.665 
G01 X350.866 Y458.866 
G01 X350.822 Y459.064 
G01 X350.726 Y459.241 
G01 X350.596 Y459.376 
G01 X349.992 Y459.832 
G01 X349.311 Y460.450 
G01 X348.626 Y461.179 
G01 X347.976 Y461.978 
G01 X347.404 Y462.793 
G01 X346.944 Y463.565 
G01 X346.572 Y464.325 
G01 X346.301 Y465.038 
G01 X346.120 Y465.694 
G01 X346.008 Y466.355 
G01 X345.972 Y467.015 
G01 X346.009 Y467.596 
G01 X346.115 Y468.166 
G01 X346.271 Y468.653 
G01 X346.489 Y469.123 
G01 X346.779 Y469.572 
G01 X347.089 Y469.930 
G01 X347.455 Y470.249 
G01 X347.870 Y470.516 
G01 X348.320 Y470.721 
G01 X348.793 Y470.859 
G01 X349.268 Y470.931 
G01 X349.814 Y470.945 
G01 X350.422 Y470.885 
G01 X351.092 Y470.743 
G01 X351.912 Y470.484 
G01 X352.917 Y470.074 
G01 X354.228 Y469.438 
G01 X356.023 Y468.464 
G01 X358.555 Y466.982 
G01 X360.951 Y465.498 
G01 X363.413 Y463.868 
G01 X374.961 Y456.015 
G01 X375.164 Y455.942 
G01 X375.377 Y455.931 
G01 X375.585 Y455.981 
G01 X375.769 Y456.087 
G01 X375.873 Y456.189 
G01 X376.053 Y456.454 
G01 X376.126 Y456.656 
G01 X376.137 Y456.869 
G01 X376.087 Y457.078 
G01 X375.981 Y457.261 
G01 X375.879 Y457.365 
G01 X363.785 Y465.595 
G01 X361.312 Y467.199 
G01 X358.491 Y468.927 
G01 X356.463 Y470.098 
G01 X354.723 Y471.021 
G01 X353.553 Y471.577 
G01 X352.573 Y471.972 
G01 X351.658 Y472.263 
G01 X350.886 Y472.442 
G01 X350.181 Y472.537 
G01 X349.816 Y472.556 
G00 Z33.080
G00 X405.998 Y499.854  F4000.0
G01 Z7.500 F1200.0 M3
G01 X404.085 Y502.553  F2000.0
G01 X402.682 Y504.428 
G01 X401.446 Y505.962 
G01 X400.590 Y506.934 
G01 X399.844 Y507.682 
G01 X399.118 Y508.310 
G01 X398.478 Y508.779 
G01 X397.868 Y509.144 
G01 X397.238 Y509.433 
G01 X396.582 Y509.646 
G01 X395.993 Y509.761 
G01 X395.353 Y509.809 
G01 X394.702 Y509.785 
G01 X394.080 Y509.689 
G01 X393.508 Y509.523 
G01 X392.960 Y509.290 
G01 X392.413 Y508.974 
G01 X391.950 Y508.632 
G01 X391.462 Y508.177 
G01 X391.033 Y507.674 
G01 X390.669 Y507.137 
G01 X390.369 Y506.575 
G01 X390.097 Y505.906 
G01 X389.897 Y505.224 
G01 X389.750 Y504.440 
G01 X389.677 Y503.636 
G01 X389.674 Y502.728 
G01 X389.742 Y501.817 
G01 X389.893 Y500.821 
G01 X390.119 Y499.832 
G01 X390.433 Y498.786 
G01 X390.834 Y497.721 
G01 X391.271 Y496.759 
G01 X391.620 Y496.104 
G01 X391.733 Y495.942 
G01 X391.899 Y495.807 
G01 X392.107 Y495.726 
G01 X392.333 Y495.709 
G01 X392.551 Y495.760 
G01 X392.792 Y495.902 
G01 X392.986 Y496.073 
G01 X393.091 Y496.244 
G01 X393.146 Y496.440 
G01 X393.146 Y496.641 
G01 X393.090 Y496.838 
G01 X392.673 Y497.576 
G01 X392.290 Y498.423 
G01 X391.948 Y499.373 
G01 X391.684 Y500.306 
G01 X391.478 Y501.281 
G01 X391.359 Y502.171 
G01 X391.317 Y503.016 
G01 X391.348 Y503.779 
G01 X391.440 Y504.453 
G01 X391.598 Y505.104 
G01 X391.825 Y505.725 
G01 X392.087 Y506.244 
G01 X392.410 Y506.727 
G01 X392.744 Y507.113 
G01 X393.130 Y507.459 
G01 X393.574 Y507.758 
G01 X393.999 Y507.964 
G01 X394.461 Y508.114 
G01 X394.948 Y508.196 
G01 X395.442 Y508.207 
G01 X395.931 Y508.148 
G01 X396.397 Y508.027 
G01 X396.903 Y507.825 
G01 X397.439 Y507.530 
G01 X397.999 Y507.136 
G01 X398.650 Y506.575 
G01 X399.413 Y505.802 
G01 X400.368 Y504.702 
G01 X401.634 Y503.099 
G01 X403.378 Y500.740 
G01 X404.996 Y498.432 
G01 X406.617 Y495.965 
G01 X414.141 Y484.199 
G01 X414.299 Y484.052 
G01 X414.490 Y483.958 
G01 X414.701 Y483.922 
G01 X414.912 Y483.948 
G01 X415.047 Y484.000 
G01 X415.317 Y484.173 
G01 X415.465 Y484.330 
G01 X415.558 Y484.521 
G01 X415.594 Y484.733 
G01 X415.569 Y484.943 
G01 X415.517 Y485.079 
G01 X407.640 Y497.405 
G01 X405.998 Y499.854 
G00 Z33.080
G00 X429.425 Y482.045  F4000.0
G01 Z7.500 F1200.0 M3
G01 X429.162 Y482.006  F2000.0
G01 X428.937 Y481.898 
G01 X428.747 Y481.725 
G01 X428.616 Y481.510 
G01 X428.554 Y481.265 
G01 X428.567 Y480.986 
G01 X428.652 Y480.753 
G01 X428.805 Y480.549 
G01 X429.009 Y480.396 
G01 X429.243 Y480.310 
G01 X429.521 Y480.297 
G01 X429.766 Y480.360 
G01 X429.981 Y480.491 
G01 X430.155 Y480.681 
G01 X430.263 Y480.905 
G01 X430.302 Y481.169 
G01 X430.263 Y481.432 
G01 X430.155 Y481.657 
G01 X429.981 Y481.847 
G01 X429.766 Y481.978 
G01 X429.521 Y482.040 
G01 X429.425 Y482.045 
G01 X429.425 Y484.448  
G01 X429.087 Y484.431  
G01 X428.762 Y484.382 
G01 X428.449 Y484.301 
G01 X428.149 Y484.191 
G01 X427.863 Y484.054 
G01 X427.593 Y483.889 
G01 X427.340 Y483.700 
G01 X427.106 Y483.488 
G01 X426.894 Y483.254 
G01 X426.705 Y483.001 
G01 X426.540 Y482.731 
G01 X426.403 Y482.445 
G01 X426.293 Y482.145 
G01 X426.212 Y481.832 
G01 X426.163 Y481.507 
G01 X426.146 Y481.169 
G01 X426.163 Y480.831 
G01 X426.212 Y480.505 
G01 X426.293 Y480.192 
G01 X426.403 Y479.892 
G01 X426.540 Y479.606 
G01 X426.705 Y479.336 
G01 X426.894 Y479.083 
G01 X427.106 Y478.850 
G01 X427.340 Y478.637 
G01 X427.593 Y478.448 
G01 X427.863 Y478.284 
G01 X428.149 Y478.146 
G01 X428.449 Y478.036 
G01 X428.762 Y477.956 
G01 X429.087 Y477.906 
G01 X429.425 Y477.889 
G01 X429.763 Y477.906 
G01 X430.089 Y477.956 
G01 X430.402 Y478.036 
G01 X430.702 Y478.146 
G01 X430.987 Y478.284 
G01 X431.258 Y478.448 
G01 X431.511 Y478.637 
G01 X431.744 Y478.850 
G01 X431.957 Y479.083 
G01 X432.146 Y479.336 
G01 X432.310 Y479.606 
G01 X432.448 Y479.892 
G01 X432.557 Y480.192 
G01 X432.638 Y480.505 
G01 X432.688 Y480.831 
G01 X432.705 Y481.169 
G01 X432.688 Y481.507 
G01 X432.638 Y481.832 
G01 X432.557 Y482.145 
G01 X432.448 Y482.445 
G01 X432.310 Y482.731 
G01 X432.146 Y483.001 
G01 X431.957 Y483.254 
G01 X431.744 Y483.488 
G01 X431.511 Y483.700 
G01 X431.258 Y483.889 
G01 X430.987 Y484.054 
G01 X430.702 Y484.191 
G01 X430.402 Y484.301 
G01 X430.089 Y484.382 
G01 X429.763 Y484.431 
G01 X429.425 Y484.448 
G00 Z33.080
G00 X437.128 Y456.082  F4000.0
G01 Z7.500 F1200.0 M3
G03 X439.892 Y455.807 I3.793 J24.039
G01 X440.099 Y455.787  F2000.0
G03 X440.663 Y457.843 I0.157 J1.062
G01 X440.291 Y458.043  
G03 X438.525 Y459.089 I-8.908 J-13.030
G02 X399.966 Y476.703 I60.086 J182.544
G02 X372.045 Y495.992 I104.037 J180.445
G02 X369.975 Y494.205 I-22.868 J24.391
G03 X437.128 Y456.082 I138.582 J165.905
G00 Z33.080
G00 X440.762 Y425.562  F4000.0
G01 Z7.500 F1200.0 M3
G01 X440.499 Y425.523  F2000.0
G01 X440.275 Y425.415 
G01 X440.084 Y425.242 
G01 X439.953 Y425.026 
G01 X439.891 Y424.781 
G01 X439.904 Y424.503 
G01 X439.989 Y424.270 
G01 X440.142 Y424.065 
G01 X440.347 Y423.912 
G01 X440.580 Y423.827 
G01 X440.858 Y423.814 
G01 X441.103 Y423.876 
G01 X441.319 Y424.007 
G01 X441.492 Y424.197 
G01 X441.600 Y424.422 
G01 X441.639 Y424.685 
G01 X441.600 Y424.949 
G01 X441.492 Y425.173 
G01 X441.319 Y425.363 
G01 X441.103 Y425.495 
G01 X440.858 Y425.557 
G01 X440.762 Y425.562 
G01 X440.762 Y427.965  
G01 X440.424 Y427.948  
G01 X440.099 Y427.898 
G01 X439.786 Y427.818 
G01 X439.486 Y427.708 
G01 X439.200 Y427.570 
G01 X438.930 Y427.406 
G01 X438.677 Y427.217 
G01 X438.443 Y427.004 
G01 X438.231 Y426.771 
G01 X438.042 Y426.518 
G01 X437.878 Y426.248 
G01 X437.740 Y425.962 
G01 X437.630 Y425.662 
G01 X437.550 Y425.349 
G01 X437.500 Y425.024 
G01 X437.483 Y424.685 
G01 X437.500 Y424.347 
G01 X437.550 Y424.022 
G01 X437.630 Y423.709 
G01 X437.740 Y423.409 
G01 X437.878 Y423.123 
G01 X438.042 Y422.853 
G01 X438.231 Y422.600 
G01 X438.443 Y422.366 
G01 X438.677 Y422.154 
G01 X438.930 Y421.965 
G01 X439.200 Y421.800 
G01 X439.486 Y421.663 
G01 X439.786 Y421.553 
G01 X440.099 Y421.473 
G01 X440.424 Y421.423 
G01 X440.762 Y421.406 
G01 X441.101 Y421.423 
G01 X441.426 Y421.473 
G01 X441.739 Y421.553 
G01 X442.039 Y421.663 
G01 X442.325 Y421.800 
G01 X442.595 Y421.965 
G01 X442.848 Y422.154 
G01 X443.081 Y422.366 
G01 X443.294 Y422.600 
G01 X443.483 Y422.853 
G01 X443.647 Y423.123 
G01 X443.785 Y423.409 
G01 X443.895 Y423.709 
G01 X443.975 Y424.022 
G01 X444.025 Y424.347 
G01 X444.042 Y424.685 
G01 X444.025 Y425.024 
G01 X443.975 Y425.349 
G01 X443.895 Y425.662 
G01 X443.785 Y425.962 
G01 X443.647 Y426.248 
G01 X443.483 Y426.518 
G01 X443.294 Y426.771 
G01 X443.081 Y427.004 
G01 X442.848 Y427.217 
G01 X442.595 Y427.406 
G01 X442.325 Y427.570 
G01 X442.039 Y427.708 
G01 X441.739 Y427.818 
G01 X441.426 Y427.898 
G01 X441.101 Y427.948 
G01 X440.762 Y427.965 
G00 Z33.080
G00 X441.997 Y404.932  F4000.0
G01 Z7.500 F1200.0 M3
G01 X440.084 Y407.632  F2000.0
G01 X438.681 Y409.506 
G01 X437.445 Y411.040 
G01 X436.589 Y412.012 
G01 X435.843 Y412.761 
G01 X435.117 Y413.388 
G01 X434.478 Y413.858 
G01 X433.867 Y414.222 
G01 X433.237 Y414.511 
G01 X432.581 Y414.725 
G01 X431.992 Y414.839 
G01 X431.352 Y414.888 
G01 X430.701 Y414.864 
G01 X430.079 Y414.767 
G01 X429.507 Y414.602 
G01 X428.959 Y414.368 
G01 X428.412 Y414.053 
G01 X427.949 Y413.710 
G01 X427.461 Y413.255 
G01 X427.032 Y412.752 
G01 X426.668 Y412.215 
G01 X426.368 Y411.653 
G01 X426.096 Y410.985 
G01 X425.896 Y410.303 
G01 X425.749 Y409.518 
G01 X425.676 Y408.715 
G01 X425.673 Y407.806 
G01 X425.741 Y406.895 
G01 X425.892 Y405.899 
G01 X426.118 Y404.911 
G01 X426.432 Y403.864 
G01 X426.833 Y402.799 
G01 X427.271 Y401.838 
G01 X427.619 Y401.182 
G01 X427.732 Y401.020 
G01 X427.898 Y400.886 
G01 X428.106 Y400.804 
G01 X428.332 Y400.787 
G01 X428.550 Y400.839 
G01 X428.791 Y400.980 
G01 X428.985 Y401.151 
G01 X429.090 Y401.323 
G01 X429.145 Y401.518 
G01 X429.145 Y401.720 
G01 X429.089 Y401.916 
G01 X428.672 Y402.655 
G01 X428.289 Y403.502 
G01 X427.947 Y404.452 
G01 X427.683 Y405.384 
G01 X427.477 Y406.359 
G01 X427.358 Y407.249 
G01 X427.316 Y408.094 
G01 X427.347 Y408.857 
G01 X427.440 Y409.531 
G01 X427.597 Y410.183 
G01 X427.824 Y410.804 
G01 X428.087 Y411.323 
G01 X428.409 Y411.805 
G01 X428.743 Y412.191 
G01 X429.129 Y412.538 
G01 X429.573 Y412.836 
G01 X429.998 Y413.043 
G01 X430.460 Y413.192 
G01 X430.947 Y413.275 
G01 X431.441 Y413.285 
G01 X431.930 Y413.226 
G01 X432.396 Y413.106 
G01 X432.902 Y412.903 
G01 X433.438 Y412.609 
G01 X433.998 Y412.214 
G01 X434.650 Y411.653 
G01 X435.412 Y410.881 
G01 X436.367 Y409.780 
G01 X437.633 Y408.178 
G01 X439.377 Y405.818 
G01 X440.995 Y403.511 
G01 X442.616 Y401.044 
G01 X450.140 Y389.278 
G01 X450.298 Y389.130 
G01 X450.489 Y389.037 
G01 X450.700 Y389.001 
G01 X450.911 Y389.026 
G01 X451.046 Y389.078 
G01 X451.316 Y389.251 
G01 X451.464 Y389.409 
G01 X451.557 Y389.600 
G01 X451.593 Y389.811 
G01 X451.568 Y390.022 
G01 X451.516 Y390.157 
G01 X443.639 Y402.484 
G01 X441.997 Y404.932 
G00 Z33.080
G00 X456.925 Y376.957  F4000.0
G01 Z7.500 F1200.0 M3
G02 X415.757 Y387.733 I27.781 J190.160
G02 X376.229 Y406.970 I91.854 J238.974
G02 X348.973 Y427.411 I83.735 J140.047
G03 X348.763 Y426.936 I0.516 J-0.511
G02 X348.276 Y425.726 I-1.997 J0.101
G03 X381.045 Y401.110 I129.033 J137.649
G03 X456.090 Y373.749 I110.295 J185.915
G03 X466.923 Y372.621 I14.780 J89.422
G03 X467.075 Y374.741 I-0.078 J1.071
G01 X466.943 Y374.775  F2000.0
G03 X456.925 Y376.957 I-20.697 J-70.920
G00 Z33.080
G00 X380.027 Y537.719  F4000.0
G01 Z7.500 F1200.0 M3
G01 X379.764 Y537.680  F2000.0
G01 X379.540 Y537.572 
G01 X379.349 Y537.399 
G01 X379.218 Y537.183 
G01 X379.156 Y536.939 
G01 X379.169 Y536.660 
G01 X379.254 Y536.427 
G01 X379.407 Y536.222 
G01 X379.612 Y536.069 
G01 X379.845 Y535.984 
G01 X380.123 Y535.971 
G01 X380.368 Y536.033 
G01 X380.584 Y536.164 
G01 X380.757 Y536.355 
G01 X380.865 Y536.579 
G01 X380.904 Y536.843 
G01 X380.865 Y537.106 
G01 X380.757 Y537.330 
G01 X380.584 Y537.521 
G01 X380.368 Y537.652 
G01 X380.123 Y537.714 
G01 X380.027 Y537.719 
G01 X380.027 Y540.122  
G01 X379.689 Y540.105  
G01 X379.364 Y540.055 
G01 X379.051 Y539.975 
G01 X378.751 Y539.865 
G01 X378.465 Y539.727 
G01 X378.195 Y539.563 
G01 X377.942 Y539.374 
G01 X377.708 Y539.162 
G01 X377.496 Y538.928 
G01 X377.307 Y538.675 
G01 X377.143 Y538.405 
G01 X377.005 Y538.119 
G01 X376.895 Y537.819 
G01 X376.815 Y537.506 
G01 X376.765 Y537.181 
G01 X376.748 Y536.843 
G01 X376.765 Y536.504 
G01 X376.815 Y536.179 
G01 X376.895 Y535.866 
G01 X377.005 Y535.566 
G01 X377.143 Y535.280 
G01 X377.307 Y535.010 
G01 X377.496 Y534.757 
G01 X377.708 Y534.523 
G01 X377.942 Y534.311 
G01 X378.195 Y534.122 
G01 X378.465 Y533.958 
G01 X378.751 Y533.820 
G01 X379.051 Y533.710 
G01 X379.364 Y533.630 
G01 X379.689 Y533.580 
G01 X380.027 Y533.563 
G01 X380.366 Y533.580 
G01 X380.691 Y533.630 
G01 X381.004 Y533.710 
G01 X381.304 Y533.820 
G01 X381.590 Y533.958 
G01 X381.860 Y534.122 
G01 X382.113 Y534.311 
G01 X382.347 Y534.523 
G01 X382.559 Y534.757 
G01 X382.748 Y535.010 
G01 X382.912 Y535.280 
G01 X383.050 Y535.566 
G01 X383.160 Y535.866 
G01 X383.240 Y536.179 
G01 X383.290 Y536.504 
G01 X383.307 Y536.843 
G01 X383.290 Y537.181 
G01 X383.240 Y537.506 
G01 X383.160 Y537.819 
G01 X383.050 Y538.119 
G01 X382.912 Y538.405 
G01 X382.748 Y538.675 
G01 X382.559 Y538.928 
G01 X382.347 Y539.162 
G01 X382.113 Y539.374 
G01 X381.860 Y539.563 
G01 X381.590 Y539.727 
G01 X381.304 Y539.865 
G01 X381.004 Y539.975 
G01 X380.691 Y540.055 
G01 X380.366 Y540.105 
G01 X380.027 Y540.122 
G00 Z33.080
G00 X405.998 Y548.245  F4000.0
G01 Z7.500 F1200.0 M3
G01 X404.085 Y550.945  F2000.0
G01 X402.682 Y552.819 
G01 X401.446 Y554.353 
G01 X400.590 Y555.325 
G01 X399.844 Y556.074 
G01 X399.118 Y556.701 
G01 X398.478 Y557.171 
G01 X397.868 Y557.535 
G01 X397.238 Y557.824 
G01 X396.582 Y558.038 
G01 X395.993 Y558.152 
G01 X395.353 Y558.201 
G01 X394.702 Y558.177 
G01 X394.080 Y558.080 
G01 X393.508 Y557.915 
G01 X392.960 Y557.681 
G01 X392.413 Y557.366 
G01 X391.950 Y557.023 
G01 X391.462 Y556.568 
G01 X391.033 Y556.065 
G01 X390.669 Y555.529 
G01 X390.369 Y554.966 
G01 X390.097 Y554.298 
G01 X389.897 Y553.616 
G01 X389.750 Y552.831 
G01 X389.677 Y552.028 
G01 X389.674 Y551.119 
G01 X389.742 Y550.208 
G01 X389.893 Y549.212 
G01 X390.119 Y548.224 
G01 X390.433 Y547.177 
G01 X390.834 Y546.112 
G01 X391.271 Y545.151 
G01 X391.620 Y544.495 
G01 X391.733 Y544.333 
G01 X391.899 Y544.199 
G01 X392.107 Y544.117 
G01 X392.333 Y544.100 
G01 X392.551 Y544.152 
G01 X392.792 Y544.293 
G01 X392.986 Y544.464 
G01 X393.091 Y544.636 
G01 X393.146 Y544.831 
G01 X393.146 Y545.033 
