%
( ashtray ) ( File created: Monday January 13 2025 - 07:30 PM)
( for LinuxCNC )
( Material Size) ( X= 120.000, Y= 120.000, Z= 20.000)
G90 (Incremental distance mode)
G17 G21 (Active Plane: XY)(Metric Mode)
G40 G49 G80(Tool Diameter, Length compensation & canned cycles OFF)
G64 P0.05 Q0.05(Path Blending)
T7 M06 (TOOL USE Ball Nose 1/8)
G90 (absolute distance mode)
G54 (Coordinate System)
S17000M3
G00 Z25.000
G4 P6
( 3D Finish 1 )
G00 X60.056 Y59.944 Z25.000 F6000.0
G01 Z10.155 F1200.0 M3
G01 X60.056 Y60.056 Z10.133 F3000.0
G01 X59.944 Y60.056 Z10.124
G01 X59.944 Y59.944 Z10.146
G01 X60.056 Y59.944 Z10.155
G01 X60.310 Y59.690 Z10.183
G01 X60.310 Y60.000 Z10.154
G01 X60.310 Y60.310 Z10.078
G01 X59.876 Y60.310 Z10.032
G01 X59.690 Y60.310 Z9.992
G01 X59.690 Y60.000 Z10.086
G01 X59.690 Y59.690 Z10.121
G01 X60.062 Y59.690 Z10.174
G01 X60.310 Y59.690 Z10.183
G01 X60.564 Y59.436 Z10.139
G01 X60.564 Y59.733 Z10.173
G01 X60.564 Y60.030 Z10.150
G01 X60.564 Y60.564 Z10.013
G01 X60.148 Y60.564 Z9.979
G01 X59.614 Y60.564 Z9.876
G01 X59.436 Y60.564 Z9.829
G01 X59.436 Y60.148 Z9.987
G01 X59.436 Y59.733 Z10.076
G01 X59.436 Y59.436 Z10.096
G01 X60.267 Y59.436 Z10.160
G01 X60.564 Y59.436 Z10.139
G01 X60.818 Y59.182 Z10.094
G01 X60.818 Y59.667 Z10.144
G01 X60.818 Y60.030 Z10.125
G01 X60.818 Y60.576 Z9.992
G01 X60.818 Y60.818 Z9.915
G01 X60.454 Y60.818 Z9.936
G01 X59.970 Y60.818 Z9.862
G01 X59.303 Y60.818 Z9.712
G01 X59.182 Y60.818 Z9.678
G01 X59.182 Y60.515 Z9.768
G01 X59.182 Y60.151 Z9.923
G01 X59.182 Y59.727 Z10.028
G01 X59.182 Y59.182 Z10.079
G01 X59.909 Y59.182 Z10.104
G01 X60.818 Y59.182 Z10.094
G01 X61.072 Y58.928 Z10.029
G01 X61.072 Y59.404 Z10.123
G01 X61.072 Y59.762 Z10.125
G01 X61.072 Y60.179 Z10.076
G01 X61.072 Y61.072 Z9.807
G01 X60.536 Y61.072 Z9.854
G01 X59.940 Y61.072 Z9.789
G01 X59.285 Y61.072 Z9.637
G01 X58.928 Y61.072 Z9.514
G01 X58.928 Y60.476 Z9.679
G01 X58.928 Y60.119 Z9.858
G01 X58.928 Y59.821 Z9.949
G01 X58.928 Y59.107 Z10.062
G01 X58.928 Y58.928 Z10.073
G01 X59.345 Y58.928 Z10.080
G01 X60.238 Y58.928 Z10.038
G01 X60.953 Y58.928 Z10.034
G01 X61.072 Y58.928 Z10.029
G01 X61.326 Y58.674 Z9.969
G01 X61.326 Y59.096 Z10.073
G01 X61.326 Y59.518 Z10.118
G01 X61.326 Y59.940 Z10.091
G01 X61.326 Y60.362 Z9.999
G01 X61.326 Y61.326 Z9.698
G01 X60.542 Y61.326 Z9.770
G01 X59.759 Y61.326 Z9.686
G01 X59.156 Y61.326 Z9.527
G01 X58.674 Y61.326 Z9.357
G01 X58.674 Y60.362 Z9.613
G01 X58.674 Y60.000 Z9.793
G01 X58.674 Y59.397 Z9.959
G01 X58.674 Y58.915 Z10.040
G01 X58.674 Y58.674 Z10.042
G01 X59.096 Y58.674 Z10.077
G01 X59.458 Y58.674 Z10.046
G01 X59.819 Y58.674 Z9.984
G01 X60.121 Y58.674 Z9.959
G01 X60.723 Y58.674 Z9.981
G01 X61.145 Y58.674 Z9.960
G01 X61.326 Y58.674 Z9.969
G01 X61.580 Y58.420 Z9.910
G01 X61.580 Y59.016 Z10.059
G01 X61.580 Y59.493 Z10.104
G01 X61.580 Y59.851 Z10.079
G01 X61.580 Y60.209 Z10.010
G01 X61.580 Y61.580 Z9.584
G01 X60.686 Y61.580 Z9.679
G01 X60.328 Y61.580 Z9.671
G01 X59.732 Y61.580 Z9.621
G01 X59.195 Y61.580 Z9.474
G01 X58.480 Y61.580 Z9.283
G01 X58.420 Y61.580 Z9.271
G01 X58.420 Y61.222 Z9.294
G01 X58.420 Y60.328 Z9.520
G01 X58.420 Y60.030 Z9.618
G01 X58.420 Y59.612 Z9.801
G01 X58.420 Y59.195 Z9.932
G01 X58.420 Y58.837 Z9.983
G01 X58.420 Y58.420 Z9.992
G01 X58.897 Y58.420 Z10.049
G01 X59.314 Y58.420 Z10.021
G01 X59.672 Y58.420 Z9.935
G01 X59.851 Y58.420 Z9.886
G01 X60.030 Y58.420 Z9.874
G01 X60.507 Y58.420 Z9.922
G01 X61.282 Y58.420 Z9.881
G01 X61.580 Y58.420 Z9.910
G01 X61.834 Y58.166 Z9.886
G01 X61.834 Y58.707 Z10.012
G01 X61.834 Y59.128 Z10.069
G01 X61.834 Y59.549 Z10.079
G01 X61.834 Y59.910 Z10.039
G01 X61.834 Y60.331 Z9.934
G01 X61.834 Y61.774 Z9.488
G01 X61.834 Y61.834 Z9.474
G01 X60.992 Y61.834 Z9.581
G01 X60.451 Y61.834 Z9.598
G01 X60.210 Y61.834 Z9.583
G01 X59.910 Y61.834 Z9.583
G01 X58.286 Y61.834 Z9.259
G01 X58.166 Y61.834 Z9.243
G01 X58.166 Y61.233 Z9.227
G01 X58.166 Y60.992 Z9.250
G01 X58.166 Y60.271 Z9.429
G01 X58.166 Y59.850 Z9.548
G01 X58.166 Y59.308 Z9.804
G01 X58.166 Y59.008 Z9.881
G01 X58.166 Y58.407 Z9.949
G01 X58.166 Y58.166 Z9.952
G01 X58.527 Y58.166 Z9.992
G01 X59.068 Y58.166 Z9.988
G01 X59.429 Y58.166 Z9.920
G01 X59.850 Y58.166 Z9.780
G01 X60.090 Y58.166 Z9.810
G01 X60.451 Y58.166 Z9.867
G01 X60.752 Y58.166 Z9.855
G01 X61.293 Y58.166 Z9.784
G01 X61.473 Y58.166 Z9.789
G01 X61.834 Y58.166 Z9.886
G01 X62.088 Y57.912 Z9.875
G01 X62.088 Y58.330 Z9.977
G01 X62.088 Y58.807 Z10.043
G01 X62.088 Y59.403 Z10.062
G01 X62.088 Y59.881 Z10.006
G01 X62.088 Y60.418 Z9.860
G01 X62.088 Y61.611 Z9.479
G01 X62.088 Y61.909 Z9.415
G01 X62.088 Y62.088 Z9.397
G01 X61.133 Y62.088 Z9.524
G01 X60.656 Y62.088 Z9.548
G01 X60.119 Y62.088 Z9.516
G01 X59.642 Y62.088 Z9.496
G01 X58.330 Y62.088 Z9.279
G01 X57.912 Y62.088 Z9.240
G01 X57.912 Y61.551 Z9.188
G01 X57.912 Y61.014 Z9.176
G01 X57.912 Y60.656 Z9.234
G01 X57.912 Y59.702 Z9.479
G01 X57.912 Y59.224 Z9.694
G01 X57.912 Y58.747 Z9.823
G01 X57.912 Y58.389 Z9.870
G01 X57.912 Y57.912 Z9.881
G01 X58.210 Y57.912 Z9.967
G01 X58.509 Y57.912 Z9.994
G01 X58.926 Y57.912 Z9.945
G01 X59.463 Y57.912 Z9.802
G01 X59.761 Y57.912 Z9.674
G01 X60.358 Y57.912 Z9.798
G01 X60.656 Y57.912 Z9.804
G01 X60.955 Y57.912 Z9.752
G01 X61.432 Y57.912 Z9.665
G01 X61.611 Y57.912 Z9.711
G01 X62.028 Y57.912 Z9.861
G01 X62.088 Y57.912 Z9.875
G01 X62.342 Y57.658 Z9.818
G01 X62.342 Y58.018 Z9.940
G01 X62.342 Y58.559 Z10.026
G01 X62.342 Y59.219 Z10.038
G01 X62.342 Y59.760 Z9.973
G01 X62.342 Y60.300 Z9.837
G01 X62.342 Y61.621 Z9.400
G01 X62.342 Y61.922 Z9.361
G01 X62.342 Y62.342 Z9.344
G01 X61.201 Y62.342 Z9.485
G01 X60.661 Y62.342 Z9.505
G01 X59.640 Y62.342 Z9.453
G01 X58.439 Y62.342 Z9.306
G01 X57.658 Y62.342 Z9.249
G01 X57.658 Y61.561 Z9.149
G01 X57.658 Y60.841 Z9.136
G01 X57.658 Y60.601 Z9.163
G01 X57.658 Y59.520 Z9.428
G01 X57.658 Y58.919 Z9.652
G01 X57.658 Y58.499 Z9.736
G01 X57.658 Y57.658 Z9.787
G01 X58.018 Y57.658 Z9.899
G01 X58.379 Y57.658 Z9.961
G01 X58.679 Y57.658 Z9.955
G01 X59.099 Y57.658 Z9.869
G01 X59.399 Y57.658 Z9.736
G01 X59.700 Y57.658 Z9.539
G01 X60.000 Y57.658 Z9.660
G01 X60.360 Y57.658 Z9.737
G01 X60.661 Y57.658 Z9.743
G01 X60.961 Y57.658 Z9.690
G01 X61.501 Y57.658 Z9.527
G01 X61.982 Y57.658 Z9.741
G01 X62.282 Y57.658 Z9.812
G01 X62.342 Y57.658 Z9.818
G01 X62.596 Y57.404 Z9.727
G01 X62.596 Y57.822 Z9.894
G01 X62.596 Y58.239 Z9.992
G01 X62.596 Y58.896 Z10.019
G01 X62.596 Y59.493 Z9.958
G01 X62.596 Y60.090 Z9.823
G01 X62.596 Y60.746 Z9.604
G01 X62.596 Y61.522 Z9.339
G01 X62.596 Y62.059 Z9.309
G01 X62.596 Y62.596 Z9.335
G01 X61.880 Y62.596 Z9.401
G01 X60.985 Y62.596 Z9.464
G01 X60.328 Y62.596 Z9.463
G01 X59.135 Y62.596 Z9.393
G01 X58.359 Y62.596 Z9.325
G01 X57.404 Y62.596 Z9.263
G01 X57.404 Y61.522 Z9.106
G01 X57.404 Y60.865 Z9.089
G01 X57.404 Y60.507 Z9.102
G01 X57.404 Y59.075 Z9.403
G01 X57.404 Y58.657 Z9.551
G01 X57.404 Y58.001 Z9.637
G01 X57.404 Y57.404 Z9.696
G01 X57.881 Y57.404 Z9.874
G01 X58.180 Y57.404 Z9.930
G01 X58.598 Y57.404 Z9.920
G01 X58.956 Y57.404 Z9.858
G01 X59.254 Y57.404 Z9.745
G01 X59.552 Y57.404 Z9.559
G01 X59.672 Y57.404 Z9.455
G01 X59.731 Y57.404 Z9.451
G01 X60.090 Y57.404 Z9.605
G01 X60.388 Y57.404 Z9.667
G01 X60.686 Y57.404 Z9.668
G01 X60.985 Y57.404 Z9.607
G01 X61.522 Y57.404 Z9.400
G01 X61.581 Y57.404 Z9.391
G01 X61.880 Y57.404 Z9.551
G01 X62.238 Y57.404 Z9.665
G01 X62.596 Y57.404 Z9.727
G01 X62.850 Y57.150 Z9.701
G01 X62.850 Y57.570 Z9.801
G01 X62.850 Y57.930 Z9.913
G01 X62.850 Y58.350 Z9.981
G01 X62.850 Y58.770 Z9.984
G01 X62.850 Y59.310 Z9.919
G01 X62.850 Y60.090 Z9.726
G01 X62.850 Y61.410 Z9.277
G01 X62.850 Y61.890 Z9.268
G01 X62.850 Y62.850 Z9.350
G01 X60.810 Y62.850 Z9.447
G01 X60.210 Y62.850 Z9.442
G01 X59.730 Y62.850 Z9.407
G01 X58.710 Y62.850 Z9.376
G01 X57.210 Y62.850 Z9.283
G01 X57.150 Y62.850 Z9.275
G01 X57.150 Y61.530 Z9.064
G01 X57.150 Y60.810 Z9.033
G01 X57.150 Y60.330 Z9.040
G01 X57.150 Y57.570 Z9.538
G01 X57.150 Y57.150 Z9.582
G01 X57.510 Y57.150 Z9.764
G01 X57.990 Y57.150 Z9.895
G01 X58.350 Y57.150 Z9.923
G01 X58.650 Y57.150 Z9.888
G01 X59.010 Y57.150 Z9.787
G01 X59.310 Y57.150 Z9.637
G01 X59.610 Y57.150 Z9.398
G01 X59.670 Y57.150 Z9.334
G01 X60.150 Y57.150 Z9.503
G01 X60.450 Y57.150 Z9.551
G01 X60.750 Y57.150 Z9.539
G01 X61.170 Y57.150 Z9.445
G01 X61.530 Y57.150 Z9.292
G01 X61.650 Y57.150 Z9.228
G01 X62.130 Y57.150 Z9.482
G01 X62.610 Y57.150 Z9.652
G01 X62.850 Y57.150 Z9.701
G01 X63.104 Y56.896 Z9.734
G01 X63.104 Y57.378 Z9.768
G01 X63.104 Y58.222 Z9.927
G01 X63.104 Y58.584 Z9.937
G01 X63.104 Y59.066 Z9.887
G01 X63.104 Y59.669 Z9.742
G01 X63.104 Y60.633 Z9.431
G01 X63.104 Y61.236 Z9.230
G01 X63.104 Y61.477 Z9.212
G01 X63.104 Y62.019 Z9.246
G01 X63.104 Y63.104 Z9.375
G01 X61.115 Y63.104 Z9.437
G01 X59.247 Y63.104 Z9.423
G01 X57.258 Y63.104 Z9.329
G01 X56.896 Y63.104 Z9.288
G01 X56.896 Y62.079 Z9.097
G01 X56.896 Y61.175 Z8.981
G01 X56.896 Y60.331 Z8.943
G01 X56.896 Y59.849 Z9.002
G01 X56.896 Y57.921 Z9.339
G01 X56.896 Y57.378 Z9.440
G01 X56.896 Y56.896 Z9.477
G01 X57.077 Y56.896 Z9.553
G01 X57.499 Y56.896 Z9.766
G01 X57.800 Y56.896 Z9.851
G01 X58.222 Y56.896 Z9.897
G01 X58.523 Y56.896 Z9.876
G01 X58.825 Y56.896 Z9.793
G01 X59.186 Y56.896 Z9.625
G01 X59.427 Y56.896 Z9.453
G01 X59.608 Y56.896 Z9.269
G01 X59.669 Y56.896 Z9.241
G01 X60.090 Y56.896 Z9.422
G01 X60.392 Y56.896 Z9.481
G01 X60.693 Y56.896 Z9.480
G01 X61.055 Y56.896 Z9.403
G01 X61.416 Y56.896 Z9.261
G01 X61.718 Y56.896 Z9.086
G01 X61.778 Y56.896 Z9.086
G01 X62.320 Y56.896 Z9.467
G01 X62.742 Y56.896 Z9.659
G01 X63.044 Y56.896 Z9.727
G01 X63.104 Y56.896 Z9.734
G01 X63.358 Y56.642 Z9.736
G01 X63.358 Y57.422 Z9.765
G01 X63.358 Y58.201 Z9.865
G01 X63.358 Y58.681 Z9.857
G01 X63.358 Y59.160 Z9.776
G01 X63.358 Y60.480 Z9.366
G01 X63.358 Y61.079 Z9.168
G01 X63.358 Y61.559 Z9.170
G01 X63.358 Y62.279 Z9.250
G01 X63.358 Y63.358 Z9.403
G01 X60.959 Y63.358 Z9.462
G01 X58.621 Y63.358 Z9.434
G01 X57.122 Y63.358 Z9.355
G01 X56.642 Y63.358 Z9.303
G01 X56.642 Y62.159 Z9.047
G01 X56.642 Y60.780 Z8.859
G01 X56.642 Y60.060 Z8.841
G01 X56.642 Y58.861 Z9.025
G01 X56.642 Y57.781 Z9.222
G01 X56.642 Y57.062 Z9.350
G01 X56.642 Y56.642 Z9.411
G01 X57.002 Y56.642 Z9.520
G01 X57.481 Y56.642 Z9.750
G01 X57.781 Y56.642 Z9.839
G01 X58.081 Y56.642 Z9.868
G01 X58.501 Y56.642 Z9.832
G01 X58.801 Y56.642 Z9.752
G01 X59.101 Y56.642 Z9.599
G01 X59.400 Y56.642 Z9.350
G01 X59.580 Y56.642 Z9.140
G01 X59.940 Y56.642 Z9.333
G01 X60.240 Y56.642 Z9.423
G01 X60.540 Y56.642 Z9.452
G01 X60.840 Y56.642 Z9.423
G01 X61.139 Y56.642 Z9.334
G01 X61.439 Y56.642 Z9.170
G01 X61.799 Y56.642 Z8.943
G01 X61.859 Y56.642 Z8.972
G01 X62.039 Y56.642 Z9.187
G01 X62.339 Y56.642 Z9.435
G01 X62.638 Y56.642 Z9.599
G01 X62.998 Y56.642 Z9.708
G01 X63.298 Y56.642 Z9.737
G01 X63.358 Y56.642 Z9.736
G01 X63.612 Y56.388 Z9.729
G01 X63.612 Y57.351 Z9.718
G01 X63.612 Y58.013 Z9.785
G01 X63.612 Y58.555 Z9.775
G01 X63.612 Y59.037 Z9.686
G01 X63.612 Y60.843 Z9.122
G01 X63.612 Y61.445 Z9.121
G01 X63.612 Y62.047 Z9.189
G01 X63.612 Y63.612 Z9.427
G01 X62.528 Y63.612 Z9.464
G01 X60.602 Y63.612 Z9.488
G01 X58.555 Y63.612 Z9.461
G01 X57.833 Y63.612 Z9.436
G01 X57.712 Y63.612 Z9.881
G01 X57.592 Y63.612 Z10.090
G01 X57.411 Y63.612 Z10.266
G01 X57.231 Y63.612 Z10.368
G01 X56.930 Y63.612 Z10.452
G01 X56.629 Y63.612 Z10.477
G01 X56.388 Y63.612 Z10.457
G01 X56.388 Y63.492 Z10.247
G01 X56.388 Y63.431 Z10.103
G01 X56.388 Y63.371 Z9.897
G01 X56.388 Y63.311 Z9.257
G01 X56.388 Y62.348 Z9.013
G01 X56.388 Y60.963 Z8.775
G01 X56.388 Y60.482 Z8.719
G01 X56.388 Y59.880 Z8.705
G01 X56.388 Y57.652 Z9.093
G01 X56.388 Y56.629 Z9.330
G01 X56.388 Y56.388 Z9.370
G01 X56.870 Y56.388 Z9.486
G01 X56.990 Y56.388 Z9.513
G01 X57.411 Y56.388 Z9.696
G01 X57.712 Y56.388 Z9.787
G01 X58.074 Y56.388 Z9.828
G01 X58.435 Y56.388 Z9.790
G01 X58.796 Y56.388 Z9.677
G01 X59.097 Y56.388 Z9.504
G01 X59.338 Y56.388 Z9.282
G01 X59.518 Y56.388 Z9.025
G01 X59.880 Y56.388 Z9.252
G01 X60.181 Y56.388 Z9.359
G01 X60.482 Y56.388 Z9.401
G01 X60.783 Y56.388 Z9.383
G01 X61.084 Y56.388 Z9.302
G01 X61.385 Y56.388 Z9.147
G01 X61.746 Y56.388 Z8.894
G01 X61.806 Y56.388 Z8.856
G01 X61.866 Y56.388 Z8.870
G01 X62.047 Y56.388 Z9.115
G01 X62.288 Y56.388 Z9.341
G01 X62.589 Y56.388 Z9.529
G01 X62.890 Y56.388 Z9.645
G01 X63.371 Y56.388 Z9.731
G01 X63.612 Y56.388 Z9.729
G01 X63.866 Y56.134 Z9.702
G01 X63.866 Y57.393 Z9.660
G01 X63.866 Y58.052 Z9.702
G01 X63.866 Y58.412 Z9.682
G01 X63.866 Y58.891 Z9.588
G01 X63.866 Y60.629 Z9.071
G01 X63.866 Y61.349 Z9.072
G01 X63.866 Y61.888 Z9.132
G01 X63.866 Y63.866 Z9.445
G01 X62.847 Y63.866 Z9.493
G01 X60.569 Y63.866 Z9.516
G01 X58.112 Y63.866 Z9.486
G01 X57.992 Y63.866 Z9.955
G01 X57.872 Y63.866 Z10.192
G01 X57.692 Y63.866 Z10.406
G01 X57.453 Y63.866 Z10.580
G01 X57.153 Y63.866 Z10.698
G01 X56.733 Y63.866 Z10.764
G01 X56.374 Y63.866 Z10.745
G01 X56.134 Y63.866 Z10.698
G01 X56.134 Y63.686 Z10.501
G01 X56.134 Y63.506 Z10.210
G01 X56.134 Y63.387 Z9.872
G01 X56.134 Y63.327 Z9.218
G01 X56.134 Y62.727 Z9.037
G01 X56.134 Y62.427 Z8.941
G01 X56.134 Y61.468 Z8.741
G01 X56.134 Y61.169 Z8.672
G01 X56.134 Y60.629 Z8.567
G01 X56.134 Y60.030 Z8.521
G01 X56.134 Y59.790 Z8.533
G01 X56.134 Y57.872 Z8.917
G01 X56.134 Y56.374 Z9.289
G01 X56.134 Y56.134 Z9.331
G01 X56.613 Y56.134 Z9.444
G01 X56.973 Y56.134 Z9.502
G01 X57.273 Y56.134 Z9.638
G01 X57.752 Y56.134 Z9.743
G01 X58.052 Y56.134 Z9.767
G01 X58.412 Y56.134 Z9.725
G01 X58.711 Y56.134 Z9.624
G01 X59.011 Y56.134 Z9.445
G01 X59.251 Y56.134 Z9.222
G01 X59.491 Y56.134 Z8.906
G01 X59.730 Y56.134 Z9.080
G01 X60.030 Y56.134 Z9.219
G01 X60.330 Y56.134 Z9.293
G01 X60.629 Y56.134 Z9.305
G01 X60.929 Y56.134 Z9.255
G01 X61.289 Y56.134 Z9.119
G01 X61.588 Y56.134 Z8.922
G01 X61.888 Y56.134 Z8.714
G01 X62.068 Y56.134 Z9.020
G01 X62.308 Y56.134 Z9.289
G01 X62.547 Y56.134 Z9.467
G01 X62.847 Y56.134 Z9.607
G01 X63.147 Y56.134 Z9.703
G01 X63.446 Y56.134 Z9.738
G01 X63.806 Y56.134 Z9.713
G01 X63.866 Y56.134 Z9.702
G01 X64.120 Y55.880 Z9.643
G01 X64.120 Y56.722 Z9.590
G01 X64.120 Y57.384 Z9.573
G01 X64.120 Y57.865 Z9.587
G01 X64.120 Y58.286 Z9.561
G01 X64.120 Y58.767 Z9.462
G01 X64.120 Y59.549 Z9.223
G01 X64.120 Y60.451 Z8.986
G01 X64.120 Y61.413 Z9.028
G01 X64.120 Y62.616 Z9.208
G01 X64.120 Y63.639 Z9.390
G01 X64.120 Y64.120 Z9.455
G01 X62.917 Y64.120 Z9.524
G01 X60.391 Y64.120 Z9.542
G01 X58.286 Y64.120 Z9.523
G01 X58.166 Y64.120 Z10.017
G01 X58.045 Y64.120 Z10.263
G01 X57.865 Y64.120 Z10.494
G01 X57.624 Y64.120 Z10.692
G01 X57.323 Y64.120 Z10.837
G01 X57.023 Y64.120 Z10.915
G01 X56.662 Y64.120 Z10.948
G01 X56.301 Y64.120 Z10.921
G01 X55.940 Y64.120 Z10.830
G01 X55.880 Y64.120 Z10.809
G01 X55.880 Y63.879 Z10.624
G01 X55.880 Y63.699 Z10.421
G01 X55.880 Y63.519 Z10.117
G01 X55.880 Y63.458 Z9.972
G01 X55.880 Y63.398 Z9.752
G01 X55.880 Y63.338 Z9.169
G01 X55.880 Y62.797 Z8.988
G01 X55.880 Y62.376 Z8.816
G01 X55.880 Y61.714 Z8.633
G01 X55.880 Y61.173 Z8.495
G01 X55.880 Y60.872 Z8.413
G01 X55.880 Y60.331 Z8.316
G01 X55.880 Y59.850 Z8.266
G01 X55.880 Y59.549 Z8.344
G01 X55.880 Y59.188 Z8.442
G01 X55.880 Y56.963 Z9.034
G01 X55.880 Y56.181 Z9.237
G01 X55.880 Y55.880 Z9.291
G01 X56.421 Y55.880 Z9.419
G01 X56.963 Y55.880 Z9.482
G01 X57.323 Y55.880 Z9.629
G01 X57.684 Y55.880 Z9.697
G01 X58.045 Y55.880 Z9.701
G01 X58.406 Y55.880 Z9.639
G01 X58.707 Y55.880 Z9.521
G01 X58.947 Y55.880 Z9.363
G01 X59.188 Y55.880 Z9.119
G01 X59.368 Y55.880 Z8.859
G01 X59.429 Y55.880 Z8.822
G01 X59.669 Y55.880 Z9.019
G01 X59.970 Y55.880 Z9.175
G01 X60.271 Y55.880 Z9.259
G01 X60.571 Y55.880 Z9.282
G01 X60.872 Y55.880 Z9.246
G01 X61.173 Y55.880 Z9.149
G01 X61.474 Y55.880 Z8.975
G01 X61.714 Y55.880 Z8.755
G01 X61.895 Y55.880 Z8.599
G01 X62.135 Y55.880 Z9.018
G01 X62.376 Y55.880 Z9.287
G01 X62.616 Y55.880 Z9.465
G01 X62.977 Y55.880 Z9.630
G01 X63.278 Y55.880 Z9.700
G01 X63.639 Y55.880 Z9.709
G01 X64.060 Y55.880 Z9.658
G01 X64.120 Y55.880 Z9.643
G01 X64.374 Y55.626 Z9.571
G01 X64.374 Y56.225 Z9.518
G01 X64.374 Y56.705 Z9.450
G01 X64.374 Y57.244 Z9.444
G01 X64.374 Y57.843 Z9.457
G01 X64.374 Y58.262 Z9.400
G01 X64.374 Y60.240 Z8.879
G01 X64.374 Y61.079 Z8.935
G01 X64.374 Y62.037 Z9.059
G01 X64.374 Y62.996 Z9.243
G01 X64.374 Y63.715 Z9.377
G01 X64.374 Y64.374 Z9.464
G01 X62.936 Y64.374 Z9.553
G01 X60.360 Y64.374 Z9.569
G01 X58.502 Y64.374 Z9.554
G01 X58.442 Y64.374 Z9.689
G01 X58.382 Y64.374 Z9.911
G01 X58.262 Y64.374 Z10.158
G01 X58.023 Y64.374 Z10.497
G01 X57.783 Y64.374 Z10.726
G01 X57.483 Y64.374 Z10.903
G01 X57.124 Y64.374 Z11.018
G01 X56.705 Y64.374 Z11.068
G01 X56.345 Y64.374 Z11.048
G01 X55.986 Y64.374 Z10.970
G01 X55.626 Y64.374 Z10.826
G01 X55.626 Y64.074 Z10.661
G01 X55.626 Y63.835 Z10.449
G01 X55.626 Y63.655 Z10.207
G01 X55.626 Y63.535 Z9.953
G01 X55.626 Y63.475 Z9.737
G01 X55.626 Y63.415 Z9.138
G01 X55.626 Y62.816 Z8.914
G01 X55.626 Y62.457 Z8.735
G01 X55.626 Y62.217 Z8.621
G01 X55.626 Y61.558 Z8.379
G01 X55.626 Y61.079 Z8.207
G01 X55.626 Y60.899 Z8.140
G01 X55.626 Y60.479 Z8.022
G01 X55.626 Y60.300 Z7.980
G01 X55.626 Y59.820 Z7.914
G01 X55.626 Y58.862 Z8.226
G01 X55.626 Y58.622 Z8.361
G01 X55.626 Y58.442 Z8.421
G01 X55.626 Y57.963 Z8.651
G01 X55.626 Y57.184 Z8.877
G01 X55.626 Y56.465 Z9.068
G01 X55.626 Y55.626 Z9.280
G01 X56.225 Y55.626 Z9.404
G01 X56.824 Y55.626 Z9.444
G01 X56.884 Y55.626 Z9.443
G01 X57.244 Y55.626 Z9.575
G01 X57.603 Y55.626 Z9.643
G01 X58.023 Y55.626 Z9.635
G01 X58.322 Y55.626 Z9.567
G01 X58.622 Y55.626 Z9.440
G01 X58.862 Y55.626 Z9.273
G01 X59.041 Y55.626 Z9.096
G01 X59.221 Y55.626 Z8.835
G01 X59.341 Y55.626 Z8.636
G01 X59.581 Y55.626 Z8.882
G01 X59.820 Y55.626 Z9.043
G01 X60.120 Y55.626 Z9.165
G01 X60.419 Y55.626 Z9.220
G01 X60.719 Y55.626 Z9.214
G01 X61.019 Y55.626 Z9.147
G01 X61.318 Y55.626 Z9.010
G01 X61.558 Y55.626 Z8.832
G01 X61.798 Y55.626 Z8.583
G01 X61.917 Y55.626 Z8.486
G01 X61.977 Y55.626 Z8.522
G01 X62.097 Y55.626 Z8.821
G01 X62.277 Y55.626 Z9.088
G01 X62.517 Y55.626 Z9.316
G01 X62.816 Y55.626 Z9.503
G01 X63.116 Y55.626 Z9.621
G01 X63.535 Y55.626 Z9.690
G01 X63.835 Y55.626 Z9.697
G01 X64.134 Y55.626 Z9.646
G01 X64.374 Y55.626 Z9.571
G01 X64.628 Y55.372 Z9.508
G01 X64.628 Y56.454 Z9.329
G01 X64.628 Y56.754 Z9.266
G01 X64.628 Y57.055 Z9.281
G01 X64.628 Y57.536 Z9.320
G01 X64.628 Y57.956 Z9.282
G01 X64.628 Y58.437 Z9.171
G01 X64.628 Y59.940 Z8.769
G01 X64.628 Y60.481 Z8.778
G01 X64.628 Y61.202 Z8.859
G01 X64.628 Y62.344 Z9.045
G01 X64.628 Y63.546 Z9.322
G01 X64.628 Y64.508 Z9.459
G01 X64.628 Y64.628 Z9.473
G01 X63.065 Y64.628 Z9.574
G01 X62.344 Y64.628 Z9.582
G01 X61.983 Y64.628 Z9.699
G01 X61.623 Y64.628 Z9.731
G01 X61.322 Y64.628 Z9.696
G01 X61.022 Y64.628 Z9.599
G01 X58.618 Y64.628 Z9.582
G01 X58.497 Y64.628 Z9.973
G01 X58.377 Y64.628 Z10.219
G01 X58.197 Y64.628 Z10.457
G01 X57.836 Y64.628 Z10.781
G01 X57.536 Y64.628 Z10.956
G01 X57.175 Y64.628 Z11.078
G01 X56.754 Y64.628 Z11.137
G01 X56.334 Y64.628 Z11.117
G01 X55.973 Y64.628 Z11.039
G01 X55.612 Y64.628 Z10.898
G01 X55.372 Y64.628 Z10.764
G01 X55.372 Y64.327 Z10.658
G01 X55.372 Y64.087 Z10.506
G01 X55.372 Y63.907 Z10.334
G01 X55.372 Y63.726 Z10.067
G01 X55.372 Y63.666 Z9.933
G01 X55.372 Y63.546 Z9.444
G01 X55.372 Y63.486 Z9.100
G01 X55.372 Y63.005 Z8.907
G01 X55.372 Y62.584 Z8.679
G01 X55.372 Y62.164 Z8.382
G01 X55.372 Y61.743 Z8.155
G01 X55.372 Y61.262 Z7.953
G01 X55.372 Y60.661 Z7.603
G01 X55.372 Y60.301 Z7.419
G01 X55.372 Y60.060 Z7.364
G01 X55.372 Y59.639 Z7.433
G01 X55.372 Y59.159 Z7.601
G01 X55.372 Y58.918 Z7.764
G01 X55.372 Y58.858 Z7.791
G01 X55.372 Y58.197 Z8.352
G01 X55.372 Y57.716 Z8.604
G01 X55.372 Y57.115 Z8.814
G01 X55.372 Y55.372 Z9.280
G01 X55.973 Y55.372 Z9.392
G01 X56.574 Y55.372 Z9.420
G01 X56.814 Y55.372 Z9.417
G01 X57.115 Y55.372 Z9.534
G01 X57.416 Y55.372 Z9.588
G01 X57.776 Y55.372 Z9.596
G01 X58.137 Y55.372 Z9.529
G01 X58.497 Y55.372 Z9.379
G01 X58.738 Y55.372 Z9.219
G01 X58.918 Y55.372 Z9.041
G01 X59.098 Y55.372 Z8.785
G01 X59.219 Y55.372 Z8.505
G01 X59.279 Y55.372 Z8.490
G01 X59.519 Y55.372 Z8.744
G01 X59.760 Y55.372 Z8.914
G01 X60.060 Y55.372 Z9.046
G01 X60.361 Y55.372 Z9.112
G01 X60.661 Y55.372 Z9.117
G01 X60.962 Y55.372 Z9.064
G01 X61.262 Y55.372 Z8.946
G01 X61.503 Y55.372 Z8.791
G01 X61.743 Y55.372 Z8.559
G01 X61.863 Y55.372 Z8.433
G01 X61.983 Y55.372 Z8.326
G01 X62.044 Y55.372 Z8.396
G01 X62.164 Y55.372 Z8.706
G01 X62.344 Y55.372 Z9.009
G01 X62.524 Y55.372 Z9.210
G01 X62.765 Y55.372 Z9.393
G01 X63.125 Y55.372 Z9.567
G01 X63.486 Y55.372 Z9.656
G01 X63.787 Y55.372 Z9.672
G01 X64.267 Y55.372 Z9.622
G01 X64.568 Y55.372 Z9.531
G01 X64.628 Y55.372 Z9.508
G01 X64.882 Y55.118 Z9.453
G01 X64.882 Y56.136 Z9.204
G01 X64.882 Y56.316 Z9.167
G01 X64.882 Y57.035 Z9.141
G01 X64.882 Y57.454 Z9.161
G01 X64.882 Y57.933 Z9.105
G01 X64.882 Y59.730 Z8.635
G01 X64.882 Y60.030 Z8.597
G01 X64.882 Y60.569 Z8.644
G01 X64.882 Y61.048 Z8.721
G01 X64.882 Y62.067 Z8.906
G01 X64.882 Y62.606 Z9.027
G01 X64.882 Y63.205 Z9.207
G01 X64.882 Y63.864 Z9.347
G01 X64.882 Y64.882 Z9.480
G01 X63.085 Y64.882 Z9.594
G01 X62.785 Y64.882 Z9.599
G01 X62.546 Y64.882 Z9.792
G01 X62.306 Y64.882 Z9.906
G01 X61.947 Y64.882 Z9.999
G01 X61.587 Y64.882 Z10.020
G01 X61.228 Y64.882 Z9.972
G01 X60.869 Y64.882 Z9.847
G01 X60.629 Y64.882 Z9.695
G01 X60.569 Y64.882 Z9.642
G01 X60.509 Y64.882 Z9.615
G01 X58.772 Y64.882 Z9.608
G01 X58.712 Y64.882 Z9.683
G01 X58.532 Y64.882 Z10.093
G01 X58.353 Y64.882 Z10.393
G01 X58.113 Y64.882 Z10.643
G01 X57.814 Y64.882 Z10.855
G01 X57.514 Y64.882 Z11.009
G01 X57.095 Y64.882 Z11.130
G01 X56.675 Y64.882 Z11.171
G01 X56.316 Y64.882 Z11.147
G01 X55.957 Y64.882 Z11.067
G01 X55.597 Y64.882 Z10.924
G01 X55.298 Y64.882 Z10.748
G01 X55.118 Y64.882 Z10.607
G01 X55.118 Y64.582 Z10.546
G01 X55.118 Y64.343 Z10.440
G01 X55.118 Y64.163 Z10.310
G01 X55.118 Y63.983 Z10.109
G01 X55.118 Y63.804 Z9.813
G01 X55.118 Y63.684 Z9.448
G01 X55.118 Y63.624 Z9.084
G01 X55.118 Y63.085 Z8.849
G01 X55.118 Y62.726 Z8.628
G01 X55.118 Y62.306 Z8.280
G01 X55.118 Y62.067 Z8.038
G01 X55.118 Y61.408 Z7.631
G01 X55.118 Y60.689 Z7.113
G01 X55.118 Y60.210 Z6.802
G01 X55.118 Y60.150 Z6.777
G01 X55.118 Y59.671 Z6.793
G01 X55.118 Y59.611 Z6.813
G01 X55.118 Y59.251 Z7.064
G01 X55.118 Y58.712 Z7.365
G01 X55.118 Y58.473 Z7.577
G01 X55.118 Y58.353 Z7.833
G01 X55.118 Y58.173 Z8.058
G01 X55.118 Y57.933 Z8.289
G01 X55.118 Y57.454 Z8.588
G01 X55.118 Y57.155 Z8.721
G01 X55.118 Y56.436 Z8.940
G01 X55.118 Y55.118 Z9.287
G01 X55.777 Y55.118 Z9.403
G01 X56.256 Y55.118 Z9.428
G01 X56.735 Y55.118 Z9.399
G01 X57.035 Y55.118 Z9.521
G01 X57.334 Y55.118 Z9.578
G01 X57.694 Y55.118 Z9.573
G01 X57.993 Y55.118 Z9.514
G01 X58.293 Y55.118 Z9.389
G01 X58.592 Y55.118 Z9.198
G01 X58.832 Y55.118 Z8.961
G01 X59.012 Y55.118 Z8.678
G01 X59.131 Y55.118 Z8.364
G01 X59.191 Y55.118 Z8.279
G01 X59.371 Y55.118 Z8.519
G01 X59.611 Y55.118 Z8.744
G01 X59.910 Y55.118 Z8.924
G01 X60.210 Y55.118 Z9.024
G01 X60.509 Y55.118 Z9.060
G01 X60.809 Y55.118 Z9.036
G01 X61.108 Y55.118 Z8.950
G01 X61.408 Y55.118 Z8.789
G01 X61.647 Y55.118 Z8.584
G01 X61.887 Y55.118 Z8.328
G01 X61.947 Y55.118 Z8.274
G01 X62.007 Y55.118 Z8.267
G01 X62.127 Y55.118 Z8.339
G01 X62.306 Y55.118 Z8.759
G01 X62.486 Y55.118 Z9.026
G01 X62.726 Y55.118 Z9.259
G01 X63.025 Y55.118 Z9.453
G01 X63.325 Y55.118 Z9.569
G01 X63.744 Y55.118 Z9.648
G01 X64.103 Y55.118 Z9.653
G01 X64.582 Y55.118 Z9.562
G01 X64.882 Y55.118 Z9.453
G01 X65.136 Y54.864 Z9.387
G01 X65.136 Y55.224 Z9.306
G01 X65.136 Y55.465 Z9.272
G01 X65.136 Y56.426 Z9.132
G01 X65.136 Y57.807 Z8.930
G01 X65.136 Y58.648 Z8.714
G01 X65.136 Y59.429 Z8.500
G01 X65.136 Y59.850 Z8.397
G01 X65.136 Y60.210 Z8.410
G01 X65.136 Y60.931 Z8.518
G01 X65.136 Y62.493 Z8.901
G01 X65.136 Y63.094 Z9.126
G01 X65.136 Y63.875 Z9.319
G01 X65.136 Y64.956 Z9.467
G01 X65.136 Y65.136 Z9.485
G01 X63.394 Y65.136 Z9.597
G01 X63.034 Y65.136 Z9.607
G01 X62.733 Y65.136 Z9.888
G01 X62.493 Y65.136 Z10.030
G01 X62.132 Y65.136 Z10.153
G01 X61.712 Y65.136 Z10.207
G01 X61.352 Y65.136 Z10.185
G01 X60.991 Y65.136 Z10.096
G01 X60.691 Y65.136 Z9.962
G01 X60.451 Y65.136 Z9.785
G01 X60.270 Y65.136 Z9.622
G01 X59.069 Y65.136 Z9.621
G01 X58.829 Y65.136 Z9.635
G01 X58.588 Y65.136 Z10.126
G01 X58.348 Y65.136 Z10.460
G01 X58.048 Y65.136 Z10.739
G01 X57.747 Y65.136 Z10.930
G01 X57.387 Y65.136 Z11.081
G01 X57.027 Y65.136 Z11.167
G01 X56.666 Y65.136 Z11.195
G01 X56.306 Y65.136 Z11.169
G01 X55.945 Y65.136 Z11.087
G01 X55.585 Y65.136 Z10.942
G01 X55.284 Y65.136 Z10.763
G01 X54.984 Y65.136 Z10.508
G01 X54.864 Y65.136 Z10.375
G01 X54.864 Y64.716 Z10.316
G01 X54.864 Y64.475 Z10.217
G01 X54.864 Y64.295 Z10.095
G01 X54.864 Y64.115 Z9.901
G01 X54.864 Y63.935 Z9.563
G01 X54.864 Y63.875 Z9.366
G01 X54.864 Y63.814 Z9.080
G01 X54.864 Y63.394 Z8.903
G01 X54.864 Y63.034 Z8.696
G01 X54.864 Y62.673 Z8.407
G01 X54.864 Y62.253 Z7.970
G01 X54.864 Y61.892 Z7.578
G01 X54.864 Y61.472 Z7.251
G01 X54.864 Y61.111 Z6.929
G01 X54.864 Y60.871 Z6.682
G01 X54.864 Y60.751 Z6.684
G01 X54.864 Y60.330 Z6.743
G01 X54.864 Y59.489 Z6.746
G01 X54.864 Y58.949 Z6.731
G01 X54.864 Y58.889 Z6.762
G01 X54.864 Y58.168 Z7.548
G01 X54.864 Y57.988 Z7.879
G01 X54.864 Y57.747 Z8.208
G01 X54.864 Y57.507 Z8.424
G01 X54.864 Y57.087 Z8.652
G01 X54.864 Y56.726 Z8.798
G01 X54.864 Y54.864 Z9.293
G01 X55.645 Y54.864 Z9.425
G01 X56.125 Y54.864 Z9.438
G01 X56.606 Y54.864 Z9.380
G01 X57.027 Y54.864 Z9.534
G01 X57.387 Y54.864 Z9.587
G01 X57.687 Y54.864 Z9.576
G01 X57.988 Y54.864 Z9.507
G01 X58.288 Y54.864 Z9.369
G01 X58.528 Y54.864 Z9.194
G01 X58.708 Y54.864 Z9.006
G01 X58.889 Y54.864 Z8.731
G01 X59.069 Y54.864 Z8.269
G01 X59.129 Y54.864 Z8.227
G01 X59.189 Y54.864 Z8.241
G01 X59.369 Y54.864 Z8.483
G01 X59.610 Y54.864 Z8.699
G01 X59.910 Y54.864 Z8.871
G01 X60.210 Y54.864 Z8.968
G01 X60.511 Y54.864 Z9.003
G01 X60.811 Y54.864 Z8.979
G01 X61.111 Y54.864 Z8.895
G01 X61.412 Y54.864 Z8.740
G01 X61.652 Y54.864 Z8.544
G01 X61.952 Y54.864 Z8.201
G01 X62.253 Y54.864 Z8.363
G01 X62.433 Y54.864 Z8.743
G01 X62.613 Y54.864 Z9.006
G01 X62.853 Y54.864 Z9.245
G01 X63.094 Y54.864 Z9.410
G01 X63.454 Y54.864 Z9.563
G01 X63.814 Y54.864 Z9.635
G01 X64.235 Y54.864 Z9.648
G01 X64.595 Y54.864 Z9.591
G01 X65.016 Y54.864 Z9.447
G01 X65.136 Y54.864 Z9.387
G01 X65.221 Y54.779 Z9.353
G01 X65.390 Y54.610 Z9.387
G01 X65.390 Y55.269 Z9.317
G01 X65.390 Y56.107 Z9.165
G01 X65.390 Y56.467 Z9.072
G01 X65.390 Y57.545 Z8.830
G01 X65.390 Y58.263 Z8.638
G01 X65.390 Y59.102 Z8.332
G01 X65.390 Y59.461 Z8.207
G01 X65.390 Y59.880 Z8.102
G01 X65.390 Y60.240 Z8.138
G01 X65.390 Y60.838 Z8.257
G01 X65.390 Y61.497 Z8.460
G01 X65.390 Y62.396 Z8.751
G01 X65.390 Y62.815 Z8.955
G01 X65.390 Y63.474 Z9.179
G01 X65.390 Y64.072 Z9.322
G01 X65.390 Y65.210 Z9.472
G01 X65.390 Y65.330 Z9.484
G01 X65.390 Y65.390 Z9.542
G01 X65.330 Y65.390 Z9.502
G01 X63.533 Y65.390 Z9.604
G01 X63.174 Y65.390 Z9.612
G01 X62.935 Y65.390 Z9.877
G01 X62.695 Y65.390 Z10.059
G01 X62.396 Y65.390 Z10.198
G01 X62.036 Y65.390 Z10.295
G01 X61.677 Y65.390 Z10.328
G01 X61.258 Y65.390 Z10.290
G01 X60.898 Y65.390 Z10.190
G01 X60.599 Y65.390 Z10.048
G01 X60.240 Y65.390 Z9.775
G01 X60.120 Y65.390 Z9.659
G01 X60.060 Y65.390 Z9.628
G01 X59.162 Y65.390 Z9.630
G01 X58.862 Y65.390 Z9.657
G01 X58.802 Y65.390 Z9.753
G01 X58.682 Y65.390 Z10.024
G01 X58.503 Y65.390 Z10.313
G01 X58.263 Y65.390 Z10.582
G01 X57.964 Y65.390 Z10.815
G01 X57.604 Y65.390 Z11.008
G01 X57.185 Y65.390 Z11.140
G01 X56.766 Y65.390 Z11.192
G01 X56.347 Y65.390 Z11.172
G01 X55.987 Y65.390 Z11.097
G01 X55.628 Y65.390 Z10.960
G01 X55.269 Y65.390 Z10.748
G01 X54.969 Y65.390 Z10.489
G01 X54.909 Y65.390 Z10.425
G01 X54.850 Y65.390 Z10.390
G01 X54.610 Y65.390 Z10.346
G01 X54.610 Y65.091 Z10.156
G01 X54.610 Y64.851 Z9.968
G01 X54.610 Y64.611 Z9.861
G01 X54.610 Y64.372 Z9.659
G01 X54.610 Y64.252 Z9.473
G01 X54.610 Y64.132 Z9.129
G01 X54.610 Y63.653 Z8.934
G01 X54.610 Y63.174 Z8.649
G01 X54.610 Y62.815 Z8.340
G01 X54.610 Y62.096 Z7.496
G01 X54.610 Y61.857 Z7.074
G01 X54.610 Y61.677 Z6.871
G01 X54.610 Y61.617 Z6.785
G01 X54.610 Y61.318 Z6.638
G01 X54.610 Y61.138 Z6.603
G01 X54.610 Y60.659 Z6.641
G01 X54.610 Y60.180 Z6.681
G01 X54.610 Y58.623 Z6.689
G01 X54.610 Y58.563 Z6.708
G01 X54.610 Y58.323 Z6.968
G01 X54.610 Y58.143 Z7.146
G01 X54.610 Y57.964 Z7.440
G01 X54.610 Y57.784 Z7.883
G01 X54.610 Y57.604 Z8.150
G01 X54.610 Y57.365 Z8.378
G01 X54.610 Y57.006 Z8.612
G01 X54.610 Y56.526 Z8.797
G01 X54.610 Y54.850 Z9.246
G01 X54.610 Y54.610 Z9.298
G01 X55.508 Y54.610 Z9.441
G01 X56.047 Y54.610 Z9.449
G01 X56.467 Y54.610 Z9.391
G01 X56.586 Y54.610 Z9.376
G01 X56.886 Y54.610 Z9.505
G01 X57.245 Y54.610 Z9.586
G01 X57.545 Y54.610 Z9.591
G01 X57.844 Y54.610 Z9.538
G01 X58.143 Y54.610 Z9.421
G01 X58.443 Y54.610 Z9.222
G01 X58.682 Y54.610 Z8.981
G01 X58.862 Y54.610 Z8.704
G01 X59.042 Y54.610 Z8.235
G01 X59.162 Y54.610 Z8.150
G01 X59.401 Y54.610 Z8.462
G01 X59.641 Y54.610 Z8.673
G01 X59.940 Y54.610 Z8.840
G01 X60.240 Y54.610 Z8.932
G01 X60.539 Y54.610 Z8.961
G01 X60.838 Y54.610 Z8.932
G01 X61.138 Y54.610 Z8.841
G01 X61.437 Y54.610 Z8.675
G01 X61.677 Y54.610 Z8.464
G01 X61.916 Y54.610 Z8.163
G01 X61.976 Y54.610 Z8.135
G01 X62.276 Y54.610 Z8.320
G01 X62.396 Y54.610 Z8.372
G01 X62.515 Y54.610 Z8.670
G01 X62.695 Y54.610 Z8.953
G01 X62.935 Y54.610 Z9.208
G01 X63.234 Y54.610 Z9.417
G01 X63.533 Y54.610 Z9.551
G01 X63.833 Y54.610 Z9.629
G01 X64.192 Y54.610 Z9.657
G01 X64.492 Y54.610 Z9.630
G01 X64.911 Y54.610 Z9.522
G01 X65.210 Y54.610 Z9.380
G01 X65.330 Y54.610 Z9.380
G01 X65.390 Y54.610 Z9.387
G01 X65.644 Y54.356 Z9.433
G01 X65.644 Y55.016 Z9.365
G01 X65.644 Y55.797 Z9.213
G01 X65.644 Y56.998 Z8.882
G01 X65.644 Y57.778 Z8.655
G01 X65.644 Y58.259 Z8.469
G01 X65.644 Y58.619 Z8.244
G01 X65.644 Y58.859 Z8.091
G01 X65.644 Y59.159 Z7.897
G01 X65.644 Y59.460 Z7.800
G01 X65.644 Y59.820 Z7.662
G01 X65.644 Y60.060 Z7.649
G01 X65.644 Y60.300 Z7.703
G01 X65.644 Y60.781 Z7.885
G01 X65.644 Y61.201 Z8.096
G01 X65.644 Y61.801 Z8.309
G01 X65.644 Y62.101 Z8.458
G01 X65.644 Y62.282 Z8.540
G01 X65.644 Y62.702 Z8.809
G01 X65.644 Y63.122 Z8.999
G01 X65.644 Y63.723 Z9.199
G01 X65.644 Y64.263 Z9.325
G01 X65.644 Y65.164 Z9.445
G01 X65.644 Y65.224 Z9.475
G01 X65.644 Y65.464 Z9.737
G01 X65.644 Y65.644 Z9.886
G01 X65.284 Y65.644 Z9.729
G01 X64.984 Y65.644 Z9.546
G01 X63.603 Y65.644 Z9.610
G01 X63.362 Y65.644 Z9.615
G01 X63.302 Y65.644 Z9.657
G01 X63.062 Y65.644 Z9.895
G01 X62.702 Y65.644 Z10.142
G01 X62.402 Y65.644 Z10.279
G01 X62.041 Y65.644 Z10.371
G01 X61.681 Y65.644 Z10.401
G01 X61.321 Y65.644 Z10.374
G01 X60.961 Y65.644 Z10.287
G01 X60.600 Y65.644 Z10.131
G01 X60.300 Y65.644 Z9.935
G01 X60.240 Y65.644 Z9.925
G01 X60.120 Y65.644 Z10.048
G01 X59.940 Y65.644 Z10.150
G01 X59.700 Y65.644 Z10.229
G01 X59.460 Y65.644 Z10.246
G01 X59.219 Y65.644 Z10.195
G01 X59.039 Y65.644 Z10.106
G01 X58.859 Y65.644 Z9.953
G01 X58.799 Y65.644 Z9.878
G01 X58.739 Y65.644 Z9.950
G01 X58.559 Y65.644 Z10.248
G01 X58.319 Y65.644 Z10.522
G01 X58.019 Y65.644 Z10.775
G01 X57.658 Y65.644 Z10.979
G01 X57.238 Y65.644 Z11.121
G01 X56.818 Y65.644 Z11.182
G01 X56.457 Y65.644 Z11.174
G01 X56.037 Y65.644 Z11.097
G01 X55.677 Y65.644 Z10.966
G01 X55.377 Y65.644 Z10.802
G01 X55.077 Y65.644 Z10.574
G01 X55.016 Y65.644 Z10.523
G01 X54.596 Y65.644 Z10.480
G01 X54.356 Y65.644 Z10.423
G01 X54.356 Y65.164 Z10.128
G01 X54.356 Y64.743 Z9.750
G01 X54.356 Y64.443 Z9.362
G01 X54.356 Y64.323 Z9.161
G01 X54.356 Y64.143 Z9.076
G01 X54.356 Y63.783 Z8.904
G01 X54.356 Y63.362 Z8.632
G01 X54.356 Y63.002 Z8.305
G01 X54.356 Y62.642 Z7.869
G01 X54.356 Y62.342 Z7.469
G01 X54.356 Y62.162 Z7.122
G01 X54.356 Y61.921 Z6.893
G01 X54.356 Y61.621 Z6.719
G01 X54.356 Y61.321 Z6.614
G01 X54.356 Y60.841 Z6.587
G01 X54.356 Y60.480 Z6.562
G01 X54.356 Y59.340 Z6.661
G01 X54.356 Y58.499 Z6.686
G01 X54.356 Y58.319 Z6.710
G01 X54.356 Y58.259 Z6.736
G01 X54.356 Y57.899 Z7.129
G01 X54.356 Y57.838 Z7.259
G01 X54.356 Y57.778 Z7.595
G01 X54.356 Y57.658 Z7.871
G01 X54.356 Y57.478 Z8.118
G01 X54.356 Y57.178 Z8.396
G01 X54.356 Y56.878 Z8.573
G01 X54.356 Y56.397 Z8.766
G01 X54.356 Y55.557 Z9.019
G01 X54.356 Y54.356 Z9.314
G01 X55.377 Y54.356 Z9.451
G01 X55.857 Y54.356 Z9.460
G01 X56.337 Y54.356 Z9.395
G01 X56.518 Y54.356 Z9.347
G01 X56.818 Y54.356 Z9.478
G01 X57.178 Y54.356 Z9.558
G01 X57.538 Y54.356 Z9.562
G01 X57.838 Y54.356 Z9.510
G01 X58.139 Y54.356 Z9.391
G01 X58.379 Y54.356 Z9.237
G01 X58.619 Y54.356 Z9.004
G01 X58.799 Y54.356 Z8.734
G01 X58.919 Y54.356 Z8.433
G01 X58.979 Y54.356 Z8.208
G01 X59.159 Y54.356 Z8.083
G01 X59.219 Y54.356 Z8.108
G01 X59.400 Y54.356 Z8.344
G01 X59.640 Y54.356 Z8.572
G01 X59.880 Y54.356 Z8.724
G01 X60.180 Y54.356 Z8.836
G01 X60.480 Y54.356 Z8.880
G01 X60.781 Y54.356 Z8.861
G01 X61.081 Y54.356 Z8.778
G01 X61.381 Y54.356 Z8.616
G01 X61.621 Y54.356 Z8.406
G01 X61.861 Y54.356 Z8.144
G01 X61.921 Y54.356 Z8.094
G01 X61.981 Y54.356 Z8.068
G01 X62.222 Y54.356 Z8.227
G01 X62.462 Y54.356 Z8.332
G01 X62.522 Y54.356 Z8.420
G01 X62.702 Y54.356 Z8.823
G01 X62.942 Y54.356 Z9.140
G01 X63.182 Y54.356 Z9.347
G01 X63.482 Y54.356 Z9.511
G01 X63.783 Y54.356 Z9.601
G01 X64.083 Y54.356 Z9.640
G01 X64.563 Y54.356 Z9.616
G01 X64.863 Y54.356 Z9.551
G01 X65.284 Y54.356 Z9.387
G01 X65.644 Y54.356 Z9.433
G01 X65.898 Y54.102 Z9.462
G01 X65.898 Y54.641 Z9.423
G01 X65.898 Y55.419 Z9.284
G01 X65.898 Y56.138 Z9.080
G01 X65.898 Y57.395 Z8.672
G01 X65.898 Y57.934 Z8.403
G01 X65.898 Y58.293 Z8.191
G01 X65.898 Y58.473 Z8.029
G01 X65.898 Y58.593 Z7.865
G01 X65.898 Y58.713 Z7.626
G01 X65.898 Y59.132 Z7.449
G01 X65.898 Y59.790 Z7.060
G01 X65.898 Y60.030 Z6.985
G01 X65.898 Y60.210 Z7.031
G01 X65.898 Y60.868 Z7.463
G01 X65.898 Y61.407 Z7.821
G01 X65.898 Y62.066 Z8.172
G01 X65.898 Y62.186 Z8.265
G01 X65.898 Y62.425 Z8.485
G01 X65.898 Y62.784 Z8.735
G01 X65.898 Y63.203 Z8.951
G01 X65.898 Y63.862 Z9.187
G01 X65.898 Y64.461 Z9.328
G01 X65.898 Y65.060 Z9.409
G01 X65.898 Y65.120 Z9.450
G01 X65.898 Y65.419 Z9.774
G01 X65.898 Y65.718 Z10.002
G01 X65.898 Y65.898 Z10.110
G01 X65.539 Y65.898 Z10.033
G01 X65.239 Y65.898 Z9.911
G01 X64.940 Y65.898 Z9.726
G01 X64.760 Y65.898 Z9.577
G01 X63.443 Y65.898 Z9.621
G01 X63.144 Y65.898 Z9.928
G01 X62.844 Y65.898 Z10.148
G01 X62.545 Y65.898 Z10.300
G01 X62.186 Y65.898 Z10.412
G01 X61.766 Y65.898 Z10.464
G01 X61.347 Y65.898 Z10.437
G01 X60.988 Y65.898 Z10.349
G01 X60.629 Y65.898 Z10.196
G01 X60.569 Y65.898 Z10.161
G01 X60.269 Y65.898 Z10.411
G01 X60.030 Y65.898 Z10.525
G01 X59.790 Y65.898 Z10.573
G01 X59.551 Y65.898 Z10.567
G01 X59.192 Y65.898 Z10.493
G01 X58.952 Y65.898 Z10.394
G01 X58.713 Y65.898 Z10.220
G01 X58.653 Y65.898 Z10.160
G01 X58.593 Y65.898 Z10.182
G01 X58.353 Y65.898 Z10.473
G01 X58.054 Y65.898 Z10.727
G01 X57.695 Y65.898 Z10.933
G01 X57.335 Y65.898 Z11.062
G01 X56.916 Y65.898 Z11.138
G01 X56.497 Y65.898 Z11.141
G01 X56.138 Y65.898 Z11.085
G01 X55.779 Y65.898 Z10.969
G01 X55.419 Y65.898 Z10.786
G01 X55.180 Y65.898 Z10.617
G01 X54.761 Y65.898 Z10.608
G01 X54.342 Y65.898 Z10.532
G01 X54.102 Y65.898 Z10.454
G01 X54.102 Y65.539 Z10.269
G01 X54.102 Y65.120 Z9.971
G01 X54.102 Y64.760 Z9.597
G01 X54.102 Y64.581 Z9.342
G01 X54.102 Y64.461 Z9.149
G01 X54.102 Y64.042 Z8.963
G01 X54.102 Y63.623 Z8.691
G01 X54.102 Y63.323 Z8.429
G01 X54.102 Y62.964 Z8.016
G01 X54.102 Y62.665 Z7.580
G01 X54.102 Y62.485 Z7.282
G01 X54.102 Y62.126 Z6.941
G01 X54.102 Y61.826 Z6.768
G01 X54.102 Y61.407 Z6.625
G01 X54.102 Y60.808 Z6.574
G01 X54.102 Y60.509 Z6.563
G01 X54.102 Y59.611 Z6.635
G01 X54.102 Y58.114 Z6.743
G01 X54.102 Y58.054 Z6.764
G01 X54.102 Y57.695 Z7.131
G01 X54.102 Y57.635 Z7.483
G01 X54.102 Y57.515 Z7.803
G01 X54.102 Y57.335 Z8.082
G01 X54.102 Y57.096 Z8.308
G01 X54.102 Y56.737 Z8.526
G01 X54.102 Y56.138 Z8.793
G01 X54.102 Y55.659 Z8.950
G01 X54.102 Y54.102 Z9.335
G01 X55.300 Y54.102 Z9.465
G01 X55.838 Y54.102 Z9.451
G01 X56.437 Y54.102 Z9.338
G01 X56.797 Y54.102 Z9.458
G01 X57.216 Y54.102 Z9.527
G01 X57.515 Y54.102 Z9.514
G01 X57.874 Y54.102 Z9.428
G01 X58.174 Y54.102 Z9.290
G01 X58.413 Y54.102 Z9.114
G01 X58.593 Y54.102 Z8.922
G01 X58.772 Y54.102 Z8.625
G01 X58.832 Y54.102 Z8.471
G01 X58.892 Y54.102 Z8.212
G01 X58.952 Y54.102 Z8.135
G01 X59.132 Y54.102 Z8.017
G01 X59.192 Y54.102 Z7.998
G01 X59.371 Y54.102 Z8.231
G01 X59.611 Y54.102 Z8.446
G01 X59.910 Y54.102 Z8.628
G01 X60.210 Y54.102 Z8.730
G01 X60.509 Y54.102 Z8.767
G01 X60.808 Y54.102 Z8.743
G01 X61.108 Y54.102 Z8.655
G01 X61.407 Y54.102 Z8.490
G01 X61.647 Y54.102 Z8.295
G01 X61.886 Y54.102 Z8.059
G01 X61.946 Y54.102 Z8.007
G01 X62.006 Y54.102 Z7.995
G01 X62.365 Y54.102 Z8.215
G01 X62.545 Y54.102 Z8.293
G01 X62.724 Y54.102 Z8.736
G01 X62.904 Y54.102 Z9.008
G01 X63.144 Y54.102 Z9.242
G01 X63.443 Y54.102 Z9.434
G01 X63.802 Y54.102 Z9.568
G01 X64.102 Y54.102 Z9.616
G01 X64.581 Y54.102 Z9.603
G01 X65.120 Y54.102 Z9.477
G01 X65.359 Y54.102 Z9.394
G01 X65.898 Y54.102 Z9.462
G01 X66.152 Y53.848 Z9.487
G01 X66.152 Y54.448 Z9.449
G01 X66.152 Y55.168 Z9.323
G01 X66.152 Y55.889 Z9.119
G01 X66.152 Y57.029 Z8.715
G01 X66.152 Y57.509 Z8.480
G01 X66.152 Y57.929 Z8.160
G01 X66.152 Y58.109 Z7.936
G01 X66.152 Y58.169 Z7.829
G01 X66.152 Y58.289 Z7.670
G01 X66.152 Y58.349 Z7.535
G01 X66.152 Y58.710 Z7.182
G01 X66.152 Y59.190 Z6.776
G01 X66.152 Y59.550 Z6.774
G01 X66.152 Y60.150 Z6.774
G01 X66.152 Y60.510 Z6.733
G01 X66.152 Y60.930 Z7.028
G01 X66.152 Y61.711 Z7.627
G01 X66.152 Y62.011 Z7.835
G01 X66.152 Y62.491 Z8.341
G01 X66.152 Y62.851 Z8.633
G01 X66.152 Y63.331 Z8.916
G01 X66.152 Y63.811 Z9.113
G01 X66.152 Y64.471 Z9.297
G01 X66.152 Y65.012 Z9.379
G01 X66.152 Y65.252 Z9.670
G01 X66.152 Y65.672 Z10.009
G01 X66.152 Y66.092 Z10.225
G01 X66.152 Y66.152 Z10.250
G01 X65.732 Y66.152 Z10.212
G01 X65.312 Y66.152 Z10.092
G01 X65.012 Y66.152 Z9.951
G01 X64.712 Y66.152 Z9.740
G01 X64.591 Y66.152 Z9.628
G01 X64.531 Y66.152 Z9.595
G01 X63.511 Y66.152 Z9.626
G01 X63.271 Y66.152 Z9.896
G01 X62.971 Y66.152 Z10.133
G01 X62.671 Y66.152 Z10.301
G01 X62.251 Y66.152 Z10.443
G01 X61.891 Y66.152 Z10.497
G01 X61.470 Y66.152 Z10.490
G01 X61.050 Y66.152 Z10.407
G01 X60.750 Y66.152 Z10.310
G01 X60.570 Y66.152 Z10.490
G01 X60.330 Y66.152 Z10.650
G01 X60.030 Y66.152 Z10.763
G01 X59.730 Y66.152 Z10.805
G01 X59.430 Y66.152 Z10.777
G01 X59.010 Y66.152 Z10.637
G01 X58.710 Y66.152 Z10.460
G01 X58.470 Y66.152 Z10.265
G01 X58.229 Y66.152 Z10.528
G01 X57.929 Y66.152 Z10.759
G01 X57.629 Y66.152 Z10.914
G01 X57.269 Y66.152 Z11.033
G01 X56.909 Y66.152 Z11.093
G01 X56.489 Y66.152 Z11.092
G01 X56.069 Y66.152 Z11.015
G01 X55.709 Y66.152 Z10.883
G01 X55.409 Y66.152 Z10.719
G01 X55.348 Y66.152 Z10.678
G01 X54.868 Y66.152 Z10.699
G01 X54.448 Y66.152 Z10.647
G01 X54.088 Y66.152 Z10.545
G01 X53.848 Y66.152 Z10.444
G01 X53.848 Y65.852 Z10.318
G01 X53.848 Y65.492 Z10.103
G01 X53.848 Y65.072 Z9.751
G01 X53.848 Y64.772 Z9.358
G01 X53.848 Y64.652 Z9.178
G01 X53.848 Y64.291 Z9.031
G01 X53.848 Y63.871 Z8.775
G01 X53.848 Y63.631 Z8.574
G01 X53.848 Y63.271 Z8.147
G01 X53.848 Y62.911 Z7.652
G01 X53.848 Y62.791 Z7.439
G01 X53.848 Y62.371 Z7.033
G01 X53.848 Y62.131 Z6.872
G01 X53.848 Y61.470 Z6.632
G01 X53.848 Y60.750 Z6.597
G01 X53.848 Y60.150 Z6.619
G01 X53.848 Y58.890 Z6.739
G01 X53.848 Y57.869 Z6.769
G01 X53.848 Y57.569 Z7.075
G01 X53.848 Y57.509 Z7.385
G01 X53.848 Y57.389 Z7.694
G01 X53.848 Y57.209 Z7.973
G01 X53.848 Y57.029 Z8.182
G01 X53.848 Y56.789 Z8.367
G01 X53.848 Y56.129 Z8.734
G01 X53.848 Y55.709 Z8.894
G01 X53.848 Y53.848 Z9.358
G01 X54.988 Y53.848 Z9.468
G01 X55.529 Y53.848 Z9.463
G01 X56.009 Y53.848 Z9.400
G01 X56.309 Y53.848 Z9.320
G01 X56.729 Y53.848 Z9.450
G01 X57.149 Y53.848 Z9.496
G01 X57.449 Y53.848 Z9.473
G01 X57.809 Y53.848 Z9.377
G01 X58.109 Y53.848 Z9.229
G01 X58.349 Y53.848 Z9.038
G01 X58.530 Y53.848 Z8.827
G01 X58.650 Y53.848 Z8.624
G01 X58.710 Y53.848 Z8.484
G01 X58.830 Y53.848 Z8.114
G01 X59.070 Y53.848 Z7.963
G01 X59.130 Y53.848 Z7.968
G01 X59.310 Y53.848 Z8.251
G01 X59.550 Y53.848 Z8.488
G01 X59.790 Y53.848 Z8.642
G01 X60.090 Y53.848 Z8.758
G01 X60.390 Y53.848 Z8.807
G01 X60.690 Y53.848 Z8.795
G01 X60.990 Y53.848 Z8.721
G01 X61.290 Y53.848 Z8.573
G01 X61.531 Y53.848 Z8.382
G01 X61.771 Y53.848 Z8.119
G01 X61.891 Y53.848 Z7.982
G01 X61.951 Y53.848 Z7.928
G01 X62.011 Y53.848 Z7.900
G01 X62.251 Y53.848 Z8.068
G01 X62.551 Y53.848 Z8.212
G01 X62.611 Y53.848 Z8.232
G01 X62.791 Y53.848 Z8.694
G01 X62.971 Y53.848 Z8.969
G01 X63.211 Y53.848 Z9.214
G01 X63.511 Y53.848 Z9.406
G01 X63.811 Y53.848 Z9.517
G01 X64.291 Y53.848 Z9.595
G01 X64.591 Y53.848 Z9.583
G01 X65.012 Y53.848 Z9.521
G01 X65.432 Y53.848 Z9.397
G01 X66.152 Y53.848 Z9.487
G01 X66.406 Y53.594 Z9.511
G01 X66.406 Y54.253 Z9.472
G01 X66.406 Y54.911 Z9.363
G01 X66.406 Y55.630 Z9.163
G01 X66.406 Y57.007 Z8.653
G01 X66.406 Y57.366 Z8.432
G01 X66.406 Y57.605 Z8.212
G01 X66.406 Y57.785 Z7.976
G01 X66.406 Y57.964 Z7.663
G01 X66.406 Y58.024 Z7.510
G01 X66.406 Y58.264 Z7.204
G01 X66.406 Y58.503 Z6.958
G01 X66.406 Y58.743 Z6.701
G01 X66.406 Y60.120 Z6.721
G01 X66.406 Y60.718 Z6.656
G01 X66.406 Y61.197 Z6.610
G01 X66.406 Y61.257 Z6.635
G01 X66.406 Y61.377 Z6.830
G01 X66.406 Y61.616 Z7.094
G01 X66.406 Y61.856 Z7.318
G01 X66.406 Y62.095 Z7.650
G01 X66.406 Y62.754 Z8.374
G01 X66.406 Y63.113 Z8.673
G01 X66.406 Y63.652 Z8.981
G01 X66.406 Y64.131 Z9.159
G01 X66.406 Y64.730 Z9.313
G01 X66.406 Y64.969 Z9.351
G01 X66.406 Y65.209 Z9.646
G01 X66.406 Y65.508 Z9.902
G01 X66.406 Y65.927 Z10.148
G01 X66.406 Y66.406 Z10.316
G01 X65.987 Y66.406 Z10.333
G01 X65.508 Y66.406 Z10.272
G01 X65.149 Y66.406 Z10.153
G01 X64.849 Y66.406 Z9.993
G01 X64.550 Y66.406 Z9.760
G01 X64.430 Y66.406 Z9.641
G01 X64.370 Y66.406 Z9.604
G01 X63.592 Y66.406 Z9.622
G01 X63.233 Y66.406 Z9.989
G01 X62.934 Y66.406 Z10.205
G01 X62.574 Y66.406 Z10.381
G01 X62.215 Y66.406 Z10.487
G01 X61.796 Y66.406 Z10.532
G01 X61.377 Y66.406 Z10.501
G01 X61.018 Y66.406 Z10.412
G01 X60.958 Y66.406 Z10.391
G01 X60.718 Y66.406 Z10.619
G01 X60.479 Y66.406 Z10.773
G01 X60.180 Y66.406 Z10.890
G01 X59.880 Y66.406 Z10.948
G01 X59.521 Y66.406 Z10.944
G01 X59.222 Y66.406 Z10.873
G01 X58.862 Y66.406 Z10.712
G01 X58.563 Y66.406 Z10.499
G01 X58.384 Y66.406 Z10.320
G01 X58.324 Y66.406 Z10.308
G01 X58.084 Y66.406 Z10.540
G01 X57.785 Y66.406 Z10.747
G01 X57.426 Y66.406 Z10.908
G01 X57.007 Y66.406 Z11.006
G01 X56.587 Y66.406 Z11.022
G01 X56.168 Y66.406 Z10.965
G01 X55.809 Y66.406 Z10.852
G01 X55.510 Y66.406 Z10.707
G01 X54.971 Y66.406 Z10.758
G01 X54.552 Y66.406 Z10.732
G01 X54.133 Y66.406 Z10.635
G01 X53.774 Y66.406 Z10.490
G01 X53.594 Y66.406 Z10.390
G01 X53.594 Y65.927 Z10.204
G01 X53.594 Y65.568 Z9.981
G01 X53.594 Y65.149 Z9.584
G01 X53.594 Y64.909 Z9.229
G01 X53.594 Y64.550 Z9.112
G01 X53.594 Y64.131 Z8.905
G01 X53.594 Y63.832 Z8.667
G01 X53.594 Y63.652 Z8.478
G01 X53.594 Y63.472 Z8.197
G01 X53.594 Y63.353 Z7.995
G01 X53.594 Y63.053 Z7.552
G01 X53.594 Y62.455 Z7.012
G01 X53.594 Y62.155 Z6.860
G01 X53.594 Y61.557 Z6.647
G01 X53.594 Y60.659 Z6.604
G01 X53.594 Y60.120 Z6.638
G01 X53.594 Y58.982 Z6.783
G01 X53.594 Y58.324 Z6.809
G01 X53.594 Y57.665 Z6.785
G01 X53.594 Y57.426 Z7.040
G01 X53.594 Y57.306 Z7.481
G01 X53.594 Y57.186 Z7.754
G01 X53.594 Y57.007 Z7.999
G01 X53.594 Y56.528 Z8.405
G01 X53.594 Y56.109 Z8.680
G01 X53.594 Y55.689 Z8.858
G01 X53.594 Y55.031 Z9.019
G01 X53.594 Y53.594 Z9.387
G01 X54.911 Y53.594 Z9.488
G01 X55.510 Y53.594 Z9.459
G01 X55.989 Y53.594 Z9.362
G01 X56.228 Y53.594 Z9.298
G01 X56.647 Y53.594 Z9.431
G01 X57.007 Y53.594 Z9.477
G01 X57.366 Y53.594 Z9.456
G01 X57.665 Y53.594 Z9.378
G01 X57.964 Y53.594 Z9.235
G01 X58.204 Y53.594 Z9.059
G01 X58.384 Y53.594 Z8.868
G01 X58.563 Y53.594 Z8.583
G01 X58.623 Y53.594 Z8.445
G01 X58.743 Y53.594 Z8.062
G01 X58.982 Y53.594 Z7.930
G01 X59.042 Y53.594 Z7.929
G01 X59.222 Y53.594 Z8.240
G01 X59.461 Y53.594 Z8.496
G01 X59.701 Y53.594 Z8.665
G01 X60.000 Y53.594 Z8.798
G01 X60.299 Y53.594 Z8.862
G01 X60.599 Y53.594 Z8.868
G01 X60.898 Y53.594 Z8.816
G01 X61.197 Y53.594 Z8.699
G01 X61.437 Y53.594 Z8.547
G01 X61.676 Y53.594 Z8.318
G01 X61.856 Y53.594 Z8.056
G01 X61.916 Y53.594 Z7.934
G01 X62.036 Y53.594 Z7.799
G01 X62.275 Y53.594 Z7.982
G01 X62.574 Y53.594 Z8.125
G01 X62.694 Y53.594 Z8.163
G01 X62.814 Y53.594 Z8.570
G01 X62.934 Y53.594 Z8.802
G01 X63.113 Y53.594 Z9.033
G01 X63.353 Y53.594 Z9.240
G01 X63.652 Y53.594 Z9.408
G01 X64.071 Y53.594 Z9.538
G01 X64.430 Y53.594 Z9.573
G01 X64.849 Y53.594 Z9.552
G01 X65.388 Y53.594 Z9.429
G01 X65.508 Y53.594 Z9.397
G01 X66.406 Y53.594 Z9.511
G01 X66.660 Y53.340 Z9.541
G01 X66.660 Y54.060 Z9.497
G01 X66.660 Y54.720 Z9.390
G01 X66.660 Y55.440 Z9.190
G01 X66.660 Y56.520 Z8.774
G01 X66.660 Y57.000 Z8.555
G01 X66.660 Y57.300 Z8.357
G01 X66.660 Y57.540 Z8.129
G01 X66.660 Y57.720 Z7.858
G01 X66.660 Y57.780 Z7.724
G01 X66.660 Y57.900 Z7.317
G01 X66.660 Y57.960 Z7.184
G01 X66.660 Y58.380 Z6.734
G01 X66.660 Y58.440 Z6.690
G01 X66.660 Y59.820 Z6.645
G01 X66.660 Y60.660 Z6.593
G01 X66.660 Y61.260 Z6.608
G01 X66.660 Y61.560 Z6.716
G01 X66.660 Y61.860 Z6.892
G01 X66.660 Y61.980 Z7.016
G01 X66.660 Y62.220 Z7.466
G01 X66.660 Y62.880 Z8.285
G01 X66.660 Y63.240 Z8.608
G01 X66.660 Y63.600 Z8.845
G01 X66.660 Y63.960 Z9.030
G01 X66.660 Y64.680 Z9.271
G01 X66.660 Y64.920 Z9.317
G01 X66.660 Y65.280 Z9.700
G01 X66.660 Y65.580 Z9.937
G01 X66.660 Y65.940 Z10.125
G01 X66.660 Y66.300 Z10.251
G01 X66.660 Y66.660 Z10.320
G01 X66.180 Y66.660 Z10.391
G01 X65.760 Y66.660 Z10.388
G01 X65.340 Y66.660 Z10.310
G01 X64.920 Y66.660 Z10.144
G01 X64.620 Y66.660 Z9.955
G01 X64.320 Y66.660 Z9.682
G01 X64.260 Y66.660 Z9.613
G01 X63.720 Y66.660 Z9.613
G01 X63.660 Y66.660 Z9.615
G01 X63.600 Y66.660 Z9.651
G01 X63.360 Y66.660 Z9.921
G01 X63.060 Y66.660 Z10.160
G01 X62.700 Y66.660 Z10.353
G01 X62.340 Y66.660 Z10.473
G01 X61.920 Y66.660 Z10.536
G01 X61.560 Y66.660 Z10.531
G01 X61.200 Y66.660 Z10.471
G01 X61.140 Y66.660 Z10.456
G01 X60.780 Y66.660 Z10.753
G01 X60.480 Y66.660 Z10.918
G01 X60.180 Y66.660 Z11.015
G01 X59.820 Y66.660 Z11.058
G01 X59.520 Y66.660 Z11.040
G01 X59.220 Y66.660 Z10.971
G01 X58.860 Y66.660 Z10.806
G01 X58.560 Y66.660 Z10.598
G01 X58.320 Y66.660 Z10.357
G01 X58.260 Y66.660 Z10.278
G01 X58.200 Y66.660 Z10.300
G01 X57.960 Y66.660 Z10.509
G01 X57.600 Y66.660 Z10.723
G01 X57.240 Y66.660 Z10.853
G01 X56.880 Y66.660 Z10.918
G01 X56.520 Y66.660 Z10.924
G01 X56.160 Y66.660 Z10.872
G01 X55.800 Y66.660 Z10.754
G01 X55.680 Y66.660 Z10.698
G01 X55.560 Y66.660 Z10.713
G01 X55.140 Y66.660 Z10.786
G01 X54.720 Y66.660 Z10.789
G01 X54.360 Y66.660 Z10.740
G01 X53.940 Y66.660 Z10.615
G01 X53.580 Y66.660 Z10.441
G01 X53.340 Y66.660 Z10.279
G01 X53.340 Y66.240 Z10.150
G01 X53.340 Y65.880 Z9.965
G01 X53.340 Y65.580 Z9.738
G01 X53.340 Y65.340 Z9.474
G01 X53.340 Y65.220 Z9.315
G01 X53.340 Y65.160 Z9.266
G01 X53.340 Y64.680 Z9.143
G01 X53.340 Y64.260 Z8.980
G01 X53.340 Y63.960 Z8.787
G01 X53.340 Y63.720 Z8.570
G01 X53.340 Y63.540 Z8.336
G01 X53.340 Y63.420 Z8.111
G01 X53.340 Y63.360 Z7.950
G01 X53.340 Y63.300 Z7.706
G01 X53.340 Y63.000 Z7.431
G01 X53.340 Y62.760 Z7.193
G01 X53.340 Y62.580 Z7.033
G01 X53.340 Y61.980 Z6.789
G01 X53.340 Y61.560 Z6.653
G01 X53.340 Y60.780 Z6.617
G01 X53.340 Y60.420 Z6.638
G01 X53.340 Y59.100 Z6.816
G01 X53.340 Y58.380 Z6.877
G01 X53.340 Y57.780 Z6.861
G01 X53.340 Y57.480 Z6.818
G01 X53.340 Y57.420 Z6.830
G01 X53.340 Y57.240 Z7.051
G01 X53.340 Y57.120 Z7.429
G01 X53.340 Y57.000 Z7.686
G01 X53.340 Y56.760 Z8.026
G01 X53.340 Y56.520 Z8.298
G01 X53.340 Y56.160 Z8.587
G01 X53.340 Y55.800 Z8.770
G01 X53.340 Y55.320 Z8.921
G01 X53.340 Y54.540 Z9.097
G01 X53.340 Y53.340 Z9.421
G01 X54.660 Y53.340 Z9.497
G01 X55.200 Y53.340 Z9.492
G01 X55.800 Y53.340 Z9.372
G01 X56.100 Y53.340 Z9.278
G01 X56.580 Y53.340 Z9.407
G01 X57.060 Y53.340 Z9.442
G01 X57.420 Y53.340 Z9.398
G01 X57.720 Y53.340 Z9.293
G01 X58.020 Y53.340 Z9.120
G01 X58.260 Y53.340 Z8.899
G01 X58.440 Y53.340 Z8.644
G01 X58.560 Y53.340 Z8.369
G01 X58.620 Y53.340 Z8.103
G01 X58.680 Y53.340 Z7.980
G01 X58.920 Y53.340 Z7.839
G01 X58.980 Y53.340 Z7.826
G01 X59.100 Y53.340 Z8.091
G01 X59.280 Y53.340 Z8.345
G01 X59.520 Y53.340 Z8.570
G01 X59.820 Y53.340 Z8.750
G01 X60.120 Y53.340 Z8.852
G01 X60.420 Y53.340 Z8.892
G01 X60.720 Y53.340 Z8.875
G01 X61.020 Y53.340 Z8.799
G01 X61.320 Y53.340 Z8.653
G01 X61.560 Y53.340 Z8.469
G01 X61.740 Y53.340 Z8.271
G01 X61.920 Y53.340 Z7.974
G01 X62.040 Y53.340 Z7.718
G01 X62.100 Y53.340 Z7.727
G01 X62.400 Y53.340 Z7.932
G01 X62.760 Y53.340 Z8.094
G01 X62.820 Y53.340 Z8.363
G01 X62.940 Y53.340 Z8.667
G01 X63.120 Y53.340 Z8.933
G01 X63.360 Y53.340 Z9.169
G01 X63.660 Y53.340 Z9.355
G01 X63.960 Y53.340 Z9.472
G01 X64.320 Y53.340 Z9.540
G01 X64.740 Y53.340 Z9.549
G01 X65.220 Y53.340 Z9.482
G01 X65.580 Y53.340 Z9.389
G01 X66.300 Y53.340 Z9.492
G01 X66.660 Y53.340 Z9.541
G01 X66.914 Y53.086 Z9.576
G01 X66.914 Y53.747 Z9.538
G01 X66.914 Y54.529 Z9.418
G01 X66.914 Y55.190 Z9.240
G01 X66.914 Y55.972 Z8.946
G01 X66.914 Y56.693 Z8.612
G01 X66.914 Y56.994 Z8.427
G01 X66.914 Y57.355 Z8.131
G01 X66.914 Y57.535 Z7.902
G01 X66.914 Y57.655 Z7.657
G01 X66.914 Y57.775 Z7.163
G01 X66.914 Y58.136 Z6.773
G01 X66.914 Y58.196 Z6.734
G01 X66.914 Y59.038 Z6.661
G01 X66.914 Y59.639 Z6.623
G01 X66.914 Y60.601 Z6.554
G01 X66.914 Y61.142 Z6.612
G01 X66.914 Y61.383 Z6.625
G01 X66.914 Y61.804 Z6.780
G01 X66.914 Y62.104 Z6.966
G01 X66.914 Y62.345 Z7.214
G01 X66.914 Y62.465 Z7.466
G01 X66.914 Y62.946 Z8.108
G01 X66.914 Y63.247 Z8.431
G01 X66.914 Y63.607 Z8.733
G01 X66.914 Y64.148 Z9.046
G01 X66.914 Y64.689 Z9.239
G01 X66.914 Y64.930 Z9.304
G01 X66.914 Y65.170 Z9.567
G01 X66.914 Y65.531 Z9.860
G01 X66.914 Y65.832 Z10.035
G01 X66.914 Y66.253 Z10.182
G01 X66.914 Y66.674 Z10.254
G01 X66.914 Y66.914 Z10.261
G01 X66.433 Y66.914 Z10.394
G01 X66.012 Y66.914 Z10.443
G01 X65.531 Y66.914 Z10.417
G01 X65.110 Y66.914 Z10.309
G01 X64.750 Y66.914 Z10.134
G01 X64.449 Y66.914 Z9.920
G01 X64.209 Y66.914 Z9.675
G01 X64.148 Y66.914 Z9.600
G01 X63.667 Y66.914 Z9.609
G01 X63.367 Y66.914 Z9.936
G01 X63.066 Y66.914 Z10.168
G01 X62.766 Y66.914 Z10.333
G01 X62.405 Y66.914 Z10.462
G01 X62.044 Y66.914 Z10.528
G01 X61.683 Y66.914 Z10.536
G01 X61.263 Y66.914 Z10.471
G01 X60.962 Y66.914 Z10.757
G01 X60.661 Y66.914 Z10.938
G01 X60.301 Y66.914 Z11.069
G01 X59.940 Y66.914 Z11.124
G01 X59.579 Y66.914 Z11.106
G01 X59.218 Y66.914 Z11.023
G01 X58.858 Y66.914 Z10.866
G01 X58.557 Y66.914 Z10.664
G01 X58.317 Y66.914 Z10.436
G01 X58.136 Y66.914 Z10.217
G01 X57.836 Y66.914 Z10.451
G01 X57.535 Y66.914 Z10.614
G01 X57.174 Y66.914 Z10.738
G01 X56.814 Y66.914 Z10.796
G01 X56.453 Y66.914 Z10.792
G01 X56.092 Y66.914 Z10.727
G01 X55.852 Y66.914 Z10.649
G01 X55.791 Y66.914 Z10.650
G01 X55.431 Y66.914 Z10.756
G01 X55.070 Y66.914 Z10.806
G01 X54.649 Y66.914 Z10.802
G01 X54.228 Y66.914 Z10.732
G01 X53.807 Y66.914 Z10.590
G01 X53.387 Y66.914 Z10.354
G01 X53.086 Y66.914 Z10.098
G01 X53.086 Y66.553 Z10.022
G01 X53.086 Y66.193 Z9.870
G01 X53.086 Y65.892 Z9.675
G01 X53.086 Y65.651 Z9.448
G01 X53.086 Y65.531 Z9.297
G01 X53.086 Y64.930 Z9.207
G01 X53.086 Y64.449 Z9.078
G01 X53.086 Y64.148 Z8.934
G01 X53.086 Y63.848 Z8.729
G01 X53.086 Y63.607 Z8.481
G01 X53.086 Y63.427 Z8.188
G01 X53.086 Y63.307 Z7.906
G01 X53.086 Y63.247 Z7.676
G01 X53.086 Y63.186 Z7.532
G01 X53.086 Y62.826 Z7.175
G01 X53.086 Y62.585 Z7.019
G01 X53.086 Y61.804 Z6.726
G01 X53.086 Y61.503 Z6.672
G01 X53.086 Y60.902 Z6.644
G01 X53.086 Y60.541 Z6.665
G01 X53.086 Y59.218 Z6.849
G01 X53.086 Y58.677 Z6.901
G01 X53.086 Y58.256 Z6.940
G01 X53.086 Y57.775 Z6.918
G01 X53.086 Y57.355 Z6.849
G01 X53.086 Y57.234 Z6.816
G01 X53.086 Y57.054 Z7.081
G01 X53.086 Y56.934 Z7.460
G01 X53.086 Y56.693 Z7.949
G01 X53.086 Y56.513 Z8.194
G01 X53.086 Y56.272 Z8.429
G01 X53.086 Y55.972 Z8.630
G01 X53.086 Y55.611 Z8.795
G01 X53.086 Y55.130 Z8.929
G01 X53.086 Y54.469 Z9.075
G01 X53.086 Y53.266 Z9.416
G01 X53.086 Y53.086 Z9.455
G01 X54.168 Y53.086 Z9.508
G01 X55.010 Y53.086 Z9.498
G01 X55.491 Y53.086 Z9.419
G01 X56.032 Y53.086 Z9.252
G01 X56.453 Y53.086 Z9.378
G01 X56.814 Y53.086 Z9.419
G01 X57.114 Y53.086 Z9.392
G01 X57.535 Y53.086 Z9.279
G01 X57.836 Y53.086 Z9.136
G01 X58.076 Y53.086 Z8.948
G01 X58.256 Y53.086 Z8.738
G01 X58.377 Y53.086 Z8.538
G01 X58.437 Y53.086 Z8.401
G01 X58.557 Y53.086 Z7.923
G01 X58.858 Y53.086 Z7.750
G01 X58.918 Y53.086 Z7.704
G01 X58.978 Y53.086 Z7.767
G01 X59.098 Y53.086 Z8.045
G01 X59.279 Y53.086 Z8.312
G01 X59.519 Y53.086 Z8.544
G01 X59.820 Y53.086 Z8.727
G01 X60.120 Y53.086 Z8.831
G01 X60.421 Y53.086 Z8.872
G01 X60.721 Y53.086 Z8.854
G01 X61.022 Y53.086 Z8.776
G01 X61.323 Y53.086 Z8.627
G01 X61.563 Y53.086 Z8.438
G01 X61.744 Y53.086 Z8.233
G01 X61.924 Y53.086 Z7.919
G01 X61.984 Y53.086 Z7.761
G01 X62.104 Y53.086 Z7.607
G01 X62.465 Y53.086 Z7.864
G01 X62.826 Y53.086 Z8.027
G01 X62.946 Y53.086 Z8.462
G01 X63.066 Y53.086 Z8.712
G01 X63.247 Y53.086 Z8.952
G01 X63.487 Y53.086 Z9.170
G01 X63.788 Y53.086 Z9.347
G01 X64.088 Y53.086 Z9.450
G01 X64.449 Y53.086 Z9.524
G01 X64.870 Y53.086 Z9.524
G01 X65.231 Y53.086 Z9.476
G01 X65.651 Y53.086 Z9.373
G01 X65.892 Y53.086 Z9.402
G01 X66.914 Y53.086 Z9.576
G01 X67.168 Y52.832 Z9.609
G01 X67.168 Y53.432 Z9.585
G01 X67.168 Y54.272 Z9.459
G01 X67.168 Y54.931 Z9.294
G01 X67.168 Y55.651 Z9.034
G01 X67.168 Y56.191 Z8.781
G01 X67.168 Y56.791 Z8.440
G01 X67.168 Y57.091 Z8.199
G01 X67.168 Y57.331 Z7.907
G01 X67.168 Y57.451 Z7.718
G01 X67.168 Y57.571 Z7.420
G01 X67.168 Y57.631 Z7.148
G01 X67.168 Y57.991 Z6.757
G01 X67.168 Y59.430 Z6.677
G01 X67.168 Y60.450 Z6.592
G01 X67.168 Y60.990 Z6.594
G01 X67.168 Y61.410 Z6.623
G01 X67.168 Y61.949 Z6.804
G01 X67.168 Y62.249 Z6.980
G01 X67.168 Y62.669 Z7.376
G01 X67.168 Y62.849 Z7.702
G01 X67.168 Y63.209 Z8.177
G01 X67.168 Y63.629 Z8.628
G01 X67.168 Y64.049 Z8.928
G01 X67.168 Y64.469 Z9.130
G01 X67.168 Y64.949 Z9.271
G01 X67.168 Y65.189 Z9.537
G01 X67.168 Y65.488 Z9.771
G01 X67.168 Y65.788 Z9.942
G01 X67.168 Y66.148 Z10.083
G01 X67.168 Y66.868 Z10.314
G01 X67.168 Y67.168 Z10.361
G01 X66.928 Y67.168 Z10.263
G01 X66.808 Y67.168 Z10.290
G01 X66.388 Y67.168 Z10.415
G01 X65.908 Y67.168 Z10.476
G01 X65.488 Y67.168 Z10.447
G01 X65.069 Y67.168 Z10.339
G01 X64.709 Y67.168 Z10.173
G01 X64.409 Y67.168 Z9.967
G01 X64.169 Y67.168 Z9.735
G01 X64.049 Y67.168 Z9.592
G01 X63.689 Y67.168 Z9.603
G01 X63.389 Y67.168 Z9.923
G01 X63.089 Y67.168 Z10.154
G01 X62.729 Y67.168 Z10.338
G01 X62.309 Y67.168 Z10.467
G01 X61.889 Y67.168 Z10.515
G01 X61.530 Y67.168 Z10.497
G01 X61.350 Y67.168 Z10.468
G01 X61.050 Y67.168 Z10.772
G01 X60.750 Y67.168 Z10.965
G01 X60.390 Y67.168 Z11.096
G01 X60.030 Y67.168 Z11.155
G01 X59.670 Y67.168 Z11.151
G01 X59.250 Y67.168 Z11.073
G01 X58.890 Y67.168 Z10.935
G01 X58.590 Y67.168 Z10.755
G01 X58.290 Y67.168 Z10.483
G01 X58.171 Y67.168 Z10.365
G01 X57.691 Y67.168 Z10.370
G01 X57.331 Y67.168 Z10.542
G01 X56.971 Y67.168 Z10.635
G01 X56.551 Y67.168 Z10.658
G01 X56.191 Y67.168 Z10.607
G01 X56.011 Y67.168 Z10.557
G01 X55.471 Y67.168 Z10.740
G01 X55.051 Y67.168 Z10.807
G01 X54.691 Y67.168 Z10.808
G01 X54.272 Y67.168 Z10.746
G01 X53.912 Y67.168 Z10.639
G01 X53.552 Y67.168 Z10.469
G01 X53.252 Y67.168 Z10.264
G01 X53.072 Y67.168 Z10.104
G01 X52.832 Y67.168 Z10.078
G01 X52.832 Y66.748 Z9.836
G01 X52.832 Y66.508 Z9.665
G01 X52.832 Y66.268 Z9.532
G01 X52.832 Y66.028 Z9.325
G01 X52.832 Y65.009 Z9.215
G01 X52.832 Y64.469 Z9.085
G01 X52.832 Y64.109 Z8.921
G01 X52.832 Y63.869 Z8.762
G01 X52.832 Y63.629 Z8.524
G01 X52.832 Y63.449 Z8.278
G01 X52.832 Y63.329 Z8.036
G01 X52.832 Y63.269 Z7.852
G01 X52.832 Y63.209 Z7.552
G01 X52.832 Y63.149 Z7.413
G01 X52.832 Y63.029 Z7.298
G01 X52.832 Y62.609 Z7.025
G01 X52.832 Y61.889 Z6.766
G01 X52.832 Y61.470 Z6.697
G01 X52.832 Y60.930 Z6.673
G01 X52.832 Y60.510 Z6.715
G01 X52.832 Y59.310 Z6.883
G01 X52.832 Y58.530 Z6.952
G01 X52.832 Y58.051 Z6.983
G01 X52.832 Y57.691 Z6.958
G01 X52.832 Y57.151 Z6.834
G01 X52.832 Y57.091 Z6.816
G01 X52.832 Y57.031 Z6.875
G01 X52.832 Y56.911 Z7.072
G01 X52.832 Y56.731 Z7.649
G01 X52.832 Y56.551 Z8.005
G01 X52.832 Y56.311 Z8.290
G01 X52.832 Y56.011 Z8.537
G01 X52.832 Y55.651 Z8.732
G01 X52.832 Y55.231 Z8.877
G01 X52.832 Y54.212 Z9.112
G01 X52.832 Y53.252 Z9.396
G01 X52.832 Y52.832 Z9.483
G01 X53.852 Y52.832 Z9.529
G01 X54.871 Y52.832 Z9.506
G01 X55.231 Y52.832 Z9.457
G01 X55.651 Y52.832 Z9.330
G01 X55.891 Y52.832 Z9.230
G01 X56.131 Y52.832 Z9.290
G01 X56.431 Y52.832 Z9.360
G01 X56.851 Y52.832 Z9.385
G01 X57.151 Y52.832 Z9.350
G01 X57.451 Y52.832 Z9.252
G01 X57.751 Y52.832 Z9.081
G01 X57.991 Y52.832 Z8.874
G01 X58.171 Y52.832 Z8.641
G01 X58.290 Y52.832 Z8.407
G01 X58.350 Y52.832 Z8.233
G01 X58.410 Y52.832 Z7.875
G01 X58.710 Y52.832 Z7.714
G01 X58.890 Y52.832 Z7.568
G01 X58.950 Y52.832 Z7.556
G01 X59.070 Y52.832 Z7.900
G01 X59.250 Y52.832 Z8.197
G01 X59.490 Y52.832 Z8.450
G01 X59.730 Y52.832 Z8.615
G01 X60.030 Y52.832 Z8.743
G01 X60.330 Y52.832 Z8.804
G01 X60.630 Y52.832 Z8.804
G01 X60.930 Y52.832 Z8.743
G01 X61.230 Y52.832 Z8.615
G01 X61.470 Y52.832 Z8.450
G01 X61.710 Y52.832 Z8.198
G01 X61.889 Y52.832 Z7.901
G01 X61.949 Y52.832 Z7.758
G01 X62.129 Y52.832 Z7.537
G01 X62.189 Y52.832 Z7.500
G01 X62.429 Y52.832 Z7.708
G01 X62.729 Y52.832 Z7.884
G01 X62.789 Y52.832 Z7.956
G01 X63.149 Y52.832 Z8.704
G01 X63.329 Y52.832 Z8.945
G01 X63.569 Y52.832 Z9.162
G01 X63.869 Y52.832 Z9.335
G01 X64.289 Y52.832 Z9.474
G01 X64.649 Y52.832 Z9.514
G01 X65.069 Y52.832 Z9.492
G01 X65.608 Y52.832 Z9.379
G01 X65.728 Y52.832 Z9.349
G01 X66.148 Y52.832 Z9.427
G01 X67.048 Y52.832 Z9.595
G01 X67.168 Y52.832 Z9.609
G01 X67.422 Y52.578 Z9.634
G01 X67.422 Y53.179 Z9.620
G01 X67.422 Y53.840 Z9.534
G01 X67.422 Y54.561 Z9.379
G01 X67.422 Y55.282 Z9.142
G01 X67.422 Y55.943 Z8.859
G01 X67.422 Y56.424 Z8.563
G01 X67.422 Y56.905 Z8.196
G01 X67.422 Y57.145 Z7.933
G01 X67.422 Y57.326 Z7.609
G01 X67.422 Y57.386 Z7.461
G01 X67.422 Y57.446 Z7.206
G01 X67.422 Y57.566 Z7.042
G01 X67.422 Y57.806 Z6.775
G01 X67.422 Y58.708 Z6.771
G01 X67.422 Y59.369 Z6.724
G01 X67.422 Y60.331 Z6.608
G01 X67.422 Y61.352 Z6.629
G01 X67.422 Y61.532 Z6.649
G01 X67.422 Y62.254 Z6.911
G01 X67.422 Y62.434 Z7.033
G01 X67.422 Y62.614 Z7.193
G01 X67.422 Y62.915 Z7.469
G01 X67.422 Y63.155 Z7.849
G01 X67.422 Y63.576 Z8.437
G01 X67.422 Y63.816 Z8.696
G01 X67.422 Y64.117 Z8.911
G01 X67.422 Y64.537 Z9.121
G01 X67.422 Y64.898 Z9.233
G01 X67.422 Y65.018 Z9.259
G01 X67.422 Y65.499 Z9.799
G01 X67.422 Y65.799 Z10.031
G01 X67.422 Y66.100 Z10.190
G01 X67.422 Y66.581 Z10.341
G01 X67.422 Y67.122 Z10.434
G01 X67.422 Y67.422 Z10.445
G01 X66.881 Y67.422 Z10.266
G01 X66.821 Y67.422 Z10.264
G01 X66.400 Y67.422 Z10.410
G01 X66.040 Y67.422 Z10.475
G01 X65.679 Y67.422 Z10.487
G01 X65.259 Y67.422 Z10.431
G01 X64.898 Y67.422 Z10.316
G01 X64.537 Y67.422 Z10.124
G01 X64.237 Y67.422 Z9.886
G01 X63.996 Y67.422 Z9.638
G01 X63.876 Y67.422 Z9.598
G01 X63.696 Y67.422 Z9.598
G01 X63.576 Y67.422 Z9.714
G01 X63.335 Y67.422 Z9.947
G01 X62.975 Y67.422 Z10.199
G01 X62.554 Y67.422 Z10.380
G01 X62.133 Y67.422 Z10.468
G01 X61.713 Y67.422 Z10.475
G01 X61.412 Y67.422 Z10.449
G01 X61.232 Y67.422 Z10.662
G01 X60.992 Y67.422 Z10.857
G01 X60.631 Y67.422 Z11.043
G01 X60.270 Y67.422 Z11.139
G01 X59.850 Y67.422 Z11.182
G01 X59.429 Y67.422 Z11.149
G01 X59.068 Y67.422 Z11.047
G01 X58.768 Y67.422 Z10.905
G01 X58.468 Y67.422 Z10.697
G01 X58.227 Y67.422 Z10.470
G01 X57.626 Y67.422 Z10.494
G01 X57.266 Y67.422 Z10.465
G01 X57.025 Y67.422 Z10.429
G01 X56.605 Y67.422 Z10.472
G01 X56.184 Y67.422 Z10.429
G01 X56.124 Y67.422 Z10.434
G01 X55.763 Y67.422 Z10.616
G01 X55.403 Y67.422 Z10.726
G01 X55.042 Y67.422 Z10.780
G01 X54.621 Y67.422 Z10.779
G01 X54.201 Y67.422 Z10.711
G01 X53.780 Y67.422 Z10.570
G01 X53.419 Y67.422 Z10.375
G01 X53.179 Y67.422 Z10.203
G01 X52.758 Y67.422 Z10.179
G01 X52.578 Y67.422 Z10.143
G01 X52.578 Y66.941 Z9.894
G01 X52.578 Y66.581 Z9.633
G01 X52.578 Y66.280 Z9.338
G01 X52.578 Y66.220 Z9.301
G01 X52.578 Y65.559 Z9.264
G01 X52.578 Y64.718 Z9.154
G01 X52.578 Y64.357 Z9.041
G01 X52.578 Y63.996 Z8.857
G01 X52.578 Y63.696 Z8.610
G01 X52.578 Y63.456 Z8.323
G01 X52.578 Y63.335 Z8.127
G01 X52.578 Y63.215 Z7.820
G01 X52.578 Y63.155 Z7.380
G01 X52.578 Y62.614 Z7.030
G01 X52.578 Y61.953 Z6.806
G01 X52.578 Y61.472 Z6.725
G01 X52.578 Y60.992 Z6.704
G01 X52.578 Y60.391 Z6.780
G01 X52.578 Y59.369 Z6.921
G01 X52.578 Y57.927 Z7.023
G01 X52.578 Y57.446 Z6.964
G01 X52.578 Y56.965 Z6.824
G01 X52.578 Y56.905 Z6.842
G01 X52.578 Y56.785 Z7.041
G01 X52.578 Y56.725 Z7.351
G01 X52.578 Y56.605 Z7.724
G01 X52.578 Y56.424 Z8.050
G01 X52.578 Y56.184 Z8.332
G01 X52.578 Y55.883 Z8.569
G01 X52.578 Y55.583 Z8.738
G01 X52.578 Y55.102 Z8.901
G01 X52.578 Y54.141 Z9.101
G01 X52.578 Y53.239 Z9.373
G01 X52.578 Y52.578 Z9.502
G01 X53.540 Y52.578 Z9.548
G01 X54.561 Y52.578 Z9.520
G01 X55.042 Y52.578 Z9.467
G01 X55.403 Y52.578 Z9.370
G01 X55.823 Y52.578 Z9.207
G01 X56.304 Y52.578 Z9.329
G01 X56.605 Y52.578 Z9.364
G01 X57.025 Y52.578 Z9.340
G01 X57.326 Y52.578 Z9.257
G01 X57.626 Y52.578 Z9.103
G01 X57.867 Y52.578 Z8.910
G01 X58.107 Y52.578 Z8.628
G01 X58.227 Y52.578 Z8.434
G01 X58.347 Y52.578 Z8.131
G01 X58.468 Y52.578 Z7.732
G01 X58.528 Y52.578 Z7.648
G01 X58.768 Y52.578 Z7.473
G01 X58.828 Y52.578 Z7.414
G01 X58.888 Y52.578 Z7.409
G01 X59.008 Y52.578 Z7.749
G01 X59.189 Y52.578 Z8.057
G01 X59.489 Y52.578 Z8.376
G01 X59.730 Y52.578 Z8.546
G01 X60.030 Y52.578 Z8.677
G01 X60.331 Y52.578 Z8.739
G01 X60.631 Y52.578 Z8.739
G01 X60.932 Y52.578 Z8.677
G01 X61.232 Y52.578 Z8.545
G01 X61.472 Y52.578 Z8.374
G01 X61.653 Y52.578 Z8.192
G01 X61.893 Y52.578 Z7.829
G01 X62.133 Y52.578 Z7.580
G01 X62.254 Y52.578 Z7.406
G01 X62.314 Y52.578 Z7.390
G01 X62.554 Y52.578 Z7.615
G01 X62.614 Y52.578 Z7.659
G01 X62.734 Y52.578 Z7.918
G01 X62.915 Y52.578 Z8.287
G01 X63.215 Y52.578 Z8.748
G01 X63.395 Y52.578 Z8.957
G01 X63.696 Y52.578 Z9.205
G01 X63.996 Y52.578 Z9.358
G01 X64.357 Y52.578 Z9.458
G01 X64.718 Y52.578 Z9.490
G01 X65.138 Y52.578 Z9.458
G01 X65.799 Y52.578 Z9.323
G01 X66.340 Y52.578 Z9.444
G01 X67.061 Y52.578 Z9.589
G01 X67.422 Y52.578 Z9.634
G01 X67.676 Y52.324 Z9.650
G01 X67.676 Y52.984 Z9.647
G01 X67.676 Y53.703 Z9.559
G01 X67.676 Y54.423 Z9.397
G01 X67.676 Y55.143 Z9.162
G01 X67.676 Y55.802 Z8.886
G01 X67.676 Y56.162 Z8.678
G01 X67.676 Y56.462 Z8.438
G01 X67.676 Y56.882 Z7.988
G01 X67.676 Y57.062 Z7.731
G01 X67.676 Y57.181 Z7.490
G01 X67.676 Y57.241 Z7.285
G01 X67.676 Y57.301 Z7.156
G01 X67.676 Y57.601 Z6.801
G01 X67.676 Y58.021 Z6.847
G01 X67.676 Y58.561 Z6.837
G01 X67.676 Y59.460 Z6.754
G01 X67.676 Y60.540 Z6.610
G01 X67.676 Y61.559 Z6.650
G01 X67.676 Y62.219 Z6.877
G01 X67.676 Y62.519 Z7.020
G01 X67.676 Y62.878 Z7.341
G01 X67.676 Y63.238 Z7.681
G01 X67.676 Y63.358 Z7.864
G01 X67.676 Y63.478 Z8.146
G01 X67.676 Y63.658 Z8.443
G01 X67.676 Y63.898 Z8.701
G01 X67.676 Y64.138 Z8.886
G01 X67.676 Y64.558 Z9.100
G01 X67.676 Y64.857 Z9.198
G01 X67.676 Y64.917 Z9.231
G01 X67.676 Y65.157 Z9.608
G01 X67.676 Y65.397 Z9.860
G01 X67.676 Y65.757 Z10.122
G01 X67.676 Y66.117 Z10.299
G01 X67.676 Y66.477 Z10.405
G01 X67.676 Y67.016 Z10.476
G01 X67.676 Y67.496 Z10.484
G01 X67.676 Y67.676 Z10.465
G01 X67.256 Y67.676 Z10.381
G01 X66.836 Y67.676 Z10.238
G01 X66.357 Y67.676 Z10.414
G01 X65.997 Y67.676 Z10.483
G01 X65.637 Y67.676 Z10.495
G01 X65.277 Y67.676 Z10.449
G01 X64.917 Y67.676 Z10.342
G01 X64.558 Y67.676 Z10.159
G01 X64.258 Y67.676 Z9.932
G01 X64.138 Y67.676 Z9.816
G01 X64.018 Y67.676 Z9.767
G01 X63.658 Y67.676 Z9.648
G01 X63.598 Y67.676 Z9.653
G01 X63.298 Y67.676 Z9.941
G01 X62.998 Y67.676 Z10.137
G01 X62.639 Y67.676 Z10.298
G01 X62.279 Y67.676 Z10.393
G01 X61.859 Y67.676 Z10.429
G01 X61.499 Y67.676 Z10.396
G01 X61.439 Y67.676 Z10.418
G01 X61.259 Y67.676 Z10.640
G01 X61.019 Y67.676 Z10.843
G01 X60.720 Y67.676 Z11.005
G01 X60.360 Y67.676 Z11.126
G01 X60.000 Y67.676 Z11.191
G01 X59.580 Y67.676 Z11.185
G01 X59.160 Y67.676 Z11.096
G01 X58.801 Y67.676 Z10.949
G01 X58.501 Y67.676 Z10.761
G01 X58.261 Y67.676 Z10.550
G01 X57.661 Y67.676 Z10.599
G01 X57.121 Y67.676 Z10.561
G01 X56.642 Y67.676 Z10.442
G01 X56.282 Y67.676 Z10.284
G01 X56.162 Y67.676 Z10.346
G01 X55.802 Y67.676 Z10.547
G01 X55.442 Y67.676 Z10.670
G01 X55.023 Y67.676 Z10.740
G01 X54.603 Y67.676 Z10.739
G01 X54.243 Y67.676 Z10.683
G01 X53.823 Y67.676 Z10.551
G01 X53.463 Y67.676 Z10.365
G01 X53.343 Y67.676 Z10.285
G01 X52.804 Y67.676 Z10.282
G01 X52.384 Y67.676 Z10.204
G01 X52.324 Y67.676 Z10.188
G01 X52.324 Y67.256 Z9.982
G01 X52.324 Y66.896 Z9.766
G01 X52.324 Y66.537 Z9.469
G01 X52.324 Y66.357 Z9.278
G01 X52.324 Y65.577 Z9.247
G01 X52.324 Y64.738 Z9.146
G01 X52.324 Y64.318 Z9.020
G01 X52.324 Y64.018 Z8.875
G01 X52.324 Y63.778 Z8.708
G01 X52.324 Y63.478 Z8.396
G01 X52.324 Y63.298 Z8.125
G01 X52.324 Y63.178 Z7.820
G01 X52.324 Y63.118 Z7.361
G01 X52.324 Y62.579 Z7.023
G01 X52.324 Y61.979 Z6.840
G01 X52.324 Y61.439 Z6.749
G01 X52.324 Y61.019 Z6.736
G01 X52.324 Y59.580 Z6.943
G01 X52.324 Y58.561 Z7.016
G01 X52.324 Y57.841 Z7.046
G01 X52.324 Y57.421 Z7.008
G01 X52.324 Y56.942 Z6.875
G01 X52.324 Y56.762 Z6.805
G01 X52.324 Y56.702 Z6.888
G01 X52.324 Y56.642 Z7.490
G01 X52.324 Y56.582 Z7.719
G01 X52.324 Y56.462 Z7.987
G01 X52.324 Y56.282 Z8.243
G01 X52.324 Y56.042 Z8.469
G01 X52.324 Y55.742 Z8.676
G01 X52.324 Y55.442 Z8.807
G01 X52.324 Y54.903 Z8.950
G01 X52.324 Y54.063 Z9.097
G01 X52.324 Y53.104 Z9.376
G01 X52.324 Y52.444 Z9.494
G01 X52.324 Y52.324 Z9.507
G01 X53.283 Y52.324 Z9.561
G01 X54.303 Y52.324 Z9.532
G01 X54.903 Y52.324 Z9.460
G01 X55.322 Y52.324 Z9.347
G01 X55.682 Y52.324 Z9.187
G01 X56.222 Y52.324 Z9.310
G01 X56.642 Y52.324 Z9.348
G01 X57.002 Y52.324 Z9.313
G01 X57.361 Y52.324 Z9.210
G01 X57.661 Y52.324 Z9.046
G01 X57.901 Y52.324 Z8.841
G01 X58.081 Y52.324 Z8.642
G01 X58.261 Y52.324 Z8.343
G01 X58.441 Y52.324 Z7.971
G01 X58.561 Y52.324 Z7.711
G01 X58.681 Y52.324 Z7.228
G01 X58.741 Y52.324 Z7.180
G01 X58.861 Y52.324 Z7.405
G01 X58.921 Y52.324 Z7.635
G01 X59.040 Y52.324 Z7.912
G01 X59.220 Y52.324 Z8.182
G01 X59.460 Y52.324 Z8.433
G01 X59.700 Y52.324 Z8.604
G01 X60.000 Y52.324 Z8.737
G01 X60.300 Y52.324 Z8.803
G01 X60.600 Y52.324 Z8.808
G01 X60.900 Y52.324 Z8.755
G01 X61.199 Y52.324 Z8.637
G01 X61.439 Y52.324 Z8.483
G01 X61.679 Y52.324 Z8.250
G01 X61.919 Y52.324 Z7.890
G01 X62.099 Y52.324 Z7.707
G01 X62.279 Y52.324 Z7.437
G01 X62.399 Y52.324 Z7.160
G01 X62.459 Y52.324 Z7.235
G01 X62.519 Y52.324 Z7.423
G01 X62.579 Y52.324 Z7.694
G01 X62.699 Y52.324 Z7.972
G01 X63.058 Y52.324 Z8.518
G01 X63.298 Y52.324 Z8.830
G01 X63.538 Y52.324 Z9.056
G01 X63.838 Y52.324 Z9.255
G01 X64.138 Y52.324 Z9.372
G01 X64.498 Y52.324 Z9.451
G01 X64.917 Y52.324 Z9.454
G01 X65.457 Y52.324 Z9.375
G01 X65.877 Y52.324 Z9.293
G01 X66.956 Y52.324 Z9.554
G01 X67.676 Y52.324 Z9.650
G01 X67.930 Y52.070 Z9.655
G01 X67.930 Y52.791 Z9.668
G01 X67.930 Y53.452 Z9.600
G01 X67.930 Y54.113 Z9.467
G01 X67.930 Y54.833 Z9.248
G01 X67.930 Y55.675 Z8.914
G01 X67.930 Y56.095 Z8.682
G01 X67.930 Y56.395 Z8.438
G01 X67.930 Y56.636 Z8.152
G01 X67.930 Y56.816 Z7.865
G01 X67.930 Y56.996 Z7.476
G01 X67.930 Y57.056 Z7.296
G01 X67.930 Y57.176 Z7.113
G01 X67.930 Y57.357 Z6.885
G01 X67.930 Y57.417 Z6.837
G01 X67.930 Y58.198 Z6.917
G01 X67.930 Y58.678 Z6.882
G01 X67.930 Y59.760 Z6.759
G01 X67.930 Y60.661 Z6.630
G01 X67.930 Y61.262 Z6.641
G01 X67.930 Y61.682 Z6.686
G01 X67.930 Y62.523 Z6.996
G01 X67.930 Y62.643 Z7.051
G01 X67.930 Y63.004 Z7.380
G01 X67.930 Y63.244 Z7.607
G01 X67.930 Y63.304 Z7.743
G01 X67.930 Y63.364 Z7.967
G01 X67.930 Y63.484 Z8.232
G01 X67.930 Y63.665 Z8.486
G01 X67.930 Y63.905 Z8.734
G01 X67.930 Y64.205 Z8.933
G01 X67.930 Y64.626 Z9.109
G01 X67.930 Y64.746 Z9.152
G01 X67.930 Y64.926 Z9.468
G01 X67.930 Y65.167 Z9.765
G01 X67.930 Y65.467 Z10.031
G01 X67.930 Y65.827 Z10.249
G01 X67.930 Y66.248 Z10.410
G01 X67.930 Y66.668 Z10.496
G01 X67.930 Y67.209 Z10.513
G01 X67.930 Y67.750 Z10.463
G01 X67.930 Y67.930 Z10.425
G01 X67.630 Y67.930 Z10.407
G01 X67.089 Y67.930 Z10.292
G01 X66.849 Y67.930 Z10.206
G01 X66.368 Y67.930 Z10.393
G01 X66.008 Y67.930 Z10.469
G01 X65.587 Y67.930 Z10.483
G01 X65.167 Y67.930 Z10.418
G01 X64.806 Y67.930 Z10.294
G01 X64.506 Y67.930 Z10.133
G01 X64.205 Y67.930 Z9.905
G01 X63.785 Y67.930 Z9.811
G01 X63.484 Y67.930 Z9.703
G01 X63.184 Y67.930 Z9.960
G01 X62.824 Y67.930 Z10.166
G01 X62.463 Y67.930 Z10.291
G01 X62.103 Y67.930 Z10.351
G01 X61.742 Y67.930 Z10.352
G01 X61.502 Y67.930 Z10.320
G01 X61.202 Y67.930 Z10.661
G01 X60.901 Y67.930 Z10.898
G01 X60.601 Y67.930 Z11.045
G01 X60.240 Y67.930 Z11.151
G01 X59.820 Y67.930 Z11.194
G01 X59.459 Y67.930 Z11.171
G01 X59.039 Y67.930 Z11.069
G01 X58.678 Y67.930 Z10.896
G01 X58.378 Y67.930 Z10.687
G01 X58.318 Y67.930 Z10.634
G01 X58.258 Y67.930 Z10.613
G01 X57.717 Y67.930 Z10.673
G01 X57.297 Y67.930 Z10.670
G01 X56.756 Y67.930 Z10.589
G01 X56.335 Y67.930 Z10.445
G01 X56.095 Y67.930 Z10.319
G01 X55.975 Y67.930 Z10.373
G01 X55.614 Y67.930 Z10.539
G01 X55.194 Y67.930 Z10.647
G01 X54.773 Y67.930 Z10.681
G01 X54.353 Y67.930 Z10.643
G01 X53.932 Y67.930 Z10.534
G01 X53.572 Y67.930 Z10.371
G01 X53.452 Y67.930 Z10.316
G01 X53.031 Y67.930 Z10.356
G01 X52.611 Y67.930 Z10.324
G01 X52.190 Y67.930 Z10.217
G01 X52.070 Y67.930 Z10.170
G01 X52.070 Y67.630 Z10.076
G01 X52.070 Y67.269 Z9.873
G01 X52.070 Y66.909 Z9.637
G01 X52.070 Y66.488 Z9.249
G01 X52.070 Y65.587 Z9.226
G01 X52.070 Y64.686 Z9.123
G01 X52.070 Y64.265 Z9.012
G01 X52.070 Y63.965 Z8.867
G01 X52.070 Y63.605 Z8.589
G01 X52.070 Y63.364 Z8.309
G01 X52.070 Y63.244 Z8.113
G01 X52.070 Y63.124 Z7.802
G01 X52.070 Y63.064 Z7.331
G01 X52.070 Y62.643 Z7.069
G01 X52.070 Y61.922 Z6.856
G01 X52.070 Y61.502 Z6.788
G01 X52.070 Y61.021 Z6.776
G01 X52.070 Y59.820 Z6.962
G01 X52.070 Y58.798 Z7.048
G01 X52.070 Y57.657 Z7.069
G01 X52.070 Y57.237 Z7.017
G01 X52.070 Y56.876 Z6.909
G01 X52.070 Y56.696 Z6.837
G01 X52.070 Y56.636 Z7.532
G01 X52.070 Y56.576 Z7.748
G01 X52.070 Y56.456 Z8.009
G01 X52.070 Y56.275 Z8.262
G01 X52.070 Y56.035 Z8.485
G01 X52.070 Y55.735 Z8.691
G01 X52.070 Y55.434 Z8.820
G01 X52.070 Y54.833 Z8.973
G01 X52.070 Y53.932 Z9.112
G01 X52.070 Y52.971 Z9.377
G01 X52.070 Y52.370 Z9.474
G01 X52.070 Y52.070 Z9.495
G01 X52.971 Y52.070 Z9.562
G01 X53.812 Y52.070 Z9.552
G01 X54.533 Y52.070 Z9.484
G01 X55.134 Y52.070 Z9.360
G01 X55.494 Y52.070 Z9.202
G01 X55.554 Y52.070 Z9.168
G01 X56.095 Y52.070 Z9.289
G01 X56.516 Y52.070 Z9.323
G01 X56.876 Y52.070 Z9.304
G01 X57.237 Y52.070 Z9.217
G01 X57.537 Y52.070 Z9.085
G01 X57.777 Y52.070 Z8.916
G01 X58.018 Y52.070 Z8.674
G01 X58.258 Y52.070 Z8.381
G01 X58.438 Y52.070 Z8.160
G01 X58.558 Y52.070 Z7.946
G01 X58.678 Y52.070 Z7.611
G01 X58.738 Y52.070 Z7.239
G01 X58.979 Y52.070 Z7.852
G01 X59.159 Y52.070 Z8.152
G01 X59.339 Y52.070 Z8.378
G01 X59.579 Y52.070 Z8.586
G01 X59.880 Y52.070 Z8.750
G01 X60.180 Y52.070 Z8.841
G01 X60.481 Y52.070 Z8.870
G01 X60.781 Y52.070 Z8.841
G01 X61.081 Y52.070 Z8.750
G01 X61.382 Y52.070 Z8.585
G01 X61.622 Y52.070 Z8.377
G01 X61.802 Y52.070 Z8.146
G01 X61.922 Y52.070 Z7.951
G01 X62.163 Y52.070 Z7.689
G01 X62.343 Y52.070 Z7.382
G01 X62.403 Y52.070 Z7.227
G01 X62.463 Y52.070 Z7.555
G01 X62.523 Y52.070 Z7.757
G01 X62.703 Y52.070 Z8.115
G01 X62.944 Y52.070 Z8.419
G01 X63.124 Y52.070 Z8.594
G01 X63.364 Y52.070 Z8.873
G01 X63.665 Y52.070 Z9.123
G01 X63.965 Y52.070 Z9.285
G01 X64.386 Y52.070 Z9.404
G01 X64.686 Y52.070 Z9.432
G01 X65.167 Y52.070 Z9.396
G01 X65.948 Y52.070 Z9.262
G01 X67.029 Y52.070 Z9.539
G01 X67.750 Y52.070 Z9.642
G01 X67.930 Y52.070 Z9.655
G01 X68.184 Y51.816 Z9.651
G01 X68.184 Y52.535 Z9.680
G01 X68.184 Y53.135 Z9.641
G01 X68.184 Y53.795 Z9.534
G01 X68.184 Y54.454 Z9.357
G01 X68.184 Y55.473 Z8.981
G01 X68.184 Y55.833 Z8.803
G01 X68.184 Y56.193 Z8.563
G01 X68.184 Y56.433 Z8.329
G01 X68.184 Y56.672 Z7.980
G01 X68.184 Y56.792 Z7.725
G01 X68.184 Y56.912 Z7.269
G01 X68.184 Y57.212 Z6.835
G01 X68.184 Y57.812 Z6.948
G01 X68.184 Y58.231 Z6.963
G01 X68.184 Y59.730 Z6.812
G01 X68.184 Y60.809 Z6.660
G01 X68.184 Y61.349 Z6.675
G01 X68.184 Y61.769 Z6.727
G01 X68.184 Y62.009 Z6.800
G01 X68.184 Y62.608 Z7.026
G01 X68.184 Y62.968 Z7.259
G01 X68.184 Y63.268 Z7.564
G01 X68.184 Y63.328 Z7.865
G01 X68.184 Y63.447 Z8.178
G01 X68.184 Y63.627 Z8.456
G01 X68.184 Y63.867 Z8.699
G01 X68.184 Y64.107 Z8.874
G01 X68.184 Y64.467 Z9.050
G01 X68.184 Y64.587 Z9.091
G01 X68.184 Y64.647 Z9.161
G01 X68.184 Y64.886 Z9.565
G01 X68.184 Y65.126 Z9.839
G01 X68.184 Y65.426 Z10.081
G01 X68.184 Y65.786 Z10.288
G01 X68.184 Y66.086 Z10.410
G01 X68.184 Y66.505 Z10.505
G01 X68.184 Y66.925 Z10.537
G01 X68.184 Y67.465 Z10.495
G01 X68.184 Y68.004 Z10.382
G01 X68.184 Y68.184 Z10.317
G01 X67.884 Y68.184 Z10.340
G01 X67.345 Y68.184 Z10.284
G01 X66.865 Y68.184 Z10.146
G01 X66.385 Y68.184 Z10.360
G01 X66.026 Y68.184 Z10.447
G01 X65.666 Y68.184 Z10.474
G01 X65.246 Y68.184 Z10.429
G01 X64.826 Y68.184 Z10.297
G01 X64.467 Y68.184 Z10.103
G01 X64.347 Y68.184 Z10.018
G01 X63.867 Y68.184 Z9.941
G01 X63.507 Y68.184 Z9.817
G01 X63.388 Y68.184 Z9.755
G01 X63.328 Y68.184 Z9.762
G01 X63.028 Y68.184 Z9.972
G01 X62.668 Y68.184 Z10.140
G01 X62.308 Y68.184 Z10.238
G01 X61.949 Y68.184 Z10.271
G01 X61.589 Y68.184 Z10.244
G01 X61.529 Y68.184 Z10.280
G01 X61.349 Y68.184 Z10.518
G01 X61.049 Y68.184 Z10.783
G01 X60.689 Y68.184 Z10.987
G01 X60.270 Y68.184 Z11.125
G01 X59.850 Y68.184 Z11.185
G01 X59.490 Y68.184 Z11.173
G01 X59.071 Y68.184 Z11.076
G01 X58.711 Y68.184 Z10.923
G01 X58.291 Y68.184 Z10.668
G01 X58.171 Y68.184 Z10.671
G01 X57.632 Y68.184 Z10.733
G01 X57.092 Y68.184 Z10.724
G01 X56.612 Y68.184 Z10.634
G01 X56.193 Y68.184 Z10.484
G01 X55.893 Y68.184 Z10.320
G01 X55.473 Y68.184 Z10.484
G01 X55.054 Y68.184 Z10.575
G01 X54.694 Y68.184 Z10.591
G01 X54.274 Y68.184 Z10.542
G01 X53.914 Y68.184 Z10.438
G01 X53.615 Y68.184 Z10.319
G01 X53.195 Y68.184 Z10.391
G01 X52.835 Y68.184 Z10.395
G01 X52.476 Y68.184 Z10.346
G01 X52.116 Y68.184 Z10.240
G01 X51.816 Y68.184 Z10.102
G01 X51.816 Y67.764 Z10.000
G01 X51.816 Y67.465 Z9.855
G01 X51.816 Y66.985 Z9.514
G01 X51.816 Y66.685 Z9.230
G01 X51.816 Y66.565 Z9.215
G01 X51.816 Y65.726 Z9.207
G01 X51.816 Y64.946 Z9.144
G01 X51.816 Y64.407 Z9.058
G01 X51.816 Y64.107 Z8.948
G01 X51.816 Y63.807 Z8.774
G01 X51.816 Y63.507 Z8.531
G01 X51.816 Y63.328 Z8.320
G01 X51.816 Y63.208 Z8.122
G01 X51.816 Y63.088 Z7.807
G01 X51.816 Y63.028 Z7.312
G01 X51.816 Y62.788 Z7.157
G01 X51.816 Y62.488 Z7.045
G01 X51.816 Y61.889 Z6.883
G01 X51.816 Y61.469 Z6.823
G01 X51.816 Y61.109 Z6.814
G01 X51.816 Y59.910 Z6.999
G01 X51.816 Y58.831 Z7.089
G01 X51.816 Y57.692 Z7.108
G01 X51.816 Y57.212 Z7.058
G01 X51.816 Y56.912 Z6.975
G01 X51.816 Y56.672 Z6.879
G01 X51.816 Y56.612 Z7.631
G01 X51.816 Y56.493 Z7.942
G01 X51.816 Y56.313 Z8.219
G01 X51.816 Y56.073 Z8.458
G01 X51.816 Y55.713 Z8.708
G01 X51.816 Y55.413 Z8.832
G01 X51.816 Y54.874 Z8.975
G01 X51.816 Y54.214 Z9.079
G01 X51.816 Y53.795 Z9.131
G01 X51.816 Y52.895 Z9.360
G01 X51.816 Y52.296 Z9.452
G01 X51.816 Y51.816 Z9.468
G01 X52.655 Y51.816 Z9.548
G01 X53.435 Y51.816 Z9.556
G01 X54.274 Y51.816 Z9.491
G01 X54.874 Y51.816 Z9.369
G01 X55.353 Y51.816 Z9.180
G01 X55.413 Y51.816 Z9.146
G01 X56.013 Y51.816 Z9.282
G01 X56.433 Y51.816 Z9.318
G01 X56.852 Y51.816 Z9.289
G01 X57.212 Y51.816 Z9.191
G01 X57.572 Y51.816 Z9.027
G01 X57.872 Y51.816 Z8.803
G01 X58.291 Y51.816 Z8.436
G01 X58.471 Y51.816 Z8.218
G01 X58.651 Y51.816 Z7.878
G01 X58.771 Y51.816 Z7.515
G01 X58.831 Y51.816 Z7.538
G01 X58.891 Y51.816 Z7.643
G01 X59.011 Y51.816 Z7.954
G01 X59.251 Y51.816 Z8.325
G01 X59.490 Y51.816 Z8.569
G01 X59.790 Y51.816 Z8.762
G01 X60.210 Y51.816 Z8.921
G01 X60.510 Y51.816 Z8.967
G01 X60.809 Y51.816 Z8.935
G01 X61.109 Y51.816 Z8.837
G01 X61.349 Y51.816 Z8.695
G01 X61.529 Y51.816 Z8.536
G01 X62.068 Y51.816 Z7.900
G01 X62.308 Y51.816 Z7.513
G01 X62.368 Y51.816 Z7.442
G01 X62.428 Y51.816 Z7.686
G01 X62.548 Y51.816 Z7.957
G01 X62.788 Y51.816 Z8.316
G01 X63.028 Y51.816 Z8.559
G01 X63.268 Y51.816 Z8.733
G01 X63.567 Y51.816 Z9.010
G01 X63.867 Y51.816 Z9.201
G01 X64.167 Y51.816 Z9.313
G01 X64.527 Y51.816 Z9.388
G01 X65.006 Y51.816 Z9.387
G01 X65.786 Y51.816 Z9.260
G01 X66.026 Y51.816 Z9.227
G01 X67.105 Y51.816 Z9.518
G01 X67.764 Y51.816 Z9.620
G01 X68.184 Y51.816 Z9.651
G01 X68.438 Y51.562 Z9.635
G01 X68.438 Y52.283 Z9.682
G01 X68.438 Y52.943 Z9.659
G01 X68.438 Y53.664 Z9.551
G01 X68.438 Y54.265 Z9.401
G01 X68.438 Y55.466 Z8.978
G01 X68.438 Y55.766 Z8.836
G01 X68.438 Y56.186 Z8.534
G01 X68.438 Y56.367 Z8.348
G01 X68.438 Y56.547 Z8.074
G01 X68.438 Y56.667 Z7.848
G01 X68.438 Y56.727 Z7.699
G01 X68.438 Y56.787 Z7.468
G01 X68.438 Y56.847 Z7.111
G01 X68.438 Y57.027 Z6.840
G01 X68.438 Y57.147 Z6.859
G01 X68.438 Y57.568 Z6.965
G01 X68.438 Y57.928 Z7.010
G01 X68.438 Y59.490 Z6.889
G01 X68.438 Y60.931 Z6.690
G01 X68.438 Y61.411 Z6.707
G01 X68.438 Y61.832 Z6.768
G01 X68.438 Y62.072 Z6.825
G01 X68.438 Y62.612 Z7.027
G01 X68.438 Y63.213 Z7.420
G01 X68.438 Y63.273 Z7.798
G01 X68.438 Y63.393 Z8.121
G01 X68.438 Y63.573 Z8.401
G01 X68.438 Y63.814 Z8.653
G01 X68.438 Y64.114 Z8.868
G01 X68.438 Y64.534 Z9.074
G01 X68.438 Y64.654 Z9.341
G01 X68.438 Y64.835 Z9.599
G01 X68.438 Y65.135 Z9.915
G01 X68.438 Y65.435 Z10.143
G01 X68.438 Y65.795 Z10.330
G01 X68.438 Y66.276 Z10.484
G01 X68.438 Y66.696 Z10.539
G01 X68.438 Y67.177 Z10.521
G01 X68.438 Y67.717 Z10.416
G01 X68.438 Y68.138 Z10.275
G01 X68.438 Y68.198 Z10.246
G01 X68.438 Y68.438 Z10.296
G01 X68.018 Y68.438 Z10.350
G01 X67.597 Y68.438 Z10.338
G01 X67.237 Y68.438 Z10.267
G01 X66.816 Y68.438 Z10.105
G01 X66.456 Y68.438 Z10.294
G01 X66.096 Y68.438 Z10.397
G01 X65.735 Y68.438 Z10.438
G01 X65.315 Y68.438 Z10.409
G01 X64.895 Y68.438 Z10.294
G01 X64.474 Y68.438 Z10.083
G01 X64.114 Y68.438 Z10.072
G01 X63.754 Y68.438 Z9.998
G01 X63.393 Y68.438 Z9.854
G01 X63.213 Y68.438 Z9.751
G01 X62.853 Y68.438 Z9.964
G01 X62.492 Y68.438 Z10.098
G01 X62.072 Y68.438 Z10.167
G01 X61.892 Y68.438 Z10.168
G01 X61.471 Y68.438 Z10.344
G01 X61.171 Y68.438 Z10.642
G01 X60.871 Y68.438 Z10.852
G01 X60.510 Y68.438 Z11.025
G01 X60.150 Y68.438 Z11.128
G01 X59.730 Y68.438 Z11.166
G01 X59.309 Y68.438 Z11.123
G01 X58.829 Y68.438 Z10.988
G01 X58.408 Y68.438 Z10.793
G01 X58.228 Y68.438 Z10.678
G01 X57.688 Y68.438 Z10.763
G01 X57.267 Y68.438 Z10.779
G01 X56.787 Y68.438 Z10.737
G01 X56.427 Y68.438 Z10.651
G01 X56.066 Y68.438 Z10.510
G01 X55.706 Y68.438 Z10.292
G01 X55.646 Y68.438 Z10.285
G01 X55.346 Y68.438 Z10.392
G01 X54.985 Y68.438 Z10.461
G01 X54.625 Y68.438 Z10.472
G01 X54.265 Y68.438 Z10.427
G01 X53.904 Y68.438 Z10.325
G01 X53.784 Y68.438 Z10.287
G01 X53.364 Y68.438 Z10.394
G01 X52.943 Y68.438 Z10.424
G01 X52.583 Y68.438 Z10.393
G01 X52.223 Y68.438 Z10.306
G01 X51.862 Y68.438 Z10.156
G01 X51.562 Y68.438 Z9.975
G01 X51.562 Y68.138 Z9.932
G01 X51.562 Y67.777 Z9.830
G01 X51.562 Y67.537 Z9.712
G01 X51.562 Y66.997 Z9.282
G01 X51.562 Y66.877 Z9.173
G01 X51.562 Y65.735 Z9.180
G01 X51.562 Y64.835 Z9.114
G01 X51.562 Y64.414 Z9.046
G01 X51.562 Y64.054 Z8.912
G01 X51.562 Y63.694 Z8.697
G01 X51.562 Y63.453 Z8.484
G01 X51.562 Y63.273 Z8.248
G01 X51.562 Y63.153 Z8.014
G01 X51.562 Y63.093 Z7.841
G01 X51.562 Y63.033 Z7.318
G01 X51.562 Y62.793 Z7.182
G01 X51.562 Y62.072 Z6.961
G01 X51.562 Y61.531 Z6.865
G01 X51.562 Y61.111 Z6.864
G01 X51.562 Y59.970 Z7.038
G01 X51.562 Y58.829 Z7.133
G01 X51.562 Y57.688 Z7.149
G01 X51.562 Y57.207 Z7.106
G01 X51.562 Y56.847 Z7.022
G01 X51.562 Y56.667 Z6.945
G01 X51.562 Y56.607 Z7.589
G01 X51.562 Y56.487 Z7.915
G01 X51.562 Y56.306 Z8.196
G01 X51.562 Y56.006 Z8.505
G01 X51.562 Y55.766 Z8.679
G01 X51.562 Y55.466 Z8.816
G01 X51.562 Y54.985 Z8.958
G01 X51.562 Y54.325 Z9.080
G01 X51.562 Y53.664 Z9.150
G01 X51.562 Y52.703 Z9.363
G01 X51.562 Y52.103 Z9.428
G01 X51.562 Y51.562 Z9.423
G01 X52.523 Y51.562 Z9.527
G01 X53.304 Y51.562 Z9.538
G01 X54.144 Y51.562 Z9.470
G01 X54.745 Y51.562 Z9.339
G01 X55.105 Y51.562 Z9.193
G01 X55.225 Y51.562 Z9.133
G01 X55.286 Y51.562 Z9.123
G01 X55.886 Y51.562 Z9.265
G01 X56.427 Y51.562 Z9.317
G01 X56.847 Y51.562 Z9.287
G01 X57.207 Y51.562 Z9.199
G01 X57.568 Y51.562 Z9.049
G01 X57.868 Y51.562 Z8.840
G01 X58.348 Y51.562 Z8.419
G01 X58.529 Y51.562 Z8.205
G01 X58.649 Y51.562 Z8.004
G01 X58.769 Y51.562 Z7.692
G01 X58.829 Y51.562 Z7.637
G01 X59.069 Y51.562 Z8.130
G01 X59.309 Y51.562 Z8.445
G01 X59.670 Y51.562 Z8.860
G01 X59.910 Y51.562 Z9.043
G01 X60.210 Y51.562 Z9.171
G01 X60.510 Y51.562 Z9.233
G01 X60.811 Y51.562 Z9.217
G01 X61.051 Y51.562 Z9.144
G01 X61.291 Y51.562 Z9.004
G01 X61.592 Y51.562 Z8.710
G01 X61.772 Y51.562 Z8.483
G01 X61.952 Y51.562 Z8.165
G01 X62.252 Y51.562 Z7.747
G01 X62.312 Y51.562 Z7.630
G01 X62.372 Y51.562 Z7.633
G01 X62.492 Y51.562 Z7.957
G01 X62.673 Y51.562 Z8.238
G01 X62.913 Y51.562 Z8.500
G01 X63.213 Y51.562 Z8.719
G01 X63.453 Y51.562 Z8.867
G01 X63.754 Y51.562 Z9.087
G01 X64.174 Y51.562 Z9.276
G01 X64.474 Y51.562 Z9.346
G01 X64.955 Y51.562 Z9.364
G01 X65.555 Y51.562 Z9.281
G01 X66.096 Y51.562 Z9.189
G01 X66.336 Y51.562 Z9.247
G01 X67.057 Y51.562 Z9.459
G01 X67.717 Y51.562 Z9.580
G01 X68.438 Y51.562 Z9.635
G01 X68.692 Y51.308 Z9.608
G01 X68.692 Y52.027 Z9.675
G01 X68.692 Y52.747 Z9.672
G01 X68.692 Y53.406 Z9.591
G01 X68.692 Y54.125 Z9.427
G01 X68.692 Y55.324 Z9.047
G01 X68.692 Y55.744 Z8.854
G01 X68.692 Y56.104 Z8.596
G01 X68.692 Y56.343 Z8.343
G01 X68.692 Y56.523 Z8.050
G01 X68.692 Y56.643 Z7.758
G01 X68.692 Y56.703 Z7.565
G01 X68.692 Y56.763 Z6.972
G01 X68.692 Y56.823 Z6.868
G01 X68.692 Y56.883 Z6.826
G01 X68.692 Y57.422 Z6.984
G01 X68.692 Y57.962 Z7.039
G01 X68.692 Y59.520 Z6.929
G01 X68.692 Y60.599 Z6.772
G01 X68.692 Y61.019 Z6.720
G01 X68.692 Y61.439 Z6.736
G01 X68.692 Y61.918 Z6.814
G01 X68.692 Y62.338 Z6.931
G01 X68.692 Y62.638 Z7.043
G01 X68.692 Y63.237 Z7.433
G01 X68.692 Y63.297 Z7.928
G01 X68.692 Y63.417 Z8.196
G01 X68.692 Y63.597 Z8.453
G01 X68.692 Y63.836 Z8.679
G01 X68.692 Y64.256 Z8.934
G01 X68.692 Y64.436 Z9.013
G01 X68.692 Y64.496 Z9.082
G01 X68.692 Y64.616 Z9.357
G01 X68.692 Y64.856 Z9.693
G01 X68.692 Y65.095 Z9.926
G01 X68.692 Y65.455 Z10.178
G01 X68.692 Y65.815 Z10.357
G01 X68.692 Y66.234 Z10.475
G01 X68.692 Y66.654 Z10.530
G01 X68.692 Y67.014 Z10.524
G01 X68.692 Y67.493 Z10.431
G01 X68.692 Y67.913 Z10.287
G01 X68.692 Y68.033 Z10.233
G01 X68.692 Y68.332 Z10.199
G01 X68.692 Y68.692 Z10.248
G01 X68.272 Y68.692 Z10.364
G01 X67.853 Y68.692 Z10.404
G01 X67.493 Y68.692 Z10.376
G01 X67.133 Y68.692 Z10.287
G01 X66.714 Y68.692 Z10.110
G01 X66.414 Y68.692 Z10.258
G01 X66.054 Y68.692 Z10.364
G01 X65.695 Y68.692 Z10.398
G01 X65.335 Y68.692 Z10.374
G01 X64.915 Y68.692 Z10.266
G01 X64.676 Y68.692 Z10.158
G01 X64.496 Y68.692 Z10.157
G01 X64.136 Y68.692 Z10.151
G01 X63.777 Y68.692 Z10.085
G01 X63.417 Y68.692 Z9.952
G01 X63.117 Y68.692 Z9.776
G01 X63.057 Y68.692 Z9.734
G01 X62.937 Y68.692 Z9.786
G01 X62.578 Y68.692 Z9.944
G01 X62.278 Y68.692 Z10.017
G01 X62.158 Y68.692 Z10.034
G01 X61.798 Y68.692 Z10.251
G01 X61.439 Y68.692 Z10.391
G01 X61.319 Y68.692 Z10.420
G01 X61.079 Y68.692 Z10.652
G01 X60.779 Y68.692 Z10.855
G01 X60.420 Y68.692 Z11.016
G01 X60.000 Y68.692 Z11.112
G01 X59.580 Y68.692 Z11.131
G01 X59.161 Y68.692 Z11.079
G01 X58.741 Y68.692 Z10.967
G01 X58.381 Y68.692 Z10.810
G01 X58.202 Y68.692 Z10.697
G01 X57.902 Y68.692 Z10.744
G01 X57.362 Y68.692 Z10.803
G01 X56.943 Y68.692 Z10.794
G01 X56.523 Y68.692 Z10.724
G01 X56.164 Y68.692 Z10.614
G01 X55.804 Y68.692 Z10.438
G01 X55.444 Y68.692 Z10.195
G01 X55.085 Y68.692 Z10.294
G01 X54.665 Y68.692 Z10.327
G01 X54.245 Y68.692 Z10.281
G01 X54.006 Y68.692 Z10.221
G01 X53.886 Y68.692 Z10.256
G01 X53.526 Y68.692 Z10.369
G01 X53.106 Y68.692 Z10.429
G01 X52.687 Y68.692 Z10.418
G01 X52.267 Y68.692 Z10.331
G01 X51.907 Y68.692 Z10.191
G01 X51.548 Y68.692 Z9.976
G01 X51.308 Y68.692 Z9.769
G01 X51.308 Y68.212 Z9.726
G01 X51.308 Y67.853 Z9.625
G01 X51.308 Y67.613 Z9.502
G01 X51.308 Y67.373 Z9.297
G01 X51.308 Y67.193 Z9.133
G01 X51.308 Y65.575 Z9.146
G01 X51.308 Y64.736 Z9.083
G01 X51.308 Y64.316 Z8.999
G01 X51.308 Y63.896 Z8.828
G01 X51.308 Y63.597 Z8.629
G01 X51.308 Y63.357 Z8.377
G01 X51.308 Y63.177 Z8.077
G01 X51.308 Y63.117 Z7.927
G01 X51.308 Y62.997 Z7.301
G01 X51.308 Y62.757 Z7.198
G01 X51.308 Y62.038 Z6.993
G01 X51.308 Y61.499 Z6.900
G01 X51.308 Y61.079 Z6.917
G01 X51.308 Y60.180 Z7.061
G01 X51.308 Y58.981 Z7.169
G01 X51.308 Y57.722 Z7.190
G01 X51.308 Y57.243 Z7.159
G01 X51.308 Y56.823 Z7.076
G01 X51.308 Y56.643 Z7.013
G01 X51.308 Y56.583 Z7.497
G01 X51.308 Y56.523 Z7.733
G01 X51.308 Y56.403 Z8.003
G01 X51.308 Y56.164 Z8.346
G01 X51.308 Y55.924 Z8.573
G01 X51.308 Y55.624 Z8.753
G01 X51.308 Y55.144 Z8.924
G01 X51.308 Y54.545 Z9.061
G01 X51.308 Y53.886 Z9.136
G01 X51.308 Y53.466 Z9.186
G01 X51.308 Y52.567 Z9.350
G01 X51.308 Y51.967 Z9.397
G01 X51.308 Y51.368 Z9.366
G01 X51.308 Y51.308 Z9.358
G01 X52.327 Y51.308 Z9.486
G01 X53.106 Y51.308 Z9.511
G01 X53.826 Y51.308 Z9.463
G01 X54.365 Y51.308 Z9.369
G01 X54.785 Y51.308 Z9.229
G01 X55.085 Y51.308 Z9.088
G01 X55.864 Y51.308 Z9.262
G01 X56.403 Y51.308 Z9.317
G01 X56.883 Y51.308 Z9.296
G01 X57.302 Y51.308 Z9.217
G01 X57.602 Y51.308 Z9.107
G01 X57.842 Y51.308 Z8.963
G01 X58.082 Y51.308 Z8.746
G01 X58.322 Y51.308 Z8.463
G01 X58.501 Y51.308 Z8.264
G01 X58.681 Y51.308 Z7.966
G01 X58.801 Y51.308 Z7.748
G01 X58.981 Y51.308 Z8.187
G01 X59.221 Y51.308 Z8.644
G01 X59.401 Y51.308 Z8.879
G01 X59.640 Y51.308 Z9.084
G01 X59.940 Y51.308 Z9.281
G01 X60.240 Y51.308 Z9.392
G01 X60.599 Y51.308 Z9.436
G01 X60.899 Y51.308 Z9.402
G01 X61.199 Y51.308 Z9.295
G01 X61.499 Y51.308 Z9.106
G01 X61.738 Y51.308 Z8.868
G01 X61.978 Y51.308 Z8.475
G01 X62.158 Y51.308 Z8.024
G01 X62.338 Y51.308 Z7.699
G01 X62.398 Y51.308 Z7.763
G01 X62.518 Y51.308 Z8.031
G01 X62.698 Y51.308 Z8.287
G01 X62.997 Y51.308 Z8.575
G01 X63.417 Y51.308 Z8.869
G01 X63.717 Y51.308 Z9.075
G01 X64.076 Y51.308 Z9.231
G01 X64.436 Y51.308 Z9.325
G01 X64.915 Y51.308 Z9.350
G01 X65.515 Y51.308 Z9.271
G01 X66.234 Y51.308 Z9.146
G01 X67.133 Y51.308 Z9.421
G01 X67.733 Y51.308 Z9.537
G01 X68.452 Y51.308 Z9.600
G01 X68.692 Y51.308 Z9.608
G01 X68.946 Y51.054 Z9.568
G01 X68.946 Y51.714 Z9.653
G01 X68.946 Y52.435 Z9.677
G01 X68.946 Y53.095 Z9.632
G01 X68.946 Y53.816 Z9.495
G01 X68.946 Y54.897 Z9.199
G01 X68.946 Y55.317 Z9.078
G01 X68.946 Y55.737 Z8.874
G01 X68.946 Y56.037 Z8.659
G01 X68.946 Y56.278 Z8.435
G01 X68.946 Y56.458 Z8.182
G01 X68.946 Y56.578 Z7.919
G01 X68.946 Y56.638 Z7.699
G01 X68.946 Y56.698 Z6.816
G01 X68.946 Y57.118 Z6.960
G01 X68.946 Y57.598 Z7.047
G01 X68.946 Y58.139 Z7.055
G01 X68.946 Y59.340 Z6.991
G01 X68.946 Y60.240 Z6.883
G01 X68.946 Y61.021 Z6.757
G01 X68.946 Y61.501 Z6.772
G01 X68.946 Y62.041 Z6.873
G01 X68.946 Y62.582 Z7.033
G01 X68.946 Y62.822 Z7.170
G01 X68.946 Y63.182 Z7.402
G01 X68.946 Y63.242 Z7.735
G01 X68.946 Y63.302 Z7.952
G01 X68.946 Y63.422 Z8.215
G01 X68.946 Y63.602 Z8.468
G01 X68.946 Y63.843 Z8.693
G01 X68.946 Y64.143 Z8.872
G01 X68.946 Y64.443 Z9.008
G01 X68.946 Y64.503 Z9.103
G01 X68.946 Y64.623 Z9.370
G01 X68.946 Y64.863 Z9.717
G01 X68.946 Y65.163 Z10.000
G01 X68.946 Y65.524 Z10.219
G01 X68.946 Y65.944 Z10.390
G01 X68.946 Y66.364 Z10.483
G01 X68.946 Y66.845 Z10.499
G01 X68.946 Y67.265 Z10.446
G01 X68.946 Y67.685 Z10.318
G01 X68.946 Y68.165 Z10.312
G01 X68.946 Y68.586 Z10.241
G01 X68.946 Y68.946 Z10.141
G01 X68.586 Y68.946 Z10.303
G01 X68.226 Y68.946 Z10.395
G01 X67.805 Y68.946 Z10.425
G01 X67.385 Y68.946 Z10.380
G01 X67.025 Y68.946 Z10.274
G01 X66.725 Y68.946 Z10.132
G01 X66.664 Y68.946 Z10.096
G01 X66.604 Y68.946 Z10.104
G01 X66.304 Y68.946 Z10.237
G01 X65.944 Y68.946 Z10.322
G01 X65.584 Y68.946 Z10.341
G01 X65.224 Y68.946 Z10.296
G01 X64.863 Y68.946 Z10.189
G01 X64.383 Y68.946 Z10.231
G01 X64.023 Y68.946 Z10.205
G01 X63.662 Y68.946 Z10.118
G01 X63.302 Y68.946 Z9.962
G01 X62.942 Y68.946 Z9.720
G01 X62.882 Y68.946 Z9.670
G01 X62.402 Y68.946 Z9.862
G01 X62.101 Y68.946 Z10.103
G01 X61.741 Y68.946 Z10.300
G01 X61.381 Y68.946 Z10.425
G01 X61.201 Y68.946 Z10.463
G01 X60.901 Y68.946 Z10.707
G01 X60.600 Y68.946 Z10.878
G01 X60.240 Y68.946 Z11.012
G01 X59.880 Y68.946 Z11.082
G01 X59.460 Y68.946 Z11.089
G01 X58.979 Y68.946 Z11.028
G01 X58.619 Y68.946 Z10.927
G01 X58.319 Y68.946 Z10.780
G01 X58.139 Y68.946 Z10.675
G01 X57.538 Y68.946 Z10.792
G01 X56.998 Y68.946 Z10.814
G01 X56.518 Y68.946 Z10.755
G01 X56.157 Y68.946 Z10.650
G01 X55.797 Y68.946 Z10.485
G01 X55.437 Y68.946 Z10.236
G01 X55.257 Y68.946 Z10.066
G01 X54.837 Y68.946 Z10.142
G01 X54.536 Y68.946 Z10.148
G01 X54.236 Y68.946 Z10.109
G01 X54.176 Y68.946 Z10.115
G01 X53.816 Y68.946 Z10.279
G01 X53.396 Y68.946 Z10.386
G01 X52.975 Y68.946 Z10.415
G01 X52.555 Y68.946 Z10.375
G01 X52.195 Y68.946 Z10.283
G01 X51.895 Y68.946 Z10.161
G01 X51.534 Y68.946 Z9.940
G01 X51.234 Y68.946 Z9.666
G01 X51.114 Y68.946 Z9.521
G01 X51.054 Y68.946 Z9.499
G01 X51.054 Y68.826 Z9.459
G01 X51.054 Y68.526 Z9.459
G01 X51.054 Y68.226 Z9.416
G01 X51.054 Y67.925 Z9.325
G01 X51.054 Y67.745 Z9.217
G01 X51.054 Y67.565 Z9.075
G01 X51.054 Y65.644 Z9.120
G01 X51.054 Y64.803 Z9.071
G01 X51.054 Y64.383 Z9.001
G01 X51.054 Y63.963 Z8.854
G01 X51.054 Y63.662 Z8.681
G01 X51.054 Y63.422 Z8.476
G01 X51.054 Y63.242 Z8.251
G01 X51.054 Y63.122 Z8.033
G01 X51.054 Y63.062 Z7.889
G01 X51.054 Y63.002 Z7.683
G01 X51.054 Y62.942 Z7.293
G01 X51.054 Y62.221 Z7.075
G01 X51.054 Y61.561 Z6.943
G01 X51.054 Y61.141 Z6.961
G01 X51.054 Y60.180 Z7.108
G01 X51.054 Y58.979 Z7.214
G01 X51.054 Y57.839 Z7.231
G01 X51.054 Y56.938 Z7.176
G01 X51.054 Y56.638 Z7.098
G01 X51.054 Y56.518 Z7.667
G01 X51.054 Y56.398 Z7.981
G01 X51.054 Y56.217 Z8.278
G01 X51.054 Y55.977 Z8.528
G01 X51.054 Y55.677 Z8.726
G01 X51.054 Y55.197 Z8.914
G01 X51.054 Y54.596 Z9.064
G01 X51.054 Y53.996 Z9.139
G01 X51.054 Y53.336 Z9.202
G01 X51.054 Y52.435 Z9.333
G01 X51.054 Y51.835 Z9.359
G01 X51.054 Y51.234 Z9.307
G01 X51.054 Y51.054 Z9.281
G01 X52.135 Y51.054 Z9.430
G01 X52.855 Y51.054 Z9.471
G01 X53.576 Y51.054 Z9.438
G01 X54.056 Y51.054 Z9.362
G01 X54.536 Y51.054 Z9.223
G01 X54.897 Y51.054 Z9.058
G01 X55.197 Y51.054 Z9.123
G01 X55.977 Y51.054 Z9.277
G01 X56.638 Y51.054 Z9.330
G01 X56.998 Y51.054 Z9.323
G01 X57.298 Y51.054 Z9.269
G01 X57.598 Y51.054 Z9.163
G01 X57.899 Y51.054 Z8.982
G01 X58.199 Y51.054 Z8.717
G01 X58.499 Y51.054 Z8.495
G01 X58.799 Y51.054 Z8.171
G01 X59.039 Y51.054 Z8.705
G01 X59.219 Y51.054 Z8.974
G01 X59.400 Y51.054 Z9.145
G01 X59.700 Y51.054 Z9.340
G01 X60.120 Y51.054 Z9.524
G01 X60.420 Y51.054 Z9.586
G01 X60.781 Y51.054 Z9.580
G01 X61.081 Y51.054 Z9.506
G01 X61.501 Y51.054 Z9.319
G01 X61.741 Y51.054 Z9.147
G01 X61.921 Y51.054 Z8.950
G01 X62.041 Y51.054 Z8.758
G01 X62.161 Y51.054 Z8.476
G01 X62.221 Y51.054 Z8.272
G01 X62.282 Y51.054 Z8.142
G01 X62.402 Y51.054 Z8.190
G01 X62.522 Y51.054 Z8.190
G01 X62.582 Y51.054 Z8.219
G01 X62.702 Y51.054 Z8.339
G01 X62.882 Y51.054 Z8.453
G01 X63.122 Y51.054 Z8.710
G01 X63.482 Y51.054 Z8.992
G01 X63.843 Y51.054 Z9.178
G01 X64.263 Y51.054 Z9.299
G01 X64.683 Y51.054 Z9.340
G01 X65.103 Y51.054 Z9.320
G01 X66.364 Y51.054 Z9.104
G01 X66.664 Y51.054 Z9.202
G01 X67.205 Y51.054 Z9.374
G01 X67.805 Y51.054 Z9.492
G01 X68.526 Y51.054 Z9.559
G01 X68.946 Y51.054 Z9.568
G01 X69.200 Y50.800 Z9.515
G01 X69.200 Y51.459 Z9.623
G01 X69.200 Y52.178 Z9.669
G01 X69.200 Y52.898 Z9.645
G01 X69.200 Y53.437 Z9.566
G01 X69.200 Y54.336 Z9.348
G01 X69.200 Y54.995 Z9.215
G01 X69.200 Y55.415 Z9.063
G01 X69.200 Y55.775 Z8.872
G01 X69.200 Y56.074 Z8.633
G01 X69.200 Y56.314 Z8.381
G01 X69.200 Y56.494 Z8.100
G01 X69.200 Y56.614 Z7.777
G01 X69.200 Y56.674 Z6.911
G01 X69.200 Y56.734 Z6.882
G01 X69.200 Y57.093 Z7.012
G01 X69.200 Y57.573 Z7.083
G01 X69.200 Y58.472 Z7.083
G01 X69.200 Y59.431 Z7.027
G01 X69.200 Y60.330 Z6.919
G01 X69.200 Y61.109 Z6.792
G01 X69.200 Y61.648 Z6.822
G01 X69.200 Y62.128 Z6.925
G01 X69.200 Y62.667 Z7.089
G01 X69.200 Y62.907 Z7.227
G01 X69.200 Y63.087 Z7.347
G01 X69.200 Y63.207 Z7.868
G01 X69.200 Y63.326 Z8.142
G01 X69.200 Y63.506 Z8.398
G01 X69.200 Y63.746 Z8.638
G01 X69.200 Y64.046 Z8.830
G01 X69.200 Y64.465 Z9.021
G01 X69.200 Y64.525 Z9.041
G01 X69.200 Y64.645 Z9.325
G01 X69.200 Y64.825 Z9.620
G01 X69.200 Y65.064 Z9.890
G01 X69.200 Y65.364 Z10.107
G01 X69.200 Y65.664 Z10.263
G01 X69.200 Y66.023 Z10.378
G01 X69.200 Y66.443 Z10.449
G01 X69.200 Y66.803 Z10.453
G01 X69.200 Y67.222 Z10.389
G01 X69.200 Y67.342 Z10.364
G01 X69.200 Y67.822 Z10.401
G01 X69.200 Y68.301 Z10.361
G01 X69.200 Y68.840 Z10.229
G01 X69.200 Y69.200 Z10.081
G01 X69.080 Y69.200 Z10.076
G01 X68.721 Y69.200 Z10.269
G01 X68.301 Y69.200 Z10.399
G01 X67.881 Y69.200 Z10.445
G01 X67.462 Y69.200 Z10.415
G01 X67.102 Y69.200 Z10.324
G01 X66.743 Y69.200 Z10.164
G01 X66.563 Y69.200 Z10.055
G01 X66.203 Y69.200 Z10.203
G01 X65.844 Y69.200 Z10.270
G01 X65.484 Y69.200 Z10.271
G01 X65.124 Y69.200 Z10.209
G01 X65.064 Y69.200 Z10.194
G01 X64.645 Y69.200 Z10.276
G01 X64.285 Y69.200 Z10.289
G01 X63.926 Y69.200 Z10.246
G01 X63.566 Y69.200 Z10.142
G01 X63.207 Y69.200 Z9.972
G01 X62.907 Y69.200 Z9.760
G01 X62.727 Y69.200 Z9.587
G01 X62.667 Y69.200 Z9.588
G01 X62.427 Y69.200 Z9.861
G01 X62.068 Y69.200 Z10.143
G01 X61.768 Y69.200 Z10.299
G01 X61.408 Y69.200 Z10.420
G01 X61.049 Y69.200 Z10.492
G01 X60.749 Y69.200 Z10.721
G01 X60.390 Y69.200 Z10.897
G01 X60.090 Y69.200 Z10.983
G01 X59.610 Y69.200 Z11.040
G01 X59.191 Y69.200 Z11.032
G01 X58.831 Y69.200 Z10.972
G01 X58.472 Y69.200 Z10.838
G01 X58.112 Y69.200 Z10.639
G01 X57.633 Y69.200 Z10.755
G01 X57.213 Y69.200 Z10.805
G01 X56.793 Y69.200 Z10.798
G01 X56.374 Y69.200 Z10.731
G01 X56.014 Y69.200 Z10.620
G01 X55.655 Y69.200 Z10.441
G01 X55.355 Y69.200 Z10.226
G01 X55.055 Y69.200 Z9.929
G01 X54.936 Y69.200 Z9.907
G01 X54.576 Y69.200 Z9.938
G01 X54.456 Y69.200 Z9.931
G01 X54.396 Y69.200 Z9.947
G01 X54.096 Y69.200 Z10.139
G01 X53.737 Y69.200 Z10.289
G01 X53.377 Y69.200 Z10.371
G01 X52.958 Y69.200 Z10.393
G01 X52.598 Y69.200 Z10.354
G01 X52.238 Y69.200 Z10.258
G01 X51.879 Y69.200 Z10.101
G01 X51.579 Y69.200 Z9.909
G01 X51.339 Y69.200 Z9.703
G01 X51.279 Y69.200 Z9.638
G01 X50.860 Y69.200 Z9.499
G01 X50.800 Y69.200 Z9.473
G01 X50.800 Y68.780 Z9.322
G01 X50.800 Y68.361 Z9.088
G01 X50.800 Y68.241 Z9.002
G01 X50.800 Y66.443 Z9.073
G01 X50.800 Y65.244 Z9.079
G01 X50.800 Y64.525 Z9.015
G01 X50.800 Y64.106 Z8.905
G01 X50.800 Y63.806 Z8.779
G01 X50.800 Y63.506 Z8.587
G01 X50.800 Y63.266 Z8.347
G01 X50.800 Y63.087 Z8.090
G01 X50.800 Y62.967 Z7.817
G01 X50.800 Y62.847 Z7.291
G01 X50.800 Y62.128 Z7.093
G01 X50.800 Y61.588 Z6.981
G01 X50.800 Y61.049 Z7.027
G01 X50.800 Y60.450 Z7.128
G01 X50.800 Y59.131 Z7.248
G01 X50.800 Y58.052 Z7.276
G01 X50.800 Y57.393 Z7.243
G01 X50.800 Y56.853 Z7.236
G01 X50.800 Y56.554 Z7.190
G01 X50.800 Y56.494 Z7.679
G01 X50.800 Y56.374 Z8.001
G01 X50.800 Y56.194 Z8.282
G01 X50.800 Y55.954 Z8.523
G01 X50.800 Y55.655 Z8.730
G01 X50.800 Y55.235 Z8.904
G01 X50.800 Y54.636 Z9.064
G01 X50.800 Y54.036 Z9.144
G01 X50.800 Y53.078 Z9.232
G01 X50.800 Y52.298 Z9.314
G01 X50.800 Y51.699 Z9.312
G01 X50.800 Y51.100 Z9.246
G01 X50.800 Y50.800 Z9.187
G01 X52.059 Y50.800 Z9.367
G01 X52.838 Y50.800 Z9.412
G01 X53.497 Y50.800 Z9.381
G01 X54.036 Y50.800 Z9.284
G01 X54.336 Y50.800 Z9.188
G01 X54.696 Y50.800 Z9.023
G01 X54.816 Y50.800 Z9.035
G01 X55.715 Y50.800 Z9.229
G01 X56.614 Y50.800 Z9.343
G01 X56.973 Y50.800 Z9.355
G01 X57.273 Y50.800 Z9.308
G01 X57.752 Y50.800 Z9.138
G01 X58.412 Y50.800 Z8.870
G01 X58.651 Y50.800 Z8.742
G01 X58.771 Y50.800 Z8.708
G01 X58.831 Y50.800 Z8.720
G01 X59.071 Y50.800 Z9.066
G01 X59.251 Y50.800 Z9.246
G01 X59.550 Y50.800 Z9.445
G01 X60.090 Y50.800 Z9.652
G01 X60.450 Y50.800 Z9.716
G01 X60.749 Y50.800 Z9.716
G01 X61.049 Y50.800 Z9.653
G01 X61.528 Y50.800 Z9.464
G01 X61.768 Y50.800 Z9.320
G01 X61.948 Y50.800 Z9.161
G01 X62.188 Y50.800 Z8.836
G01 X62.248 Y50.800 Z8.776
G01 X62.727 Y50.800 Z8.789
G01 X63.087 Y50.800 Z8.881
G01 X63.506 Y50.800 Z9.103
G01 X63.986 Y50.800 Z9.261
G01 X64.405 Y50.800 Z9.328
G01 X64.825 Y50.800 Z9.333
G01 X65.364 Y50.800 Z9.268
G01 X66.503 Y50.800 Z9.070
G01 X66.563 Y50.800 Z9.067
G01 X67.222 Y50.800 Z9.303
G01 X67.822 Y50.800 Z9.431
G01 X68.541 Y50.800 Z9.506
G01 X69.200 Y50.800 Z9.515
G01 X69.454 Y50.546 Z9.446
G01 X69.454 Y51.206 Z9.580
G01 X69.454 Y51.927 Z9.649
G01 X69.454 Y52.707 Z9.651
G01 X69.454 Y53.247 Z9.592
G01 X69.454 Y54.328 Z9.378
G01 X69.454 Y54.928 Z9.281
G01 X69.454 Y55.408 Z9.105
G01 X69.454 Y55.768 Z8.901
G01 X69.454 Y56.008 Z8.705
G01 X69.454 Y56.248 Z8.427
G01 X69.454 Y56.428 Z8.145
G01 X69.454 Y56.549 Z7.848
G01 X69.454 Y56.609 Z7.560
G01 X69.454 Y56.669 Z6.988
G01 X69.454 Y56.729 Z6.947
G01 X69.454 Y57.089 Z7.066
G01 X69.454 Y57.569 Z7.128
G01 X69.454 Y58.649 Z7.119
G01 X69.454 Y59.670 Z7.049
G01 X69.454 Y60.510 Z6.941
G01 X69.454 Y61.110 Z6.839
G01 X69.454 Y61.531 Z6.848
G01 X69.454 Y62.071 Z6.944
G01 X69.454 Y62.791 Z7.166
G01 X69.454 Y63.031 Z7.316
G01 X69.454 Y63.151 Z7.835
G01 X69.454 Y63.271 Z8.115
G01 X69.454 Y63.451 Z8.387
G01 X69.454 Y63.692 Z8.624
G01 X69.454 Y64.052 Z8.851
G01 X69.454 Y64.472 Z9.020
G01 X69.454 Y64.592 Z9.054
G01 X69.454 Y64.652 Z9.139
G01 X69.454 Y64.772 Z9.405
G01 X69.454 Y64.952 Z9.677
G01 X69.454 Y65.192 Z9.914
G01 X69.454 Y65.552 Z10.158
G01 X69.454 Y65.852 Z10.285
G01 X69.454 Y66.273 Z10.373
G01 X69.454 Y66.693 Z10.388
G01 X69.454 Y66.993 Z10.362
G01 X69.454 Y67.473 Z10.442
G01 X69.454 Y67.953 Z10.448
G01 X69.454 Y68.494 Z10.362
G01 X69.454 Y69.034 Z10.180
G01 X69.454 Y69.454 Z9.967
G01 X69.274 Y69.454 Z9.960
G01 X69.214 Y69.454 Z9.981
G01 X68.914 Y69.454 Z10.175
G01 X68.614 Y69.454 Z10.311
G01 X68.253 Y69.454 Z10.408
G01 X67.833 Y69.454 Z10.445
G01 X67.413 Y69.454 Z10.404
G01 X67.053 Y69.454 Z10.305
G01 X66.693 Y69.454 Z10.135
G01 X66.513 Y69.454 Z10.020
G01 X66.453 Y69.454 Z10.020
G01 X66.093 Y69.454 Z10.146
G01 X65.732 Y69.454 Z10.193
G01 X65.372 Y69.454 Z10.178
G01 X65.252 Y69.454 Z10.179
G01 X64.892 Y69.454 Z10.291
G01 X64.532 Y69.454 Z10.340
G01 X64.172 Y69.454 Z10.334
G01 X63.812 Y69.454 Z10.271
G01 X63.511 Y69.454 Z10.173
G01 X63.151 Y69.454 Z9.988
G01 X62.851 Y69.454 Z9.763
G01 X62.671 Y69.454 Z9.601
G01 X62.431 Y69.454 Z9.863
G01 X62.131 Y69.454 Z10.097
G01 X61.711 Y69.454 Z10.312
G01 X61.291 Y69.454 Z10.434
G01 X60.930 Y69.454 Z10.481
G01 X60.630 Y69.454 Z10.687
G01 X60.330 Y69.454 Z10.819
G01 X59.910 Y69.454 Z10.931
G01 X59.430 Y69.454 Z10.988
G01 X59.130 Y69.454 Z10.977
G01 X58.709 Y69.454 Z10.884
G01 X58.289 Y69.454 Z10.711
G01 X58.109 Y69.454 Z10.612
G01 X58.049 Y69.454 Z10.597
G01 X57.569 Y69.454 Z10.727
G01 X57.089 Y69.454 Z10.784
G01 X56.669 Y69.454 Z10.777
G01 X56.248 Y69.454 Z10.701
G01 X55.888 Y69.454 Z10.574
G01 X55.588 Y69.454 Z10.414
G01 X55.288 Y69.454 Z10.191
G01 X55.108 Y69.454 Z10.034
G01 X54.748 Y69.454 Z9.971
G01 X54.448 Y69.454 Z9.874
G01 X53.967 Y69.454 Z10.150
G01 X53.547 Y69.454 Z10.291
G01 X53.187 Y69.454 Z10.345
G01 X52.767 Y69.454 Z10.335
G01 X52.347 Y69.454 Z10.246
G01 X51.927 Y69.454 Z10.070
G01 X51.566 Y69.454 Z9.830
G01 X51.446 Y69.454 Z9.727
G01 X50.966 Y69.454 Z9.606
G01 X50.606 Y69.454 Z9.438
G01 X50.546 Y69.454 Z9.402
G01 X50.546 Y68.914 Z9.230
G01 X50.546 Y68.494 Z8.994
G01 X50.546 Y68.434 Z8.951
G01 X50.546 Y68.314 Z8.944
G01 X50.546 Y67.113 Z9.020
G01 X50.546 Y65.312 Z9.051
G01 X50.546 Y64.532 Z8.999
G01 X50.546 Y64.052 Z8.883
G01 X50.546 Y63.692 Z8.730
G01 X50.546 Y63.451 Z8.572
G01 X50.546 Y63.211 Z8.335
G01 X50.546 Y63.031 Z8.064
G01 X50.546 Y62.911 Z7.799
G01 X50.546 Y62.791 Z7.308
G01 X50.546 Y62.071 Z7.123
G01 X50.546 Y61.591 Z7.027
G01 X50.546 Y61.110 Z7.076
G01 X50.546 Y60.450 Z7.182
G01 X50.546 Y58.890 Z7.307
G01 X50.546 Y56.909 Z7.312
G01 X50.546 Y56.549 Z7.289
G01 X50.546 Y56.489 Z7.651
G01 X50.546 Y56.368 Z7.962
G01 X50.546 Y56.188 Z8.244
G01 X50.546 Y56.008 Z8.454
G01 X50.546 Y55.768 Z8.647
G01 X50.546 Y55.408 Z8.837
G01 X50.546 Y54.868 Z9.014
G01 X50.546 Y54.388 Z9.109
G01 X50.546 Y53.547 Z9.185
G01 X50.546 Y52.227 Z9.288
G01 X50.546 Y51.626 Z9.268
G01 X50.546 Y50.966 Z9.180
G01 X50.546 Y50.546 Z9.085
G01 X51.807 Y50.546 Z9.271
G01 X52.647 Y50.546 Z9.336
G01 X53.307 Y50.546 Z9.318
G01 X53.787 Y50.546 Z9.240
G01 X54.148 Y50.546 Z9.131
G01 X54.508 Y50.546 Z8.970
G01 X55.468 Y50.546 Z9.179
G01 X56.729 Y50.546 Z9.361
G01 X57.029 Y50.546 Z9.361
G01 X57.689 Y50.546 Z9.260
G01 X58.349 Y50.546 Z9.090
G01 X58.589 Y50.546 Z9.002
G01 X58.890 Y50.546 Z9.061
G01 X59.190 Y50.546 Z9.373
G01 X59.430 Y50.546 Z9.534
G01 X59.730 Y50.546 Z9.655
G01 X60.090 Y50.546 Z9.754
G01 X60.510 Y50.546 Z9.819
G01 X60.810 Y50.546 Z9.806
G01 X61.351 Y50.546 Z9.667
G01 X61.651 Y50.546 Z9.541
G01 X61.891 Y50.546 Z9.382
G01 X62.191 Y50.546 Z9.122
G01 X62.311 Y50.546 Z9.091
G01 X62.611 Y50.546 Z9.066
G01 X62.851 Y50.546 Z9.063
G01 X63.331 Y50.546 Z9.135
G01 X63.752 Y50.546 Z9.260
G01 X64.292 Y50.546 Z9.331
G01 X64.772 Y50.546 Z9.328
G01 X65.432 Y50.546 Z9.239
G01 X66.513 Y50.546 Z9.061
G01 X66.753 Y50.546 Z9.038
G01 X67.353 Y50.546 Z9.247
G01 X67.833 Y50.546 Z9.358
G01 X68.494 Y50.546 Z9.436
G01 X69.274 Y50.546 Z9.452
G01 X69.454 Y50.546 Z9.446
G01 X69.708 Y50.292 Z9.363
G01 X69.708 Y50.951 Z9.522
G01 X69.708 Y51.670 Z9.618
