%
( ATCTest1 ) ( File created: Monday November 18 2024 - 07:28 PM)
( for LinuxCNC )
( Material Size) ( X= 100.000, Y= 100.000, Z= 20.000)
G90 (Incremental distance mode)
G17 G21 (Active Plane: XY)(Metric Mode)
G40 G49 G80(Tool Diameter, Length compensation & canned cycles OFF)
G64 P0.05 Q0.05(Path Blending)
T2 M06 (TOOL USE End Mill 4 mm)
G90 (absolute distance mode)
G54 (Coordinate System)
S18000M3
G00 Z25.000
G4 P6
( Profile 1 )
G00 X22.113 Y30.439 Z25.000 F5080.0
G01 Z19.000 F1200.0 M3
G02 X20.113 Y32.439 I0.000 J2.000
G01 X20.113 Y63.439  F2540.0
G02 X22.113 Y65.439 I2.000 J0.000
G01 X78.113 Y65.439  
G02 X80.113 Y63.439 I0.000 J-2.000
G01 X80.113 Y32.439  
G02 X78.113 Y30.439 I-2.000 J0.000
G01 X22.113 Y30.439  
G00 Z25.000
M05
M1
( V-Carve 1 )
T4 M6( TOOL USE V-Bit 60.0 - 6 mm )
S10000 M03
( V-Carve 1 )
( V-Carve 1 )
G00 X36.745 Y55.888 Z25.000 F3600.0
G01 Z19.051 F550.0 M3
G01 X37.014 Y55.705  F1800.0
G01 X37.338 Y55.398 
G01 X37.615 Y55.040 
G01 X37.841 Y54.638 
G01 X38.016 Y54.209 
G01 X38.140 Y53.766 
G01 X38.214 Y53.308 
G01 X38.239 Y52.841 
G01 X38.226 Y52.496 
G01 X38.186 Y52.166 
G01 X38.120 Y51.847 
G01 X38.026 Y51.541 
G01 X37.903 Y51.249 
G01 X37.752 Y50.972 
G01 X37.574 Y50.712 
G01 X37.370 Y50.472 
G01 X37.149 Y50.255 
G01 X36.974 Y50.114 
G01 X37.385 Y50.224 
G01 X37.690 Y50.343 
G01 X37.966 Y50.487 
G01 X38.217 Y50.654 
G01 X38.446 Y50.848 
G01 X38.651 Y51.063 
G01 X38.828 Y51.293 
G01 X38.977 Y51.537 
G01 X39.099 Y51.797 
G01 X39.195 Y52.074 
G01 X39.264 Y52.371 
G01 X39.306 Y52.689 
G01 X39.320 Y53.030 
G01 X39.284 Y53.506 
G01 X39.178 Y53.938 
G01 X39.002 Y54.333 
G01 X38.753 Y54.702 
G01 X38.440 Y55.041 
G01 X38.095 Y55.326 
G01 X37.719 Y55.557 
G01 X37.305 Y55.737 
G01 X36.827 Y55.873 
G01 X36.745 Y55.888 
G00 Z25.000
G00 X33.322 Y56.063  F3600.0
G01 Z19.051 F550.0 M3
G01 X32.104 Y56.063  F1800.0
G01 X32.228 Y55.811 
G01 X32.329 Y55.406 
G01 X32.384 Y54.910 
G01 X32.401 Y54.326 
G01 X32.401 Y45.943 
G01 X32.389 Y45.415 
G01 X32.349 Y44.966 
G01 X32.276 Y44.600 
G01 X32.212 Y44.415 
G01 X32.091 Y44.204 
G01 X33.444 Y44.204 
G01 X33.326 Y44.439 
G01 X33.262 Y44.643 
G01 X33.213 Y44.869 
G01 X33.158 Y45.356 
G01 X33.140 Y45.941 
G01 X33.140 Y49.723 
G01 X33.212 Y49.995 
G01 X33.140 Y50.267 
G01 X33.140 Y55.656 
G02 X33.322 Y56.063 I0.548 J0.000
G00 Z25.000
G00 X38.766 Y53.231  F3600.0
G01 Z18.104 F550.0 M3
G01 X38.715 Y53.597 Z18.116 F1800.0
G01 X38.627 Y53.935 Z18.161
G01 X38.495 Y54.254 Z18.231
G01 X38.300 Y54.599 Z18.341
G01 X38.059 Y54.932 Z18.472
G01 X37.781 Y55.234 Z18.618
G01 X37.409 Y55.536 Z18.794
G01 X37.007 Y55.774 Z18.960
G01 X36.596 Y55.945 Z19.104
G01 X36.187 Y56.072 Z19.206
G01 X35.773 Y56.155 Z19.283
G01 X35.352 Y56.204 Z19.324
G01 X34.922 Y56.221 Z19.334
G01 X34.313 Y56.198 Z19.285
G01 X33.585 Y56.128 Z19.163
G01 X33.429 Y56.098 Z19.112
G01 X33.336 Y56.069 Z19.061
G01 X33.202 Y56.010 Z18.959
G01 X33.008 Y55.892 Z18.754
G01 X32.732 Y55.656 Z18.345
G01 X32.712 Y55.636 Z18.311
G01 X32.344 Y55.915 Z18.794
G01 X32.004 Y56.116 Z19.143
G01 X31.728 Y56.234 Z19.347
G01 X31.375 Y56.340 Z19.531
G01 X31.031 Y56.402 Z19.639
G01 X30.847 Y56.421 Z19.671
G01 X30.487 Y56.434 Z19.694
G01 X30.177 Y56.434 
G01 X30.000 Y56.611 Z20.000
G01 X30.177 Y56.434 Z19.694
G01 X30.000 Y56.257 Z20.000
G01 X30.177 Y56.434 Z19.694
G01 X30.501 Y56.434 Z19.693
G01 X30.872 Y56.419 Z19.668
G01 X31.229 Y56.371 Z19.585
G01 X31.549 Y56.294 Z19.451
G01 X31.776 Y56.216 Z19.315
G01 X32.004 Y56.116 Z19.143
G01 X32.344 Y55.915 Z18.794
G01 X32.712 Y55.636 Z18.311
G01 X32.735 Y55.414 Z18.351
G01 X32.762 Y54.899 Z18.397
G01 X32.770 Y54.318 Z18.411
G01 X32.770 Y50.267 
G01 X32.791 Y49.995 Z18.376
G01 X32.770 Y49.723 Z18.411
G01 X32.770 Y45.922 Z18.411
G01 X32.771 Y45.289 Z18.372
G01 X32.773 Y44.846 Z18.289
G01 X32.772 Y44.676 Z18.234
G01 X32.401 Y44.391 Z18.727
G01 X32.102 Y44.210 Z19.042
G01 X31.724 Y44.039 Z19.338
G01 X31.473 Y43.956 Z19.482
G01 X31.281 Y43.908 Z19.564
G01 X30.916 Y43.853 Z19.660
G01 X30.693 Y43.838 Z19.687
G01 X30.177 Y43.833 Z19.694
G01 X30.000 Y44.010 Z20.000
G01 X30.177 Y43.833 Z19.694
G01 X30.000 Y43.657 Z20.000
G01 X30.177 Y43.833 Z19.694
G01 X30.710 Y43.838 Z19.685
G01 X31.090 Y43.874 Z19.623
G01 X31.315 Y43.916 Z19.551
G01 X31.516 Y43.968 Z19.460
G01 X31.724 Y44.039 Z19.338
G01 X32.102 Y44.210 Z19.042
G01 X32.401 Y44.391 Z18.727
G01 X32.772 Y44.676 Z18.234
G01 X33.212 Y44.347 Z18.805
G01 X33.555 Y44.147 Z19.151
G01 X33.817 Y44.035 Z19.345
G01 X34.136 Y43.935 Z19.517
G01 X34.490 Y43.868 Z19.634
G01 X34.695 Y43.847 Z19.671
G01 X35.054 Y43.833 Z19.694
G01 X35.374 Y43.833 
G01 X35.551 Y43.657 Z20.000
G01 X35.374 Y43.833 Z19.694
G01 X35.551 Y44.010 Z20.000
G01 X35.374 Y43.833 Z19.694
G01 X35.040 Y43.834 Z19.693
G01 X34.669 Y43.849 Z19.668
G01 X34.313 Y43.896 Z19.585
G01 X33.996 Y43.974 Z19.450
G01 X33.768 Y44.054 Z19.312
G01 X33.446 Y44.203 Z19.053
G01 X33.119 Y44.411 Z18.694
G01 X32.772 Y44.676 Z18.234
G01 X32.775 Y44.958 Z18.314
G01 X32.772 Y45.424 Z18.388
G01 X32.770 Y45.949 Z18.411
G01 X32.770 Y49.723 
G01 X32.791 Y49.995 Z18.376
G01 X33.341 Y49.995 Z19.236
G01 X33.525 Y49.995 Z19.451
G01 X33.644 Y49.995 Z19.522
G01 X33.739 Y49.987 Z19.534
G01 X34.558 Y49.847 Z19.518
G01 X35.243 Y49.782 Z19.489
G01 X35.546 Y49.779 Z19.458
G01 X35.866 Y49.802 Z19.401
G01 X36.095 Y49.836 Z19.354
G01 X36.371 Y49.896 Z19.275
G01 X36.696 Y49.998 Z19.160
G01 X37.047 Y50.148 Z19.018
G01 X37.434 Y50.369 Z18.847
G01 X37.762 Y50.617 Z18.689
G01 X38.041 Y50.889 Z18.544
G01 X38.238 Y51.138 Z18.443
G01 X38.427 Y51.446 Z18.339
G01 X38.578 Y51.778 Z18.250
G01 X38.685 Y52.131 Z18.186
G01 X38.751 Y52.498 Z18.142
G01 X38.775 Y52.894 Z18.118
G01 X38.766 Y53.231 Z18.104
G00 Z25.000
G01 Z18.104 F550.0 M3
G01 X38.774 Y52.796 Z18.122 F1800.0
G01 X38.740 Y52.413 Z18.151
G01 X38.663 Y52.042 Z18.199
G01 X38.543 Y51.690 Z18.271
G01 X38.381 Y51.363 Z18.364
G01 X38.184 Y51.064 Z18.472
G01 X37.955 Y50.798 Z18.592
G01 X37.703 Y50.566 Z18.718
G01 X37.354 Y50.317 Z18.880
G01 X37.047 Y50.148 Z19.018
G01 X36.649 Y49.981 Z19.180
G01 X36.301 Y49.878 Z19.293
G01 X36.055 Y49.829 Z19.364
G01 X35.785 Y49.793 Z19.420
G01 X35.398 Y49.777 Z19.470
G01 X34.888 Y49.807 Z19.504
G01 X34.337 Y49.881 Z19.516
G01 X33.730 Y49.988 Z19.534
G01 X33.644 Y49.995 Z19.522
G01 X33.525 Y49.995 Z19.451
G01 X33.341 Y49.995 Z19.236
G01 X32.791 Y49.995 Z18.376
G01 X32.770 Y50.267 Z18.411
G01 X32.770 Y54.345 Z18.411
G01 X32.760 Y54.974 Z18.393
G01 X32.724 Y55.543 Z18.331
G01 X32.712 Y55.636 Z18.311
G01 X32.859 Y55.774 Z18.550
G01 X33.097 Y55.951 Z18.856
G01 X33.202 Y56.010 Z18.959
G01 X33.336 Y56.069 Z19.061
G01 X33.429 Y56.098 Z19.112
G01 X33.585 Y56.128 Z19.163
G01 X34.336 Y56.200 Z19.288
G01 X34.922 Y56.221 Z19.334
G01 X35.400 Y56.201 Z19.320
G01 X35.827 Y56.145 Z19.276
G01 X36.249 Y56.057 Z19.191
G01 X36.670 Y55.918 Z19.081
G01 X37.095 Y55.728 Z18.926
G01 X37.501 Y55.470 Z18.753
G01 X37.875 Y55.141 Z18.573
G01 X38.185 Y54.772 Z18.410
G01 X38.417 Y54.407 Z18.279
G01 X38.566 Y54.091 Z18.189
G01 X38.676 Y53.767 Z18.134
G01 X38.752 Y53.377 Z18.111
G01 X38.766 Y53.231 Z18.104
G00 Z25.000
G00 X45.939 Y52.146  F3600.0
G01 Z19.176 F550.0 M3
G01 X46.038 Y52.090  F1800.0
G01 X46.314 Y51.883 
G01 X46.556 Y51.636 
G01 X46.760 Y51.356 
G01 X46.927 Y51.040 
G01 X47.018 Y50.775 
G01 X47.085 Y50.463 
G01 X47.133 Y50.105 
G01 X47.164 Y49.703 
G01 X47.159 Y49.587 
G01 X48.183 Y49.587 
G01 X48.157 Y49.806 
G01 X48.092 Y50.118 
G01 X48.002 Y50.408 
G01 X47.889 Y50.677 
G01 X47.750 Y50.927 
G01 X47.588 Y51.158 
G01 X47.399 Y51.373 
G01 X47.190 Y51.567 
G01 X46.968 Y51.735 
G01 X46.734 Y51.875 
G01 X46.486 Y51.990 
G01 X46.222 Y52.080 
G01 X45.939 Y52.146 
G00 Z25.000
G00 X42.252 Y49.389  F3600.0
G01 Z19.176 F550.0 M3
G02 X42.167 Y49.726 I0.387 J0.277
G01 X42.204 Y50.010  F1800.0
G01 X42.282 Y50.371 
G01 X42.168 Y50.144 
G01 X42.023 Y49.766 
G01 X41.908 Y49.355 
G01 X41.826 Y48.910 
G01 X41.776 Y48.430 
G01 X41.759 Y47.918 
G01 X41.775 Y47.447 
G01 X41.824 Y47.005 
G01 X41.904 Y46.593 
G01 X42.014 Y46.209 
G01 X42.155 Y45.854 
G01 X42.325 Y45.524 
G01 X42.526 Y45.219 
G01 X42.758 Y44.937 
G01 X43.013 Y44.681 
G01 X43.279 Y44.462 
G01 X43.554 Y44.279 
G01 X43.838 Y44.130 
G01 X44.134 Y44.015 
G01 X44.442 Y43.932 
G01 X44.765 Y43.882 
G01 X45.104 Y43.865 
G01 X45.413 Y43.880 
G01 X45.705 Y43.923 
G01 X45.980 Y43.994 
G01 X46.241 Y44.093 
G01 X46.488 Y44.220 
G01 X46.724 Y44.377 
G01 X46.950 Y44.563 
G01 X47.141 Y44.756 
G01 X46.777 Y44.610 
G01 X46.315 Y44.505 
G01 X45.825 Y44.470 
G01 X45.460 Y44.490 
G01 X45.099 Y44.551 
G01 X44.750 Y44.653 
G01 X44.413 Y44.796 
G01 X44.092 Y44.978 
G01 X43.786 Y45.197 
G01 X43.497 Y45.453 
G01 X43.222 Y45.746 
G01 X42.969 Y46.074 
G01 X42.749 Y46.434 
G01 X42.564 Y46.820 
G01 X42.416 Y47.232 
G01 X42.302 Y47.667 
G01 X42.223 Y48.126 
G01 X42.177 Y48.608 
G01 X42.163 Y49.099 
G01 X42.252 Y49.389 
G00 Z25.000
G00 X47.612 Y50.062  F3600.0
G01 Z18.353 F550.0 M3
G01 X47.971 Y49.776 Z18.849 F1800.0
G01 X48.305 Y49.479 Z19.364
G01 X48.686 Y49.112 Z20.000
G01 X48.305 Y49.479 Z19.364
G01 X47.971 Y49.776 Z18.849
G01 X47.612 Y50.062 Z18.353
G01 X47.508 Y50.492 Z18.443
G01 X47.379 Y50.823 Z18.547
G01 X47.189 Y51.169 Z18.669
G01 X46.981 Y51.435 Z18.774
G01 X46.707 Y51.703 Z18.896
G01 X46.404 Y51.922 Z19.017
G01 X46.078 Y52.090 Z19.135
G01 X45.695 Y52.225 Z19.256
G01 X45.324 Y52.299 Z19.349
G01 X45.069 Y52.320 Z19.406
G01 X44.773 Y52.315 Z19.448
G01 X44.547 Y52.292 Z19.465
G01 X44.191 Y52.212 Z19.482
G01 X43.852 Y52.085 Z19.480
G01 X43.505 Y51.897 Z19.463
G01 X43.238 Y51.703 Z19.433
G01 X42.941 Y51.429 Z19.393
G01 X42.716 Y51.162 Z19.339
G01 X42.495 Y50.826 Z19.271
G01 X42.332 Y50.498 Z19.199
G01 X42.196 Y50.132 Z19.122
G01 X42.093 Y49.736 Z19.045
G01 X42.070 Y49.512 Z18.979
G01 X42.076 Y49.389 Z18.912
G01 X42.030 Y49.225 Z18.927
G01 X41.997 Y48.885 Z18.877
G01 X41.985 Y48.416 Z18.813
G01 X42.007 Y47.918 Z18.746
G01 X42.060 Y47.467 Z18.682
G01 X42.140 Y47.053 Z18.622
G01 X42.256 Y46.647 Z18.564
G01 X42.431 Y46.210 Z18.504
G01 X42.604 Y45.881 Z18.463
G01 X42.863 Y45.498 Z18.422
G01 X43.178 Y45.144 Z18.407
G01 X43.497 Y44.859 Z18.405
G01 X43.815 Y44.637 Z18.416
G01 X44.017 Y44.524 Z18.428
G01 X44.277 Y44.404 Z18.460
G01 X44.670 Y44.281 Z18.518
G01 X45.069 Y44.209 Z18.584
G01 X45.471 Y44.190 Z18.659
G01 X45.855 Y44.221 Z18.742
G01 X46.157 Y44.281 Z18.820
G01 X46.407 Y44.359 Z18.898
G01 X46.780 Y44.527 Z19.036
G01 X47.027 Y44.676 Z19.133
G01 X47.398 Y44.964 Z19.278
G01 X47.705 Y45.277 Z19.391
G01 X47.875 Y45.492 Z19.446
G01 X48.131 Y45.902 Z19.527
G01 X48.311 Y46.279 Z19.588
G01 X48.476 Y46.757 Z19.672
G01 X48.686 Y46.847 Z20.000
G01 X48.476 Y46.757 Z19.672
G01 X48.390 Y47.038 Z20.000
G01 X48.476 Y46.757 Z19.672
G01 X48.360 Y46.403 Z19.613
G01 X48.141 Y45.919 Z19.530
G01 X48.001 Y45.678 Z19.485
G01 X47.727 Y45.303 Z19.399
G01 X47.398 Y44.964 Z19.278
G01 X47.027 Y44.676 Z19.133
G01 X46.659 Y44.465 Z18.986
G01 X46.316 Y44.329 Z18.873
G01 X46.066 Y44.260 Z18.798
G01 X45.790 Y44.213 Z18.727
G01 X45.382 Y44.189 Z18.639
G01 X44.974 Y44.223 Z18.569
G01 X44.670 Y44.281 Z18.518
G01 X44.263 Y44.409 Z18.458
G01 X43.900 Y44.587 Z18.424
G01 X43.545 Y44.821 Z18.403
G01 X43.219 Y45.105 Z18.405
G01 X42.919 Y45.429 Z18.418
G01 X42.653 Y45.799 Z18.452
G01 X42.525 Y46.022 Z18.473
G01 X42.375 Y46.332 Z18.516
G01 X42.231 Y46.724 Z18.576
G01 X42.114 Y47.175 Z18.644
G01 X42.036 Y47.641 Z18.713
G01 X41.994 Y48.123 Z18.780
G01 X41.986 Y48.620 Z18.847
G01 X42.013 Y49.095 Z18.915
G01 X42.030 Y49.225 Z18.927
G01 X42.076 Y49.389 Z18.912
G01 X42.402 Y49.389 Z19.368
G01 X42.527 Y49.389 Z19.482
G01 X42.639 Y49.389 Z19.520
G01 X46.690 Y49.389 
G01 X46.840 Y49.409 Z19.485
G01 X46.989 Y49.470 Z19.380
G01 X47.113 Y49.551 Z19.240
G01 X47.289 Y49.712 Z18.959
G01 X47.612 Y50.062 Z18.353
G00 Z25.000
G01 Z18.353 F550.0 M3
G01 X47.209 Y49.632 Z19.099 F1800.0
G01 X47.113 Y49.551 Z19.240
G01 X46.989 Y49.470 Z19.380
G01 X46.840 Y49.409 Z19.485
G01 X46.690 Y49.389 Z19.520
G01 X42.639 Y49.389 
G01 X42.527 Y49.389 Z19.482
G01 X42.402 Y49.389 Z19.368
G01 X42.076 Y49.389 Z18.912
G01 X42.073 Y49.595 Z19.012
G01 X42.094 Y49.743 Z19.046
G01 X42.196 Y50.132 Z19.122
G01 X42.353 Y50.545 Z19.212
G01 X42.503 Y50.841 Z19.273
G01 X42.716 Y51.162 Z19.339
G01 X42.965 Y51.454 Z19.397
G01 X43.238 Y51.703 Z19.433
G01 X43.534 Y51.915 Z19.464
G01 X43.852 Y52.085 Z19.480
G01 X44.191 Y52.212 Z19.482
G01 X44.578 Y52.296 Z19.464
G01 X44.930 Y52.322 Z19.420
G01 X45.122 Y52.317 Z19.397
G01 X45.435 Y52.282 Z19.328
G01 X45.753 Y52.208 Z19.240
G01 X46.078 Y52.090 Z19.135
G01 X46.404 Y51.922 Z19.017
G01 X46.707 Y51.703 Z18.896
G01 X46.981 Y51.435 Z18.774
G01 X47.228 Y51.105 Z18.646
G01 X47.379 Y50.823 Z18.547
G01 X47.508 Y50.492 Z18.443
G01 X47.600 Y50.128 Z18.366
G01 X47.612 Y50.062 Z18.353
G00 Z25.000
G00 X52.190 Y44.023  F3600.0
G01 Z19.194 F550.0 M3
G01 X52.344 Y43.990  F1800.0
G01 X52.493 Y43.980 
G01 X52.736 Y44.002 
G01 X52.975 Y44.069 
G01 X53.174 Y44.163 
G01 X52.981 Y44.182 
G01 X52.715 Y44.272 
G01 X52.476 Y44.421 
G01 X52.278 Y44.618 
G01 X52.178 Y44.764 
G01 X52.096 Y44.929 
G01 X51.999 Y45.252 
G01 X51.944 Y45.632 
G01 X51.928 Y46.055 
G01 X51.928 Y51.739 
G02 X52.070 Y52.073 I0.465 J0.000
G02 X51.928 Y52.407 I0.323 J0.334
G01 X51.928 Y53.794  
G01 X51.641 Y53.351 
G01 X51.385 Y53.018 
G01 X51.111 Y52.708 
G01 X50.820 Y52.422 
G01 X50.564 Y52.204 
G01 X50.817 Y52.204 
G02 X51.282 Y51.739 I0.000 J-0.465
G01 X51.282 Y45.860  
G01 X51.294 Y45.441 
G01 X51.328 Y45.099 
G01 X51.380 Y44.832 
G01 X51.446 Y44.640 
G01 X51.525 Y44.492 
G01 X51.621 Y44.363 
G01 X51.736 Y44.254 
G01 X51.876 Y44.158 
G01 X52.033 Y44.079 
G01 X52.190 Y44.023 
G00 Z25.000
G00 X51.464 Y52.406  F3600.0
G01 Z18.390 F550.0 M3
G01 X51.631 Y52.849 Z18.679 F1800.0
G01 X51.776 Y53.280 Z18.931
G01 X51.909 Y53.722 Z19.162
G01 X52.057 Y54.336 Z19.418
G01 X52.215 Y55.105 Z19.691
G01 X52.393 Y55.283 Z20.000
G01 X52.215 Y55.105 Z19.691
G01 X52.097 Y55.283 Z20.000
G01 X52.215 Y55.105 Z19.691
G01 X52.054 Y54.321 Z19.412
G01 X51.897 Y53.679 Z19.141
G01 X51.763 Y53.239 Z18.908
G01 X51.612 Y52.797 Z18.646
G01 X51.464 Y52.406 Z18.390
G01 X51.177 Y52.386 Z18.717
G01 X50.931 Y52.334 Z18.951
G01 X50.491 Y52.178 Z19.239
G01 X50.128 Y52.061 Z19.442
G01 X49.793 Y51.969 Z19.602
G01 X49.624 Y51.931 Z19.666
G01 X49.432 Y52.054 Z20.000
G01 X49.624 Y51.931 Z19.666
G01 X49.432 Y51.739 Z20.000
G01 X49.624 Y51.931 Z19.666
G01 X49.817 Y51.975 Z19.591
G01 X50.157 Y52.069 Z19.427
G01 X50.526 Y52.190 Z19.219
G01 X50.931 Y52.334 Z18.951
G01 X51.177 Y52.386 Z18.717
G01 X51.464 Y52.406 Z18.390
G01 X51.535 Y52.237 Z18.485
G01 X51.605 Y52.073 Z18.517
G01 X51.605 Y51.903 Z18.605
G01 X51.605 Y51.739 Z18.635
G01 X51.609 Y45.865 Z18.629
G01 X51.629 Y45.462 Z18.613
G01 X51.677 Y45.118 Z18.594
G01 X51.754 Y44.836 Z18.580
G01 X51.850 Y44.639 Z18.590
G01 X51.989 Y44.471 Z18.637
G01 X52.147 Y44.344 Z18.696
G01 X52.376 Y44.216 Z18.800
G01 X52.578 Y44.158 Z18.901
G01 X52.726 Y44.133 Z18.972
G01 X53.029 Y44.138 Z19.126
G01 X53.296 Y44.193 Z19.255
G01 X53.536 Y44.282 Z19.360
G01 X53.696 Y44.365 Z19.430
G01 X53.971 Y44.569 Z19.543
G01 X54.172 Y44.781 Z19.627
G01 X54.296 Y44.951 Z19.667
G01 X54.403 Y45.136 Z19.691
G01 X54.441 Y45.220 Z19.696
G01 X54.705 Y45.395 Z20.000
G01 X54.441 Y45.220 Z19.696
G01 X54.332 Y45.395 Z20.000
G01 X54.441 Y45.220 Z19.696
G01 X54.351 Y45.040 Z19.673
G01 X54.279 Y44.927 Z19.663
G01 X54.105 Y44.702 Z19.596
G01 X53.867 Y44.483 Z19.503
G01 X53.652 Y44.340 Z19.412
G01 X53.449 Y44.246 Z19.327
G01 X53.217 Y44.170 Z19.214
G01 X52.908 Y44.128 Z19.064
G01 X52.712 Y44.133 Z18.965
G01 X52.491 Y44.179 Z18.851
G01 X52.257 Y44.274 Z18.746
G01 X52.035 Y44.427 Z18.655
G01 X51.880 Y44.593 Z18.598
G01 X51.773 Y44.782 Z18.578
G01 X51.725 Y44.924 Z18.577
G01 X51.656 Y45.239 Z18.604
G01 X51.616 Y45.643 Z18.627
G01 X51.605 Y46.064 Z18.635
G01 X51.605 Y51.739 
G01 X51.605 Y51.903 Z18.605
G01 X51.605 Y52.073 Z18.517
G01 X51.901 Y52.073 Z18.969
G01 X52.070 Y52.073 Z19.195
G01 X52.242 Y52.073 Z19.364
G01 X52.287 Y52.073 Z19.393
G01 X52.393 Y52.073 Z19.421
G01 X54.103 Y52.073 
G01 X54.438 Y51.739 Z20.000
G01 X54.103 Y52.073 Z19.421
G01 X54.438 Y52.407 Z20.000
G01 X54.103 Y52.073 Z19.421
G01 X52.393 Y52.073 
G01 X52.287 Y52.073 Z19.393
G01 X52.174 Y52.073 Z19.308
G01 X52.070 Y52.073 Z19.195
G01 X51.901 Y52.073 Z18.969
G01 X51.605 Y52.073 Z18.517
G01 X51.535 Y52.237 Z18.485
G01 X51.464 Y52.406 Z18.390
G00 Z25.000
G00 X61.279 Y49.587  F3600.0
G01 Z19.176 F550.0 M3
G01 X62.303 Y49.587  F1800.0
G01 X62.277 Y49.806 
G01 X62.212 Y50.118 
G01 X62.122 Y50.408 
G01 X62.008 Y50.677 
G01 X61.870 Y50.927 
G01 X61.708 Y51.158 
G01 X61.519 Y51.373 
G01 X61.310 Y51.567 
G01 X61.088 Y51.735 
G01 X60.854 Y51.875 
G01 X60.606 Y51.990 
G01 X60.342 Y52.080 
G01 X60.059 Y52.146 
G01 X60.158 Y52.090 
G01 X60.434 Y51.883 
G01 X60.676 Y51.636 
G01 X60.880 Y51.356 
G01 X61.047 Y51.040 
G01 X61.138 Y50.775 
G01 X61.205 Y50.463 
G01 X61.253 Y50.105 
G01 X61.284 Y49.703 
G01 X61.279 Y49.587 
G00 Z25.000
G00 X56.372 Y49.389  F3600.0
G01 Z19.176 F550.0 M3
G02 X56.287 Y49.726 I0.387 J0.277
G01 X56.324 Y50.010  F1800.0
G01 X56.402 Y50.371 
G01 X56.288 Y50.144 
G01 X56.143 Y49.766 
G01 X56.028 Y49.355 
G01 X55.946 Y48.910 
G01 X55.895 Y48.430 
G01 X55.879 Y47.918 
G01 X55.895 Y47.447 
G01 X55.943 Y47.005 
G01 X56.023 Y46.593 
G01 X56.134 Y46.209 
G01 X56.275 Y45.854 
G01 X56.445 Y45.524 
G01 X56.646 Y45.219 
G01 X56.878 Y44.937 
G01 X57.133 Y44.681 
G01 X57.399 Y44.462 
G01 X57.674 Y44.279 
G01 X57.958 Y44.130 
G01 X58.254 Y44.015 
G01 X58.562 Y43.932 
G01 X58.885 Y43.882 
G01 X59.224 Y43.865 
G01 X59.533 Y43.880 
G01 X59.825 Y43.923 
G01 X60.100 Y43.994 
G01 X60.360 Y44.093 
G01 X60.608 Y44.220 
G01 X60.844 Y44.377 
G01 X61.070 Y44.563 
G01 X61.261 Y44.756 
G01 X60.897 Y44.610 
G01 X60.435 Y44.505 
G01 X59.945 Y44.470 
G01 X59.580 Y44.490 
G01 X59.219 Y44.551 
G01 X58.869 Y44.653 
G01 X58.533 Y44.796 
G01 X58.212 Y44.978 
G01 X57.906 Y45.197 
G01 X57.617 Y45.453 
G01 X57.342 Y45.746 
G01 X57.089 Y46.074 
G01 X56.869 Y46.434 
G01 X56.684 Y46.820 
G01 X56.536 Y47.232 
G01 X56.422 Y47.667 
G01 X56.343 Y48.126 
G01 X56.296 Y48.608 
G01 X56.283 Y49.099 
G01 X56.372 Y49.389 
G00 Z25.000
G00 X61.732 Y50.062  F3600.0
G01 Z18.353 F550.0 M3
G01 X62.091 Y49.776 Z18.849 F1800.0
G01 X62.425 Y49.479 Z19.364
G01 X62.806 Y49.112 Z20.000
G01 X62.425 Y49.479 Z19.364
G01 X62.091 Y49.776 Z18.849
G01 X61.732 Y50.062 Z18.353
G01 X61.628 Y50.492 Z18.443
G01 X61.499 Y50.823 Z18.547
G01 X61.309 Y51.169 Z18.669
G01 X61.101 Y51.435 Z18.774
G01 X60.827 Y51.703 Z18.896
G01 X60.524 Y51.922 Z19.017
G01 X60.198 Y52.090 Z19.135
G01 X59.815 Y52.225 Z19.256
G01 X59.444 Y52.299 Z19.349
G01 X59.189 Y52.320 Z19.406
G01 X58.893 Y52.315 Z19.448
G01 X58.667 Y52.292 Z19.465
G01 X58.311 Y52.212 Z19.482
G01 X57.972 Y52.085 Z19.480
G01 X57.625 Y51.897 Z19.463
G01 X57.358 Y51.703 Z19.433
G01 X57.061 Y51.429 Z19.393
G01 X56.836 Y51.162 Z19.339
G01 X56.615 Y50.826 Z19.271
G01 X56.452 Y50.498 Z19.199
G01 X56.316 Y50.132 Z19.122
G01 X56.212 Y49.736 Z19.045
G01 X56.190 Y49.512 Z18.979
G01 X56.196 Y49.389 Z18.912
G01 X56.150 Y49.225 Z18.927
G01 X56.117 Y48.885 Z18.877
G01 X56.104 Y48.416 Z18.813
G01 X56.127 Y47.918 Z18.746
G01 X56.180 Y47.467 Z18.682
G01 X56.260 Y47.053 Z18.622
G01 X56.376 Y46.647 Z18.564
G01 X56.551 Y46.210 Z18.504
G01 X56.724 Y45.881 Z18.463
G01 X56.983 Y45.498 Z18.422
G01 X57.298 Y45.144 Z18.407
G01 X57.617 Y44.859 Z18.405
G01 X57.935 Y44.637 Z18.416
G01 X58.137 Y44.524 Z18.428
G01 X58.397 Y44.404 Z18.460
G01 X58.790 Y44.281 Z18.518
G01 X59.189 Y44.209 Z18.584
G01 X59.590 Y44.190 Z18.659
G01 X59.975 Y44.221 Z18.742
G01 X60.277 Y44.281 Z18.820
G01 X60.527 Y44.359 Z18.898
G01 X60.899 Y44.527 Z19.036
G01 X61.147 Y44.676 Z19.133
G01 X61.518 Y44.964 Z19.278
G01 X61.825 Y45.277 Z19.391
G01 X61.995 Y45.492 Z19.446
G01 X62.251 Y45.902 Z19.527
G01 X62.431 Y46.279 Z19.588
G01 X62.596 Y46.757 Z19.672
G01 X62.806 Y46.847 Z20.000
G01 X62.596 Y46.757 Z19.672
G01 X62.510 Y47.038 Z20.000
G01 X62.596 Y46.757 Z19.672
G01 X62.480 Y46.403 Z19.613
G01 X62.261 Y45.919 Z19.530
G01 X62.121 Y45.678 Z19.485
G01 X61.846 Y45.303 Z19.399
G01 X61.518 Y44.964 Z19.278
G01 X61.147 Y44.676 Z19.133
G01 X60.779 Y44.465 Z18.986
G01 X60.436 Y44.329 Z18.873
G01 X60.186 Y44.260 Z18.798
G01 X59.910 Y44.213 Z18.727
G01 X59.501 Y44.189 Z18.639
G01 X59.094 Y44.223 Z18.569
G01 X58.790 Y44.281 Z18.518
G01 X58.383 Y44.409 Z18.458
G01 X58.020 Y44.587 Z18.424
G01 X57.665 Y44.821 Z18.403
G01 X57.339 Y45.105 Z18.405
G01 X57.039 Y45.429 Z18.418
G01 X56.773 Y45.799 Z18.452
G01 X56.645 Y46.022 Z18.473
G01 X56.495 Y46.332 Z18.516
G01 X56.351 Y46.724 Z18.576
G01 X56.233 Y47.175 Z18.644
G01 X56.155 Y47.641 Z18.713
G01 X56.114 Y48.123 Z18.780
G01 X56.106 Y48.620 Z18.847
G01 X56.133 Y49.095 Z18.915
G01 X56.150 Y49.225 Z18.927
G01 X56.196 Y49.389 Z18.912
G01 X56.522 Y49.389 Z19.368
G01 X56.647 Y49.389 Z19.482
G01 X56.759 Y49.389 Z19.520
G01 X60.810 Y49.389 
G01 X60.959 Y49.409 Z19.485
G01 X61.109 Y49.470 Z19.380
G01 X61.233 Y49.551 Z19.240
G01 X61.409 Y49.712 Z18.959
G01 X61.732 Y50.062 Z18.353
G00 Z25.000
G01 Z18.353 F550.0 M3
G01 X61.329 Y49.632 Z19.099 F1800.0
G01 X61.233 Y49.551 Z19.240
G01 X61.109 Y49.470 Z19.380
G01 X60.959 Y49.409 Z19.485
G01 X60.810 Y49.389 Z19.520
G01 X56.759 Y49.389 
G01 X56.647 Y49.389 Z19.482
G01 X56.522 Y49.389 Z19.368
G01 X56.196 Y49.389 Z18.912
G01 X56.193 Y49.595 Z19.012
G01 X56.214 Y49.743 Z19.046
G01 X56.316 Y50.132 Z19.122
G01 X56.473 Y50.545 Z19.212
G01 X56.623 Y50.841 Z19.273
G01 X56.836 Y51.162 Z19.339
G01 X57.085 Y51.454 Z19.397
G01 X57.358 Y51.703 Z19.433
G01 X57.654 Y51.915 Z19.464
G01 X57.972 Y52.085 Z19.480
G01 X58.311 Y52.212 Z19.482
G01 X58.698 Y52.296 Z19.464
G01 X59.050 Y52.322 Z19.420
G01 X59.242 Y52.317 Z19.397
G01 X59.555 Y52.282 Z19.328
G01 X59.872 Y52.208 Z19.240
G01 X60.198 Y52.090 Z19.135
G01 X60.524 Y51.922 Z19.017
G01 X60.827 Y51.703 Z18.896
G01 X61.101 Y51.435 Z18.774
G01 X61.348 Y51.105 Z18.646
G01 X61.499 Y50.823 Z18.547
G01 X61.628 Y50.492 Z18.443
G01 X61.720 Y50.128 Z18.366
G01 X61.732 Y50.062 Z18.353
G00 Z25.000
G00 X69.513 Y51.429  F3600.0
G01 Z19.213 F550.0 M3
G01 X69.543 Y51.601  F1800.0
G01 X69.532 Y51.711 
G01 X69.499 Y51.808 
G01 X69.440 Y51.907 
G01 X69.347 Y52.009 
G01 X69.233 Y52.096 
G01 X69.108 Y52.157 
G01 X68.962 Y52.196 
G01 X68.691 Y52.205 
G01 X68.392 Y52.123 
G01 X68.175 Y52.006 
G01 X67.927 Y51.813 
G01 X68.041 Y51.793 
G01 X68.259 Y51.697 
G01 X68.470 Y51.567 
G01 X68.852 Y51.289 
G01 X68.986 Y51.217 
G01 X69.164 Y51.174 
G01 X69.297 Y51.200 
G01 X69.422 Y51.291 
G01 X69.513 Y51.429 
G00 Z25.000
G00 X66.255 Y50.337  F3600.0
G01 Z19.213 F550.0 M3
G02 X66.078 Y50.697 I0.277 J0.361
G01 X66.078 Y52.154  F1800.0
G01 X64.874 Y51.667 
G01 X64.953 Y51.615 
G01 X65.095 Y51.474 
G01 X65.206 Y51.306 
G01 X65.286 Y51.124 
G01 X65.341 Y50.925 
G01 X65.374 Y50.652 
G01 X65.395 Y50.250 
G01 X65.410 Y49.019 
G01 X65.410 Y45.620 
G01 X65.398 Y44.980 
G01 X65.354 Y44.593 
G01 X65.266 Y44.352 
G01 X65.120 Y44.111 
G01 X66.505 Y44.111 
G01 X66.418 Y44.211 
G01 X66.303 Y44.403 
G01 X66.198 Y44.679 
G01 X66.129 Y44.987 
G01 X66.090 Y45.327 
G01 X66.078 Y45.693 
G01 X66.078 Y49.895 
G01 X66.133 Y50.112 
G01 X66.255 Y50.337 
G00 Z25.000
G00 X65.624 Y51.481  F3600.0
G01 Z18.427 F550.0 M3
G01 X66.196 Y52.329 Z19.418 F1800.0
G01 X66.532 Y52.665 Z20.000
G01 X66.196 Y52.329 Z19.418
G01 X66.131 Y52.665 Z20.000
G01 X66.196 Y52.329 Z19.418
G01 X65.624 Y51.481 Z18.427
G01 X65.173 Y51.618 Z18.940
G01 X64.809 Y51.674 Z19.265
G01 X64.550 Y51.677 Z19.439
G01 X64.266 Y51.643 Z19.569
G01 X64.061 Y51.597 Z19.629
G01 X63.877 Y51.545 Z19.664
G01 X63.708 Y51.485 Z19.678
G01 X63.485 Y51.595 Z20.000
G01 X63.708 Y51.485 Z19.678
G01 X63.580 Y51.251 Z20.000
G01 X63.708 Y51.485 Z19.678
G01 X63.902 Y51.552 Z19.660
G01 X64.235 Y51.637 Z19.580
G01 X64.433 Y51.668 Z19.500
G01 X64.727 Y51.678 Z19.326
G01 X65.046 Y51.644 Z19.064
G01 X65.476 Y51.532 Z18.606
G01 X65.624 Y51.481 Z18.427
G01 X65.679 Y51.200 Z18.522
G01 X65.710 Y50.935 Z18.576
G01 X65.727 Y50.654 Z18.603
G01 X65.760 Y50.401 Z18.567
G01 X65.786 Y50.296 Z18.532
G01 X65.746 Y50.065 Z18.608
G01 X65.738 Y49.895 Z18.625
G01 X65.745 Y45.609 Z18.632
G01 X65.749 Y45.269 Z18.615
G01 X65.766 Y44.881 Z18.560
G01 X65.785 Y44.546 Z18.459
G01 X65.471 Y44.316 Z18.857
G01 X65.128 Y44.115 Z19.207
G01 X64.908 Y44.017 Z19.376
G01 X64.704 Y43.949 Z19.493
G01 X64.455 Y43.892 Z19.592
G01 X64.192 Y43.856 Z19.655
G01 X63.756 Y43.832 Z19.696
G01 X63.580 Y44.000 Z20.000
G01 X63.756 Y43.832 Z19.696
G01 X63.580 Y43.657 Z20.000
G01 X63.756 Y43.832 Z19.696
G01 X64.192 Y43.856 Z19.655
G01 X64.499 Y43.901 Z19.577
G01 X64.767 Y43.967 Z19.462
G01 X64.984 Y44.047 Z19.323
G01 X65.217 Y44.162 Z19.125
G01 X65.471 Y44.316 Z18.857
G01 X65.785 Y44.546 Z18.459
G01 X66.178 Y44.281 Z18.918
G01 X66.413 Y44.153 Z19.140
G01 X66.628 Y44.058 Z19.304
G01 X66.833 Y43.985 Z19.431
G01 X67.047 Y43.925 Z19.534
G01 X67.272 Y43.880 Z19.612
G01 X67.512 Y43.851 Z19.663
G01 X67.885 Y43.832 Z19.696
G01 X68.061 Y43.657 Z20.000
G01 X67.885 Y43.832 Z19.696
G01 X68.061 Y44.000 Z20.000
G01 X67.885 Y43.832 Z19.696
G01 X67.489 Y43.853 Z19.660
G01 X67.237 Y43.886 Z19.602
G01 X67.005 Y43.936 Z19.516
G01 X66.787 Y44.000 Z19.405
G01 X66.562 Y44.085 Z19.258
G01 X66.322 Y44.200 Z19.059
G01 X66.062 Y44.354 Z18.792
G01 X65.785 Y44.546 Z18.459
G01 X65.762 Y44.995 Z18.583
G01 X65.747 Y45.334 Z18.620
G01 X65.744 Y45.701 Z18.635
G01 X65.738 Y49.895 Z18.625
G01 X65.756 Y50.140 Z18.590
G01 X65.786 Y50.296 Z18.532
G01 X66.136 Y50.316 Z19.048
G01 X66.420 Y50.384 Z19.424
G01 X66.547 Y50.447 Z19.565
G01 X66.635 Y50.512 Z19.633
G01 X66.703 Y50.595 Z19.655
G01 X66.822 Y50.789 Z19.650
G01 X67.043 Y51.110 Z19.616
G01 X67.350 Y51.468 Z19.547
G01 X67.506 Y51.603 Z19.487
G01 X67.659 Y51.704 Z19.404
G01 X67.869 Y51.795 Z19.261
G01 X68.126 Y51.854 Z19.055
G01 X68.404 Y51.873 Z18.822
G01 X68.700 Y51.843 Z18.592
G01 X68.891 Y51.779 Z18.484
G01 X69.002 Y51.721 Z18.453
G01 X69.113 Y51.630 Z18.480
G01 X69.150 Y51.571 Z18.542
G01 X69.172 Y51.489 Z18.670
G01 X69.136 Y51.597 Z18.510
G01 X69.081 Y51.658 Z18.462
G01 X68.957 Y51.748 Z18.460
G01 X68.776 Y51.822 Z18.542
G01 X68.624 Y51.855 Z18.648
G01 X68.404 Y51.873 Z18.822
G01 X68.126 Y51.854 Z19.055
G01 X67.869 Y51.795 Z19.261
G01 X67.659 Y51.704 Z19.404
G01 X67.463 Y51.569 Z19.507
G01 X67.243 Y51.354 Z19.574
G01 X66.992 Y51.040 Z19.621
G01 X66.813 Y50.774 Z19.651
G01 X66.700 Y50.591 Z19.655
G01 X66.635 Y50.512 Z19.633
G01 X66.531 Y50.437 Z19.549
G01 X66.420 Y50.384 Z19.424
G01 X66.136 Y50.316 Z19.048
G01 X65.786 Y50.296 Z18.532
G01 X65.746 Y50.476 Z18.585
G01 X65.724 Y50.711 Z18.599
G01 X65.698 Y51.059 Z18.555
G01 X65.631 Y51.449 Z18.439
G01 X65.624 Y51.481 Z18.427
G00 Z25.000
(Begin Footer)
G00 Z25.000
M30
M05
G53 G0 Z-10
G53 G0 X1350 Y1000
(End Footer)
%
