%
( DnDchest ) ( File created: Sunday December 29 2024 - 07:38 PM)
( for LinuxCNC )
( Material Size) ( X= 350.000, Y= 130.000, Z= 3.000)
G90 (Incremental distance mode)
G17 G21 (Active Plane: XY)(Metric Mode)
G40 G49 G80(Tool Diameter, Length compensation & canned cycles OFF)
G64 P0.05 Q0.05(Path Blending)
T4 M06 (TOOL USE V-Bit 30.0 - 6 mm)
G90 (absolute distance mode)
G54 (Coordinate System)
S10000M3
G00 Z8.000
G4 P6
( V-Carve 1 )
G00 X28.181 Y14.441 Z8.000 F3600.0
G01 Z1.000 F1200.0 M3
G01 X28.157 Y14.125  F1800.0
G01 X28.273 Y14.131 
G01 X28.184 Y14.469 
G01 X28.181 Y14.441 
G01 X28.063 Y14.452  
G01 X28.027 Y13.985  
G01 X28.440 Y13.999 
G01 X28.242 Y14.718 
G01 X28.164 Y15.258 
G01 X28.063 Y14.452 
G01 X27.945 Y14.464  
G01 X27.899 Y13.821  
G02 X28.634 Y13.827 I0.374 J-0.941
G01 X28.520 Y14.123  
G01 X28.359 Y14.741 
G01 X28.266 Y15.378 
G01 X28.245 Y16.027 
G01 X28.286 Y16.563 
G01 X28.100 Y15.637 
G01 X28.012 Y15.049 
G01 X27.945 Y14.464 
G01 X27.826 Y14.475  
G01 X27.774 Y13.622  
G02 X28.875 Y13.541 I0.500 J-0.741
G01 X28.634 Y14.159  
G01 X28.475 Y14.765 
G01 X28.385 Y15.388 
G01 X28.364 Y16.024 
G01 X28.413 Y16.669 
G01 X28.534 Y17.316 
G01 X28.725 Y17.975 
G01 X28.974 Y18.603 
G01 X29.284 Y19.201 
G01 X29.652 Y19.765 
G01 X30.078 Y20.295 
G01 X30.558 Y20.788 
G01 X31.092 Y21.245 
G01 X31.678 Y21.665 
G01 X32.314 Y22.051 
G01 X33.000 Y22.401 
G01 X33.735 Y22.718 
G01 X34.518 Y23.004 
G01 X35.351 Y23.258 
G01 X36.234 Y23.482 
G01 X37.167 Y23.677 
G01 X38.142 Y23.842 
G01 X40.187 Y24.151 
G01 X49.109 Y24.414 
G01 X50.961 Y24.909 
G01 X51.365 Y25.038 
G01 X52.211 Y25.352 
G01 X53.061 Y25.724 
G01 X53.909 Y26.149 
G01 X54.740 Y26.621 
G01 X55.541 Y27.133 
G01 X56.299 Y27.676 
G01 X56.999 Y28.242 
G01 X57.605 Y28.803 
G01 X58.205 Y29.432 
G01 X58.782 Y30.109 
G01 X59.318 Y30.807 
G01 X59.823 Y31.554 
G01 X59.009 Y31.370 
G01 X58.375 Y31.267 
G01 X57.392 Y31.151 
G01 X57.613 Y30.926 
G01 X57.738 Y30.747 
G01 X57.960 Y30.333 
G02 X57.226 Y29.019 I-0.788 J-0.422
G01 X53.403 Y28.787  
G01 X53.539 Y28.526 
G01 X53.620 Y28.215 
G01 X53.624 Y28.163 
G01 X53.587 Y27.834 
G01 X53.574 Y27.790 
G01 X53.379 Y27.449 
G01 X53.348 Y27.415 
G01 X53.070 Y27.210 
G01 X53.021 Y27.187 
G01 X52.692 Y27.103 
G01 X52.419 Y27.087 
G01 X52.038 Y27.168 
G01 X51.632 Y27.290 
G01 X47.656 Y27.457 
G01 X47.769 Y27.217 
G01 X47.843 Y26.953 
G01 X47.851 Y26.893 
G01 X47.792 Y26.450 
G01 X47.775 Y26.410 
G02 X47.270 Y25.913 I-0.828 J0.336
G01 X47.100 Y25.846  
G01 X46.811 Y25.816 
G01 X46.350 Y25.825 
G01 X45.779 Y25.874 
G01 X44.227 Y26.088 
G01 X42.486 Y26.276 
G01 X41.046 Y26.364 
G01 X41.298 Y26.128 
G01 X41.549 Y25.823 
G01 X41.623 Y25.650 
G02 X41.674 Y25.098 I-0.820 J-0.354
G01 X41.666 Y25.061  
G02 X40.993 Y24.388 I-0.871 J0.198
G01 X40.840 Y24.353  
G01 X40.589 Y24.358 
G01 X40.186 Y24.402 
G01 X38.325 Y24.736 
G01 X37.517 Y24.854 
G01 X36.683 Y24.951 
G01 X35.860 Y25.024 
G01 X35.219 Y25.061 
G01 X35.345 Y24.722 
G02 X34.643 Y23.559 I-0.848 J-0.281
G01 X31.555 Y23.035  
G01 X30.368 Y22.789 
G02 X30.293 Y21.608 I-0.706 J-0.548
G01 X27.729 Y19.054  
G01 X27.786 Y19.043 
G01 X28.196 Y18.850 
G01 X28.244 Y18.811 
G02 X28.553 Y18.266 I-0.573 J-0.686
G01 X28.563 Y18.202  
G01 X28.534 Y17.793 
G01 X28.325 Y17.178 
G01 X28.204 Y16.742 
G01 X28.088 Y16.224 
G01 X27.983 Y15.656 
G01 X27.894 Y15.064 
G01 X27.826 Y14.475 
G00 Z8.000
G00 X30.809 Y10.366  F3600.0
G01 Z1.000 F1200.0 M3
G01 X30.896 Y10.162  F1800.0
G01 X31.034 Y10.218 
G01 X30.801 Y10.386 
G01 X30.809 Y10.366 
G01 X30.699 Y10.321  
G01 X30.837 Y9.997  
G01 X31.195 Y10.145 
G01 X31.320 Y10.178 
G01 X31.153 Y10.279 
G01 X30.542 Y10.722 
G01 X30.699 Y10.321 
G01 X30.589 Y10.276  
G01 X30.783 Y9.819  
G01 X31.154 Y10.008 
G01 X31.230 Y10.032 
G01 X31.703 Y10.086 
G01 X31.219 Y10.378 
G01 X30.639 Y10.796 
G01 X30.259 Y11.122 
G01 X30.589 Y10.276 
G01 X30.479 Y10.231  
G01 X30.737 Y9.624  
G02 X31.190 Y9.895 I0.791 J-0.808
G01 X31.266 Y9.919  
G01 X31.759 Y9.960 
G01 X31.851 Y9.947 
G01 X32.154 Y9.862 
G01 X32.346 Y9.777 
G01 X32.608 Y9.607 
G01 X33.011 Y9.272 
G01 X33.973 Y8.360 
G01 X35.287 Y7.217 
G01 X35.281 Y7.551 
G01 X35.322 Y7.985 
G01 X35.446 Y8.424 
G01 X35.561 Y8.618 
G01 X35.737 Y8.845 
G01 X35.466 Y8.873 
G01 X34.990 Y8.959 
G01 X34.517 Y9.076 
G01 X34.003 Y9.226 
G01 X33.269 Y9.475 
G01 X32.565 Y9.769 
G01 X31.902 Y10.104 
G01 X31.284 Y10.478 
G01 X30.712 Y10.889 
G01 X30.189 Y11.338 
G01 X29.966 Y11.567 
G01 X30.479 Y10.231 
G01 X30.369 Y10.186  
G01 X30.698 Y9.412  
G01 X30.815 Y9.533 
G01 X31.225 Y9.781 
G01 X31.302 Y9.805 
G01 X31.743 Y9.842 
G01 X31.976 Y9.810 
G01 X32.290 Y9.672 
G01 X32.538 Y9.512 
G01 X32.931 Y9.183 
G01 X33.892 Y8.272 
G01 X35.225 Y7.113 
G01 X35.424 Y6.952 
G01 X35.400 Y7.546 
G01 X35.439 Y7.963 
G01 X35.556 Y8.377 
G01 X35.663 Y8.557 
G01 X35.847 Y8.786 
G01 X36.033 Y8.938 
G01 X35.483 Y8.991 
G01 X35.015 Y9.075 
G01 X34.548 Y9.191 
G01 X34.039 Y9.339 
G01 X33.311 Y9.586 
G01 X32.615 Y9.877 
G01 X31.960 Y10.208 
G01 X31.350 Y10.577 
G01 X30.786 Y10.983 
G01 X30.270 Y11.425 
G01 X29.806 Y11.902 
G01 X29.638 Y12.111 
G01 X30.369 Y10.186 
G01 X30.259 Y10.142  
G01 X30.674 Y9.167  
G01 X30.836 Y9.387 
G01 X30.898 Y9.449 
G01 X31.261 Y9.668 
G01 X31.337 Y9.692 
G01 X31.727 Y9.725 
G01 X31.943 Y9.695 
G01 X32.233 Y9.567 
G01 X32.467 Y9.416 
G01 X32.852 Y9.094 
G01 X33.812 Y8.185 
G01 X35.149 Y7.022 
G01 X35.571 Y6.679 
G01 X35.526 Y7.134 
G01 X35.519 Y7.542 
G01 X35.556 Y7.941 
G01 X35.667 Y8.330 
G01 X35.832 Y8.610 
G01 X36.040 Y8.803 
G01 X36.291 Y8.958 
G01 X36.466 Y9.041 
G01 X35.980 Y9.059 
G01 X35.500 Y9.109 
G01 X35.040 Y9.191 
G01 X34.579 Y9.305 
G01 X34.075 Y9.452 
G01 X33.353 Y9.697 
G01 X32.664 Y9.985 
G01 X32.018 Y10.312 
G01 X31.415 Y10.676 
G01 X30.859 Y11.076 
G01 X30.351 Y11.512 
G01 X29.895 Y11.981 
G01 X29.491 Y12.483 
G01 X29.218 Y12.902 
G01 X29.901 Y11.057 
G01 X30.259 Y10.142 
G01 X30.149 Y10.097  
G01 X30.676 Y8.878  
G01 X30.771 Y9.094 
G01 X30.920 Y9.303 
G01 X30.982 Y9.364 
G01 X31.296 Y9.554 
G01 X31.373 Y9.579 
G01 X31.711 Y9.607 
G01 X31.911 Y9.579 
G01 X32.176 Y9.462 
G01 X32.396 Y9.320 
G01 X32.773 Y9.006 
G01 X33.732 Y8.097 
G01 X35.073 Y6.930 
G01 X35.739 Y6.389 
G01 X35.684 Y6.723 
G01 X35.644 Y7.141 
G01 X35.638 Y7.537 
G01 X35.674 Y7.919 
G01 X35.777 Y8.283 
G01 X35.925 Y8.535 
G01 X36.112 Y8.708 
G01 X36.353 Y8.857 
G02 X36.919 Y8.956 I0.407 J-0.659
G01 X39.913 Y8.333  
G01 X41.355 Y8.051 
G01 X43.084 Y7.742 
G01 X44.881 Y7.443 
G01 X47.387 Y7.069 
G01 X47.156 Y7.297 
G01 X46.910 Y7.584 
G01 X46.780 Y7.802 
G01 X46.684 Y8.056 
G01 X46.673 Y8.112 
G02 X46.727 Y8.572 I0.761 J0.143
G01 X46.745 Y8.611  
G01 X46.936 Y8.872 
G01 X47.026 Y8.952 
G02 X47.586 Y9.147 I0.515 J-0.579
G01 X51.792 Y8.903  
G01 X50.287 Y9.608 
G02 X49.841 Y10.309 I0.329 J0.701
G01 X49.841 Y10.522  
G01 X49.899 Y10.815 
G01 X49.917 Y10.860 
G01 X50.122 Y11.149 
G01 X50.257 Y11.267 
G01 X50.607 Y11.433 
G01 X50.995 Y11.543 
G01 X51.404 Y11.614 
G01 X57.831 Y12.410 
G01 X57.600 Y12.568 
G01 X57.359 Y12.806 
G01 X57.289 Y12.907 
G01 X57.162 Y13.207 
G01 X57.152 Y13.255 
G01 X57.159 Y13.576 
G01 X57.199 Y13.748 
G01 X57.357 Y14.009 
G01 X57.638 Y14.255 
G01 X57.941 Y14.414 
G01 X58.489 Y14.644 
G01 X61.205 Y15.713 
G01 X62.440 Y16.218 
G01 X63.816 Y16.814 
G01 X62.217 Y16.558 
G01 X61.407 Y16.460 
G01 X59.911 Y16.326 
G02 X59.076 Y16.981 I-0.069 J0.772
G01 X54.581 Y15.156  
G01 X52.798 Y14.649 
G01 X52.354 Y14.544 
G01 X52.004 Y14.482 
G01 X51.770 Y14.465 
G01 X51.624 Y14.494 
G02 X51.232 Y14.706 I0.155 J0.759
G01 X51.154 Y14.783  
G02 X50.927 Y15.321 I0.548 J0.548
G01 X48.985 Y14.531  
G01 X47.789 Y14.079 
G01 X46.853 Y13.756 
G01 X45.064 Y13.192 
G02 X44.283 Y13.383 I-0.233 J0.739
G01 X44.174 Y13.492  
G01 X43.994 Y13.773 
G01 X43.983 Y13.803 
G02 X43.956 Y14.246 I0.727 J0.267
G01 X43.967 Y14.291  
G01 X44.067 Y14.530 
G01 X44.190 Y14.716 
G01 X42.524 Y13.854 
G01 X41.382 Y13.299 
G01 X40.252 Y12.775 
G01 X39.526 Y12.458 
G01 X40.677 Y12.380 
G01 X42.055 Y12.259 
G01 X43.452 Y12.090 
G01 X44.731 Y11.891 
G01 X45.778 Y11.675 
G01 X47.726 Y11.195 
G02 X47.574 Y9.669 I-0.185 J-0.752
G01 X41.517 Y9.396  
G01 X37.099 Y9.166 
G01 X36.504 Y9.159 
G01 X35.988 Y9.178 
G01 X35.516 Y9.226 
G01 X35.065 Y9.308 
G01 X34.610 Y9.420 
G01 X34.111 Y9.566 
G01 X33.395 Y9.809 
G01 X32.714 Y10.093 
G01 X32.075 Y10.416 
G01 X31.481 Y10.775 
G01 X30.933 Y11.170 
G01 X30.433 Y11.598 
G01 X29.984 Y12.060 
G01 X29.588 Y12.552 
G01 X29.248 Y13.074 
G01 X28.967 Y13.623 
G01 X28.747 Y14.195 
G01 X28.592 Y14.789 
G01 X28.503 Y15.399 
G01 X28.483 Y16.022 
G01 X28.531 Y16.653 
G01 X28.649 Y17.288 
G01 X28.837 Y17.936 
G01 X29.083 Y18.554 
G01 X29.387 Y19.141 
G01 X29.748 Y19.695 
G01 X30.167 Y20.216 
G01 X30.640 Y20.701 
G01 X31.166 Y21.151 
G01 X31.744 Y21.566 
G01 X32.372 Y21.947 
G01 X33.051 Y22.294 
G01 X33.778 Y22.608 
G01 X34.556 Y22.891 
G01 X35.383 Y23.144 
G01 X36.261 Y23.367 
G01 X37.189 Y23.561 
G01 X38.161 Y23.725 
G01 X40.197 Y24.033 
G01 X49.126 Y24.295 
G01 X50.995 Y24.795 
G01 X51.404 Y24.926 
G01 X52.255 Y25.242 
G01 X53.111 Y25.616 
G01 X53.965 Y26.044 
G01 X54.801 Y26.519 
G01 X55.608 Y27.034 
G01 X56.371 Y27.581 
G01 X57.077 Y28.152 
G01 X57.689 Y28.718 
G01 X58.294 Y29.352 
G01 X58.875 Y30.034 
G01 X59.414 Y30.738 
G01 X59.893 Y31.439 
G01 X60.076 Y31.746 
G01 X59.572 Y31.610 
G01 X58.988 Y31.486 
G01 X58.359 Y31.385 
G01 X57.103 Y31.236 
G01 X57.361 Y31.022 
G01 X57.521 Y30.851 
G01 X57.637 Y30.685 
G01 X57.855 Y30.277 
G02 X57.219 Y29.138 I-0.683 J-0.366
G01 X53.163 Y28.892  
G01 X53.328 Y28.697 
G01 X53.432 Y28.476 
G01 X53.502 Y28.206 
G01 X53.506 Y28.154 
G01 X53.474 Y27.868 
G01 X53.460 Y27.825 
G01 X53.292 Y27.530 
G01 X53.261 Y27.496 
G01 X53.019 Y27.318 
G01 X52.970 Y27.294 
G01 X52.685 Y27.222 
G01 X52.428 Y27.207 
G01 X52.067 Y27.283 
G01 X51.652 Y27.408 
G01 X47.427 Y27.586 
G01 X47.555 Y27.401 
G01 X47.711 Y27.058 
G01 X47.733 Y26.878 
G01 X47.681 Y26.494 
G01 X47.665 Y26.454 
G02 X47.227 Y26.023 I-0.718 J0.291
G01 X47.071 Y25.963  
G01 X46.805 Y25.935 
G01 X46.356 Y25.943 
G01 X45.792 Y25.992 
G01 X44.243 Y26.206 
G01 X42.496 Y26.395 
G01 X41.690 Y26.453 
G01 X40.711 Y26.490 
G01 X40.931 Y26.309 
G01 X41.211 Y26.046 
G01 X41.446 Y25.760 
G01 X41.514 Y25.603 
G02 X41.558 Y25.124 I-0.711 J-0.307
G01 X41.550 Y25.087  
G02 X40.967 Y24.503 I-0.756 J0.171
G01 X40.828 Y24.472  
G01 X40.596 Y24.476 
G01 X40.202 Y24.520 
G01 X38.344 Y24.853 
G01 X37.532 Y24.972 
G01 X36.695 Y25.069 
G01 X35.869 Y25.142 
G01 X34.992 Y25.190 
G01 X35.134 Y24.979 
G01 X35.232 Y24.684 
G02 X34.623 Y23.676 I-0.735 J-0.244
G01 X31.533 Y23.152  
G01 X30.140 Y22.859 
G01 X30.210 Y22.789 
G02 X30.209 Y21.693 I-0.548 J-0.548
G01 X27.461 Y18.954  
G01 X27.593 Y18.958 
G01 X27.764 Y18.926 
G01 X28.120 Y18.759 
G01 X28.167 Y18.719 
G02 X28.436 Y18.248 I-0.497 J-0.594
G01 X28.446 Y18.183  
G01 X28.420 Y17.829 
G01 X28.212 Y17.214 
G01 X28.089 Y16.771 
G01 X27.972 Y16.248 
G01 X27.866 Y15.676 
G01 X27.777 Y15.080 
G01 X27.708 Y14.487 
G01 X27.664 Y13.921 
G01 X27.649 Y13.361 
G01 X27.753 Y13.455 
G02 X29.000 Y13.150 I0.520 J-0.574
G01 X29.790 Y11.014  
G01 X30.149 Y10.097 
G01 X30.039 Y10.052  
G01 X30.440 Y9.108  
G01 X30.716 Y8.506 
G01 X30.738 Y8.649 
G01 X30.801 Y8.885 
G01 X30.926 Y9.141 
G01 X31.066 Y9.280 
G01 X31.332 Y9.441 
G01 X31.408 Y9.465 
G01 X31.694 Y9.489 
G01 X31.878 Y9.464 
G01 X32.120 Y9.357 
G01 X32.326 Y9.224 
G01 X32.694 Y8.917 
G01 X33.652 Y8.009 
G01 X34.997 Y6.839 
G01 X35.924 Y6.093 
G01 X35.802 Y6.739 
G01 X35.763 Y7.148 
G01 X35.757 Y7.533 
G01 X35.791 Y7.897 
G01 X35.887 Y8.235 
G01 X36.019 Y8.459 
G01 X36.184 Y8.613 
G01 X36.416 Y8.756 
G02 X36.894 Y8.840 I0.345 J-0.558
G01 X39.890 Y8.216  
G01 X41.334 Y7.934 
G01 X43.063 Y7.625 
G01 X44.862 Y7.326 
G01 X47.756 Y6.896 
G01 X47.243 Y7.378 
G01 X47.007 Y7.653 
G01 X46.882 Y7.863 
G01 X46.800 Y8.078 
G01 X46.790 Y8.134 
G01 X46.836 Y8.524 
G01 X46.853 Y8.562 
G01 X47.015 Y8.784 
G01 X47.105 Y8.863 
G02 X47.579 Y9.028 I0.436 J-0.490
G01 X52.415 Y8.748  
G01 X50.338 Y9.715 
G02 X49.960 Y10.309 I0.278 J0.594
G01 X49.960 Y10.522  
G01 X50.009 Y10.770 
G01 X50.027 Y10.815 
G01 X50.201 Y11.059 
G01 X50.323 Y11.167 
G01 X50.649 Y11.322 
G01 X51.022 Y11.427 
G01 X51.421 Y11.496 
G01 X58.688 Y12.396 
G01 X58.071 Y12.467 
G02 X57.683 Y12.653 I0.074 J0.652
G01 X57.451 Y12.883  
G01 X57.386 Y12.975 
G01 X57.278 Y13.229 
G01 X57.269 Y13.278 
G01 X57.274 Y13.549 
G01 X57.310 Y13.703 
G01 X57.449 Y13.932 
G01 X57.706 Y14.156 
G01 X57.992 Y14.306 
G01 X58.534 Y14.534 
G01 X61.250 Y15.603 
G01 X62.486 Y16.109 
G01 X64.736 Y17.102 
G01 X63.260 Y16.838 
G01 X62.201 Y16.676 
G01 X61.395 Y16.579 
G01 X59.900 Y16.445 
G02 X59.188 Y17.155 I-0.058 J0.653
G01 X54.542 Y15.269  
G01 X52.768 Y14.764 
G01 X52.330 Y14.661 
G01 X51.989 Y14.600 
G01 X51.777 Y14.584 
G01 X51.648 Y14.611 
G01 X51.316 Y14.790 
G01 X51.238 Y14.867 
G02 X51.071 Y15.511 I0.464 J0.464
G01 X50.242 Y15.161  
G01 X48.942 Y14.642 
G01 X47.749 Y14.191 
G01 X46.816 Y13.869 
G01 X45.028 Y13.305 
G02 X44.367 Y13.467 I-0.197 J0.625
G01 X44.258 Y13.576  
G01 X44.106 Y13.814 
G01 X44.095 Y13.844 
G01 X44.072 Y14.219 
G01 X44.108 Y14.372 
G01 X44.278 Y14.641 
G01 X44.488 Y14.866 
G01 X44.926 Y15.257 
G01 X43.575 Y14.522 
G01 X42.471 Y13.960 
G01 X41.331 Y13.406 
G01 X40.203 Y12.884 
G01 X39.027 Y12.373 
G01 X40.668 Y12.261 
G01 X42.042 Y12.141 
G01 X43.436 Y11.972 
G01 X44.711 Y11.773 
G01 X45.751 Y11.560 
G01 X47.698 Y11.080 
G02 X47.569 Y9.788 I-0.157 J-0.637
G01 X41.511 Y9.515  
G01 X37.095 Y9.285 
G01 X36.506 Y9.278 
G01 X35.996 Y9.296 
G01 X35.533 Y9.344 
G01 X35.090 Y9.424 
G01 X34.146 Y9.679 
G01 X33.438 Y9.920 
G01 X32.764 Y10.201 
G01 X32.133 Y10.520 
G01 X31.546 Y10.874 
G01 X31.006 Y11.263 
G01 X30.514 Y11.685 
G01 X30.073 Y12.139 
G01 X29.684 Y12.622 
G01 X29.351 Y13.134 
G01 X29.075 Y13.671 
G01 X28.860 Y14.232 
G01 X28.708 Y14.812 
G01 X28.622 Y15.409 
G01 X28.602 Y16.019 
G01 X28.649 Y16.638 
G01 X28.765 Y17.261 
G01 X28.950 Y17.898 
G01 X29.191 Y18.504 
G01 X29.489 Y19.081 
G01 X29.845 Y19.626 
G01 X30.256 Y20.137 
G01 X30.721 Y20.615 
G01 X31.239 Y21.058 
G01 X31.809 Y21.467 
G01 X32.430 Y21.843 
G01 X33.101 Y22.186 
G01 X33.822 Y22.498 
G01 X34.594 Y22.778 
G01 X35.415 Y23.029 
G01 X36.287 Y23.251 
G01 X37.211 Y23.444 
G01 X38.180 Y23.608 
G01 X40.208 Y23.914 
G01 X49.143 Y24.177 
G01 X51.029 Y24.682 
G01 X51.442 Y24.813 
G01 X52.300 Y25.132 
G01 X53.162 Y25.509 
G01 X54.021 Y25.940 
G01 X54.862 Y26.418 
G01 X55.674 Y26.936 
G01 X56.443 Y27.486 
G01 X57.155 Y28.062 
G01 X57.772 Y28.633 
G01 X58.382 Y29.273 
G01 X58.967 Y29.959 
G01 X59.510 Y30.668 
G01 X59.993 Y31.375 
G01 X60.342 Y31.960 
G01 X60.076 Y31.869 
G01 X59.544 Y31.725 
G01 X58.966 Y31.603 
G01 X58.342 Y31.503 
G01 X56.793 Y31.312 
G01 X56.969 Y31.194 
G01 X57.279 Y30.935 
G01 X57.428 Y30.776 
G01 X57.535 Y30.622 
G01 X57.750 Y30.221 
G02 X57.212 Y29.257 I-0.578 J-0.309
G01 X52.885 Y28.994  
G01 X53.009 Y28.890 
G01 X53.227 Y28.633 
G01 X53.324 Y28.426 
G01 X53.384 Y28.197 
G01 X53.387 Y28.145 
G01 X53.360 Y27.903 
G01 X53.347 Y27.860 
G01 X53.204 Y27.610 
G01 X53.173 Y27.576 
G01 X52.969 Y27.425 
G01 X52.920 Y27.402 
G01 X52.678 Y27.340 
G01 X52.437 Y27.326 
G01 X52.097 Y27.398 
G01 X51.672 Y27.526 
G01 X47.180 Y27.715 
G01 X47.451 Y27.343 
G01 X47.595 Y27.026 
G01 X47.615 Y26.864 
G01 X47.571 Y26.539 
G01 X47.555 Y26.499 
G02 X47.184 Y26.134 I-0.608 J0.247
G01 X47.043 Y26.080  
G01 X46.800 Y26.054 
G01 X46.362 Y26.062 
G01 X45.805 Y26.111 
G01 X44.258 Y26.323 
G01 X42.506 Y26.513 
G01 X41.697 Y26.572 
G01 X40.955 Y26.606 
G01 X40.359 Y26.613 
G01 X40.852 Y26.220 
G01 X41.124 Y25.965 
G01 X41.344 Y25.697 
G01 X41.405 Y25.556 
G02 X41.443 Y25.150 I-0.602 J-0.260
G01 X41.434 Y25.114  
G02 X40.940 Y24.619 I-0.640 J0.145
G01 X40.816 Y24.591  
G01 X40.604 Y24.595 
G01 X40.218 Y24.638 
G01 X38.363 Y24.970 
G01 X37.548 Y25.089 
G01 X36.707 Y25.187 
G01 X35.878 Y25.261 
G01 X34.680 Y25.317 
G01 X34.910 Y25.109 
G01 X35.026 Y24.928 
G01 X35.119 Y24.647 
G02 X34.604 Y23.793 I-0.623 J-0.206
G01 X31.511 Y23.269  
G01 X29.878 Y22.922 
G01 X29.959 Y22.872 
G01 X30.126 Y22.705 
G02 X30.126 Y21.777 I-0.464 J-0.464
G01 X27.143 Y18.805  
G01 X27.342 Y18.832 
G01 X27.584 Y18.839 
G01 X27.743 Y18.809 
G01 X28.044 Y18.668 
G01 X28.091 Y18.628 
G02 X28.318 Y18.229 I-0.421 J-0.503
G01 X28.329 Y18.164  
G01 X28.307 Y17.864 
G01 X28.098 Y17.250 
G01 X27.974 Y16.800 
G01 X27.855 Y16.272 
G01 X27.749 Y15.695 
G01 X27.659 Y15.096 
G01 X27.590 Y14.498 
G01 X27.545 Y13.928 
G01 X27.535 Y13.097 
G01 X27.833 Y13.367 
G02 X28.888 Y13.109 I0.440 J-0.486
G01 X29.679 Y10.972  
G01 X30.039 Y10.052 
G00 Z8.000
G00 X34.400 Y8.616  F3600.0
G01 Z1.000 F1200.0 M3
G01 X34.885 Y8.185  F1800.0
G01 X34.970 Y8.480 
G01 X34.400 Y8.616 
G01 X34.425 Y8.732  
G01 X33.951 Y8.870  
G01 X34.962 Y7.961 
G01 X35.064 Y8.381 
G01 X35.132 Y8.571 
G01 X34.425 Y8.732 
G01 X34.456 Y8.846  
G01 X33.932 Y8.999  
G01 X33.479 Y9.153 
G01 X34.133 Y8.535 
G01 X35.059 Y7.723 
G01 X35.087 Y8.029 
G01 X35.178 Y8.349 
G01 X35.310 Y8.660 
G01 X34.941 Y8.726 
G01 X34.456 Y8.846 
G01 X34.486 Y8.961  
G01 X33.968 Y9.112  
G01 X33.227 Y9.364 
G01 X32.943 Y9.483 
G01 X33.531 Y8.939 
G01 X34.053 Y8.448 
G01 X35.164 Y7.478 
G01 X35.205 Y8.007 
G01 X35.292 Y8.316 
G01 X35.418 Y8.610 
G01 X35.504 Y8.750 
G01 X34.965 Y8.843 
G01 X34.486 Y8.961 
G00 Z8.000
G00 X43.242 Y13.153  F3600.0
G01 Z1.000 F1200.0 M3
G01 X43.115 Y13.088  F1800.0
G01 X43.298 Y13.066 
G01 X43.242 Y13.153 
G01 X43.290 Y13.310  
G01 X42.707 Y13.018  
G01 X43.578 Y12.912 
G01 X43.290 Y13.310 
G01 X43.347 Y13.472  
G01 X42.292 Y12.948  
G01 X43.550 Y12.796 
G01 X43.947 Y12.734 
G01 X43.670 Y12.988 
G01 X43.347 Y13.472 
G01 X43.437 Y13.569  
G01 X43.412 Y13.639  
G01 X41.864 Y12.872 
G01 X43.534 Y12.678 
G01 X44.832 Y12.476 
G01 X45.914 Y12.254 
G01 X47.868 Y11.772 
G02 X48.676 Y9.678 I-0.328 J-1.329
G01 X49.425 Y9.635  
G02 X49.247 Y10.309 I1.191 J0.674
G01 X49.247 Y10.522  
G01 X49.349 Y11.040 
G01 X49.367 Y11.085 
G02 X49.730 Y11.594 I1.267 J-0.517
G01 X49.782 Y11.641  
G01 X50.101 Y11.851 
G01 X50.397 Y11.991 
G01 X50.863 Y12.123 
G01 X51.316 Y12.202 
G01 X56.645 Y12.862 
G01 X56.569 Y13.144 
G01 X56.580 Y13.711 
G01 X56.592 Y13.762 
G01 X56.756 Y14.163 
G01 X56.788 Y14.216 
G01 X57.055 Y14.534 
G01 X57.300 Y14.748 
G01 X57.688 Y14.952 
G01 X58.265 Y15.194 
G01 X59.657 Y15.742 
G02 X58.789 Y16.223 I0.185 J1.356
G01 X54.776 Y14.594  
G01 X52.944 Y14.073 
G01 X52.475 Y13.963 
G01 X52.078 Y13.891 
G01 X51.919 Y13.880 
G01 X51.546 Y13.904 
G01 X51.505 Y13.912 
G02 X50.811 Y14.286 I0.274 J1.341
G01 X50.589 Y14.534  
G01 X49.200 Y13.977 
G01 X47.991 Y13.521 
G01 X47.039 Y13.192 
G01 X45.243 Y12.625 
G02 X43.863 Y12.963 I-0.412 J1.305
G01 X43.754 Y13.072  
G02 X43.437 Y13.569 I0.968 J0.968
G01 X43.548 Y13.609  
G01 X43.488 Y13.811  
G01 X41.586 Y12.869 
G01 X41.419 Y12.792 
G01 X42.104 Y12.732 
G01 X43.517 Y12.561 
G01 X44.812 Y12.359 
G01 X45.887 Y12.138 
G01 X47.840 Y11.656 
G02 X48.438 Y9.573 I-0.299 J-1.214
G01 X49.662 Y9.502  
G02 X49.366 Y10.309 I0.954 J0.807
G01 X49.366 Y10.522  
G01 X49.459 Y10.995 
G01 X49.477 Y11.040 
G02 X49.808 Y11.505 I1.157 J-0.473
G01 X49.861 Y11.552  
G01 X50.152 Y11.743 
G01 X50.439 Y11.879 
G01 X50.890 Y12.007 
G01 X51.334 Y12.084 
G01 X56.820 Y12.764 
G01 X56.695 Y13.118 
G01 X56.686 Y13.166 
G01 X56.696 Y13.684 
G01 X56.708 Y13.735 
G01 X56.857 Y14.102 
G01 X56.890 Y14.155 
G01 X57.134 Y14.445 
G01 X57.368 Y14.650 
G01 X57.739 Y14.844 
G01 X58.310 Y15.084 
G01 X60.356 Y15.889 
G01 X59.953 Y15.853 
G02 X58.828 Y16.367 I-0.111 J1.245
G01 X54.737 Y14.706  
G01 X52.915 Y14.188 
G01 X52.451 Y14.079 
G01 X52.063 Y14.009 
G01 X51.911 Y13.998 
G01 X51.570 Y14.020 
G01 X51.529 Y14.029 
G02 X50.895 Y14.370 I0.250 J1.225
G01 X50.634 Y14.682  
G01 X49.157 Y14.088 
G01 X47.950 Y13.632 
G01 X47.002 Y13.305 
G01 X45.207 Y12.739 
G02 X43.947 Y13.047 I-0.376 J1.192
G01 X43.838 Y13.156  
G01 X43.548 Y13.609 
G01 X43.660 Y13.650  
G01 X43.649 Y13.681  
G01 X43.582 Y13.992 
G01 X42.683 Y13.534 
G01 X40.964 Y12.712 
G01 X42.092 Y12.614 
G01 X43.501 Y12.443 
G01 X44.792 Y12.242 
G01 X45.860 Y12.022 
G01 X47.812 Y11.541 
G02 X48.122 Y9.473 I-0.271 J-1.098
G01 X49.995 Y9.364  
G02 X49.485 Y10.309 I0.621 J0.945
G01 X49.485 Y10.522  
G01 X49.569 Y10.950 
G01 X49.587 Y10.995 
G01 X49.887 Y11.416 
G01 X49.939 Y11.462 
G01 X50.203 Y11.636 
G01 X50.481 Y11.768 
G01 X50.916 Y11.891 
G01 X51.351 Y11.966 
G01 X57.020 Y12.669 
G01 X56.997 Y12.702 
G01 X56.812 Y13.140 
G01 X56.802 Y13.188 
G01 X56.812 Y13.657 
G01 X56.823 Y13.708 
G01 X56.959 Y14.040 
G01 X56.991 Y14.093 
G01 X57.212 Y14.356 
G01 X57.435 Y14.551 
G01 X57.789 Y14.736 
G01 X58.355 Y14.974 
G01 X61.163 Y16.081 
G01 X59.943 Y15.971 
G02 X58.873 Y16.514 I-0.101 J1.127
G01 X54.698 Y14.819  
G01 X52.885 Y14.304 
G01 X52.427 Y14.195 
G01 X52.048 Y14.127 
G01 X51.902 Y14.117 
G01 X51.594 Y14.137 
G01 X51.553 Y14.145 
G02 X50.979 Y14.454 I0.226 J1.108
G01 X50.902 Y14.531  
G01 X50.686 Y14.833 
G01 X49.114 Y14.199 
G01 X47.910 Y13.744 
G01 X46.965 Y13.418 
G01 X45.171 Y12.852 
G02 X44.031 Y13.131 I-0.340 J1.079
G01 X43.922 Y13.240  
G01 X43.660 Y13.650 
G00 Z8.000
G00 X45.092 Y8.492  F3600.0
G01 Z1.000 F1200.0 M3
G01 X45.597 Y8.415  F1800.0
G01 X45.609 Y8.515 
G01 X45.092 Y8.492 
G01 X45.030 Y8.382  
G01 X45.709 Y8.278  
G01 X45.753 Y8.640 
G01 X43.957 Y8.560 
G01 X45.030 Y8.382 
G01 X45.011 Y8.264  
G01 X45.832 Y8.139  
G02 X45.911 Y8.765 I1.602 J0.116
G01 X42.858 Y8.627  
G01 X45.011 Y8.264 
G01 X44.993 Y8.147  
G01 X45.969 Y7.998  
G02 X46.077 Y8.864 I1.465 J0.257
G01 X46.090 Y8.892  
G01 X41.798 Y8.696 
G01 X44.993 Y8.147 
G01 X44.974 Y8.030  
G01 X46.120 Y7.855  
G01 X46.089 Y8.003 
G02 X46.185 Y8.815 I1.345 J0.253
G01 X46.291 Y9.019  
G01 X40.808 Y8.763 
G01 X43.185 Y8.327 
G01 X44.974 Y8.030 
G01 X44.955 Y7.912  
G01 X46.295 Y7.708  
G01 X46.206 Y8.025 
G02 X46.294 Y8.767 I1.228 J0.231
G01 X46.311 Y8.805  
G01 X46.540 Y9.149 
G01 X41.541 Y8.922 
G01 X39.853 Y8.831 
G01 X41.443 Y8.518 
G01 X43.165 Y8.210 
G01 X44.955 Y7.912 
G01 X44.937 Y7.795  
G01 X46.512 Y7.555  
G01 X46.473 Y7.620 
G01 X46.333 Y7.990 
G01 X46.323 Y8.047 
G02 X46.402 Y8.718 I1.112 J0.209
G01 X46.419 Y8.756  
G01 X46.699 Y9.139 
G01 X46.867 Y9.282 
G01 X41.535 Y9.040 
G01 X38.936 Y8.900 
G01 X41.421 Y8.401 
G01 X43.144 Y8.093 
G01 X44.937 Y7.795 
G01 X44.918 Y7.678  
G01 X46.755 Y7.400  
G01 X46.575 Y7.681 
G01 X46.450 Y8.012 
G01 X46.439 Y8.069 
G02 X46.511 Y8.669 I0.995 J0.187
G01 X46.528 Y8.708  
G01 X46.778 Y9.050 
G01 X46.868 Y9.129 
G02 X47.599 Y9.384 I0.673 J-0.756
G01 X50.573 Y9.211  
G01 X50.186 Y9.393 
G02 X49.604 Y10.309 I0.430 J0.917
G01 X49.604 Y10.522  
G01 X49.679 Y10.905 
G01 X49.697 Y10.950 
G01 X49.965 Y11.327 
G01 X50.125 Y11.467 
G01 X50.523 Y11.656 
G01 X50.942 Y11.775 
G01 X51.369 Y11.849 
G01 X57.252 Y12.578 
G01 X57.177 Y12.653 
G01 X57.094 Y12.770 
G01 X56.928 Y13.162 
G01 X56.919 Y13.211 
G01 X56.927 Y13.630 
G01 X56.939 Y13.681 
G01 X57.060 Y13.978 
G01 X57.093 Y14.031 
G01 X57.290 Y14.266 
G01 X57.503 Y14.452 
G01 X57.840 Y14.629 
G01 X58.400 Y14.864 
G01 X61.117 Y15.933 
G01 X61.991 Y16.292 
G01 X61.432 Y16.224 
G01 X59.932 Y16.090 
G02 X58.927 Y16.664 I-0.090 J1.008
G01 X54.659 Y14.931  
G01 X52.856 Y14.419 
G01 X52.403 Y14.312 
G01 X52.033 Y14.245 
G01 X51.754 Y14.225 
G01 X51.577 Y14.261 
G02 X51.063 Y14.538 I0.203 J0.992
G01 X50.986 Y14.615  
G01 X50.749 Y14.988 
G01 X49.071 Y14.310 
G01 X47.870 Y13.856 
G01 X46.927 Y13.531 
G01 X45.135 Y12.965 
G02 X44.115 Y13.215 I-0.305 J0.965
G01 X44.006 Y13.324  
G01 X43.771 Y13.691 
G01 X43.760 Y13.722 
G01 X43.705 Y14.188 
G01 X42.630 Y13.641 
G01 X41.484 Y13.084 
G01 X40.503 Y12.630 
G01 X42.079 Y12.495 
G01 X43.485 Y12.325 
G01 X44.772 Y12.125 
G01 X45.833 Y11.907 
G01 X47.783 Y11.426 
G02 X47.584 Y9.432 I-0.242 J-0.983
G01 X41.529 Y9.159  
G01 X38.007 Y8.973 
G01 X39.960 Y8.566 
G01 X41.399 Y8.285 
G01 X43.124 Y7.976 
G01 X44.918 Y7.678 
G01 X44.899 Y7.560  
G01 X47.050 Y7.237  
G01 X46.813 Y7.514 
G01 X46.677 Y7.741 
G01 X46.567 Y8.034 
G01 X46.556 Y8.091 
G02 X46.619 Y8.621 I0.878 J0.165
G01 X46.636 Y8.659  
G01 X46.857 Y8.961 
G01 X46.947 Y9.041 
G02 X47.592 Y9.265 I0.594 J-0.667
G01 X51.183 Y9.057  
G01 X50.237 Y9.500 
G02 X49.722 Y10.309 I0.379 J0.809
G01 X49.722 Y10.522  
G01 X49.789 Y10.860 
G01 X49.807 Y10.905 
G01 X50.044 Y11.238 
G01 X50.191 Y11.367 
G01 X50.565 Y11.545 
G01 X50.969 Y11.659 
G01 X51.386 Y11.731 
G01 X57.510 Y12.490 
G01 X57.268 Y12.729 
G01 X57.191 Y12.839 
G01 X57.045 Y13.185 
G01 X57.036 Y13.233 
G01 X57.043 Y13.603 
G01 X57.055 Y13.654 
G01 X57.162 Y13.916 
G01 X57.194 Y13.969 
G01 X57.369 Y14.177 
G01 X57.570 Y14.354 
G01 X57.891 Y14.521 
G01 X58.444 Y14.754 
G01 X61.161 Y15.823 
G01 X62.883 Y16.540 
G01 X62.233 Y16.440 
G01 X61.420 Y16.342 
G01 X59.921 Y16.208 
G02 X58.993 Y16.819 I-0.080 J0.890
G01 X54.620 Y15.044  
G01 X52.827 Y14.534 
G01 X52.379 Y14.428 
G01 X52.018 Y14.364 
G01 X51.762 Y14.345 
G01 X51.601 Y14.378 
G02 X51.147 Y14.622 I0.179 J0.875
G01 X51.070 Y14.699  
G02 X50.827 Y15.150 I0.632 J0.632
G01 X49.028 Y14.420  
G01 X47.829 Y13.968 
G01 X46.890 Y13.644 
G01 X45.100 Y13.079 
G02 X44.199 Y13.299 I-0.269 J0.852
G01 X44.090 Y13.408  
G01 X43.883 Y13.732 
G01 X43.872 Y13.762 
G02 X43.841 Y14.273 I0.839 J0.307
G01 X43.880 Y14.415  
G01 X42.577 Y13.747 
G01 X41.433 Y13.191 
G01 X40.019 Y12.544 
G01 X42.067 Y12.377 
G01 X43.469 Y12.207 
G01 X44.751 Y12.008 
G01 X45.806 Y11.791 
G01 X47.755 Y11.310 
G02 X47.579 Y9.550 I-0.214 J-0.868
G01 X41.523 Y9.278  
G01 X37.067 Y9.047 
G01 X39.937 Y8.449 
G01 X41.377 Y8.168 
G01 X43.104 Y7.859 
G01 X44.899 Y7.560 
G00 Z8.000
G00 X49.051 Y9.895  F3600.0
G01 Z1.000 F1200.0 M3
G01 X49.064 Y9.894  F1800.0
G01 X49.058 Y9.917 
G01 X49.051 Y9.895 
G01 X48.875 Y9.786  
G01 X49.232 Y9.765  
G01 X49.128 Y10.309 
G01 X49.128 Y10.522 
G01 X49.239 Y11.085 
G01 X49.257 Y11.130 
G02 X49.651 Y11.683 I1.377 J-0.562
G01 X49.704 Y11.730  
G01 X50.050 Y11.958 
G01 X50.355 Y12.103 
G01 X50.837 Y12.239 
G01 X51.299 Y12.319 
G01 X56.487 Y12.962 
G01 X56.452 Y13.121 
G02 X56.464 Y13.738 I1.461 J0.279
G01 X56.476 Y13.789  
G01 X56.654 Y14.225 
G01 X56.687 Y14.278 
G01 X56.977 Y14.624 
G01 X57.099 Y14.730 
G01 X57.389 Y14.929 
G01 X57.637 Y15.059 
G01 X59.279 Y15.721 
G02 X58.756 Y16.082 I0.563 J1.377
G01 X54.815 Y14.482  
G01 X52.973 Y13.958 
G01 X52.499 Y13.846 
G01 X52.092 Y13.773 
G01 X51.928 Y13.761 
G01 X51.523 Y13.788 
G01 X51.482 Y13.796 
G02 X50.727 Y14.201 I0.298 J1.457
G01 X50.550 Y14.389  
G01 X49.243 Y13.867 
G01 X48.031 Y13.409 
G01 X47.076 Y13.079 
G01 X45.279 Y12.512 
G01 X45.942 Y12.369 
G01 X47.897 Y11.887 
G02 X48.875 Y9.786 I-0.356 J-1.444
G00 Z8.000
G00 X49.005 Y12.539  F3600.0
G01 Z1.000 F1200.0 M3
G01 X49.243 Y12.724  F1800.0
G01 X48.914 Y12.599 
G01 X49.005 Y12.539 
G01 X49.075 Y12.443  
G01 X49.643 Y12.817  
G01 X50.020 Y12.995 
G01 X50.553 Y13.146 
G01 X50.344 Y13.283 
G01 X48.636 Y12.621 
G01 X49.012 Y12.387 
G01 X49.075 Y12.443 
G01 X49.154 Y12.354  
G01 X49.694 Y12.709  
G01 X50.062 Y12.884 
G01 X50.652 Y13.051 
G01 X50.923 Y13.098 
G01 X50.362 Y13.418 
G01 X48.345 Y12.638 
G01 X48.317 Y12.628 
G02 X49.018 Y12.231 I-0.777 J-2.185
G01 X49.154 Y12.354  
G01 X49.233 Y12.265  
G01 X49.745 Y12.602  
G01 X50.104 Y12.772 
G01 X50.678 Y12.935 
G01 X51.521 Y13.065 
G01 X51.339 Y13.097 
G02 X50.382 Y13.554 I0.440 J2.156
G01 X49.501 Y13.202  
G01 X47.919 Y12.616 
G01 X48.068 Y12.579 
G02 X49.025 Y12.067 I-0.527 J-2.136
G01 X49.233 Y12.265  
G00 Z8.000
G00 X55.654 Y13.925  F3600.0
G01 Z1.000 F1200.0 M3
G01 X55.088 Y13.695  F1800.0
G01 X54.676 Y13.576 
G01 X55.612 Y13.692 
G01 X55.654 Y13.925 
G01 X55.770 Y13.899  
G01 X55.830 Y14.124  
G01 X55.049 Y13.807 
G01 X53.145 Y13.267 
G01 X55.721 Y13.585 
G01 X55.770 Y13.899 
G01 X55.886 Y13.872  
G01 X55.898 Y13.923  
G01 X56.042 Y14.339 
G01 X55.010 Y13.920 
G01 X53.120 Y13.382 
G01 X52.620 Y13.264 
G01 X52.166 Y13.183 
G01 X51.971 Y13.169 
G01 X51.404 Y13.206 
G01 X51.363 Y13.214 
G02 X50.404 Y13.691 I0.416 J2.039
G01 X49.458 Y13.313  
G01 X48.233 Y12.850 
G01 X47.499 Y12.597 
G01 X48.039 Y12.464 
G02 X49.032 Y11.895 I-0.498 J-2.021
G01 X49.311 Y12.176  
G01 X49.796 Y12.495 
G01 X50.146 Y12.661 
G01 X50.705 Y12.819 
G01 X51.212 Y12.907 
G01 X55.833 Y13.480 
G01 X55.886 Y13.872 
G01 X56.002 Y13.845  
G01 X56.013 Y13.897  
G01 X56.248 Y14.472 
G01 X56.313 Y14.577 
G01 X54.971 Y14.032 
G01 X53.090 Y13.498 
G01 X52.596 Y13.381 
G01 X52.152 Y13.301 
G01 X51.962 Y13.287 
G01 X51.427 Y13.322 
G01 X51.387 Y13.330 
G02 X50.429 Y13.829 I0.393 J1.923
G01 X49.415 Y13.424  
G01 X48.193 Y12.962 
G01 X47.072 Y12.580 
G01 X48.011 Y12.349 
G02 X49.039 Y11.711 I-0.470 J-1.906
G01 X49.337 Y12.040  
G01 X49.390 Y12.086 
G01 X49.846 Y12.387 
G01 X50.188 Y12.549 
G01 X50.731 Y12.703 
G01 X51.229 Y12.789 
G01 X55.951 Y13.374 
G01 X56.002 Y13.845 
G01 X56.117 Y13.819  
G01 X56.129 Y13.870  
G01 X56.350 Y14.410 
G01 X56.382 Y14.463 
G01 X56.717 Y14.869 
G01 X54.932 Y14.144 
G01 X53.061 Y13.613 
G01 X52.572 Y13.497 
G01 X52.137 Y13.419 
G01 X51.954 Y13.406 
G01 X51.451 Y13.438 
G01 X51.410 Y13.447 
G02 X50.475 Y13.949 I0.369 J1.807
G01 X50.457 Y13.968  
G01 X49.372 Y13.534 
G01 X48.152 Y13.074 
G01 X46.633 Y12.566 
G01 X47.982 Y12.233 
G02 X49.047 Y11.506 I-0.441 J-1.790
G01 X49.415 Y11.951  
G01 X49.468 Y11.997 
G01 X49.897 Y12.280 
G01 X50.229 Y12.437 
G01 X50.758 Y12.587 
G01 X51.247 Y12.672 
G01 X56.074 Y13.270 
G01 X56.117 Y13.819 
G01 X56.233 Y13.792  
G01 X56.245 Y13.843  
G01 X56.451 Y14.349 
G01 X56.484 Y14.402 
G01 X56.821 Y14.802 
G01 X56.942 Y14.909 
G01 X57.279 Y15.140 
G01 X57.536 Y15.274 
G01 X58.745 Y15.766 
G01 X58.702 Y15.803 
G01 X54.893 Y14.257 
G01 X53.032 Y13.728 
G01 X52.548 Y13.613 
G01 X52.122 Y13.537 
G01 X51.945 Y13.524 
G01 X51.475 Y13.555 
G01 X51.434 Y13.563 
G02 X50.559 Y14.033 I0.345 J1.690
G01 X50.486 Y14.107  
G01 X49.329 Y13.645 
G01 X48.112 Y13.185 
G01 X47.151 Y12.854 
G01 X46.194 Y12.552 
G01 X47.954 Y12.118 
G02 X49.057 Y11.266 I-0.413 J-1.675
G02 X49.494 Y11.862 I1.577 J-0.699
G01 X49.547 Y11.908  
G01 X49.948 Y12.173 
G01 X50.271 Y12.326 
G01 X50.784 Y12.471 
G01 X51.264 Y12.554 
G01 X56.204 Y13.166 
G01 X56.233 Y13.792 
G01 X56.349 Y13.765  
G01 X56.361 Y13.816  
G01 X56.553 Y14.287 
G01 X56.585 Y14.340 
G01 X56.899 Y14.713 
G01 X57.021 Y14.820 
G01 X57.334 Y15.035 
G01 X57.587 Y15.167 
G01 X58.991 Y15.735 
G01 X58.727 Y15.942 
G01 X54.854 Y14.369 
G01 X53.003 Y13.843 
G01 X52.524 Y13.730 
G01 X52.107 Y13.655 
G01 X51.936 Y13.643 
G01 X51.499 Y13.671 
G01 X51.458 Y13.679 
G02 X50.643 Y14.117 I0.321 J1.574
G01 X50.516 Y14.247  
G01 X49.286 Y13.756 
G01 X48.072 Y13.297 
G01 X47.114 Y12.967 
G01 X45.746 Y12.535 
G01 X47.925 Y12.003 
G02 X49.066 Y10.946 I-0.385 J-1.560
G01 X49.147 Y11.175  
G02 X49.573 Y11.773 I1.487 J-0.607
G01 X49.625 Y11.819  
G01 X49.999 Y12.065 
G01 X50.313 Y12.214 
G01 X50.810 Y12.355 
G01 X51.281 Y12.437 
G01 X56.342 Y13.064 
G01 X56.336 Y13.099 
G02 X56.349 Y13.765 I1.578 J0.302
G00 Z8.000
G00 X49.113 Y25.913  F3600.0
G01 Z1.000 F1200.0 M3
G01 X49.101 Y25.886  F1800.0
G01 X49.375 Y25.958 
G01 X49.134 Y25.968 
G01 X49.113 Y25.913 
G01 X49.002 Y25.958  
G01 X48.891 Y25.715  
G01 X50.167 Y26.044 
G01 X49.051 Y26.091 
G01 X49.002 Y25.958 
G01 X48.892 Y26.003  
G01 X48.876 Y25.963  
G01 X48.678 Y25.590 
G01 X48.938 Y25.597 
G01 X50.618 Y26.047 
G01 X50.886 Y26.132 
G01 X48.965 Y26.213 
G01 X48.892 Y26.003 
G01 X48.782 Y26.048  
G01 X48.766 Y26.008  
G01 X48.434 Y25.464 
G01 X48.955 Y25.479 
G01 X50.653 Y25.933 
G01 X51.477 Y26.220 
G01 X48.874 Y26.336 
G01 X48.782 Y26.048 
G01 X48.672 Y26.092  
G01 X48.656 Y26.052  
G02 X48.136 Y25.336 I-1.709 J0.693
G01 X48.972 Y25.361  
G01 X50.687 Y25.820 
G01 X51.055 Y25.937 
G01 X51.857 Y26.235 
G01 X51.473 Y26.346 
G01 X48.778 Y26.459 
G01 X48.672 Y26.092 
G01 X48.562 Y26.137  
G01 X48.546 Y26.097  
G02 X47.723 Y25.205 I-1.599 J0.649
G01 X48.989 Y25.242  
G01 X50.721 Y25.706 
G01 X51.094 Y25.825 
G01 X51.899 Y26.124 
G01 X52.251 Y26.277 
G01 X51.831 Y26.362 
G01 X51.493 Y26.464 
G01 X48.677 Y26.582 
G01 X48.562 Y26.137 
G00 Z8.000
G00 X43.238 Y25.249  F3600.0
G01 Z1.000 F1200.0 M3
G01 X42.647 Y25.306  F1800.0
G01 X42.643 Y25.174 
G01 X43.620 Y25.203 
G01 X43.238 Y25.249 
G01 X43.251 Y25.367  
G01 X42.522 Y25.437  
G01 X42.511 Y25.052 
G01 X45.084 Y25.127 
G01 X43.251 Y25.367 
G01 X43.263 Y25.485  
G01 X42.386 Y25.569  
G02 X42.369 Y24.940 I-1.583 J-0.273
G01 X42.367 Y24.928  
G01 X49.006 Y25.124 
G01 X50.755 Y25.592 
G01 X51.132 Y25.712 
G01 X51.944 Y26.013 
G01 X52.816 Y26.398 
G01 X52.581 Y26.382 
G01 X52.153 Y26.415 
G01 X51.860 Y26.477 
G01 X51.513 Y26.582 
G01 X48.568 Y26.706 
G01 X48.452 Y26.182 
G01 X48.436 Y26.142 
G02 X47.528 Y25.248 I-1.488 J0.604
G01 X47.468 Y25.225  
G01 X47.055 Y25.125 
G01 X46.841 Y25.103 
G01 X46.313 Y25.112 
G01 X45.701 Y25.165 
G01 X44.135 Y25.381 
G01 X43.263 Y25.485 
G00 Z8.000
G00 X55.008 Y27.920  F3600.0
G01 Z1.000 F1200.0 M3
G01 X55.027 Y27.934  F1800.0
G01 X54.567 Y27.906 
G01 X54.510 Y27.602 
G01 X55.008 Y27.920 
G01 X55.075 Y27.822  
G01 X55.432 Y28.077  
G01 X54.457 Y28.018 
G01 X54.382 Y27.589 
G01 X54.280 Y27.317 
G01 X55.075 Y27.822 
G01 X55.141 Y27.723  
G01 X55.836 Y28.221  
G01 X54.339 Y28.130 
G01 X54.269 Y27.624 
G01 X54.255 Y27.580 
G02 X53.906 Y26.969 I-1.535 J0.472
G01 X53.903 Y26.966  
G01 X54.372 Y27.232 
G01 X55.141 Y27.723 
G01 X55.208 Y27.625  
G01 X55.939 Y28.148  
G01 X56.203 Y28.362 
G01 X54.214 Y28.241 
G01 X54.217 Y28.207 
G01 X54.155 Y27.659 
G01 X54.142 Y27.615 
G02 X53.818 Y27.049 I-1.422 J0.437
G01 X53.787 Y27.015  
G01 X53.324 Y26.673 
G01 X53.275 Y26.650 
G01 X52.727 Y26.510 
G01 X52.574 Y26.501 
G01 X52.178 Y26.531 
G01 X51.890 Y26.592 
G01 X51.533 Y26.700 
G01 X48.451 Y26.829 
G02 X48.342 Y26.226 I-1.487 J-0.044
G01 X48.326 Y26.186  
G02 X47.485 Y25.359 I-1.378 J0.559
G01 X47.425 Y25.336  
G01 X47.042 Y25.243 
G01 X46.836 Y25.222 
G01 X46.319 Y25.231 
G01 X45.714 Y25.284 
G01 X44.151 Y25.499 
G01 X42.436 Y25.684 
G01 X42.235 Y25.699 
G02 X42.254 Y24.966 I-1.432 J-0.403
G01 X42.211 Y24.805  
G01 X49.023 Y25.006 
G01 X50.789 Y25.478 
G01 X51.171 Y25.600 
G01 X51.988 Y25.903 
G01 X52.809 Y26.262 
G01 X53.629 Y26.673 
G01 X54.433 Y27.130 
G01 X55.208 Y27.625 
G01 X55.275 Y27.526  
G01 X56.011 Y28.054  
G01 X56.567 Y28.503 
G01 X54.083 Y28.352 
G01 X54.098 Y28.198 
G01 X54.042 Y27.694 
G01 X54.028 Y27.650 
G02 X53.730 Y27.129 I-1.308 J0.402
G01 X53.699 Y27.095  
G01 X53.273 Y26.780 
G01 X53.224 Y26.757 
G01 X52.720 Y26.629 
G01 X52.567 Y26.620 
G01 X52.203 Y26.647 
G01 X51.919 Y26.707 
G01 X51.553 Y26.818 
G01 X48.322 Y26.954 
G01 X48.322 Y26.950 
G02 X48.232 Y26.271 I-1.359 J-0.164
G01 X48.216 Y26.231  
G02 X47.442 Y25.469 I-1.268 J0.515
G01 X47.383 Y25.446  
G01 X47.030 Y25.361 
G01 X46.831 Y25.341 
G01 X46.325 Y25.350 
G01 X45.727 Y25.402 
G01 X44.166 Y25.617 
G01 X42.446 Y25.803 
G01 X42.063 Y25.830 
G02 X42.138 Y24.993 I-1.260 J-0.535
G01 X42.035 Y24.681  
G01 X49.040 Y24.887 
G01 X50.824 Y25.364 
G01 X51.210 Y25.488 
G01 X52.033 Y25.793 
G01 X52.859 Y26.154 
G01 X53.685 Y26.568 
G01 X54.494 Y27.028 
G01 X55.275 Y27.526 
G01 X55.341 Y27.428  
G01 X56.083 Y27.959  
G01 X56.766 Y28.511 
G01 X56.908 Y28.643 
G01 X53.939 Y28.463 
G01 X53.980 Y28.189 
G01 X53.928 Y27.729 
G01 X53.915 Y27.685 
G02 X53.643 Y27.209 I-1.195 J0.367
G01 X53.611 Y27.175  
G01 X53.222 Y26.888 
G01 X53.173 Y26.865 
G01 X52.713 Y26.747 
G01 X52.560 Y26.738 
G01 X52.227 Y26.763 
G01 X51.949 Y26.823 
G01 X51.573 Y26.936 
G01 X48.184 Y27.078 
G01 X48.205 Y26.935 
G02 X48.122 Y26.316 I-1.241 J-0.150
G01 X48.106 Y26.276  
G02 X47.399 Y25.580 I-1.158 J0.470
G01 X47.340 Y25.557  
G01 X47.018 Y25.480 
G01 X46.826 Y25.460 
G01 X46.331 Y25.468 
G01 X45.740 Y25.520 
G01 X44.181 Y25.734 
G01 X42.456 Y25.921 
G01 X41.869 Y25.964 
G01 X41.950 Y25.791 
G02 X42.022 Y25.019 I-1.147 J-0.496
G01 X42.014 Y24.982  
G01 X41.828 Y24.556 
G01 X49.058 Y24.769 
G01 X50.858 Y25.251 
G01 X51.249 Y25.375 
G01 X52.077 Y25.683 
G01 X52.910 Y26.047 
G01 X53.741 Y26.464 
G01 X54.556 Y26.927 
G01 X55.341 Y27.428 
G01 X55.408 Y27.329  
G01 X56.155 Y27.865  
G01 X56.843 Y28.421 
G01 X57.233 Y28.782 
G01 X53.778 Y28.572 
G01 X53.857 Y28.233 
G01 X53.861 Y28.180 
G01 X53.815 Y27.764 
G01 X53.801 Y27.720 
G01 X53.555 Y27.289 
G01 X53.524 Y27.255 
G01 X53.172 Y26.995 
G01 X53.123 Y26.972 
G01 X52.706 Y26.866 
G01 X52.553 Y26.857 
G01 X52.252 Y26.880 
G01 X51.978 Y26.938 
G01 X51.593 Y27.054 
G01 X48.029 Y27.204 
G01 X48.087 Y26.921 
G02 X48.012 Y26.360 I-1.123 J-0.136
G01 X47.996 Y26.320  
G02 X47.356 Y25.691 I-1.048 J0.425
G01 X47.005 Y25.598  
G01 X46.821 Y25.579 
G01 X46.337 Y25.587 
G01 X45.753 Y25.638 
G01 X44.197 Y25.852 
G01 X42.466 Y26.039 
G01 X41.629 Y26.099 
G01 X41.652 Y26.071 
G01 X41.817 Y25.801 
G01 X41.841 Y25.744 
G02 X41.906 Y25.045 I-1.038 J-0.448
G01 X41.898 Y25.009  
G02 X41.564 Y24.429 I-1.103 J0.250
G01 X49.075 Y24.650  
G01 X50.892 Y25.137 
G01 X51.287 Y25.263 
G01 X52.122 Y25.572 
G01 X52.960 Y25.939 
G01 X53.797 Y26.359 
G01 X54.617 Y26.825 
G01 X55.408 Y27.329 
G01 X55.474 Y27.231  
G01 X56.227 Y27.770  
G01 X56.921 Y28.331 
G01 X57.645 Y29.016 
G01 X57.233 Y28.901 
G01 X53.599 Y28.680 
G01 X53.647 Y28.576 
G01 X53.739 Y28.224 
G01 X53.743 Y28.171 
G01 X53.701 Y27.799 
G01 X53.688 Y27.755 
G01 X53.467 Y27.369 
G01 X53.436 Y27.335 
G01 X53.121 Y27.103 
G01 X53.072 Y27.080 
G01 X52.699 Y26.984 
G01 X52.410 Y26.967 
G01 X52.008 Y27.053 
G01 X51.612 Y27.172 
G01 X47.848 Y27.330 
G01 X47.878 Y27.266 
G01 X47.961 Y26.967 
G01 X47.969 Y26.907 
G02 X47.902 Y26.405 I-1.005 J-0.121
G01 X47.885 Y26.365  
G02 X47.313 Y25.802 I-0.938 J0.381
G01 X47.128 Y25.730  
G01 X46.816 Y25.697 
G01 X46.344 Y25.706 
G01 X45.766 Y25.756 
G01 X44.212 Y25.970 
G01 X42.476 Y26.158 
G01 X41.361 Y26.230 
G01 X41.560 Y25.996 
G01 X41.732 Y25.697 
G02 X41.790 Y25.072 I-0.929 J-0.401
G01 X41.782 Y25.035  
G02 X41.111 Y24.297 I-0.987 J0.224
G01 X49.092 Y24.532  
G01 X50.926 Y25.023 
G01 X51.326 Y25.151 
G01 X52.166 Y25.462 
G01 X53.011 Y25.831 
G01 X53.853 Y26.254 
G01 X54.678 Y26.723 
G01 X55.474 Y27.231 
G00 Z8.000
G00 X58.449 Y30.678  F3600.0
G01 Z1.000 F1200.0 M3
G01 X58.458 Y30.662  F1800.0
G01 X58.473 Y30.681 
G01 X58.449 Y30.678 
G01 X58.442 Y30.797  
G01 X58.262 Y30.775  
G01 X58.436 Y30.437 
G01 X58.749 Y30.846 
G01 X58.442 Y30.797 
G01 X58.425 Y30.914  
G01 X58.075 Y30.873  
G01 X58.274 Y30.501 
G01 X58.389 Y30.197 
G01 X59.025 Y31.011 
G01 X58.425 Y30.914 
G01 X58.408 Y31.032  
G01 X57.874 Y30.968  
G01 X57.941 Y30.871 
G01 X58.169 Y30.445 
G02 X58.303 Y29.913 I-0.997 J-0.534
G01 X58.598 Y30.258  
G01 X59.125 Y30.947 
G01 X59.288 Y31.186 
G01 X58.408 Y31.032 
G01 X58.392 Y31.150  
G01 X57.650 Y31.061  
G01 X57.840 Y30.809 
G01 X58.065 Y30.389 
G02 X58.089 Y29.482 I-0.893 J-0.478
G01 X58.690 Y30.183  
G01 X59.221 Y30.877 
G01 X59.553 Y31.363 
G01 X59.031 Y31.253 
G01 X58.392 Y31.150 
G00 Z8.000
G00 X36.082 Y24.178  F3600.0
G01 Z1.000 F1200.0 M3
G01 X36.450 Y24.256  F1800.0
G01 X36.096 Y24.287 
G01 X36.082 Y24.178 
G01 X36.100 Y24.061  
G01 X37.226 Y24.290  
G01 X35.984 Y24.416 
G01 X35.922 Y24.016 
G01 X36.100 Y24.061 
G01 X36.127 Y23.945  
G01 X37.078 Y24.144  
G01 X38.008 Y24.302 
G01 X36.635 Y24.478 
G01 X35.861 Y24.546 
G02 X35.729 Y23.844 I-1.365 J-0.106
G01 X36.127 Y23.945  
G01 X36.153 Y23.830  
G01 X37.100 Y24.028  
G01 X38.753 Y24.295 
G01 X38.267 Y24.384 
G01 X37.471 Y24.500 
G01 X36.647 Y24.596 
G01 X35.725 Y24.675 
G02 X35.470 Y23.656 I-1.228 J-0.234
G01 X36.153 Y23.830  
G00 Z8.000
G00 X31.273 Y22.251  F3600.0
G01 Z1.000 F1200.0 M3
G01 X31.269 Y22.250  F1800.0
G01 X31.269 Y22.248 
G01 X31.273 Y22.251 
G01 X31.351 Y22.162  
G01 X31.899 Y22.493  
G01 X31.146 Y22.347 
G01 X31.131 Y22.004 
G01 X31.351 Y22.162 
G01 X31.416 Y22.062  
G01 X32.083 Y22.466  
G01 X32.625 Y22.743 
G01 X31.017 Y22.442 
G02 X30.923 Y21.709 I-1.354 J-0.200
G01 X31.416 Y22.062  
G00 Z8.000
G00 X28.548 Y19.175  F3600.0
G01 Z1.000 F1200.0 M3
G01 X28.674 Y19.056  F1800.0
G01 X28.873 Y19.440 
G01 X29.025 Y19.674 
G01 X28.536 Y19.186 
G01 X28.548 Y19.175 
G01 X28.472 Y19.084  
G01 X28.696 Y18.840  
G01 X28.976 Y19.380 
G01 X29.363 Y19.975 
G01 X29.810 Y20.531 
G01 X30.314 Y21.049 
G01 X30.872 Y21.526 
G01 X31.482 Y21.963 
G01 X32.141 Y22.362 
G01 X32.848 Y22.724 
G01 X33.512 Y23.010 
G01 X31.622 Y22.685 
G01 X30.878 Y22.535 
G02 X30.545 Y21.356 I-1.215 J-0.294
G01 X28.357 Y19.176  
G01 X28.472 Y19.084 
G01 X28.396 Y18.993  
G02 X28.708 Y18.576 I-0.725 J-0.868
G01 X28.758 Y18.702  
G01 X29.078 Y19.321 
G01 X29.460 Y19.905 
G01 X29.899 Y20.452 
G01 X30.396 Y20.962 
G01 X30.946 Y21.432 
G01 X31.547 Y21.864 
G01 X32.199 Y22.258 
G01 X32.899 Y22.616 
G01 X33.647 Y22.939 
G01 X34.443 Y23.229 
G01 X35.287 Y23.487 
G01 X36.180 Y23.714 
G01 X37.122 Y23.911 
G01 X38.105 Y24.077 
G01 X39.464 Y24.282 
G01 X38.286 Y24.501 
G01 X37.486 Y24.618 
G01 X36.659 Y24.714 
G01 X35.568 Y24.803 
G01 X35.570 Y24.796 
G02 X34.682 Y23.325 I-1.074 J-0.356
G01 X31.599 Y22.802  
G01 X30.726 Y22.625 
G02 X30.461 Y21.440 I-1.064 J-0.384
G01 X28.168 Y19.156  
G01 X28.396 Y18.993 
G01 X28.320 Y18.902  
G02 X28.670 Y18.285 I-0.649 J-0.777
G01 X28.684 Y18.195  
G01 X28.866 Y18.653 
G01 X29.181 Y19.261 
G01 X29.556 Y19.835 
G01 X29.989 Y20.374 
G01 X30.477 Y20.875 
G01 X31.019 Y21.339 
G01 X31.613 Y21.765 
G01 X32.256 Y22.154 
G01 X32.949 Y22.509 
G01 X33.691 Y22.829 
G01 X34.481 Y23.116 
G01 X35.319 Y23.373 
G01 X36.207 Y23.598 
G01 X37.144 Y23.794 
G01 X38.123 Y23.960 
G01 X40.176 Y24.270 
G01 X40.277 Y24.273 
G01 X39.647 Y24.368 
G01 X38.305 Y24.618 
G01 X37.502 Y24.736 
G01 X36.671 Y24.833 
G01 X35.400 Y24.932 
G01 X35.458 Y24.759 
G02 X34.662 Y23.442 I-0.961 J-0.318
G01 X31.577 Y22.919  
G01 X30.560 Y22.711 
G02 X30.377 Y21.524 I-0.897 J-0.469
G01 X27.963 Y19.118  
G01 X28.272 Y18.941 
G01 X28.320 Y18.902 
G00 Z8.000
G00 X30.346 Y20.057  F3600.0
G01 Z1.000 F1200.0 M3
G01 X30.803 Y20.527  F1800.0
G01 X31.313 Y20.963 
G01 X31.875 Y21.367 
G01 X32.489 Y21.738 
G01 X33.152 Y22.077 
G01 X33.867 Y22.386 
G01 X34.632 Y22.664 
G01 X35.448 Y22.914 
G01 X36.315 Y23.134 
G01 X37.233 Y23.326 
G01 X38.199 Y23.489 
G01 X40.219 Y23.794 
G01 X49.160 Y24.058 
G01 X51.063 Y24.567 
G01 X51.481 Y24.700 
G01 X52.345 Y25.020 
G01 X53.213 Y25.400 
G01 X54.077 Y25.834 
G01 X54.924 Y26.315 
G01 X55.741 Y26.836 
G01 X56.516 Y27.391 
G01 X57.233 Y27.971 
G01 X57.856 Y28.548 
G01 X58.471 Y29.192 
G01 X59.061 Y29.884 
G01 X59.607 Y30.598 
G01 X60.094 Y31.311 
G01 X60.603 Y32.184 
G01 X60.900 Y32.470 Z1.525
G01 X61.209 Y32.820 Z2.071
G01 X61.558 Y33.336 Z2.752
G01 X61.597 Y33.396 Z2.863
G01 X61.634 Y33.400 Z3.000
G01 X61.597 Y33.396 Z2.863
G01 X61.622 Y33.436 Z3.000
G01 X61.597 Y33.397 Z2.865
G01 X61.584 Y33.432 Z3.000
G01 X61.597 Y33.396 Z2.863
G01 X61.557 Y33.335 Z2.750
G01 X61.209 Y32.820 Z2.071
G01 X60.870 Y32.438 Z1.471
G01 X60.603 Y32.184 Z1.000
G01 X60.041 Y31.983 
G01 X59.516 Y31.842 
G01 X58.944 Y31.721 
G01 X58.326 Y31.621 
G01 X57.025 Y31.468 
G01 X56.460 Y31.383 
G01 X55.914 Y31.468 Z1.690
G01 X55.588 Y31.503 Z2.132
G01 X55.288 Y31.525 Z2.653
G01 X55.224 Y31.528 Z2.824
G01 X55.181 Y31.552 Z3.000
G01 X55.224 Y31.528 Z2.824
G01 X55.175 Y31.524 Z3.000
G01 X55.234 Y31.526 Z2.794
G01 X55.186 Y31.495 Z3.000
G01 X55.234 Y31.526 Z2.794
G01 X55.326 Y31.518 Z2.572
G01 X55.588 Y31.503 Z2.132
G01 X56.071 Y31.446 Z1.497
G01 X56.460 Y31.383 Z1.000
G01 X56.897 Y31.098 
G01 X57.197 Y30.847 
G01 X57.335 Y30.700 
G01 X57.433 Y30.560 
G01 X57.645 Y30.164 
G02 X57.205 Y29.376 I-0.472 J-0.253
G01 X52.706 Y29.103  
G01 X52.580 Y29.075 
G01 X51.882 Y29.192 Z2.020
G01 X51.714 Y29.221 Z2.337
G01 X51.602 Y29.242 Z2.641
G01 X51.531 Y29.310 Z3.000
G01 X51.602 Y29.242 Z2.641
G01 X51.507 Y29.272 Z3.000
G01 X51.586 Y29.243 Z2.694
G01 X51.501 Y29.231 Z3.000
G01 X51.602 Y29.242 Z2.641
G01 X51.664 Y29.225 Z2.456
G01 X51.543 Y29.139 Z3.000
G01 X51.664 Y29.225 Z2.456
G01 X51.799 Y29.203 Z2.165
G01 X52.132 Y29.151 Z1.641
G01 X52.580 Y29.075 Z1.000
G01 X52.673 Y29.015 
G01 X52.924 Y28.804 
G01 X53.125 Y28.567 
G01 X53.257 Y28.286 
G01 X53.275 Y28.035 
G01 X53.232 Y27.895 
G01 X53.115 Y27.691 
G01 X53.084 Y27.657 
G01 X52.917 Y27.533 
G01 X52.775 Y27.466 
G01 X52.446 Y27.447 
G01 X52.126 Y27.515 
G01 X51.692 Y27.646 
G01 X46.906 Y27.847 
G01 X46.610 Y27.986 Z1.472
G01 X46.351 Y28.117 Z1.922
G01 X46.168 Y28.220 Z2.277
G01 X46.094 Y28.273 Z2.463
G01 X45.950 Y28.423 Z3.000
G01 X46.094 Y28.273 Z2.463
G01 X45.950 Y28.246 Z3.000
G01 X46.094 Y28.273 Z2.463
G01 X46.168 Y28.220 Z2.277
G01 X46.351 Y28.117 Z1.922
G01 X46.610 Y27.986 Z1.472
G01 X46.906 Y27.847 Z1.000
G01 X47.151 Y27.565 
G01 X47.346 Y27.283 
G01 X47.478 Y26.993 
G01 X47.496 Y26.850 
G01 X47.460 Y26.584 
G01 X47.444 Y26.544 
G02 X47.141 Y26.246 I-0.497 J0.202
G01 X47.015 Y26.197  
G01 X46.795 Y26.174 
G01 X46.369 Y26.182 
G01 X45.818 Y26.230 
G01 X44.273 Y26.442 
G01 X42.516 Y26.633 
G01 X41.704 Y26.692 
G01 X40.958 Y26.726 
G01 X40.001 Y26.724 
G01 X39.683 Y26.815 Z1.389
G01 X39.267 Y26.908 Z1.894
G01 X38.681 Y26.993 Z2.550
G01 X38.524 Y27.009 Z2.744
G01 X38.446 Y27.017 Z2.898
G01 X38.425 Y27.037 Z3.000
G01 X38.446 Y27.017 Z2.898
G01 X38.417 Y27.017 Z3.000
G01 X38.452 Y27.015 Z2.882
G01 X38.427 Y26.994 Z3.000
G01 X38.452 Y27.015 Z2.882
G01 X38.539 Y27.007 Z2.721
G01 X38.937 Y26.959 Z2.274
G01 X39.292 Y26.903 Z1.864
G01 X39.738 Y26.801 Z1.319
G01 X40.001 Y26.724 Z1.000
G01 X40.460 Y26.388 
G01 X40.773 Y26.130 
G01 X41.036 Y25.883 
G01 X41.240 Y25.634 
G01 X41.295 Y25.508 
G01 X41.326 Y25.177 
G01 X41.317 Y25.140 
G02 X40.914 Y24.736 I-0.523 J0.119
G01 X40.803 Y24.711  
G01 X40.612 Y24.715 
G01 X40.234 Y24.757 
G01 X38.383 Y25.089 
G01 X37.564 Y25.208 
G01 X36.719 Y25.307 
G01 X35.886 Y25.380 
G01 X35.102 Y25.427 
G01 X34.294 Y25.441 
G01 X33.825 Y25.561 Z1.495
G01 X33.385 Y25.645 Z1.987
G01 X32.925 Y25.713 Z2.586
G01 X32.813 Y25.732 Z2.811
G01 X32.784 Y25.775 Z3.000
G01 X32.813 Y25.732 Z2.811
G01 X32.760 Y25.751 Z3.000
G01 X32.793 Y25.734 Z2.867
G01 X32.755 Y25.724 Z3.000
G01 X32.813 Y25.732 Z2.811
G01 X32.925 Y25.713 Z2.586
G01 X33.385 Y25.645 Z1.987
G01 X33.825 Y25.561 Z1.495
G01 X34.294 Y25.441 Z1.000
G01 X34.682 Y25.165 
G01 X34.816 Y25.033 
G01 X34.917 Y24.876 
G01 X35.005 Y24.609 
G02 X34.584 Y23.912 I-0.509 J-0.169
G01 X31.488 Y23.387  
G01 X30.560 Y23.199 
G01 X29.544 Y22.962 
G01 X28.730 Y22.999 Z1.974
G01 X28.388 Y23.008 Z2.388
G01 X28.203 Y23.007 Z2.651
G01 X28.111 Y23.006 Z2.854
G01 X28.076 Y23.027 Z3.000
G01 X28.111 Y23.006 Z2.854
G01 X28.070 Y22.998 Z3.000
G01 X28.123 Y23.003 Z2.822
G01 X28.088 Y22.969 Z3.000
G01 X28.123 Y23.003 Z2.822
G01 X28.236 Y23.005 Z2.595
G01 X28.388 Y23.008 Z2.388
G01 X29.100 Y22.989 Z1.521
G01 X29.544 Y22.962 Z1.000
G01 X29.696 Y22.893 
G01 X29.885 Y22.777 
G01 X30.042 Y22.620 
G02 X30.041 Y21.862 I-0.379 J-0.379
G01 X26.805 Y18.637  
G01 X25.272 Y17.866 Z3.000
G01 X26.805 Y18.637 Z1.000
G01 X27.351 Y18.712 
G01 X27.575 Y18.718 
G01 X27.721 Y18.691 
G01 X27.967 Y18.576 
G01 X28.014 Y18.536 
G02 X28.200 Y18.210 I-0.344 J-0.411
G01 X28.210 Y18.145  
G01 X28.192 Y17.900 
G01 X27.984 Y17.286 
G01 X27.857 Y16.829 
G01 X27.738 Y16.296 
G01 X27.630 Y15.715 
G01 X27.540 Y15.111 
G01 X27.470 Y14.509 
G01 X27.426 Y13.934 
G01 X27.409 Y13.409 
G01 X27.423 Y12.820 
G01 X27.362 Y12.645 Z1.272
G01 X27.277 Y12.349 Z1.675
G01 X27.215 Y12.038 Z2.051
G01 X27.190 Y11.759 Z2.374
G01 X27.187 Y11.583 Z2.645
G01 X27.106 Y11.529 Z3.000
G01 X27.187 Y11.583 Z2.645
G01 X27.186 Y11.548 Z2.737
G01 X27.148 Y11.485 Z3.000
G01 X27.186 Y11.548 Z2.737
G01 X27.192 Y11.473 Z3.000
G01 X27.188 Y11.557 Z2.708
G01 X27.236 Y11.494 Z3.000
G01 X27.188 Y11.557 Z2.708
G01 X27.190 Y11.605 Z2.601
G01 X27.190 Y11.759 Z2.374
G01 X27.225 Y12.096 Z1.989
G01 X27.294 Y12.418 Z1.578
G01 X27.380 Y12.702 Z1.188
G01 X27.423 Y12.820 Z1.000
G01 X27.914 Y13.278 
G02 X28.776 Y13.067 I0.360 J-0.397
G01 X29.567 Y10.929  
G01 X29.928 Y10.007 
G01 X30.330 Y9.060 
G01 X30.798 Y8.055 
G01 X30.929 Y7.476 Z1.549
G01 X31.311 Y5.989 Z3.000
G01 X30.929 Y7.476 Z1.549
G01 X30.798 Y8.055 Z1.000
G01 X30.820 Y8.391 
G01 X30.855 Y8.624 
G01 X30.914 Y8.842 
G01 X31.025 Y9.070 
G01 X31.151 Y9.195 
G01 X31.368 Y9.327 
G01 X31.444 Y9.351 
G01 X31.678 Y9.370 
G01 X31.845 Y9.347 
G01 X32.063 Y9.251 
G01 X32.255 Y9.127 
G01 X32.614 Y8.827 
G01 X33.571 Y7.921 
G01 X34.921 Y6.747 
G01 X36.130 Y5.778 
G01 X36.686 Y4.989 Z2.032
G01 X36.797 Y4.821 Z2.266
G01 X36.724 Y4.629 Z3.000
G01 X36.797 Y4.821 Z2.266
G01 X36.955 Y4.690 Z2.746
G01 X37.000 Y4.632 Z3.000
G01 X36.955 Y4.690 Z2.746
G01 X37.023 Y4.672 Z3.000
G01 X36.941 Y4.700 Z2.698
G01 X36.797 Y4.821 Z2.266
G01 X36.686 Y4.989 Z2.032
G01 X36.130 Y5.778 Z1.000
G01 X35.990 Y6.336 
G01 X35.921 Y6.754 
G01 X35.883 Y7.154 
G01 X35.877 Y7.528 
G01 X35.909 Y7.875 
G01 X35.998 Y8.188 
G01 X36.113 Y8.383 
G01 X36.257 Y8.517 
G01 X36.479 Y8.654 
G02 X36.870 Y8.723 I0.282 J-0.456
G01 X39.866 Y8.099  
G01 X41.311 Y7.816 
G01 X43.043 Y7.507 
G01 X44.843 Y7.207 
G01 X48.165 Y6.717 
G01 X48.748 Y6.478 Z1.574
G01 X49.535 Y6.190 Z2.220
G01 X49.843 Y6.071 Z2.497
G01 X50.042 Y5.986 Z2.708
G01 X50.070 Y5.903 Z3.000
G01 X50.042 Y5.986 Z2.708
G01 X50.140 Y5.973 Z3.000
G01 X50.107 Y5.984 Z2.882
G01 X50.136 Y5.998 Z3.000
G01 X50.107 Y5.984 Z2.882
G01 X50.042 Y5.986 Z2.708
G01 X49.843 Y6.071 Z2.497
G01 X49.535 Y6.190 Z2.220
G01 X48.727 Y6.486 Z1.555
G01 X48.165 Y6.717 Z1.000
G01 X47.606 Y7.188 
G01 X47.330 Y7.460 
G01 X47.104 Y7.723 
G01 X46.936 Y8.006 
G01 X46.908 Y8.157 
G01 X46.945 Y8.475 
G01 X46.962 Y8.513 
G01 X47.095 Y8.694 
G01 X47.184 Y8.773 
G02 X47.572 Y8.908 I0.356 J-0.400
G01 X53.069 Y8.589  
G01 X53.495 Y8.492 Z1.272
G01 X54.360 Y8.327 Z1.851
G01 X54.787 Y8.266 Z2.083
G01 X54.990 Y8.244 Z2.180
G01 X55.142 Y8.234 Z2.276
G01 X55.272 Y8.219 Z2.385
G01 X55.378 Y8.214 Z2.502
G01 X55.513 Y8.200 Z2.734
G01 X55.585 Y8.174 Z3.000
G01 X55.529 Y8.198 Z2.783
G01 X55.589 Y8.211 Z3.000
G01 X55.513 Y8.200 Z2.734
G01 X55.566 Y8.251 Z3.000
G01 X55.506 Y8.199 Z2.717
G01 X55.378 Y8.214 Z2.502
G01 X55.272 Y8.219 Z2.385
G01 X55.142 Y8.234 Z2.276
G01 X54.990 Y8.244 Z2.180
G01 X54.604 Y8.290 Z1.978
G01 X54.338 Y8.331 Z1.838
G01 X53.495 Y8.492 Z1.272
G01 X53.069 Y8.589 Z1.000
G01 X52.177 Y8.986 
G01 X50.389 Y9.824 
G02 X50.080 Y10.309 I0.227 J0.485
G01 X50.080 Y10.522  
G01 X50.120 Y10.725 
G01 X50.138 Y10.770 
G01 X50.280 Y10.969 
G01 X50.389 Y11.066 
G01 X50.691 Y11.209 
G01 X51.048 Y11.310 
G01 X51.439 Y11.377 
G01 X59.705 Y12.401 
G01 X61.047 Y12.408 Z1.591
G01 X63.235 Y12.539 Z3.000
G01 X61.047 Y12.408 Z1.591
G01 X59.705 Y12.401 Z1.000
G01 X58.084 Y12.586 
G01 X57.768 Y12.738 
G01 X57.543 Y12.961 
G01 X57.484 Y13.044 
G01 X57.396 Y13.252 
G01 X57.387 Y13.300 
G01 X57.391 Y13.522 
G01 X57.423 Y13.657 
G01 X57.542 Y13.854 
G01 X57.774 Y14.057 
G01 X58.043 Y14.197 
G01 X58.579 Y14.423 
G01 X61.294 Y15.491 
G01 X62.533 Y15.998 
G01 X63.912 Y16.596 
G01 X65.681 Y17.409 
G01 X66.465 Y17.673 Z1.375
G01 X68.139 Y18.252 Z2.228
G01 X69.105 Y18.502 Z3.000
G01 X68.139 Y18.252 Z2.228
G01 X66.465 Y17.673 Z1.375
G01 X65.681 Y17.409 Z1.000
G01 X64.413 Y17.161 
G01 X63.240 Y16.957 
G01 X62.185 Y16.795 
G01 X61.382 Y16.698 
G01 X59.890 Y16.564 
G02 X59.374 Y17.360 I-0.048 J0.534
G01 X59.514 Y17.465 Z1.166 
G01 X60.073 Y17.813 Z1.584
G01 X60.938 Y18.396 Z2.145
G01 X61.273 Y18.623 Z2.430
G01 X61.422 Y18.725 Z2.593
G01 X61.591 Y18.831 Z2.836
G01 X61.648 Y18.854 Z3.000
G01 X61.618 Y18.848 Z2.905
G01 X61.629 Y18.874 Z3.000
G01 X61.618 Y18.848 Z2.905
G01 X61.583 Y18.827 Z2.820
G01 X61.422 Y18.725 Z2.593
G01 X61.181 Y18.563 Z2.343
G01 X60.878 Y18.356 Z2.101
G01 X60.052 Y17.800 Z1.570
G01 X59.514 Y17.465 Z1.166
G01 X59.374 Y17.360 Z1.000
G01 X54.503 Y15.382 
G01 X52.739 Y14.881 
G01 X52.306 Y14.778 
G01 X51.974 Y14.719 
G01 X51.785 Y14.705 
G01 X51.672 Y14.728 
G01 X51.400 Y14.874 
G01 X51.323 Y14.952 
G02 X51.367 Y15.750 I0.379 J0.379
G01 X51.409 Y15.784  
G01 X54.064 Y17.384 Z2.527
G01 X54.254 Y17.374 Z3.000
G01 X54.064 Y17.384 Z2.527
G01 X54.093 Y17.535 Z3.000
G01 X54.064 Y17.384 Z2.527
G01 X51.409 Y15.784 Z1.000
G01 X50.197 Y15.272 
G01 X48.898 Y14.754 
G01 X47.708 Y14.304 
G01 X46.778 Y13.983 
G01 X44.992 Y13.420 
G02 X44.452 Y13.552 I-0.161 J0.511
G01 X44.343 Y13.661  
G01 X44.219 Y13.855 
G01 X44.207 Y13.885 
G01 X44.189 Y14.192 
G01 X44.220 Y14.325 
G01 X44.374 Y14.567 
G01 X44.571 Y14.780 
G01 X45.052 Y15.210 
G01 X45.552 Y15.760 
G01 X46.064 Y16.208 Z1.401
G01 X46.674 Y16.782 Z1.899
G01 X47.017 Y17.122 Z2.231
G01 X47.242 Y17.363 Z2.506
G01 X47.273 Y17.403 Z2.565
G01 X47.396 Y17.400 Z3.000
G01 X47.309 Y17.411 Z2.680
G01 X47.391 Y17.450 Z3.000
G01 X47.273 Y17.403 Z2.565
G01 X47.287 Y17.554 Z3.000
G01 X47.273 Y17.403 Z2.565
G01 X47.242 Y17.363 Z2.506
G01 X47.017 Y17.122 Z2.231
G01 X46.674 Y16.782 Z1.899
G01 X46.053 Y16.199 Z1.392
G01 X45.552 Y15.760 Z1.000
G01 X44.535 Y15.172 
G01 X43.519 Y14.628 
G01 X42.418 Y14.067 
G01 X41.280 Y13.514 
G01 X40.154 Y12.993 
G01 X39.090 Y12.528 
G01 X38.496 Y12.289 
G01 X37.575 Y12.143 Z1.776
G01 X37.229 Y12.070 Z2.056
G01 X36.950 Y12.006 Z2.336
G01 X36.862 Y11.980 Z2.453
G01 X36.724 Y11.949 Z2.702
G01 X36.654 Y11.989 Z3.000
G01 X36.724 Y11.949 Z2.702
G01 X36.638 Y11.945 Z3.000
G01 X36.704 Y11.943 Z2.767
G01 X36.649 Y11.908 Z3.000
G01 X36.723 Y11.948 Z2.704
G01 X36.685 Y11.877 Z3.000
G01 X36.724 Y11.949 Z2.702
G01 X36.862 Y11.980 Z2.453
G01 X36.950 Y12.006 Z2.336
G01 X37.229 Y12.070 Z2.056
G01 X37.612 Y12.150 Z1.743
G01 X38.496 Y12.289 Z1.000
G01 X40.659 Y12.142 
G01 X42.030 Y12.021 
G01 X43.420 Y11.853 
G01 X44.691 Y11.655 
G01 X45.724 Y11.443 
G01 X47.669 Y10.963 
G02 X47.564 Y9.908 I-0.128 J-0.520
G01 X41.505 Y9.635  
G01 X37.092 Y9.405 
G01 X36.507 Y9.398 
G01 X36.005 Y9.416 
G01 X35.550 Y9.463 
G01 X35.115 Y9.541 
G01 X34.182 Y9.793 
G01 X33.480 Y10.032 
G01 X32.814 Y10.310 
G01 X32.191 Y10.625 
G01 X31.613 Y10.975 
G01 X31.080 Y11.358 
G01 X30.596 Y11.773 
G01 X30.163 Y12.218 
G01 X29.781 Y12.693 
G01 X29.455 Y13.194 
G01 X29.185 Y13.720 
G01 X28.975 Y14.269 
G01 X28.826 Y14.836 
G01 X28.741 Y15.420 
G01 X28.722 Y16.016 
G01 X28.768 Y16.622 
G01 X28.882 Y17.233 
G01 X29.063 Y17.859 
G01 X29.300 Y18.454 
G01 X29.593 Y19.020 
G01 X29.942 Y19.555 
G01 X30.346 Y20.057 
G00 Z8.000
G00 X33.467 Y20.005  F3600.0
G01 Z1.000 F1200.0 M3
G01 X33.130 Y19.805  F1800.0
G01 X32.818 Y19.596 
G01 X32.531 Y19.378 
G01 X32.268 Y19.152 
G01 X32.027 Y18.916 
G01 X31.807 Y18.672 
G01 X31.608 Y18.418 
G01 X31.428 Y18.153 
G01 X31.266 Y17.876 
G01 X31.123 Y17.587 
G01 X30.997 Y17.285 
G01 X30.887 Y16.967 
G01 X30.796 Y16.634 
G01 X30.698 Y16.127 
G01 X30.687 Y15.985 
G01 X30.694 Y15.644 
G01 X30.744 Y15.313 
G01 X30.838 Y14.974 
G01 X30.919 Y14.771 
G01 X30.885 Y15.002 
G01 X30.861 Y15.341 
G01 X30.863 Y15.684 
G01 X30.891 Y16.031 
G01 X30.942 Y16.376 
G01 X31.032 Y16.804 
G01 X31.141 Y17.202 
G01 X31.282 Y17.584 
G01 X31.463 Y17.950 
G01 X31.683 Y18.297 
G01 X31.939 Y18.625 
G01 X32.229 Y18.946 
G01 X32.568 Y19.283 
G01 X32.926 Y19.599 
G01 X33.324 Y19.898 
G01 X33.621 Y20.086 
G01 X33.467 Y20.005 
G01 X33.409 Y20.109  
G01 X33.066 Y19.905  
G01 X32.749 Y19.692 
G01 X32.457 Y19.471 
G01 X32.188 Y19.239 
G01 X31.941 Y18.999 
G01 X31.716 Y18.748 
G01 X31.512 Y18.488 
G01 X31.327 Y18.216 
G01 X31.162 Y17.933 
G01 X31.015 Y17.637 
G01 X30.885 Y17.327 
G01 X30.774 Y17.002 
G01 X30.680 Y16.662 
G01 X30.580 Y16.141 
G01 X30.568 Y15.989 
G01 X30.576 Y15.634 
G01 X30.628 Y15.288 
G01 X30.725 Y14.936 
G01 X30.868 Y14.580 
G01 X31.056 Y14.224 
G01 X31.320 Y13.830 
G01 X31.224 Y14.064 
G01 X31.125 Y14.373 
G01 X31.051 Y14.690 
G01 X31.003 Y15.015 
G01 X30.980 Y15.345 
G01 X30.982 Y15.679 
G01 X31.009 Y16.018 
G01 X31.059 Y16.355 
G01 X31.147 Y16.776 
G01 X31.254 Y17.166 
G01 X31.392 Y17.537 
G01 X31.567 Y17.892 
G01 X31.780 Y18.228 
G01 X32.030 Y18.549 
G01 X32.315 Y18.864 
G01 X32.649 Y19.196 
G01 X33.001 Y19.507 
G01 X33.392 Y19.800 
G01 X33.813 Y20.068 
G01 X34.264 Y20.311 
G01 X34.743 Y20.532 
G01 X35.252 Y20.729 
G01 X35.790 Y20.905 
G01 X36.357 Y21.060 
G01 X36.954 Y21.195 
G01 X37.582 Y21.311 
G01 X38.242 Y21.407 
G01 X38.934 Y21.486 
G01 X40.417 Y21.589 
G01 X42.036 Y21.623 
G01 X43.694 Y21.611 
G01 X44.283 Y21.584 
G01 X44.777 Y21.528 
G01 X45.219 Y21.428 
G01 X45.566 Y21.294 
G01 X45.690 Y21.374 
G01 X45.972 Y21.490 
G01 X46.185 Y21.537 
G01 X46.887 Y21.620 
G01 X47.580 Y21.676 
G01 X47.914 Y21.668 
G01 X48.256 Y21.607 
G01 X48.357 Y21.563 
G01 X48.542 Y21.666 
G01 X48.760 Y21.756 
G01 X50.486 Y22.123 
G01 X51.518 Y22.383 
G01 X52.495 Y22.675 
G01 X53.418 Y22.999 
G01 X54.287 Y23.356 
G01 X55.106 Y23.746 
G01 X55.876 Y24.169 
G01 X56.599 Y24.626 
G01 X57.277 Y25.119 
G01 X57.913 Y25.649 
G01 X58.509 Y26.217 
G01 X59.067 Y26.824 
G01 X59.589 Y27.474 
G01 X60.077 Y28.166 
G01 X60.268 Y28.475 
G01 X59.330 Y27.517 
G01 X58.753 Y26.965 
G01 X58.170 Y26.443 
G01 X57.580 Y25.950 
G01 X56.982 Y25.486 
G01 X56.377 Y25.051 
G01 X55.764 Y24.646 
G01 X55.142 Y24.269 
G01 X54.511 Y23.922 
G01 X53.872 Y23.604 
G01 X53.223 Y23.315 
G01 X52.565 Y23.054 
G01 X51.898 Y22.823 
G01 X51.221 Y22.621 
G01 X50.534 Y22.447 
G01 X49.838 Y22.302 
G01 X47.606 Y21.965 
G01 X44.262 Y21.956 
G01 X42.597 Y21.930 
G01 X41.053 Y21.858 
G01 X39.620 Y21.741 
G01 X38.310 Y21.579 
G01 X37.108 Y21.372 
G01 X36.019 Y21.120 
G01 X35.040 Y20.824 
G01 X34.171 Y20.487 
G01 X33.777 Y20.303 
G01 X33.409 Y20.109 
G01 X33.351 Y20.212  
G01 X33.003 Y20.006  
G01 X32.680 Y19.789 
G01 X32.382 Y19.563 
G01 X32.107 Y19.327 
G01 X31.855 Y19.081 
G01 X31.625 Y18.825 
G01 X31.416 Y18.558 
G01 X31.227 Y18.280 
G01 X31.057 Y17.989 
G01 X30.907 Y17.686 
G01 X30.774 Y17.369 
G01 X30.660 Y17.038 
G01 X30.565 Y16.691 
G01 X30.462 Y16.154 
G01 X30.449 Y15.992 
G01 X30.457 Y15.624 
G01 X30.511 Y15.263 
G01 X30.612 Y14.898 
G01 X30.760 Y14.530 
G01 X30.953 Y14.163 
G01 X31.191 Y13.802 
G01 X31.472 Y13.449 
G01 X31.793 Y13.109 
G01 X32.087 Y12.845 
G01 X31.762 Y13.266 
G01 X31.598 Y13.535 
G01 X31.455 Y13.815 
G01 X31.335 Y14.105 
G01 X31.240 Y14.405 
G01 X31.168 Y14.713 
G01 X31.121 Y15.028 
G01 X31.099 Y15.349 
G01 X31.101 Y15.674 
G01 X31.127 Y16.004 
G01 X31.176 Y16.334 
G01 X31.263 Y16.748 
G01 X31.367 Y17.129 
G01 X31.501 Y17.490 
G01 X31.670 Y17.834 
G01 X31.878 Y18.160 
G01 X32.121 Y18.472 
G01 X32.401 Y18.782 
G01 X32.730 Y19.110 
G01 X33.076 Y19.415 
G01 X33.460 Y19.702 
G01 X33.873 Y19.965 
G01 X34.317 Y20.205 
G01 X34.790 Y20.422 
G01 X35.292 Y20.617 
G01 X35.824 Y20.791 
G01 X36.386 Y20.945 
G01 X36.978 Y21.079 
G01 X37.602 Y21.193 
G01 X38.257 Y21.289 
G01 X38.946 Y21.367 
G01 X40.422 Y21.470 
G01 X42.037 Y21.504 
G01 X43.691 Y21.492 
G01 X44.273 Y21.465 
G01 X44.757 Y21.411 
G01 X45.184 Y21.314 
G01 X45.584 Y21.157 
G01 X45.753 Y21.274 
G01 X45.997 Y21.374 
G01 X46.205 Y21.420 
G01 X46.899 Y21.502 
G01 X47.584 Y21.557 
G01 X47.902 Y21.550 
G01 X48.222 Y21.492 
G01 X48.375 Y21.426 
G01 X48.481 Y21.512 
G01 X48.796 Y21.642 
G01 X50.512 Y22.007 
G01 X51.550 Y22.269 
G01 X52.532 Y22.562 
G01 X53.460 Y22.888 
G01 X54.335 Y23.247 
G01 X55.160 Y23.640 
G01 X55.936 Y24.066 
G01 X56.666 Y24.528 
G01 X57.350 Y25.026 
G01 X57.992 Y25.560 
G01 X58.594 Y26.134 
G01 X59.158 Y26.747 
G01 X59.684 Y27.402 
G01 X60.176 Y28.101 
G01 X60.635 Y28.844 
G01 X60.942 Y29.414 
G01 X60.313 Y28.691 
G01 X59.246 Y27.601 
G01 X58.672 Y27.052 
G01 X58.092 Y26.533 
G01 X57.505 Y26.042 
G01 X56.911 Y25.581 
G01 X56.310 Y25.149 
G01 X55.700 Y24.746 
G01 X55.082 Y24.372 
G01 X54.456 Y24.027 
G01 X53.821 Y23.711 
G01 X53.177 Y23.424 
G01 X52.524 Y23.166 
G01 X51.861 Y22.936 
G01 X51.189 Y22.735 
G01 X50.507 Y22.563 
G01 X49.816 Y22.419 
G01 X47.597 Y22.084 
G01 X44.261 Y22.075 
G01 X42.593 Y22.048 
G01 X41.046 Y21.977 
G01 X39.609 Y21.859 
G01 X38.293 Y21.697 
G01 X37.085 Y21.488 
G01 X35.988 Y21.235 
G01 X35.002 Y20.937 
G01 X34.123 Y20.595 
G01 X33.724 Y20.409 
G01 X33.351 Y20.212 
G01 X33.293 Y20.316  
G01 X32.939 Y20.106  
G01 X32.611 Y19.886 
G01 X32.307 Y19.655 
G01 X32.027 Y19.415 
G01 X31.770 Y19.163 
G01 X31.534 Y18.901 
G01 X31.320 Y18.628 
G01 X31.126 Y18.343 
G01 X30.953 Y18.046 
G01 X30.798 Y17.736 
G01 X30.663 Y17.411 
G01 X30.547 Y17.073 
G01 X30.449 Y16.719 
G01 X30.344 Y16.168 
G01 X30.330 Y15.995 
G01 X30.338 Y15.614 
G01 X30.395 Y15.238 
G01 X30.500 Y14.860 
G01 X30.652 Y14.480 
G01 X30.851 Y14.103 
G01 X31.095 Y13.732 
G01 X31.382 Y13.371 
G01 X31.710 Y13.024 
G01 X32.077 Y12.694 
G01 X32.481 Y12.385 
G01 X32.918 Y12.101 
G01 X33.385 Y11.845 
G01 X33.881 Y11.619 
G01 X34.057 Y11.555 
G01 X33.510 Y11.839 
G01 X32.952 Y12.206 
G01 X32.697 Y12.407 
G01 X32.460 Y12.621 
G01 X32.241 Y12.846 
G01 X32.041 Y13.083 
G01 X31.861 Y13.332 
G01 X31.701 Y13.593 
G01 X31.563 Y13.864 
G01 X31.447 Y14.146 
G01 X31.354 Y14.436 
G01 X31.285 Y14.735 
G01 X31.239 Y15.041 
G01 X31.218 Y15.352 
G01 X31.220 Y15.669 
G01 X31.245 Y15.991 
G01 X31.293 Y16.313 
G01 X31.378 Y16.721 
G01 X31.480 Y17.093 
G01 X31.610 Y17.443 
G01 X31.774 Y17.775 
G01 X31.975 Y18.091 
G01 X32.212 Y18.396 
G01 X32.487 Y18.700 
G01 X32.812 Y19.023 
G01 X33.151 Y19.323 
G01 X33.527 Y19.604 
G01 X33.934 Y19.863 
G01 X34.370 Y20.099 
G01 X34.836 Y20.313 
G01 X35.332 Y20.505 
G01 X35.858 Y20.677 
G01 X36.414 Y20.830 
G01 X37.002 Y20.962 
G01 X37.621 Y21.076 
G01 X38.273 Y21.172 
G01 X38.957 Y21.249 
G01 X40.428 Y21.351 
G01 X42.037 Y21.385 
G01 X43.687 Y21.373 
G01 X44.264 Y21.347 
G01 X44.737 Y21.294 
G01 X45.150 Y21.200 
G01 X45.605 Y21.012 
G01 X45.743 Y21.127 
G01 X45.913 Y21.233 
G01 X46.225 Y21.302 
G01 X46.911 Y21.384 
G01 X47.587 Y21.438 
G01 X47.890 Y21.431 
G01 X48.187 Y21.378 
G01 X48.396 Y21.287 
G01 X48.543 Y21.409 
G01 X48.831 Y21.529 
G01 X50.539 Y21.891 
G01 X51.581 Y22.154 
G01 X52.569 Y22.449 
G01 X53.502 Y22.777 
G01 X54.383 Y23.139 
G01 X55.214 Y23.534 
G01 X55.997 Y23.964 
G01 X56.732 Y24.430 
G01 X57.423 Y24.932 
G01 X58.071 Y25.472 
G01 X58.679 Y26.050 
G01 X59.248 Y26.669 
G01 X59.779 Y27.330 
G01 X60.276 Y28.035 
G01 X60.738 Y28.785 
G01 X61.166 Y29.579 
G01 X61.454 Y30.204 
G01 X61.571 Y30.501 
G01 X61.321 Y30.111 
G01 X61.008 Y29.681 
G01 X60.647 Y29.242 
G01 X60.226 Y28.772 
G01 X59.162 Y27.686 
G01 X58.591 Y27.139 
G01 X58.014 Y26.622 
G01 X57.431 Y26.135 
G01 X56.840 Y25.677 
G01 X56.242 Y25.247 
G01 X55.637 Y24.847 
G01 X55.023 Y24.475 
G01 X54.401 Y24.133 
G01 X53.770 Y23.819 
G01 X53.131 Y23.534 
G01 X52.482 Y23.277 
G01 X51.825 Y23.049 
G01 X51.157 Y22.850 
G01 X50.481 Y22.679 
G01 X49.794 Y22.536 
G01 X47.589 Y22.203 
G01 X44.260 Y22.194 
G01 X42.589 Y22.167 
G01 X41.038 Y22.095 
G01 X39.597 Y21.977 
G01 X38.275 Y21.814 
G01 X37.062 Y21.605 
G01 X35.958 Y21.350 
G01 X34.963 Y21.049 
G01 X34.075 Y20.704 
G01 X33.671 Y20.515 
G01 X33.293 Y20.316 
G00 Z8.000
G00 X45.920 Y21.722  F3600.0
G01 Z1.000 F1200.0 M3
G01 X45.927 Y21.723  F1800.0
G01 X45.003 Y21.721 
G01 X45.288 Y21.656 
G01 X45.538 Y21.560 
G01 X45.564 Y21.576 
G01 X45.920 Y21.722 
G01 X45.946 Y21.606  
G01 X46.165 Y21.654  
G01 X46.875 Y21.738 
G01 X47.577 Y21.795 
G01 X47.926 Y21.787 
G01 X48.343 Y21.697 
G01 X48.725 Y21.870 
G01 X50.459 Y22.239 
G01 X51.487 Y22.498 
G01 X52.458 Y22.788 
G01 X53.375 Y23.111 
G01 X54.239 Y23.465 
G01 X55.052 Y23.851 
G01 X55.815 Y24.271 
G01 X56.532 Y24.725 
G01 X57.204 Y25.213 
G01 X57.834 Y25.738 
G01 X58.424 Y26.300 
G01 X58.977 Y26.902 
G01 X59.372 Y27.393 
G01 X58.833 Y26.878 
G01 X58.247 Y26.353 
G01 X57.654 Y25.857 
G01 X57.053 Y25.391 
G01 X56.444 Y24.954 
G01 X55.827 Y24.545 
G01 X55.201 Y24.167 
G01 X54.566 Y23.817 
G01 X53.922 Y23.496 
G01 X53.269 Y23.205 
G01 X52.606 Y22.943 
G01 X51.934 Y22.710 
G01 X51.252 Y22.506 
G01 X50.561 Y22.331 
G01 X49.860 Y22.185 
G01 X47.615 Y21.846 
G01 X44.263 Y21.838 
G01 X42.600 Y21.811 
G01 X40.834 Y21.721 
G01 X42.036 Y21.741 
G01 X43.697 Y21.730 
G01 X44.292 Y21.702 
G01 X44.797 Y21.646 
G01 X45.254 Y21.542 
G01 X45.551 Y21.427 
G01 X45.627 Y21.475 
G01 X45.946 Y21.606 
G00 Z8.000
G00 X48.323 Y21.828  F3600.0
G01 Z1.000 F1200.0 M3
G01 X48.329 Y21.827  F1800.0
G01 X48.336 Y21.830 
G01 X48.323 Y21.828 
G00 Z8.000
G00 X56.400 Y24.782  F3600.0
G01 Z1.000 F1200.0 M3
G01 X56.465 Y24.823  F1800.0
G01 X56.493 Y24.843 
G01 X56.400 Y24.782 
G00 Z8.000
G00 X67.191 Y33.599  F3600.0
G01 Z1.000 F1200.0 M3
G01 X67.204 Y33.676  F1800.0
G01 X67.173 Y33.634 
G01 X67.191 Y33.599 
G01 X67.109 Y33.513  
G01 X67.164 Y33.244  
G01 X67.176 Y32.898 
G01 X67.377 Y33.984 
G01 X67.614 Y35.507 
G01 X67.348 Y42.190 
G01 X67.214 Y43.058 
G01 X66.546 Y42.675 
G01 X66.112 Y42.483 
G01 X66.234 Y42.340 
G01 X66.413 Y42.049 
G01 X66.578 Y41.721 
G01 X66.732 Y41.358 
G01 X66.873 Y40.968 
G01 X66.995 Y40.564 
G01 X67.091 Y40.159 
G01 X67.131 Y39.920 
G01 X67.145 Y39.671 
G01 X67.109 Y39.397 
G01 X67.077 Y39.316 
G02 X67.390 Y38.756 I-0.342 J-0.560
G01 X67.381 Y35.064  
G01 X67.357 Y34.595 
G01 X67.302 Y34.206 
G01 X67.181 Y33.847 
G01 X67.032 Y33.640 
G01 X67.109 Y33.513 
G00 Z8.000
G00 X70.867 Y39.731  F3600.0
G01 Z1.000 F1200.0 M3
G01 X70.934 Y39.764  F1800.0
G01 X70.856 Y40.686 
G01 X70.713 Y41.557 
G01 X70.514 Y42.316 
G01 X70.415 Y42.597 
G01 X70.622 Y41.631 
G01 X70.778 Y40.514 
G01 X70.845 Y39.719 
G01 X70.867 Y39.731 
G01 X70.920 Y39.624  
G01 X71.058 Y39.690  
G01 X70.974 Y40.700 
G01 X70.830 Y41.581 
G01 X70.735 Y41.980 
G01 X70.627 Y42.352 
G01 X70.409 Y42.996 
G01 X70.391 Y43.208 
G02 X70.493 Y43.818 I1.245 J0.106
G01 X70.515 Y43.868  
G01 X70.772 Y44.246 
G01 X70.488 Y44.542 
G01 X70.057 Y44.930 
G01 X69.927 Y44.678 
G01 X69.718 Y44.417 
G01 X69.832 Y44.200 
G01 X69.965 Y43.874 
G01 X70.108 Y43.390 
G01 X70.404 Y42.123 
G01 X70.505 Y41.610 
G01 X70.660 Y40.501 
G01 X70.737 Y39.514 
G01 X70.920 Y39.624 
G01 X70.972 Y39.517  
G01 X71.179 Y39.610  
G01 X71.142 Y40.227 
G01 X71.027 Y41.175 
G01 X70.946 Y41.606 
G01 X70.850 Y42.010 
G01 X70.740 Y42.389 
G01 X70.526 Y43.019 
G01 X70.509 Y43.218 
G02 X70.601 Y43.770 I1.127 J0.096
G01 X70.623 Y43.820  
G02 X70.942 Y44.239 I1.035 J-0.456
G01 X70.571 Y44.627  
G01 X70.010 Y45.125 
G01 X69.827 Y44.743 
G01 X69.571 Y44.423 
G01 X69.677 Y44.266 
G01 X69.852 Y43.835 
G01 X69.993 Y43.359 
G01 X70.288 Y42.098 
G01 X70.388 Y41.590 
G01 X70.542 Y40.488 
G01 X70.597 Y39.897 
G01 X70.632 Y39.261 
G01 X70.972 Y39.517 
G01 X71.024 Y39.411  
G01 X71.301 Y39.522  
G01 X71.261 Y40.236 
G01 X71.144 Y41.194 
G01 X71.062 Y41.631 
G01 X70.965 Y42.041 
G01 X70.853 Y42.425 
G01 X70.643 Y43.043 
G01 X70.628 Y43.228 
G02 X70.710 Y43.722 I1.009 J0.086
G01 X70.732 Y43.772  
G02 X71.117 Y44.219 I0.926 J-0.408
G01 X70.654 Y44.712  
G01 X70.025 Y45.268 
G01 X69.940 Y45.347 
G01 X69.837 Y45.021 
G01 X69.727 Y44.808 
G01 X69.423 Y44.429 
G01 X69.572 Y44.209 
G01 X69.740 Y43.795 
G01 X69.878 Y43.329 
G01 X70.172 Y42.073 
G01 X70.271 Y41.569 
G01 X70.424 Y40.475 
G01 X70.479 Y39.889 
G01 X70.533 Y38.896 
G01 X70.578 Y38.981 
G02 X71.024 Y39.411 I0.892 J-0.479
G01 X71.077 Y39.304  
G01 X71.154 Y39.342  
G01 X71.423 Y39.425 
G01 X71.379 Y40.246 
G01 X71.261 Y41.213 
G01 X71.178 Y41.655 
G01 X71.080 Y42.071 
G01 X70.967 Y42.461 
G01 X70.761 Y43.066 
G01 X70.746 Y43.238 
G01 X70.819 Y43.674 
G01 X70.841 Y43.724 
G02 X71.230 Y44.148 I0.818 J-0.360
G01 X71.301 Y44.187  
G01 X71.112 Y44.406 
G01 X70.738 Y44.797 
G01 X70.104 Y45.357 
G01 X69.833 Y45.616 
G01 X69.824 Y45.376 
G01 X69.731 Y45.076 
G01 X69.627 Y44.874 
G01 X69.275 Y44.434 
G01 X69.467 Y44.153 
G01 X69.628 Y43.756 
G01 X69.763 Y43.299 
G01 X70.056 Y42.048 
G01 X70.237 Y41.018 
G01 X70.360 Y39.880 
G01 X70.426 Y38.677 
G01 X70.434 Y37.823 
G01 X70.507 Y38.080 
G01 X70.507 Y38.303 
G01 X70.532 Y38.512 
G01 X70.632 Y38.829 
G01 X70.683 Y38.925 
G02 X71.077 Y39.304 I0.787 J-0.422
G01 X71.129 Y39.198  
G01 X71.207 Y39.236  
G01 X71.545 Y39.315 
G01 X71.497 Y40.256 
G01 X71.379 Y41.233 
G01 X71.295 Y41.680 
G01 X71.195 Y42.101 
G01 X71.080 Y42.497 
G01 X70.878 Y43.089 
G01 X70.864 Y43.248 
G01 X70.927 Y43.626 
G01 X70.950 Y43.676 
G02 X71.287 Y44.043 I0.709 J-0.312
G01 X71.499 Y44.138  
G01 X71.200 Y44.486 
G01 X70.821 Y44.882 
G01 X70.183 Y45.445 
G01 X69.918 Y45.695 
G01 X69.813 Y45.835 
G01 X69.689 Y45.742 
G01 X69.712 Y45.437 
G01 X69.706 Y45.391 
G01 X69.626 Y45.130 
G01 X69.527 Y44.939 
G01 X69.119 Y44.434 
G01 X69.361 Y44.097 
G01 X69.515 Y43.717 
G01 X69.648 Y43.268 
G01 X69.939 Y42.023 
G01 X70.119 Y41.001 
G01 X70.242 Y39.871 
G01 X70.307 Y38.673 
G01 X70.319 Y37.417 
G01 X70.303 Y36.927 
G01 X70.626 Y38.063 
G01 X70.626 Y38.296 
G01 X70.650 Y38.498 
G01 X70.736 Y38.773 
G01 X70.788 Y38.868 
G02 X71.129 Y39.198 I0.683 J-0.366
G01 X71.181 Y39.091  
G01 X71.259 Y39.129  
G02 X71.661 Y39.186 I0.289 J-0.589
G01 X71.668 Y39.185  
G01 X71.616 Y40.266 
G01 X71.496 Y41.252 
G01 X71.411 Y41.705 
G01 X71.310 Y42.132 
G01 X71.193 Y42.534 
G01 X70.995 Y43.113 
G01 X70.983 Y43.258 
G01 X71.036 Y43.578 
G01 X71.058 Y43.628 
G02 X71.344 Y43.939 I0.600 J-0.265
G01 X71.398 Y43.969  
G01 X71.637 Y44.045 
G01 X71.719 Y44.055 
G01 X71.288 Y44.566 
G01 X70.904 Y44.967 
G01 X70.262 Y45.534 
G01 X70.007 Y45.775 
G01 X69.836 Y46.001 
G01 X69.549 Y45.792 
G01 X69.567 Y45.735 
G01 X69.594 Y45.452 
G01 X69.588 Y45.405 
G01 X69.520 Y45.185 
G01 X69.427 Y45.004 
G01 X69.048 Y44.531 
G01 X68.947 Y44.428 
G01 X69.052 Y44.342 
G01 X69.256 Y44.041 
G01 X69.403 Y43.677 
G01 X69.533 Y43.238 
G01 X69.823 Y41.998 
G01 X70.002 Y40.985 
G01 X70.123 Y39.862 
G01 X70.188 Y38.669 
G01 X70.200 Y37.418 
G01 X70.144 Y35.952 
G01 X70.744 Y38.047 
G01 X70.744 Y38.289 
G01 X70.768 Y38.484 
G01 X70.841 Y38.716 
G01 X70.893 Y38.812 
G02 X71.181 Y39.091 I0.578 J-0.310
G00 Z8.000
G00 X70.162 Y44.334  F3600.0
G01 Z1.000 F1200.0 M3
G01 X70.246 Y44.129  F1800.0
G01 X70.301 Y44.222 
G01 X70.147 Y44.371 
G01 X70.162 Y44.334 
G01 X70.052 Y44.290  
G01 X70.189 Y43.952  
G01 X70.233 Y43.806 
G01 X70.297 Y43.964 
G01 X70.453 Y44.235 
G01 X70.123 Y44.554 
G01 X70.005 Y44.395 
G01 X70.052 Y44.290 
G01 X69.942 Y44.245  
G01 X70.077 Y43.913  
G01 X70.271 Y43.212 
G02 X70.384 Y43.866 I1.365 J0.102
G01 X70.406 Y43.916  
G01 X70.610 Y44.243 
G01 X70.405 Y44.457 
G01 X70.094 Y44.742 
G01 X70.027 Y44.613 
G01 X69.863 Y44.408 
G01 X69.942 Y44.245 
G00 Z8.000
G00 X66.825 Y42.286  F3600.0
G01 Z1.000 F1200.0 M3
G01 X66.864 Y42.211  F1800.0
G01 X66.850 Y42.299 
G01 X66.825 Y42.286 
G01 X66.725 Y42.223  
G01 X66.901 Y41.871  
G01 X67.015 Y41.603 
G01 X66.993 Y42.155 
G01 X66.940 Y42.485 
G01 X66.657 Y42.334 
G01 X66.725 Y42.223 
G01 X66.621 Y42.165  
G01 X66.793 Y41.821  
G01 X66.953 Y41.445 
G01 X67.165 Y40.824 
G01 X67.112 Y42.167 
G01 X67.030 Y42.671 
G01 X66.652 Y42.462 
G01 X66.484 Y42.387 
G01 X66.621 Y42.165 
G01 X66.517 Y42.107  
G01 X66.685 Y41.771  
G01 X66.842 Y41.401 
G01 X66.986 Y41.006 
G01 X67.110 Y40.595 
G01 X67.208 Y40.182 
G01 X67.249 Y39.933 
G01 X67.264 Y39.666 
G01 X67.218 Y39.362 
G01 X67.347 Y39.231 
G01 X67.230 Y42.178 
G01 X67.121 Y42.857 
G01 X66.599 Y42.568 
G01 X66.306 Y42.438 
G01 X66.517 Y42.107 
G00 Z8.000
G00 X62.543 Y46.848  F3600.0
G01 Z1.000 F1200.0 M3
G01 X62.613 Y46.912  F1800.0
G01 X61.891 Y46.356 
G01 X60.867 Y45.653 
G01 X60.349 Y45.333 
G01 X59.826 Y45.034 
G01 X59.300 Y44.757 
G01 X58.468 Y44.369 
G01 X59.432 Y44.769 
G01 X60.154 Y45.124 
G01 X60.494 Y45.315 
G01 X61.259 Y45.822 
G01 X62.104 Y46.476 
G01 X62.543 Y46.848 
G01 X62.621 Y46.759  
G01 X63.511 Y47.577  
G01 X64.381 Y48.461 
G01 X65.200 Y49.380 
G01 X65.759 Y50.073 
G01 X64.809 Y49.060 
G01 X63.815 Y48.097 
G01 X62.825 Y47.234 
G01 X61.821 Y46.452 
G01 X60.803 Y45.753 
G01 X60.288 Y45.435 
G01 X59.769 Y45.138 
G01 X59.247 Y44.863 
G01 X58.720 Y44.609 
G01 X58.190 Y44.377 
G01 X57.657 Y44.167 
G01 X57.119 Y43.979 
G01 X56.579 Y43.814 
G01 X56.035 Y43.671 
G01 X55.488 Y43.551 
G01 X54.939 Y43.454 
G01 X54.387 Y43.380 
G01 X53.834 Y43.329 
G01 X53.278 Y43.302 
G01 X52.721 Y43.297 
G01 X52.163 Y43.316 
G01 X51.604 Y43.358 
G01 X51.045 Y43.422 
G01 X50.485 Y43.510 
G01 X49.925 Y43.620 
G01 X49.365 Y43.753 
G01 X48.806 Y43.907 
G01 X48.247 Y44.084 
G01 X47.157 Y44.492 
G01 X46.423 Y44.777 
G01 X45.713 Y45.019 
G01 X45.116 Y45.194 
G01 X44.349 Y45.340 
G01 X43.942 Y45.438 
G01 X43.668 Y45.543 
G01 X43.318 Y45.735 
G01 X43.211 Y45.814 
G02 X42.812 Y46.258 I0.884 J1.196
G01 X42.787 Y46.300  
G01 X42.598 Y46.842 
G01 X42.586 Y46.930 
G01 X42.272 Y47.000 
G01 X42.132 Y47.014 
G01 X41.995 Y47.003 
G01 X41.761 Y46.952 
G01 X41.475 Y46.857 
G01 X41.177 Y46.728 
G01 X40.901 Y46.580 
G01 X40.681 Y46.434 
G01 X40.523 Y46.299 
G01 X40.407 Y46.079 
G01 X40.303 Y45.773 
G01 X40.232 Y45.402 
G01 X40.204 Y44.981 
G01 X40.226 Y44.526 
G01 X40.300 Y44.054 
G01 X40.427 Y43.581 
G01 X40.617 Y43.092 
G01 X40.950 Y42.284 
G01 X41.083 Y41.884 
G01 X41.189 Y41.486 
G01 X41.264 Y41.087 
G01 X41.308 Y40.687 
G01 X41.323 Y40.291 
G01 X41.322 Y39.826 
G01 X41.424 Y39.627 
G01 X41.453 Y39.596 
G01 X41.795 Y39.535 
G01 X41.575 Y40.001 
G01 X41.455 Y40.380 
G01 X41.380 Y40.775 
G01 X41.356 Y41.185 
G01 X41.390 Y41.609 
G01 X41.495 Y42.039 
G01 X41.679 Y42.462 
G01 X41.948 Y42.856 
G01 X42.295 Y43.199 
G01 X42.693 Y43.461 
G01 X43.160 Y43.669 
G01 X43.513 Y43.736 
G01 X43.871 Y43.760 
G01 X44.090 Y43.749 
G01 X44.475 Y43.660 
G01 X44.966 Y43.418 
G01 X45.380 Y43.090 
G01 X45.732 Y42.732 
G01 X46.458 Y41.858 
G01 X46.745 Y41.510 
G01 X47.001 Y41.230 
G01 X47.239 Y40.998 
G01 X47.458 Y40.814 
G01 X47.655 Y40.674 
G01 X47.978 Y40.509 
G01 X48.232 Y40.448 
G01 X48.492 Y40.455 
G01 X48.837 Y40.548 
G01 X49.054 Y40.642 
G01 X49.300 Y40.774 
G01 X50.312 Y41.424 
G01 X50.603 Y41.570 
G01 X50.768 Y41.976 
G01 X50.919 Y42.200 
G01 X51.157 Y42.473 
G01 X51.264 Y42.569 
G01 X51.553 Y42.773 
G01 X51.816 Y42.915 
G01 X52.219 Y43.047 
G01 X52.613 Y43.130 
G01 X53.038 Y43.189 
G01 X54.875 Y43.359 
G01 X55.679 Y43.477 
G01 X56.465 Y43.635 
G01 X57.237 Y43.831 
G01 X57.995 Y44.067 
G01 X58.743 Y44.344 
G01 X59.481 Y44.661 
G01 X60.210 Y45.019 
G01 X60.555 Y45.213 
G01 X61.328 Y45.725 
G01 X62.180 Y46.384 
G01 X62.621 Y46.759 
G01 X62.699 Y46.669  
G01 X63.593 Y47.492  
G01 X64.468 Y48.380 
G01 X65.290 Y49.303 
G01 X66.029 Y50.227 
G01 X66.659 Y51.128 
G01 X67.586 Y52.565 
G01 X66.989 Y51.747 
G01 X66.135 Y50.686 
G01 X65.211 Y49.650 
G01 X64.222 Y48.645 
G01 X63.243 Y47.745 
G01 X62.252 Y46.926 
G01 X61.247 Y46.190 
G01 X60.227 Y45.537 
G01 X59.712 Y45.242 
G01 X59.193 Y44.969 
G01 X58.671 Y44.717 
G01 X58.145 Y44.486 
G01 X57.615 Y44.278 
G01 X57.082 Y44.092 
G01 X56.546 Y43.928 
G01 X56.007 Y43.786 
G01 X55.465 Y43.667 
G01 X54.921 Y43.571 
G01 X54.374 Y43.498 
G01 X53.825 Y43.448 
G01 X53.275 Y43.420 
G01 X52.723 Y43.416 
G01 X52.169 Y43.435 
G01 X51.615 Y43.476 
G01 X51.061 Y43.540 
G01 X50.506 Y43.627 
G01 X49.950 Y43.736 
G01 X49.395 Y43.868 
G01 X48.840 Y44.021 
G01 X48.285 Y44.197 
G01 X47.201 Y44.603 
G01 X46.463 Y44.888 
G01 X45.749 Y45.132 
G01 X45.145 Y45.309 
G01 X44.372 Y45.457 
G01 X43.977 Y45.552 
G01 X43.711 Y45.654 
G01 X43.389 Y45.831 
G01 X43.282 Y45.909 
G01 X42.915 Y46.318 
G01 X42.890 Y46.361 
G01 X42.715 Y46.859 
G01 X42.697 Y47.021 
G01 X42.290 Y47.118 
G01 X42.133 Y47.133 
G01 X41.977 Y47.121 
G01 X41.730 Y47.066 
G01 X41.433 Y46.968 
G01 X41.125 Y46.836 
G01 X40.840 Y46.682 
G01 X40.610 Y46.529 
G01 X40.425 Y46.366 
G01 X40.297 Y46.126 
G01 X40.188 Y45.803 
G01 X40.114 Y45.417 
G01 X40.086 Y44.982 
G01 X40.108 Y44.514 
G01 X40.184 Y44.030 
G01 X40.314 Y43.544 
G01 X40.508 Y43.045 
G01 X40.838 Y42.243 
G01 X40.969 Y41.850 
G01 X41.073 Y41.460 
G01 X41.147 Y41.069 
G01 X41.190 Y40.678 
G01 X41.204 Y40.290 
G01 X41.198 Y39.840 
G01 X41.270 Y39.646 
G01 X41.396 Y39.483 
G01 X41.549 Y39.465 
G01 X41.889 Y39.378 
G01 X42.075 Y39.301 
G01 X41.841 Y39.693 
G01 X41.686 Y40.043 
G01 X41.571 Y40.409 
G01 X41.498 Y40.790 
G01 X41.475 Y41.184 
G01 X41.508 Y41.590 
G01 X41.608 Y42.001 
G01 X41.784 Y42.404 
G01 X42.040 Y42.780 
G01 X42.371 Y43.106 
G01 X42.750 Y43.357 
G01 X43.196 Y43.555 
G01 X43.535 Y43.620 
G01 X43.865 Y43.642 
G01 X44.074 Y43.630 
G01 X44.435 Y43.547 
G01 X44.902 Y43.317 
G01 X45.300 Y43.001 
G01 X45.645 Y42.651 
G01 X46.366 Y41.783 
G01 X46.655 Y41.432 
G01 X46.915 Y41.147 
G01 X47.160 Y40.910 
G01 X47.385 Y40.720 
G01 X47.591 Y40.574 
G01 X47.774 Y40.469 
G01 X48.083 Y40.353 
G01 X48.358 Y40.324 
G01 X48.681 Y40.373 
G01 X48.879 Y40.437 
G01 X49.105 Y40.535 
G01 X49.360 Y40.671 
G01 X50.371 Y41.321 
G01 X50.703 Y41.487 
G01 X50.738 Y41.616 
G01 X50.872 Y41.918 
G01 X51.018 Y42.133 
G01 X51.237 Y42.385 
G01 X51.465 Y42.590 
G01 X51.863 Y42.805 
G01 X52.250 Y42.933 
G01 X52.633 Y43.013 
G01 X53.052 Y43.071 
G01 X54.889 Y43.241 
G01 X55.699 Y43.360 
G01 X56.492 Y43.519 
G01 X57.269 Y43.717 
G01 X58.034 Y43.955 
G01 X58.787 Y44.233 
G01 X59.531 Y44.553 
G01 X60.265 Y44.914 
G01 X60.616 Y45.111 
G01 X60.994 Y45.349 
G01 X61.820 Y45.944 
G01 X62.699 Y46.669 
G00 Z8.000
G00 X48.333 Y42.312  F3600.0
G01 Z1.000 F1200.0 M3
G01 X48.245 Y42.340  F1800.0
G01 X48.412 Y42.185 
G01 X48.534 Y42.257 
G01 X48.333 Y42.312 
G01 X48.367 Y42.426  
G01 X47.858 Y42.587  
G01 X48.110 Y42.306 
G01 X48.397 Y42.042 
G01 X48.824 Y42.300 
G01 X48.367 Y42.426 
G01 X48.401 Y42.540  
G01 X47.501 Y42.836  
G01 X47.822 Y42.445 
G01 X48.196 Y42.056 
G01 X48.383 Y41.906 
G01 X48.584 Y42.008 
G01 X49.115 Y42.347 
G01 X48.401 Y42.540 
G01 X48.435 Y42.654  
G01 X47.831 Y42.845  
G01 X47.142 Y43.093 
G01 X47.732 Y42.367 
G01 X48.116 Y41.968 
G01 X48.370 Y41.771 
G01 X48.644 Y41.905 
G01 X49.412 Y42.398 
G01 X48.435 Y42.654 
G01 X48.468 Y42.768  
G01 X47.869 Y42.958  
G01 X47.271 Y43.170 
G01 X46.743 Y43.378 
G01 X47.642 Y42.289 
G01 X48.037 Y41.880 
G01 X48.296 Y41.676 
G01 X48.356 Y41.642 
G01 X48.537 Y41.713 
G01 X48.965 Y41.966 
G01 X49.667 Y42.420 
G01 X49.685 Y42.457 
G01 X49.070 Y42.602 
G01 X48.468 Y42.768 
G01 X48.502 Y42.882  
G01 X47.907 Y43.070  
G01 X47.313 Y43.281 
G01 X46.303 Y43.677 
G01 X46.519 Y43.456 
G01 X46.906 Y43.007 
G01 X47.552 Y42.211 
G01 X47.957 Y41.792 
G01 X48.232 Y41.576 
G01 X48.343 Y41.516 
G01 X48.589 Y41.606 
G01 X49.028 Y41.866 
G01 X49.759 Y42.337 
G01 X49.867 Y42.542 
G01 X49.100 Y42.717 
G01 X48.502 Y42.882 
G01 X48.536 Y42.996  
G01 X47.944 Y43.183  
G01 X47.355 Y43.393 
G01 X46.097 Y43.883 
G01 X45.766 Y43.997 
G01 X46.016 Y43.798 
G01 X46.432 Y43.376 
G01 X46.815 Y42.931 
G01 X47.463 Y42.133 
G01 X47.877 Y41.703 
G01 X48.168 Y41.476 
G01 X48.333 Y41.395 
G01 X48.501 Y41.439 
G01 X48.823 Y41.597 
G01 X49.851 Y42.253 
G01 X50.060 Y42.625 
G01 X49.129 Y42.832 
G01 X48.536 Y42.996 
G01 X48.570 Y43.110  
G01 X47.982 Y43.296  
G01 X47.396 Y43.504 
G01 X46.138 Y43.995 
G01 X45.462 Y44.226 
G01 X44.826 Y44.406 
G01 X45.190 Y44.235 
G01 X45.608 Y43.971 
G01 X45.937 Y43.710 
G01 X46.344 Y43.295 
G01 X46.723 Y42.855 
G01 X47.373 Y42.056 
G01 X47.798 Y41.615 
G01 X48.104 Y41.376 
G01 X48.302 Y41.280 
G01 X48.436 Y41.293 
G01 X48.692 Y41.392 
G01 X49.156 Y41.666 
G01 X49.943 Y42.168 
G01 X50.038 Y42.381 
G01 X50.259 Y42.707 
G01 X49.749 Y42.807 
G01 X49.159 Y42.947 
G01 X48.570 Y43.110 
G00 Z8.000
G00 X43.997 Y37.236  F3600.0
G01 Z1.000 F1200.0 M3
G01 X44.114 Y37.079  F1800.0
G01 X44.176 Y37.072 
G01 X43.949 Y37.321 
G01 X43.997 Y37.236 
G01 X43.897 Y37.172  
G01 X44.057 Y36.965  
G01 X44.363 Y36.929 
G01 X44.504 Y36.887 
G01 X43.893 Y37.559 
G01 X43.629 Y37.695 
G01 X43.771 Y37.393 
G01 X43.897 Y37.172 
G01 X43.797 Y37.108  
G01 X43.986 Y36.866  
G01 X44.005 Y36.851 
G01 X44.339 Y36.813 
G01 X44.691 Y36.707 
G01 X44.938 Y36.587 
G01 X43.966 Y37.655 
G01 X43.368 Y37.967 
G01 X43.665 Y37.338 
G01 X43.797 Y37.108 
G01 X43.696 Y37.044  
G01 X43.905 Y36.779  
G01 X43.959 Y36.736 
G01 X44.314 Y36.696 
G01 X44.648 Y36.596 
G01 X45.098 Y36.376 
G01 X45.528 Y36.079 
G01 X45.676 Y35.944 
G01 X44.040 Y37.751 
G01 X43.491 Y38.032 
G01 X43.070 Y38.292 
G01 X43.560 Y37.283 
G01 X43.696 Y37.044 
G01 X43.596 Y36.980  
G01 X43.722 Y36.803  
G01 X43.889 Y36.639 
G01 X43.926 Y36.620 
G01 X44.290 Y36.579 
G01 X44.605 Y36.485 
G01 X45.038 Y36.274 
G01 X45.453 Y35.986 
G01 X46.285 Y35.200 
G01 X46.734 Y34.838 
G01 X46.552 Y35.101 
G01 X46.315 Y35.398 
G01 X45.547 Y36.270 
G01 X44.113 Y37.847 
G01 X43.548 Y38.137 
G01 X43.223 Y38.326 
G01 X42.900 Y38.565 
G01 X42.610 Y38.830 
G01 X42.354 Y39.117 
G01 X42.133 Y39.423 
G01 X41.947 Y39.747 
G01 X41.797 Y40.086 
G01 X41.686 Y40.438 
G01 X41.616 Y40.804 
G01 X41.594 Y41.183 
G01 X41.626 Y41.571 
G01 X41.721 Y41.963 
G01 X41.888 Y42.346 
G01 X42.131 Y42.703 
G01 X42.446 Y43.013 
G01 X42.807 Y43.252 
G01 X43.231 Y43.441 
G01 X43.706 Y43.531 
G01 X44.057 Y43.512 
G01 X44.395 Y43.434 
G01 X44.838 Y43.216 
G01 X45.221 Y42.913 
G01 X45.557 Y42.571 
G01 X46.274 Y41.708 
G01 X46.565 Y41.354 
G01 X46.830 Y41.064 
G01 X47.080 Y40.822 
G01 X47.313 Y40.626 
G01 X47.526 Y40.474 
G01 X47.721 Y40.362 
G01 X47.896 Y40.286 
G01 X48.056 Y40.237 
G01 X48.361 Y40.205 
G01 X48.526 Y40.219 
G01 X48.711 Y40.258 
G01 X48.921 Y40.326 
G01 X49.157 Y40.428 
G01 X49.420 Y40.569 
G01 X50.430 Y41.218 
G01 X50.803 Y41.401 
G01 X50.850 Y41.576 
G01 X50.977 Y41.860 
G01 X51.202 Y42.194 
G01 X51.534 Y42.493 
G01 X51.910 Y42.695 
G01 X52.281 Y42.818 
G01 X52.654 Y42.896 
G01 X53.065 Y42.953 
G01 X54.903 Y43.123 
G01 X55.719 Y43.243 
G01 X56.518 Y43.403 
G01 X57.302 Y43.602 
G01 X58.072 Y43.842 
G01 X58.831 Y44.123 
G01 X59.581 Y44.445 
G01 X60.320 Y44.809 
G01 X60.676 Y45.008 
G01 X61.060 Y45.250 
G01 X61.893 Y45.850 
G01 X62.777 Y46.580 
G01 X63.676 Y47.406 
G01 X64.554 Y48.299 
G01 X65.381 Y49.226 
G01 X66.124 Y50.156 
G01 X66.759 Y51.063 
G01 X67.764 Y52.622 
G01 X67.664 Y52.884 
G01 X66.895 Y51.819 
G01 X66.044 Y50.762 
G01 X65.124 Y49.731 
G01 X64.139 Y48.730 
G01 X63.165 Y47.834 
G01 X62.179 Y47.020 
G01 X61.179 Y46.288 
G01 X60.166 Y45.639 
G01 X59.655 Y45.346 
G01 X59.140 Y45.075 
G01 X58.621 Y44.825 
G01 X58.099 Y44.596 
G01 X57.574 Y44.389 
G01 X57.045 Y44.205 
G01 X56.514 Y44.042 
G01 X55.979 Y43.902 
G01 X55.442 Y43.784 
G01 X54.903 Y43.689 
G01 X54.361 Y43.616 
G01 X53.817 Y43.566 
G01 X53.271 Y43.539 
G01 X52.724 Y43.535 
G01 X52.176 Y43.553 
G01 X51.627 Y43.594 
G01 X51.077 Y43.658 
G01 X50.526 Y43.744 
G01 X49.975 Y43.852 
G01 X49.425 Y43.983 
G01 X48.874 Y44.135 
G01 X48.323 Y44.309 
G01 X47.244 Y44.713 
G01 X46.504 Y45.000 
G01 X45.785 Y45.245 
G01 X45.175 Y45.424 
G01 X44.396 Y45.573 
G01 X44.013 Y45.665 
G01 X43.754 Y45.765 
G01 X43.459 Y45.926 
G01 X43.353 Y46.005 
G01 X43.017 Y46.378 
G01 X42.992 Y46.421 
G01 X42.833 Y46.876 
G01 X42.814 Y47.110 
G01 X42.309 Y47.235 
G01 X42.135 Y47.253 
G01 X41.959 Y47.238 
G01 X41.699 Y47.181 
G01 X41.391 Y47.079 
G01 X41.074 Y46.943 
G01 X40.779 Y46.785 
G01 X40.538 Y46.624 
G01 X40.326 Y46.432 
G01 X40.188 Y46.173 
G01 X40.073 Y45.833 
G01 X39.996 Y45.432 
G01 X39.967 Y44.983 
G01 X39.990 Y44.502 
G01 X40.068 Y44.005 
G01 X40.201 Y43.507 
G01 X40.398 Y42.998 
G01 X40.726 Y42.203 
G01 X40.855 Y41.816 
G01 X40.957 Y41.433 
G01 X41.029 Y41.051 
G01 X41.071 Y40.670 
G01 X41.085 Y40.290 
G01 X41.080 Y39.822 
G01 X41.101 Y39.735 
G01 X41.165 Y39.589 
G01 X41.236 Y39.481 
G01 X41.346 Y39.368 
G01 X41.535 Y39.347 
G01 X41.845 Y39.267 
G01 X42.093 Y39.169 
G01 X42.417 Y38.939 
G01 X42.663 Y38.684 
G01 X42.855 Y38.420 
G01 X43.024 Y38.135 
G01 X43.454 Y37.228 
G01 X43.596 Y36.980 
G01 X43.496 Y36.916  
G01 X43.629 Y36.728  
G01 X43.823 Y36.540 
G01 X43.903 Y36.503 
G01 X44.266 Y36.462 
G01 X44.561 Y36.374 
G01 X44.977 Y36.171 
G01 X45.379 Y35.893 
G01 X46.205 Y35.112 
G01 X46.615 Y34.779 
G01 X46.928 Y34.538 
G01 X46.927 Y34.723 
G01 X46.808 Y34.946 
G01 X46.406 Y35.474 
G01 X45.635 Y36.350 
G01 X44.186 Y37.943 
G01 X43.605 Y38.241 
G01 X43.288 Y38.426 
G01 X42.975 Y38.657 
G01 X42.695 Y38.913 
G01 X42.447 Y39.191 
G01 X42.233 Y39.488 
G01 X42.053 Y39.801 
G01 X41.909 Y40.128 
G01 X41.801 Y40.467 
G01 X41.735 Y40.819 
G01 X41.713 Y41.182 
G01 X41.743 Y41.552 
G01 X41.834 Y41.925 
G01 X41.992 Y42.289 
G01 X42.223 Y42.627 
G01 X42.521 Y42.920 
G01 X42.865 Y43.148 
G01 X43.267 Y43.327 
G01 X43.714 Y43.412 
G01 X44.040 Y43.394 
G01 X44.355 Y43.322 
G01 X44.774 Y43.115 
G01 X45.141 Y42.824 
G01 X45.470 Y42.490 
G01 X46.475 Y41.277 
G01 X46.745 Y40.981 
G01 X47.000 Y40.734 
G01 X47.240 Y40.532 
G01 X47.462 Y40.374 
G01 X47.667 Y40.256 
G01 X47.854 Y40.174 
G01 X48.028 Y40.121 
G01 X48.195 Y40.093 
G01 X48.364 Y40.086 
G01 X48.544 Y40.102 
G01 X48.742 Y40.143 
G01 X48.963 Y40.215 
G01 X49.209 Y40.321 
G01 X49.479 Y40.466 
G01 X50.489 Y41.114 
G01 X50.903 Y41.311 
G01 X50.962 Y41.536 
G01 X51.081 Y41.802 
G01 X51.292 Y42.115 
G01 X51.603 Y42.395 
G01 X51.957 Y42.586 
G01 X52.312 Y42.703 
G01 X52.674 Y42.778 
G01 X53.079 Y42.835 
G01 X54.918 Y43.005 
G01 X55.740 Y43.126 
G01 X56.544 Y43.287 
G01 X57.334 Y43.488 
G01 X58.110 Y43.730 
G01 X58.875 Y44.012 
G01 X59.631 Y44.337 
G01 X60.376 Y44.703 
G01 X60.737 Y44.906 
G01 X61.125 Y45.151 
G01 X61.965 Y45.757 
G01 X62.855 Y46.490 
G01 X63.758 Y47.321 
G01 X64.641 Y48.218 
G01 X65.472 Y49.149 
G01 X66.219 Y50.084 
G01 X66.858 Y50.998 
G01 X67.900 Y52.613 
G01 X67.739 Y53.021 
G01 X67.713 Y53.172 
G01 X67.197 Y52.424 
G01 X66.386 Y51.362 
G01 X65.504 Y50.322 
G01 X64.555 Y49.310 
G01 X63.573 Y48.359 
G01 X62.598 Y47.508 
G01 X61.611 Y46.739 
G01 X60.610 Y46.053 
G01 X59.598 Y45.451 
G01 X59.086 Y45.181 
G01 X58.571 Y44.933 
G01 X58.054 Y44.706 
G01 X57.533 Y44.501 
G01 X57.008 Y44.318 
G01 X56.481 Y44.156 
G01 X55.952 Y44.017 
G01 X55.419 Y43.901 
G01 X54.884 Y43.806 
G01 X54.347 Y43.734 
G01 X53.808 Y43.685 
G01 X53.268 Y43.658 
G01 X52.726 Y43.654 
G01 X52.182 Y43.672 
G01 X51.638 Y43.713 
G01 X51.093 Y43.776 
G01 X50.547 Y43.861 
G01 X50.001 Y43.968 
G01 X49.454 Y44.098 
G01 X48.907 Y44.249 
G01 X48.360 Y44.422 
G01 X47.287 Y44.824 
G01 X46.545 Y45.112 
G01 X45.821 Y45.359 
G01 X45.204 Y45.540 
G01 X44.419 Y45.690 
G01 X44.048 Y45.779 
G01 X43.796 Y45.876 
G01 X43.530 Y46.022 
G01 X43.423 Y46.101 
G01 X43.120 Y46.438 
G01 X43.095 Y46.481 
G01 X42.951 Y46.893 
G01 X42.937 Y47.197 
G01 X42.658 Y47.281 
G01 X42.328 Y47.353 
G01 X42.136 Y47.372 
G01 X41.942 Y47.356 
G01 X41.667 Y47.296 
G01 X41.349 Y47.191 
G01 X41.022 Y47.050 
G01 X40.718 Y46.887 
G01 X40.466 Y46.719 
G01 X40.248 Y46.527 
G01 X40.079 Y46.220 
G01 X39.958 Y45.864 
G01 X39.878 Y45.447 
G01 X39.848 Y44.984 
G01 X39.872 Y44.490 
G01 X39.952 Y43.981 
G01 X40.088 Y43.471 
G01 X40.289 Y42.952 
G01 X40.614 Y42.162 
G01 X40.741 Y41.782 
G01 X40.841 Y41.407 
G01 X40.911 Y41.034 
G01 X40.953 Y40.661 
G01 X40.966 Y40.289 
G01 X40.963 Y39.805 
G01 X40.989 Y39.695 
G01 X41.060 Y39.533 
G01 X41.142 Y39.407 
G01 X41.296 Y39.258 
G01 X41.666 Y39.211 
G01 X42.036 Y39.063 
G01 X42.339 Y38.849 
G01 X42.572 Y38.607 
G01 X42.756 Y38.355 
G01 X42.919 Y38.079 
G01 X43.349 Y37.174 
G01 X43.496 Y36.916 
G01 X43.396 Y36.852  
G01 X43.537 Y36.653  
G01 X43.660 Y36.519 
G01 X43.826 Y36.402 
G01 X44.241 Y36.346 
G01 X44.518 Y36.263 
G01 X44.917 Y36.068 
G01 X45.305 Y35.800 
G01 X46.125 Y35.024 
G01 X46.543 Y34.684 
G01 X46.879 Y34.430 
G01 X46.992 Y34.297 
G01 X47.046 Y34.520 
G01 X47.052 Y34.714 
G01 X47.002 Y34.852 
G01 X46.742 Y35.245 
G01 X46.497 Y35.551 
G01 X45.724 Y36.429 
G01 X44.260 Y38.039 
G01 X43.663 Y38.345 
G01 X43.354 Y38.525 
G01 X43.051 Y38.749 
G01 X42.779 Y38.997 
G01 X42.540 Y39.266 
G01 X42.333 Y39.552 
G01 X42.159 Y39.854 
G01 X42.020 Y40.170 
G01 X41.917 Y40.496 
G01 X41.853 Y40.834 
G01 X41.832 Y41.180 
G01 X41.861 Y41.533 
G01 X41.947 Y41.887 
G01 X42.097 Y42.231 
G01 X42.315 Y42.550 
G01 X42.596 Y42.828 
G01 X42.922 Y43.043 
G01 X43.303 Y43.213 
G01 X43.722 Y43.293 
G01 X44.023 Y43.276 
G01 X44.315 Y43.209 
G01 X44.710 Y43.014 
G01 X45.062 Y42.736 
G01 X45.383 Y42.409 
G01 X46.386 Y41.199 
G01 X46.660 Y40.899 
G01 X46.920 Y40.645 
G01 X47.167 Y40.438 
G01 X47.398 Y40.274 
G01 X47.613 Y40.150 
G01 X47.813 Y40.062 
G01 X48.001 Y40.005 
G01 X48.183 Y39.974 
G01 X48.367 Y39.967 
G01 X48.561 Y39.984 
G01 X48.772 Y40.028 
G01 X49.005 Y40.103 
G01 X49.260 Y40.214 
G01 X49.539 Y40.363 
G01 X50.549 Y41.011 
G01 X50.819 Y41.147 
G01 X51.006 Y41.219 
G01 X51.075 Y41.496 
G01 X51.185 Y41.744 
G01 X51.383 Y42.037 
G01 X51.672 Y42.297 
G01 X52.004 Y42.476 
G01 X52.343 Y42.588 
G01 X52.695 Y42.661 
G01 X53.092 Y42.717 
G01 X54.932 Y42.887 
G01 X55.760 Y43.009 
G01 X56.571 Y43.171 
G01 X57.366 Y43.374 
G01 X58.148 Y43.617 
G01 X58.919 Y43.902 
G01 X59.680 Y44.229 
G01 X60.431 Y44.598 
G01 X60.798 Y44.804 
G01 X61.191 Y45.052 
G01 X62.038 Y45.663 
G01 X62.933 Y46.401 
G01 X63.841 Y47.235 
G01 X64.728 Y48.136 
G01 X65.563 Y49.073 
G01 X66.314 Y50.013 
G01 X66.957 Y50.932 
G01 X68.037 Y52.608 
G01 X67.855 Y53.053 
G01 X67.782 Y53.491 
G01 X67.100 Y52.494 
G01 X66.293 Y51.437 
G01 X65.415 Y50.401 
G01 X64.470 Y49.393 
G01 X63.493 Y48.447 
G01 X62.522 Y47.600 
G01 X61.540 Y46.835 
G01 X60.546 Y46.153 
G01 X59.540 Y45.555 
G01 X59.033 Y45.287 
G01 X58.522 Y45.041 
G01 X58.008 Y44.816 
G01 X57.491 Y44.612 
G01 X56.971 Y44.431 
G01 X56.449 Y44.271 
G01 X55.924 Y44.133 
G01 X55.396 Y44.017 
G01 X54.866 Y43.924 
G01 X54.334 Y43.852 
G01 X53.800 Y43.803 
G01 X53.264 Y43.777 
G01 X52.727 Y43.773 
G01 X52.189 Y43.791 
G01 X51.649 Y43.831 
G01 X51.109 Y43.893 
G01 X50.568 Y43.978 
G01 X50.026 Y44.085 
G01 X49.484 Y44.213 
G01 X48.941 Y44.363 
G01 X48.398 Y44.535 
G01 X47.330 Y44.935 
G01 X46.585 Y45.223 
G01 X45.857 Y45.472 
G01 X45.233 Y45.655 
G01 X44.443 Y45.806 
G01 X44.083 Y45.893 
G01 X43.711 Y46.036 
G01 X43.494 Y46.196 
G01 X43.222 Y46.498 
G01 X43.197 Y46.541 
G01 X43.068 Y46.910 
G01 X43.062 Y46.955 
G01 X43.068 Y47.281 
G01 X42.687 Y47.396 
G01 X42.346 Y47.470 
G01 X42.137 Y47.491 
G01 X41.924 Y47.474 
G01 X41.636 Y47.411 
G01 X41.306 Y47.302 
G01 X40.970 Y47.157 
G01 X40.657 Y46.989 
G01 X40.395 Y46.814 
G01 X40.157 Y46.603 
G01 X40.047 Y46.428 
G01 X39.901 Y46.089 
G01 X39.795 Y45.684 
G01 X39.738 Y45.228 
G01 X39.734 Y44.734 
G01 X39.787 Y44.218 
G01 X39.898 Y43.694 
G01 X40.066 Y43.177 
G01 X40.503 Y42.122 
G01 X40.628 Y41.748 
G01 X40.725 Y41.381 
G01 X40.794 Y41.016 
G01 X40.834 Y40.652 
G01 X40.847 Y40.288 
G01 X40.845 Y39.787 
G01 X40.877 Y39.654 
G01 X40.956 Y39.476 
G01 X41.048 Y39.334 
G01 X41.196 Y39.183 
G01 X41.281 Y39.135 
G01 X41.636 Y39.095 
G01 X41.979 Y38.958 
G01 X42.261 Y38.758 
G01 X42.481 Y38.530 
G01 X42.657 Y38.290 
G01 X42.814 Y38.024 
G01 X43.243 Y37.119 
G01 X43.396 Y36.852 
G01 X43.295 Y36.788  
G01 X43.444 Y36.579  
G01 X43.578 Y36.432 
G01 X43.690 Y36.342 
G01 X43.855 Y36.269 
G01 X44.217 Y36.229 
G01 X44.474 Y36.152 
G01 X44.857 Y35.965 
G01 X45.231 Y35.707 
G01 X46.045 Y34.936 
G01 X46.471 Y34.590 
G01 X46.797 Y34.343 
G01 X47.023 Y34.054 
G01 X47.130 Y34.337 
G01 X47.164 Y34.504 
G01 X47.169 Y34.733 
G01 X47.108 Y34.905 
G01 X47.008 Y35.075 
G01 X46.588 Y35.627 
G01 X45.812 Y36.508 
G01 X44.333 Y38.134 
G01 X43.720 Y38.449 
G01 X43.419 Y38.625 
G01 X43.126 Y38.841 
G01 X42.864 Y39.080 
G01 X42.633 Y39.340 
G01 X42.433 Y39.617 
G01 X42.265 Y39.908 
G01 X42.131 Y40.212 
G01 X42.032 Y40.525 
G01 X41.971 Y40.849 
G01 X41.951 Y41.179 
G01 X41.979 Y41.514 
G01 X42.060 Y41.849 
G01 X42.201 Y42.173 
G01 X42.406 Y42.474 
G01 X42.671 Y42.735 
G01 X42.979 Y42.939 
G01 X43.339 Y43.099 
G01 X43.730 Y43.173 
G01 X44.007 Y43.158 
G01 X44.274 Y43.096 
G01 X44.647 Y42.913 
G01 X44.982 Y42.647 
G01 X45.295 Y42.329 
G01 X46.296 Y41.121 
G01 X46.574 Y40.816 
G01 X46.841 Y40.557 
G01 X47.094 Y40.344 
G01 X47.334 Y40.174 
G01 X47.560 Y40.044 
G01 X47.772 Y39.951 
G01 X47.974 Y39.889 
G01 X48.170 Y39.856 
G01 X48.369 Y39.848 
G01 X48.578 Y39.866 
G01 X48.803 Y39.913 
G01 X49.047 Y39.992 
G01 X49.312 Y40.107 
G01 X49.599 Y40.260 
G01 X50.608 Y40.908 
G01 X50.955 Y41.083 
G01 X51.114 Y41.125 
G01 X51.123 Y41.219 
G01 X51.187 Y41.456 
G01 X51.290 Y41.687 
G01 X51.473 Y41.958 
G01 X51.741 Y42.199 
G01 X52.052 Y42.367 
G01 X52.373 Y42.473 
G01 X52.715 Y42.544 
G01 X53.106 Y42.599 
G01 X54.946 Y42.769 
G01 X55.780 Y42.892 
G01 X56.597 Y43.055 
G01 X57.399 Y43.259 
G01 X58.187 Y43.505 
G01 X58.963 Y43.792 
G01 X59.730 Y44.121 
G01 X60.486 Y44.493 
G01 X60.859 Y44.702 
G01 X61.256 Y44.953 
G01 X62.111 Y45.569 
G01 X63.011 Y46.311 
G01 X63.923 Y47.150 
G01 X64.815 Y48.055 
G01 X65.653 Y48.996 
G01 X66.409 Y49.942 
G01 X66.746 Y50.406 
G01 X68.179 Y52.607 
G01 X68.113 Y52.704 
G01 X67.970 Y53.084 
G01 X67.901 Y53.478 
G01 X67.876 Y53.863 
G01 X67.377 Y53.095 
G01 X66.612 Y52.035 
G01 X65.772 Y50.993 
G01 X64.864 Y49.975 
G01 X63.891 Y48.986 
G01 X62.931 Y48.103 
G01 X61.960 Y47.301 
G01 X60.978 Y46.582 
G01 X59.984 Y45.946 
G01 X58.979 Y45.393 
G01 X58.472 Y45.149 
G01 X57.962 Y44.925 
G01 X57.450 Y44.724 
G01 X56.934 Y44.544 
G01 X56.416 Y44.385 
G01 X55.896 Y44.248 
G01 X55.373 Y44.134 
G01 X54.848 Y44.041 
G01 X54.321 Y43.970 
G01 X53.792 Y43.922 
G01 X53.261 Y43.896 
G01 X52.729 Y43.891 
G01 X52.195 Y43.909 
G01 X51.660 Y43.949 
G01 X51.125 Y44.011 
G01 X50.588 Y44.095 
G01 X50.051 Y44.201 
G01 X49.513 Y44.328 
G01 X48.975 Y44.477 
G01 X48.436 Y44.647 
G01 X47.374 Y45.045 
G01 X46.626 Y45.335 
G01 X45.893 Y45.585 
G01 X45.262 Y45.770 
G01 X44.466 Y45.923 
G01 X44.118 Y46.006 
G01 X43.768 Y46.141 
G01 X43.564 Y46.292 
G01 X43.325 Y46.558 
G01 X43.300 Y46.601 
G01 X43.186 Y46.926 
G01 X43.179 Y46.972 
G01 X43.197 Y47.317 
G01 X43.207 Y47.354 
G01 X42.717 Y47.511 
G01 X42.365 Y47.588 
G01 X42.138 Y47.610 
G01 X41.907 Y47.592 
G01 X41.604 Y47.525 
G01 X41.264 Y47.413 
G01 X40.919 Y47.264 
G01 X40.596 Y47.091 
G01 X40.323 Y46.910 
G01 X40.065 Y46.679 
G01 X39.942 Y46.484 
G01 X39.789 Y46.127 
G01 X39.679 Y45.707 
G01 X39.619 Y45.236 
G01 X39.615 Y44.728 
G01 X39.670 Y44.199 
G01 X39.783 Y43.663 
G01 X39.955 Y43.134 
G01 X40.391 Y42.081 
G01 X40.514 Y41.714 
G01 X40.609 Y41.355 
G01 X40.676 Y40.999 
G01 X40.715 Y40.644 
G01 X40.728 Y40.288 
G01 X40.727 Y39.769 
G01 X40.766 Y39.613 
G01 X40.851 Y39.419 
G01 X40.954 Y39.261 
G01 X41.125 Y39.087 
G01 X41.263 Y39.017 
G01 X41.606 Y38.979 
G01 X41.921 Y38.853 
G01 X42.183 Y38.668 
G01 X42.390 Y38.454 
G01 X42.557 Y38.224 
G01 X42.709 Y37.968 
G01 X43.138 Y37.064 
G01 X43.295 Y36.788 
G01 X43.195 Y36.724  
G01 X43.352 Y36.504  
G01 X43.496 Y36.346 
G01 X43.623 Y36.243 
G01 X43.732 Y36.183 
G01 X43.831 Y36.152 
G01 X44.193 Y36.112 
G01 X44.431 Y36.041 
G01 X44.797 Y35.862 
G01 X45.157 Y35.614 
G01 X45.965 Y34.848 
G01 X46.399 Y34.495 
G01 X46.715 Y34.256 
G01 X46.836 Y34.114 
G01 X46.972 Y33.881 
G01 X47.008 Y33.783 
G01 X47.100 Y33.938 
G01 X47.185 Y34.123 
G01 X47.245 Y34.307 
G01 X47.282 Y34.489 
G01 X47.287 Y34.752 
G01 X47.214 Y34.959 
G01 X47.108 Y35.140 
G01 X46.679 Y35.703 
G01 X45.901 Y36.587 
G01 X44.407 Y38.230 
G01 X43.777 Y38.553 
G01 X43.484 Y38.724 
G01 X43.202 Y38.933 
G01 X42.949 Y39.164 
G01 X42.725 Y39.415 
G01 X42.533 Y39.682 
G01 X42.372 Y39.962 
G01 X42.243 Y40.254 
G01 X42.148 Y40.555 
G01 X42.089 Y40.863 
G01 X42.070 Y41.178 
G01 X42.096 Y41.495 
G01 X42.173 Y41.811 
G01 X42.306 Y42.115 
G01 X42.498 Y42.397 
G01 X42.746 Y42.642 
G01 X43.037 Y42.834 
G01 X43.374 Y42.985 
G01 X43.738 Y43.054 
G01 X43.990 Y43.040 
G01 X44.234 Y42.984 
G01 X44.583 Y42.812 
G01 X44.902 Y42.559 
G01 X45.208 Y42.248 
G01 X46.206 Y41.043 
G01 X46.489 Y40.733 
G01 X46.761 Y40.469 
G01 X47.022 Y40.250 
G01 X47.270 Y40.073 
G01 X47.506 Y39.938 
G01 X47.731 Y39.839 
G01 X47.946 Y39.773 
G01 X48.158 Y39.737 
G01 X48.372 Y39.729 
G01 X48.596 Y39.748 
G01 X48.833 Y39.798 
G01 X49.089 Y39.881 
G01 X49.364 Y40.000 
G01 X49.659 Y40.157 
G01 X50.667 Y40.805 
G01 X50.997 Y40.971 
G01 X51.225 Y41.031 
G01 X51.241 Y41.198 
G01 X51.299 Y41.417 
G01 X51.394 Y41.629 
G01 X51.563 Y41.880 
G01 X51.810 Y42.101 
G01 X52.099 Y42.257 
G01 X52.404 Y42.358 
G01 X52.735 Y42.427 
G01 X53.119 Y42.481 
G01 X54.961 Y42.651 
G01 X55.800 Y42.775 
G01 X56.623 Y42.939 
G01 X57.431 Y43.145 
G01 X58.225 Y43.392 
G01 X59.007 Y43.681 
G01 X59.780 Y44.013 
G01 X60.541 Y44.388 
G01 X60.920 Y44.600 
G01 X61.322 Y44.854 
G01 X62.183 Y45.475 
G01 X63.090 Y46.222 
G01 X64.006 Y47.065 
G01 X64.901 Y47.974 
G01 X65.744 Y48.919 
G01 X66.504 Y49.870 
G01 X66.844 Y50.338 
G01 X68.323 Y52.607 
G01 X68.219 Y52.759 
G01 X68.085 Y53.116 
G01 X68.019 Y53.492 
G01 X67.992 Y53.910 
G01 X67.991 Y54.275 
G01 X67.631 Y53.694 
G01 X66.908 Y52.633 
G01 X66.108 Y51.586 
G01 X65.238 Y50.559 
G01 X64.301 Y49.560 
G01 X63.332 Y48.622 
G01 X62.371 Y47.783 
G01 X61.400 Y47.027 
G01 X60.418 Y46.353 
G01 X59.426 Y45.763 
G01 X58.926 Y45.499 
G01 X58.422 Y45.257 
G01 X57.917 Y45.035 
G01 X57.408 Y44.835 
G01 X56.897 Y44.656 
G01 X56.384 Y44.499 
G01 X55.868 Y44.364 
G01 X55.350 Y44.250 
G01 X54.830 Y44.158 
G01 X54.307 Y44.088 
G01 X53.783 Y44.040 
G01 X53.258 Y44.014 
G01 X52.730 Y44.010 
G01 X52.202 Y44.028 
G01 X51.672 Y44.067 
G01 X51.141 Y44.129 
G01 X50.609 Y44.212 
G01 X50.076 Y44.317 
G01 X49.543 Y44.443 
G01 X49.009 Y44.591 
G01 X47.939 Y44.950 
G01 X46.667 Y45.447 
G01 X45.929 Y45.699 
G01 X45.291 Y45.885 
G01 X44.489 Y46.040 
G01 X44.154 Y46.120 
G01 X43.826 Y46.246 
G01 X43.635 Y46.387 
G01 X43.427 Y46.618 
G01 X43.402 Y46.661 
G01 X43.303 Y46.943 
G01 X43.297 Y46.989 
G01 X43.313 Y47.288 
G01 X43.353 Y47.424 
G01 X43.147 Y47.506 
G01 X42.747 Y47.626 
G01 X42.383 Y47.705 
G01 X42.139 Y47.730 
G01 X41.889 Y47.709 
G01 X41.573 Y47.640 
G01 X41.222 Y47.524 
G01 X40.867 Y47.371 
G01 X40.535 Y47.193 
G01 X40.252 Y47.005 
G01 X39.974 Y46.755 
G01 X39.837 Y46.540 
G01 X39.676 Y46.165 
G01 X39.562 Y45.729 
G01 X39.501 Y45.243 
G01 X39.497 Y44.723 
G01 X39.552 Y44.181 
G01 X39.668 Y43.633 
G01 X39.844 Y43.091 
G01 X40.279 Y42.041 
G01 X40.400 Y41.680 
G01 X40.493 Y41.328 
G01 X40.559 Y40.981 
G01 X40.597 Y40.635 
G01 X40.609 Y40.287 
G01 X40.610 Y39.752 
G01 X40.654 Y39.572 
G01 X40.746 Y39.362 
G01 X40.860 Y39.187 
G01 X41.054 Y38.991 
G01 X41.212 Y38.906 
G01 X41.576 Y38.863 
G01 X41.864 Y38.748 
G01 X42.106 Y38.577 
G01 X42.298 Y38.377 
G01 X42.458 Y38.159 
G01 X42.605 Y37.912 
G01 X43.032 Y37.009 
G01 X43.195 Y36.724 
G01 X43.095 Y36.660  
G01 X43.259 Y36.429  
G01 X43.414 Y36.259 
G01 X43.557 Y36.144 
G01 X43.685 Y36.073 
G01 X43.807 Y36.035 
G01 X44.168 Y35.996 
G01 X44.387 Y35.930 
G01 X44.737 Y35.759 
G01 X45.082 Y35.520 
G01 X45.885 Y34.760 
G01 X46.328 Y34.401 
G01 X46.633 Y34.169 
G01 X46.745 Y34.037 
G01 X46.861 Y33.840 
G01 X46.890 Y33.762 
G01 X46.928 Y33.476 
G01 X46.928 Y33.474 
G01 X47.091 Y33.689 
G01 X47.206 Y33.883 
G01 X47.296 Y34.079 
G01 X47.361 Y34.277 
G01 X47.400 Y34.473 
G01 X47.405 Y34.771 
G01 X47.379 Y34.875 
G01 X47.321 Y35.012 
G01 X47.208 Y35.205 
G01 X47.026 Y35.460 
G01 X46.770 Y35.780 
G01 X45.989 Y36.666 
G01 X44.480 Y38.326 
G01 X43.834 Y38.658 
G01 X43.550 Y38.823 
G01 X43.277 Y39.024 
G01 X43.033 Y39.247 
G01 X42.818 Y39.489 
G01 X42.633 Y39.746 
G01 X42.478 Y40.016 
G01 X42.354 Y40.296 
G01 X42.263 Y40.584 
G01 X42.207 Y40.878 
G01 X42.189 Y41.176 
G01 X42.214 Y41.476 
G01 X42.286 Y41.773 
G01 X42.410 Y42.058 
G01 X42.590 Y42.321 
G01 X42.821 Y42.549 
G01 X43.094 Y42.730 
G01 X43.410 Y42.870 
G01 X43.746 Y42.934 
G01 X43.973 Y42.922 
G01 X44.194 Y42.871 
G01 X44.519 Y42.711 
G01 X44.823 Y42.470 
G01 X45.120 Y42.168 
G01 X46.116 Y40.965 
G01 X46.404 Y40.650 
G01 X46.681 Y40.381 
G01 X46.949 Y40.156 
G01 X47.206 Y39.973 
G01 X47.452 Y39.831 
G01 X47.689 Y39.727 
G01 X47.919 Y39.658 
G01 X48.146 Y39.619 
G01 X48.375 Y39.610 
G01 X48.613 Y39.631 
G01 X48.864 Y39.683 
G01 X49.131 Y39.769 
G01 X49.415 Y39.893 
G01 X49.718 Y40.054 
G01 X50.726 Y40.702 
G01 X51.040 Y40.859 
G01 X51.341 Y40.937 
G01 X51.358 Y41.177 
G01 X51.411 Y41.377 
G01 X51.498 Y41.571 
G01 X51.654 Y41.801 
G01 X51.879 Y42.004 
G01 X52.146 Y42.148 
G01 X52.435 Y42.243 
G01 X52.756 Y42.310 
G01 X53.133 Y42.363 
G01 X54.975 Y42.533 
G01 X55.821 Y42.658 
G01 X56.650 Y42.823 
G01 X57.463 Y43.031 
G01 X58.263 Y43.280 
G01 X59.051 Y43.571 
G01 X59.829 Y43.905 
G01 X60.597 Y44.283 
G01 X60.980 Y44.498 
G01 X61.387 Y44.754 
G01 X62.256 Y45.381 
G01 X63.168 Y46.132 
G01 X64.089 Y46.979 
G01 X64.988 Y47.893 
G01 X65.835 Y48.843 
G01 X66.599 Y49.799 
G01 X66.941 Y50.270 
G01 X68.384 Y52.488 
G01 X68.473 Y52.597 
G01 X68.325 Y52.814 
G01 X68.200 Y53.147 
G01 X68.137 Y53.506 
G01 X68.111 Y53.914 
G01 X68.108 Y54.713 
G01 X67.531 Y53.758 
G01 X66.811 Y52.702 
G01 X66.016 Y51.660 
G01 X65.149 Y50.638 
G01 X64.216 Y49.643 
G01 X63.252 Y48.709 
G01 X62.295 Y47.875 
G01 X61.330 Y47.123 
G01 X60.354 Y46.453 
G01 X59.369 Y45.867 
G01 X58.373 Y45.364 
G01 X57.871 Y45.145 
G01 X57.367 Y44.946 
G01 X56.860 Y44.769 
G01 X56.352 Y44.614 
G01 X55.840 Y44.479 
G01 X55.327 Y44.367 
