%
( gran ) ( File created: Friday December 13 2024 - 12:55 PM)
( for LinuxCNC )
( Material Size) ( X= 1200.000, Y= 300.000, Z= 18.000)
G90 (Incremental distance mode)
G17 G21 (Active Plane: XY)(Metric Mode)
G40 G49 G80(Tool Diameter, Length compensation & canned cycles OFF)
G64 P0.05 Q0.05(Path Blending)
T6 M06 (TOOL USE End Mill 1.1 mm)
G90 (absolute distance mode)
G54 (Coordinate System)
S19000M3
G00 Z38.320
G4 P6
( gran )
G00 X101.334 Y39.382 Z23.080 F8000.0
G01 Z14.300 F1200.0 M3
G03 X105.275 Y35.355 I3.228 J-0.782
G03 X115.561 Y41.955 I-3.774 J17.198
G02 X150.114 Y78.430 I178.715 J-134.696
G02 X173.867 Y94.331 I83.827 J-99.532
G03 X176.913 Y100.260 I-2.662 J5.115
G02 X177.214 Y108.380 I22.629 J3.229
G02 X180.782 Y117.979 I35.793 J-7.841
G03 X181.354 Y120.906 I-4.395 J2.379
G03 X180.608 Y123.210 I-5.973 J-0.660
G02 X180.659 Y147.513 I21.358 J12.107
G03 X180.641 Y152.903 I-4.682 J2.679
G02 X177.745 Y168.721 I20.530 J11.933
G02 X180.754 Y177.285 I25.924 J-4.300
G03 X181.275 Y180.712 I-4.282 J2.404
G03 X180.491 Y182.783 I-7.168 J-1.528
G02 X177.143 Y200.773 I24.654 J13.896
G03 X175.479 Y204.310 I-3.502 J0.512
G02 X147.932 Y224.197 I111.855 J183.962
G02 X122.443 Y249.369 I155.011 J182.445
G03 X108.917 Y264.135 I-303.361 J-264.326
G03 X101.726 Y262.065 I-3.049 J-2.936
G03 X103.373 Y248.551 I20.718 J-4.332
G02 X99.648 Y222.351 I-21.429 J-10.318
G03 X97.857 Y214.076 I6.364 J-5.709
G03 X100.816 Y206.528 I56.162 J17.666
G02 X101.136 Y192.360 I-15.703 J-7.442
G02 X96.308 Y184.473 I-28.176 J11.828
G03 X96.434 Y172.583 I6.955 J-5.872
G02 X104.826 Y150.462 I-25.216 J-22.219
G02 X103.149 Y141.521 I-24.287 J-0.071
G02 X95.635 Y126.960 I-74.526 J29.239
G03 X94.976 Y118.711 I7.236 J-4.729
G03 X98.299 Y113.465 I19.588 J8.732
G02 X101.966 Y99.077 I-12.671 J-10.890
G02 X98.413 Y88.936 I-41.768 J8.941
G03 X99.891 Y77.848 I8.919 J-4.454
G02 X105.363 Y56.111 I-18.063 J-16.105
G01 X105.363 Y56.110  F4000.0
G01 X101.335 Y39.383 
G01 X101.334 Y39.382 
G00 Z23.080
G00 X189.563 Y73.893  F8000.0
G01 Z14.300 F1200.0 M3
G03 X195.141 Y70.327 I3.277 J-1.020
G03 X206.515 Y81.792 I-99.291 J109.873
G02 X254.508 Y125.538 I231.890 J-206.206
G03 X255.786 Y129.328 I-2.065 J2.806
G02 X258.589 Y148.051 I21.549 J6.345
G03 X258.805 Y151.337 I-2.776 J1.833
G03 X257.056 Y154.504 I-31.040 J-15.080
G02 X256.508 Y169.442 I12.755 J7.946
G03 X256.355 Y172.478 I-2.643 J1.389
G03 X249.101 Y179.901 I-22.991 J-15.212
G02 X216.410 Y206.882 I146.833 J211.199
G02 X196.754 Y229.578 I124.049 J127.293
G03 X189.691 Y226.085 I-3.232 J-2.352
G01 X189.695 Y226.072  F4000.0
G01 X189.745 Y225.940 
G02 X188.551 Y201.973 I-27.436 J-10.647
G03 X188.934 Y189.823 I11.278 J-5.725
G02 X189.270 Y169.381 I-17.831 J-10.516
G03 X189.373 Y159.202 I9.145 J-4.997
G02 X189.121 Y139.969 I-16.407 J-9.403
G03 X189.003 Y130.474 I7.965 J-4.847
G02 X187.771 Y107.415 I-18.394 J-10.579
G03 X187.338 Y102.378 I3.956 J-2.877
G02 X189.563 Y73.893 I-34.590 J-17.030
G00 Z23.080
G00 X269.267 Y112.156  F8000.0
G01 Z14.300 F1200.0 M3
G03 X274.166 Y113.179 I1.735 J3.930
G02 X289.171 Y128.968 I474.159 J-435.605
G02 X313.160 Y145.173 I52.005 J-51.126
G03 X315.448 Y151.432 I-1.741 J4.184
G03 X310.242 Y156.600 I-10.570 J-5.443
G02 X285.282 Y174.642 I44.195 J87.428
G02 X282.829 Y177.278 I33.654 J33.766
G02 X275.265 Y186.258 I388.000 J334.520
G03 X266.891 Y182.520 I-3.672 J-3.022
G02 X265.494 Y164.412 I-39.699 J-6.046
G03 X265.472 Y163.240 I1.981 J-0.624
G03 X267.578 Y157.112 I48.905 J13.386
G02 X267.970 Y143.076 I-18.053 J-7.528
G03 X267.803 Y129.784 I19.535 J-6.893
G02 X266.718 Y120.163 I-11.133 J-3.616
G03 X269.267 Y112.156 I4.814 J-2.877
G00 Z23.080
G00 X328.033 Y135.770  F8000.0
G01 Z14.300 F1200.0 M3
G03 X333.663 Y137.266 I1.549 J5.513
G02 X340.725 Y137.925 I3.922 J-3.861
G02 X348.017 Y130.487 I-15.891 J-22.873
G03 X352.778 Y130.484 I2.381 J1.586
G03 X353.150 Y136.691 I-5.125 J3.422
G02 X355.095 Y143.943 I5.015 J2.541
G02 X363.736 Y147.378 I12.828 J-19.683
G03 X365.300 Y151.195 I-0.436 J2.408
G03 X359.294 Y154.177 I-5.757 J-4.056
G02 X353.186 Y159.289 I-0.210 J5.954
G02 X353.250 Y168.007 I29.029 J4.147
G03 X350.520 Y170.745 I-2.364 J0.373
G03 X344.901 Y165.978 I1.079 J-6.966
G02 X337.394 Y161.631 I-6.189 J2.032
G02 X332.551 Y163.708 I2.669 J12.907
G03 X328.033 Y164.466 I-3.064 J-4.417
G03 X327.160 Y159.834 I0.712 J-2.533
G02 X331.997 Y150.118 I-7.338 J-9.716
G02 X327.160 Y140.403 I-12.175 J0.000
G03 X328.033 Y135.770 I1.586 J-2.099
G00 Z23.080
G00 X332.417 Y127.573  F8000.0
G01 Z14.300 F1200.0 M3
G02 X320.696 Y121.707 I-18.462 J22.247
G02 X315.791 Y125.256 I-0.930 J3.879
G02 X316.315 Y129.577 I10.736 J0.890
G03 X310.999 Y133.393 I-3.245 J1.090
G03 X297.967 Y122.663 I130.713 J-172.038
G03 X279.238 Y102.081 I88.638 J-99.468
G02 X258.786 Y107.421 I-9.165 J6.734
G03 X257.604 Y110.314 I-5.927 J-0.732
G03 X253.331 Y111.185 I-2.635 J-2.013
G03 X244.065 Y104.568 I27.163 J-47.839
G03 X218.958 Y80.794 I333.040 J-376.858
G03 X201.298 Y60.225 I140.349 J-138.365
G02 X180.232 Y61.161 I-10.215 J7.615
G02 X180.504 Y77.870 I13.227 J8.142
G03 X175.436 Y83.868 I-3.413 J2.257
G03 X161.195 Y74.744 I22.445 J-50.706
G03 X132.227 Y45.719 I213.919 J-242.469
G02 X116.426 Y28.510 I-402.511 J353.719
G02 X94.367 Y29.465 I-10.609 J10.176
G02 X93.190 Y50.894 I14.321 J11.534
G03 X91.528 Y70.979 I-14.020 J8.951
G02 X87.216 Y86.710 I13.491 J12.154
G02 X91.002 Y97.916 I45.577 J-9.158
G03 X91.186 Y104.327 I-6.995 J3.408
G03 X88.929 Y107.934 I-12.104 J-5.064
G02 X84.826 Y129.446 I16.160 J14.229
G03 X83.060 Y133.713 I-3.232 J1.162
G03 X75.576 Y134.137 I-4.266 J-9.031
G02 X45.652 Y125.022 I-155.299 J456.171
G02 X36.305 Y128.794 I-2.176 J8.075
G02 X34.510 Y134.924 I10.839 J6.502
G02 X34.208 Y160.882 I726.825 J21.429
G02 X34.720 Y167.925 I53.303 J-0.332
G02 X45.636 Y174.878 I8.422 J-1.177
G01 X59.017 Y170.775  F4000.0
G03 X83.019 Y166.687 I27.818 J90.809
G03 X85.080 Y169.072 I0.081 J2.013
G02 X84.945 Y170.201 I8.445 J1.585
G03 X84.733 Y171.020 I-2.123 J-0.113
G02 X83.546 Y181.125 I13.835 J6.747
G02 X89.610 Y193.078 I26.485 J-5.921
G03 X91.191 Y200.527 I-5.870 J5.138
G03 X88.566 Y207.165 I-45.053 J-13.977
G02 X92.136 Y229.256 I17.505 J8.505
G03 X95.396 Y239.985 I-8.732 J8.514
G03 X91.501 Y259.113 I-526.821 J-97.331
G02 X98.363 Y274.124 I13.347 J2.973
G02 X118.515 Y269.679 I7.496 J-13.917
G03 X174.774 Y216.809 I178.514 J133.590
G03 X179.581 Y220.658 I1.776 J2.708
G02 X178.255 Y233.587 I23.882 J8.982
G02 X198.403 Y240.525 I11.911 J-1.865
G02 X213.691 Y224.995 I-181.194 J-193.666
G03 X249.847 Y190.513 I255.081 J231.262
G03 X255.124 Y188.328 I6.212 J7.540
G03 X258.974 Y191.876 I0.336 J3.498
G02 X265.911 Y201.514 I9.967 J0.142
G02 X277.718 Y198.143 I3.370 J-10.561
G03 X310.787 Y166.896 I160.714 J136.959
G03 X315.648 Y171.403 I2.034 J2.681
G02 X320.696 Y178.530 I3.951 J2.552
G02 X332.417 Y172.664 I-6.741 J-28.113
G03 X338.731 Y172.394 I3.335 J4.018
G03 X352.452 Y185.434 I-35.476 J51.065
G02 X356.935 Y188.081 I5.559 J-4.297
G02 X361.323 Y184.023 I0.584 J-3.770
G03 X361.957 Y164.954 I87.720 J-6.629
G03 X367.133 Y159.481 I6.457 J0.922
G02 X381.262 Y153.787 I-8.105 J-40.489
G02 X381.262 Y146.449 I-2.345 J-3.669
G02 X367.133 Y140.755 I-22.234 J34.795
G03 X361.957 Y135.282 I1.280 J-6.395
G03 X362.590 Y121.768 I35.699 J-5.099
G02 X361.210 Y114.036 I-9.535 J-2.288
G02 X354.627 Y113.611 I-3.454 J2.306
G03 X338.731 Y127.843 I-65.487 J-57.151
G03 X332.417 Y127.573 I-2.979 J-4.288
G00 Z23.080
G00 Z38.320
M05
M1
( bowl [3] )
T22 M6( TOOL USE Radiused End Mill Tip 0.25 - 3/4 Fine )
S18000 M03
( bowl [3] )
G00 X139.881 Y120.740 Z23.080 F7000.0
G01 Z18.000 F300.0 M3
G01 Z17.776 
G01 Z17.638 
G01 Z17.462 
G01 Z17.434 
G01 Z17.374 
G01 Z17.150 
G01 Z17.012 
G01 Z16.836 
G01 Z16.808 
G01 Z16.748 
G01 Z16.524 
G01 Z16.386 
G01 Z16.210 
G01 Z16.182 
G01 Z16.122 
G01 Z15.898 
G01 Z15.760 
G01 Z15.667 
G01 Z15.573 
G01 Z15.435 
G01 Z15.211 
G01 Z15.152 
G01 Z15.123 
G01 Z14.947 
G01 Z14.809 
G01 Z14.585 
G01 Z14.526 
G01 Z14.497 
G01 Z14.321 
G01 Z14.183 
G01 Z13.959 
G01 Z13.900 
G01 Z13.871 
G01 Z13.695 
G01 Z13.557 
G01 Z13.333 
G01 X138.961 Y125.447  F3500.0
G01 X137.803 Y122.725 
G01 X139.042 Y119.164 
G01 X139.551 Y119.507 
G01 X139.881 Y120.740 
G01 X141.848 Y120.702  
G02 X140.101 Y134.653 I60.118 J14.615
G02 X137.889 Y127.891 I-59.562 J15.738
G01 X135.738 Y122.769  
G02 X137.936 Y116.090 I-50.110 J-20.194
G01 X141.218 Y118.329  
G01 X141.848 Y120.702 
G01 X143.820 Y120.666  
G02 X143.864 Y150.145 I58.147 J14.652
G02 X142.809 Y174.516 I57.307 J14.690
G01 X143.821 Y179.393  
G01 X142.832 Y183.391 
G01 X136.697 Y187.860 
G02 X133.974 Y179.099 I-51.583 J11.226
G02 X140.240 Y150.566 I-62.756 J-28.735
G02 X136.116 Y128.587 I-59.701 J-0.174
G01 X133.663 Y122.804  
G02 X136.719 Y112.884 I-48.035 J-20.229
G01 X142.893 Y117.154  
G01 X143.820 Y120.666 
G01 X145.795 Y120.630  
G02 X145.833 Y150.146 I56.171 J14.687
G02 X144.688 Y174.204 I55.338 J14.689
G01 X145.795 Y179.422  
G01 X144.545 Y184.516 
G01 X135.392 Y191.247 
G02 X132.033 Y179.390 I-50.279 J7.838
G01 X131.892 Y179.058  
G02 X138.335 Y150.560 I-60.674 J-28.694
G02 X134.342 Y129.283 I-57.796 J-0.169
G01 X131.578 Y122.830  
G02 X135.363 Y109.510 I-45.949 J-20.256
G02 X144.577 Y115.979 I98.578 J-130.612
G01 X145.795 Y120.630  
G01 X147.776 Y120.597  
G02 X147.806 Y150.148 I54.191 J14.721
G02 X146.567 Y173.892 I53.365 J14.688
G01 X147.772 Y179.451  
G01 X146.268 Y185.636 
G02 X133.908 Y194.826 I141.066 J202.636
G02 X130.276 Y180.128 I-48.795 J4.260
G01 X129.798 Y179.018  
G02 X136.430 Y150.555 I-58.580 J-28.654
G02 X132.569 Y129.979 I-55.891 J-0.163
G01 X129.480 Y122.847  
G02 X133.824 Y105.917 I-43.852 J-20.272
G02 X146.270 Y114.807 I100.118 J-127.019
G01 X146.343 Y115.143  
G01 X147.776 Y120.597 
G01 X149.761 Y120.565  
G02 X149.784 Y150.149 I52.205 J14.753
G02 X148.447 Y173.581 I51.387 J14.687
G01 X149.755 Y179.479  
G02 X148.002 Y186.752 I55.390 J17.200
G02 X132.187 Y198.659 I139.332 J201.520
G02 X128.520 Y180.865 I-47.074 J0.427
G01 X127.689 Y178.978  
G02 X134.525 Y150.549 I-56.472 J-28.614
G02 X130.796 Y130.674 I-53.986 J-0.158
G01 X127.370 Y122.852  
G02 X132.031 Y102.020 I-41.741 J-20.277
G02 X147.975 Y113.637 I101.910 J-123.122
G01 X148.203 Y114.735  
G01 X149.761 Y120.565 
G01 X151.753 Y120.535  
G02 X151.768 Y150.151 I50.214 J14.783
G02 X150.326 Y173.269 I49.403 J14.685
G01 X151.744 Y179.508  
G02 X149.749 Y187.862 I53.402 J17.171
G02 X130.127 Y202.854 I137.586 J200.410
G02 X126.763 Y181.602 I-45.013 J-3.768
G01 X125.566 Y178.939  
G02 X132.620 Y150.543 I-54.348 J-28.575
G02 X129.022 Y131.370 I-52.081 J-0.152
G02 X125.245 Y122.845 I-100.400 J39.389
G02 X129.860 Y97.684 I-39.616 J-20.270
G01 X132.210 Y99.689  
G02 X149.694 Y112.472 I101.731 J-120.791
G01 X150.064 Y114.327  
G01 X151.753 Y120.535 
G01 X153.751 Y120.507  
G02 X153.758 Y150.152 I48.216 J14.811
G02 X152.205 Y172.957 I47.413 J14.684
G02 X153.740 Y179.536 I51.463 J-8.536
G02 X151.508 Y188.966 I51.406 J17.143
G02 X131.169 Y204.468 I135.826 J199.306
G01 X127.529 Y207.618  
G02 X125.007 Y182.340 I-42.416 J-8.532
G01 X123.425 Y178.900  
G02 X130.715 Y150.538 I-52.207 J-28.536
G02 X127.249 Y132.066 I-50.176 J-0.147
G02 X123.103 Y122.825 I-98.626 J38.694
G02 X127.281 Y93.658 I-37.475 J-20.250
G01 X127.063 Y92.675  
G01 X133.438 Y98.232 
G02 X151.428 Y111.310 I100.503 J-119.333
G01 X151.925 Y113.920  
G01 X153.751 Y120.507 
G01 X155.755 Y120.481  
G02 X155.755 Y150.154 I46.211 J14.837
G02 X154.085 Y172.646 I45.416 J14.682
G02 X155.742 Y179.563 I49.584 J-8.224
G02 X153.282 Y190.065 I49.404 J17.116
G02 X132.403 Y205.920 I134.053 J198.207
G01 X123.891 Y213.474  
G02 X123.250 Y183.077 I-38.778 J-14.389
G01 X121.265 Y178.862  
G02 X128.810 Y150.532 I-50.047 J-28.498
G02 X125.475 Y132.762 I-48.271 J-0.141
G02 X120.943 Y122.789 I-96.853 J37.998
G02 X125.418 Y94.057 I-35.315 J-20.214
G02 X123.387 Y86.671 I-65.220 J13.962
G02 X134.665 Y96.774 I170.889 J-179.412
G02 X153.178 Y110.153 I99.276 J-117.876
G01 X153.786 Y113.512  
G02 X155.755 Y120.481 I59.221 J-12.973
G01 X157.768 Y120.458  
G02 X157.761 Y150.156 I44.198 J14.860
G02 X155.964 Y172.334 I43.410 J14.679
G02 X157.753 Y179.591 I47.704 J-7.912
G02 X155.070 Y191.157 I47.393 J17.088
G02 X133.636 Y207.371 I132.264 J197.115
G02 X122.702 Y217.204 I169.306 J199.271
G01 X121.332 Y214.738  
G02 X121.494 Y183.814 I-36.218 J-15.652
G01 X119.083 Y178.825  
G02 X126.905 Y150.527 I-47.865 J-28.461
G02 X123.702 Y133.457 I-46.366 J-0.136
G02 X118.763 Y122.736 I-95.079 J37.302
G02 X123.555 Y94.456 I-33.134 J-20.161
G02 X121.173 Y86.108 I-63.357 J13.563
G01 X122.730 Y83.393  
G02 X135.892 Y95.317 I171.546 J-176.134
G02 X154.945 Y109.001 I98.049 J-116.419
G01 X155.647 Y113.104  
G02 X157.768 Y120.458 I57.360 J-12.566
G01 X159.790 Y120.437  
G02 X159.776 Y150.159 I42.176 J14.880
G02 X157.843 Y172.022 I41.395 J14.677
G02 X159.773 Y179.618 I45.825 J-7.601
G02 X156.875 Y192.242 I45.373 J17.061
G02 X134.870 Y208.823 I130.459 J196.030
G02 X122.123 Y220.403 I168.073 J197.819
G02 X119.183 Y214.876 I-40.179 J17.830
G02 X119.737 Y184.552 I-34.070 J-15.790
G02 X116.875 Y178.788 I-46.778 J19.636
G02 X125.000 Y150.521 I-45.657 J-28.424
G02 X121.929 Y134.153 I-44.461 J-0.130
G02 X116.558 Y122.663 I-93.306 J36.606
G02 X121.692 Y94.854 I-30.930 J-20.088
G02 X119.061 Y85.883 I-61.494 J13.164
G02 X122.187 Y80.186 I-37.233 J-24.139
G02 X137.119 Y93.860 I172.089 J-172.927
G02 X156.733 Y107.854 I96.822 J-114.962
G01 X157.508 Y112.697  
G02 X159.790 Y120.437 I55.499 J-12.158
G01 X161.822 Y120.420  
G02 X161.802 Y150.161 I40.144 J14.898
G02 X159.723 Y171.710 I39.369 J14.674
G02 X161.804 Y179.644 I43.946 J-7.289
G02 X158.698 Y193.319 I43.342 J17.035
G02 X136.103 Y210.275 I128.637 J194.953
G02 X121.426 Y223.756 I166.839 J196.367
G02 X117.013 Y215.025 I-39.482 J14.477
G01 X117.325 Y214.352  
G02 X117.981 Y185.289 I-32.212 J-15.266
G02 X114.638 Y178.752 I-45.021 J18.898
G02 X123.095 Y150.516 I-43.420 J-28.388
G02 X120.155 Y134.849 I-42.556 J-0.124
G02 X114.327 Y122.567 I-91.533 J35.911
G02 X119.829 Y95.253 I-28.699 J-19.992
G02 X116.929 Y85.648 I-59.631 J12.765
G02 X121.530 Y76.821 I-35.101 J-23.905
G02 X138.346 Y92.403 I172.746 J-169.561
G02 X158.543 Y106.714 I95.595 J-113.505
G02 X159.369 Y112.289 I41.000 J-3.225
G02 X161.822 Y120.420 I53.638 J-11.750
G01 X163.866 Y120.406  
G02 X163.841 Y150.164 I38.101 J14.911
G02 X161.602 Y171.399 I37.330 J14.671
G02 X163.847 Y179.670 I42.067 J-6.977
G02 X160.540 Y194.388 I41.299 J17.009
G02 X137.336 Y211.727 I126.794 J193.884
G02 X120.577 Y227.309 I165.606 J194.915
G02 X114.846 Y215.227 I-38.633 J10.923
G01 X115.603 Y213.536  
G02 X116.224 Y186.026 I-30.490 J-14.450
G02 X112.367 Y178.718 I-43.264 J18.161
G02 X121.190 Y150.510 I-41.149 J-28.354
G02 X118.382 Y135.545 I-40.651 J-0.119
G02 X112.064 Y122.445 I-89.759 J35.215
G02 X117.967 Y95.652 I-26.436 J-19.870
G02 X114.776 Y85.404 I-57.768 J12.366
G02 X120.724 Y73.252 I-32.948 J-23.660
G02 X139.573 Y90.946 I173.551 J-165.993
G02 X160.377 Y105.580 I94.368 J-112.048
G02 X161.230 Y111.882 I39.166 J-2.092
G02 X163.866 Y120.406 I51.777 J-11.343
G01 X165.923 Y120.397  
G02 X165.894 Y150.168 I36.043 J14.920
G02 X163.481 Y171.087 I35.277 J14.668
G02 X165.904 Y179.695 I40.187 J-6.665
G02 X162.404 Y195.448 I39.242 J16.984
G02 X138.570 Y213.179 I124.930 J192.824
G02 X119.522 Y231.133 I164.372 J193.464
G02 X112.685 Y215.484 I-37.577 J7.099
G01 X113.882 Y212.720  
G02 X114.468 Y186.764 I-28.769 J-13.634
G02 X110.056 Y178.685 I-41.508 J17.424
G02 X119.285 Y150.504 I-38.838 J-28.321
G02 X116.608 Y136.240 I-38.746 J-0.113
G02 X109.764 Y122.292 I-87.986 J34.519
G02 X116.104 Y96.051 I-24.136 J-19.717
G02 X112.597 Y85.148 I-55.906 J11.968
G02 X119.719 Y69.408 I-30.769 J-23.404
G02 X140.801 Y89.489 I174.557 J-162.149
G02 X162.238 Y104.454 I93.140 J-110.591
G02 X163.090 Y111.474 I37.304 J-0.965
G02 X165.923 Y120.397 I49.916 J-10.935
G01 X167.996 Y120.393  
G02 X167.965 Y150.172 I33.971 J14.925
G02 X165.361 Y170.775 I33.206 J14.664
G02 X167.978 Y179.720 I38.308 J-6.354
G02 X164.292 Y196.498 I37.168 J16.959
G02 X139.803 Y214.630 I123.043 J191.774
G02 X118.167 Y235.350 I163.139 J192.012
G02 X110.528 Y215.797 I-36.223 J2.883
G01 X112.160 Y211.904  
G02 X112.711 Y187.501 I-27.047 J-12.818
G02 X107.696 Y178.653 I-39.751 J16.686
G02 X117.380 Y150.499 I-36.478 J-28.289
G02 X114.835 Y136.936 I-36.841 J-0.108
G02 X107.435 Y122.127 I-86.212 J33.823
G01 X107.819 Y121.647  
G02 X114.241 Y96.450 I-22.191 J-19.073
G02 X110.387 Y84.877 I-54.043 J11.569
G02 X118.422 Y65.163 I-28.559 J-23.133
G02 X142.028 Y88.032 I175.854 J-157.904
G02 X164.131 Y103.336 I91.913 J-109.134
G02 X164.951 Y111.066 I35.412 J0.152
G02 X167.996 Y120.393 I48.056 J-10.527
G01 X170.087 Y120.394  
G02 X170.057 Y150.176 I31.880 J14.923
G02 X167.240 Y170.464 I31.114 J14.660
G02 X170.071 Y179.744 I36.429 J-6.042
G02 X166.206 Y197.536 I35.075 J16.936
G02 X141.037 Y216.082 I121.129 J190.736
G02 X116.320 Y240.214 I161.905 J190.560
G02 X108.377 Y216.167 I-34.375 J-1.981
G01 X110.439 Y211.088  
G02 X110.955 Y188.238 I-25.326 J-12.002
G02 X105.278 Y178.624 I-37.995 J15.949
G02 X115.475 Y150.493 I-34.060 J-28.260
G02 X113.061 Y137.632 I-34.936 J-0.102
G02 X105.176 Y122.108 I-84.439 J33.128
G01 X106.375 Y120.405  
G02 X112.378 Y96.848 I-20.746 J-17.831
G02 X108.142 Y84.590 I-52.180 J11.170
G02 X116.644 Y60.258 I-26.314 J-22.846
G02 X143.255 Y86.575 I177.631 J-152.998
G02 X166.060 Y102.228 I90.686 J-107.677
G02 X166.812 Y110.659 I33.483 J1.260
G02 X170.087 Y120.394 I46.195 J-10.120
G01 X172.200 Y120.403  
G02 X172.174 Y150.181 I29.767 J14.915
G02 X169.119 Y170.152 I28.997 J14.655
G02 X172.188 Y179.766 I34.549 J-5.730
G02 X168.149 Y198.562 I32.958 J16.913
G02 X142.270 Y217.534 I119.185 J189.710
G02 X115.851 Y243.626 I160.672 J189.108
G01 X113.437 Y246.370  
G02 X106.231 Y216.595 I-31.493 J-8.138
G03 X108.717 Y210.273 I47.789 J15.147
G02 X109.198 Y188.976 I-23.604 J-11.187
G02 X102.989 Y178.833 I-36.238 J15.212
G01 X102.994 Y178.364  
G02 X113.570 Y150.488 I-31.776 J-28.000
G02 X111.288 Y138.328 I-33.031 J-0.097
G02 X102.983 Y122.222 I-82.666 J32.432
G03 X104.930 Y119.164 I11.580 J5.221
G02 X110.515 Y97.247 I-19.301 J-16.589
G02 X106.235 Y85.030 I-50.317 J10.771
G03 X106.417 Y83.667 I1.097 J-0.548
G02 X113.866 Y54.076 I-24.589 J-21.923
G01 X113.830 Y53.926  
G02 X144.482 Y85.118 I180.445 J-146.667
G02 X168.029 Y101.132 I89.459 J-106.220
G02 X168.673 Y110.251 I31.514 J2.356
G02 X172.200 Y120.403 I44.334 J-9.712
G00 Z23.080
G00 X139.887 Y179.334  F7000.0
G01 Z18.000 F300.0 M3
G01 Z17.914 
G01 Z17.884 
G01 Z17.769 
G01 Z17.626 
G01 Z17.483 
G01 Z17.396 
G01 Z17.366 
G01 Z17.252 
G01 Z17.108 
G01 Z16.966 
G01 Z16.879 
G01 Z16.849 
G01 Z16.735 
G01 Z16.591 
G01 Z16.448 
G01 Z16.362 
G01 Z16.332 
G01 Z16.218 
G01 Z16.074 
G01 Z15.931 
G01 Z15.845 
G01 Z15.815 
G01 Z15.700 
G01 Z15.667 
G01 Z15.633 
G01 Z15.518 
G01 Z15.489 
G01 Z15.402 
G01 Z15.259 
G01 Z15.116 
G01 Z15.001 
G01 Z14.971 
G01 Z14.885 
G01 Z14.742 
G01 Z14.598 
G01 Z14.484 
G01 Z14.454 
G01 Z14.368 
G01 Z14.225 
G01 Z14.081 
G01 Z13.967 
G01 Z13.937 
G01 Z13.851 
G01 Z13.708 
G01 Z13.564 
G01 Z13.450 
G01 Z13.420 
G01 Z13.333 
G01 X139.436 Y181.130  F3500.0
G01 X138.914 Y181.504 
G01 X138.102 Y179.191 
G01 X139.260 Y176.339 
G01 X139.887 Y179.334 
G01 X141.852 Y179.363  
G01 X141.130 Y182.263  
G01 X137.862 Y184.621 
G01 X136.044 Y179.143 
G02 X140.147 Y167.078 I-64.826 J-28.779
G02 X140.929 Y174.827 I61.024 J-2.242
G01 X141.852 Y179.363  
G00 Z23.080
G00 X139.642 Y120.744  F7000.0
G01 Z13.333 F300.0 M3
G01 Z13.149 
G01 Z13.054 
G01 Z12.896 
G01 Z12.886 
G01 Z12.833 
G01 Z12.649 
G01 Z12.553 
G01 Z12.396 
G01 Z12.386 
G01 Z12.333 
G01 Z12.149 
G01 Z12.053 
G01 Z11.895 
G01 Z11.885 
G01 Z11.832 
G01 Z11.648 
G01 Z11.553 
G01 Z11.395 
G01 Z11.385 
G01 Z11.332 
G01 Z11.148 
G01 Z11.052 
G01 Z11.000 
G01 Z10.948 
G01 Z10.852 
G01 Z10.668 
G01 Z10.615 
G01 Z10.605 
G01 Z10.447 
G01 Z10.352 
G01 Z10.168 
G01 Z10.115 
G01 Z10.105 
G01 Z9.947 
G01 Z9.851 
G01 Z9.667 
G01 Z9.614 
G01 Z9.604 
G01 Z9.447 
G01 Z9.351 
G01 Z9.167 
G01 Z9.114 
G01 Z9.104 
G01 Z8.946 
G01 Z8.851 
G01 Z8.667 
G01 X138.863 Y124.607  F3500.0
G01 X138.054 Y122.720 
G01 X139.170 Y119.530 
G01 X139.349 Y119.650 
G01 X139.642 Y120.744 
G01 X141.609 Y120.706  
G02 X139.906 Y133.086 I60.358 J14.611
G01 X138.105 Y127.807  
G01 X135.990 Y122.764 
G02 X138.076 Y116.471 I-50.361 J-20.189
G01 X141.015 Y118.472  
G01 X141.609 Y120.706 
G01 X143.580 Y120.670  
G02 X143.625 Y150.145 I58.387 J14.648
G02 X142.580 Y174.554 I57.546 J14.691
G01 X143.582 Y179.389  
G01 X142.625 Y183.254 
G01 X136.845 Y187.459 
G02 X134.226 Y179.104 I-51.732 J11.627
G02 X140.471 Y150.566 I-63.009 J-28.740
G02 X136.331 Y128.502 I-59.932 J-0.175
G01 X133.916 Y122.800  
G02 X136.874 Y113.282 I-48.288 J-20.226
G01 X142.689 Y117.296  
G01 X143.580 Y120.670 
G01 X145.555 Y120.635  
G02 X145.593 Y150.146 I56.412 J14.683
G02 X144.459 Y174.242 I55.578 J14.689
G01 X145.554 Y179.418  
G01 X144.336 Y184.380 
G01 X135.559 Y190.826 
G02 X132.246 Y179.301 I-50.446 J8.260
G01 X132.146 Y179.063  
G02 X138.566 Y150.561 I-60.928 J-28.699
G02 X134.558 Y129.198 I-58.027 J-0.170
G01 X131.832 Y122.828  
G02 X135.537 Y109.931 I-46.203 J-20.253
G01 X144.372 Y116.122  
G01 X145.555 Y120.635 
G01 X147.535 Y120.601  
G02 X147.566 Y150.147 I54.432 J14.717
G02 X146.339 Y173.930 I53.605 J14.688
G01 X147.532 Y179.447  
G01 X146.058 Y185.500 
G02 X134.100 Y194.379 I141.276 J202.772
G02 X130.490 Y180.038 I-48.987 J4.707
G01 X130.053 Y179.022  
G02 X136.661 Y150.555 I-58.835 J-28.658
G02 X132.785 Y129.894 I-56.122 J-0.164
G01 X129.736 Y122.845  
G02 X134.022 Y106.368 I-44.108 J-20.271
G02 X146.064 Y114.949 I99.919 J-127.470
G01 X146.116 Y115.192  
G01 X147.535 Y120.601 
G01 X149.520 Y120.569  
G02 X149.543 Y150.149 I52.447 J14.749
G02 X148.218 Y173.619 I51.628 J14.687
G01 X149.514 Y179.476  
G02 X147.791 Y186.616 I55.632 J17.203
G02 X132.412 Y198.176 I139.544 J201.656
G02 X128.733 Y180.775 I-47.299 J0.910
G01 X127.946 Y178.983  
G02 X134.756 Y150.550 I-56.729 J-28.619
G02 X131.011 Y130.590 I-54.217 J-0.158
G01 X127.627 Y122.852  
G02 X132.266 Y102.515 I-41.999 J-20.277
G02 X147.767 Y113.779 I101.675 J-123.617
G01 X147.977 Y114.785  
G01 X149.520 Y120.569 
G01 X151.510 Y120.538  
G02 X151.526 Y150.150 I50.456 J14.779
G02 X150.097 Y173.307 I49.645 J14.685
G01 X151.502 Y179.504  
G02 X149.536 Y187.727 I53.644 J17.175
G02 X130.400 Y202.319 I137.799 J200.545
G02 X126.977 Y181.513 I-45.287 J-3.233
G01 X125.825 Y178.943  
G02 X132.851 Y150.544 I-54.607 J-28.579
G02 X129.238 Y131.285 I-52.312 J-0.153
G02 X125.504 Y122.847 I-100.615 J39.474
G02 X130.150 Y98.240 I-39.875 J-20.272
G01 X132.061 Y99.866  
G02 X149.484 Y112.613 I101.880 J-120.968
G01 X149.838 Y114.377  
G01 X151.510 Y120.538 
G01 X153.507 Y120.510  
G02 X153.516 Y150.152 I48.459 J14.807
G02 X151.977 Y172.995 I47.655 J14.684
G02 X153.497 Y179.532 I51.692 J-8.574
G02 X151.294 Y188.832 I51.649 J17.147
G02 X131.019 Y204.291 I136.041 J199.440
G01 X127.885 Y206.996  
G02 X125.220 Y182.250 I-42.772 J-7.911
G01 X123.686 Y178.905  
G02 X130.946 Y150.539 I-52.469 J-28.541
G02 X127.464 Y131.981 I-50.407 J-0.147
G02 X123.364 Y122.828 I-98.842 J38.778
G02 X127.507 Y93.610 I-37.736 J-20.253
G01 X127.447 Y93.333  
G01 X133.288 Y98.409 
G02 X151.216 Y111.451 I100.653 J-119.511
G01 X151.699 Y113.969  
G01 X153.507 Y120.510 
G01 X155.511 Y120.484  
G02 X155.512 Y150.154 I46.455 J14.834
G02 X153.856 Y172.683 I45.659 J14.682
G02 X155.498 Y179.560 I49.812 J-8.262
G02 X153.065 Y189.932 I49.647 J17.119
G02 X132.253 Y205.743 I134.269 J198.340
G01 X124.427 Y212.664  
G02 X123.464 Y182.987 I-39.314 J-13.578
G01 X121.529 Y178.866  
G02 X129.041 Y150.533 I-50.311 J-28.502
G02 X125.691 Y132.677 I-48.502 J-0.142
G02 X121.207 Y122.794 I-97.068 J38.082
G02 X125.644 Y94.008 I-35.578 J-20.219
G01 X123.896 Y87.473  
G02 X134.516 Y96.952 I170.380 J-180.214
G02 X152.964 Y110.293 I99.425 J-118.054
G01 X153.560 Y113.562  
G02 X155.511 Y120.484 I59.447 J-13.023
G01 X157.523 Y120.460  
G02 X157.517 Y150.156 I44.444 J14.857
G02 X155.735 Y172.372 I43.654 J14.680
G02 X157.508 Y179.588 I47.933 J-7.950
G02 X154.852 Y191.025 I47.638 J17.092
G02 X133.486 Y207.195 I132.483 J197.247
G02 X122.765 Y216.824 I169.456 J199.447
G01 X121.591 Y214.721  
G02 X121.707 Y183.725 I-36.478 J-15.635
G01 X119.349 Y178.829  
G02 X127.136 Y150.527 I-48.132 J-28.465
G02 X123.918 Y133.373 I-46.597 J-0.136
G02 X119.029 Y122.743 I-95.295 J37.387
G02 X123.782 Y94.407 I-33.401 J-20.168
G02 X121.429 Y86.135 I-63.583 J13.611
G01 X122.789 Y83.774  
G02 X135.743 Y95.495 I171.487 J-176.515
G02 X154.729 Y109.141 I98.198 J-116.596
G01 X155.421 Y113.154  
G02 X157.523 Y120.460 I57.586 J-12.615
G01 X159.544 Y120.439  
G02 X159.531 Y150.158 I42.423 J14.878
G02 X157.615 Y172.060 I41.640 J14.677
G02 X159.527 Y179.615 I46.054 J-7.639
G02 X156.655 Y192.111 I45.619 J17.065
G02 X134.720 Y208.647 I130.680 J196.161
G02 X122.199 Y220.006 I168.223 J197.995
G02 X119.446 Y214.859 I-40.255 J18.226
G02 X119.951 Y184.462 I-34.333 J-15.773
G02 X117.145 Y178.792 I-46.991 J19.725
G02 X125.231 Y150.522 I-45.927 J-28.428
G02 X122.144 Y134.068 I-44.692 J-0.131
G02 X116.828 Y122.673 I-93.522 J36.691
G02 X121.919 Y94.806 I-31.199 J-20.098
G02 X119.319 Y85.910 I-61.720 J13.212
G02 X122.259 Y80.584 I-37.491 J-24.167
G02 X136.970 Y94.037 I172.017 J-173.324
G02 X156.515 Y107.993 I96.971 J-115.139
G01 X157.282 Y112.746  
G02 X159.544 Y120.439 I55.725 J-12.208
G01 X161.575 Y120.422  
G02 X161.555 Y150.161 I40.392 J14.896
G02 X159.494 Y171.748 I39.616 J14.675
G02 X161.556 Y179.641 I44.174 J-7.327
G02 X158.475 Y193.189 I43.589 J17.038
G02 X135.953 Y210.098 I128.859 J195.083
G02 X121.518 Y223.339 I166.989 J196.544
G02 X117.277 Y215.004 I-39.574 J14.894
G01 X117.534 Y214.451  
G02 X118.194 Y185.199 I-32.421 J-15.365
G02 X114.912 Y178.757 I-45.235 J18.988
G02 X123.326 Y150.516 I-43.694 J-28.393
G02 X120.371 Y134.764 I-42.787 J-0.125
G02 X114.600 Y122.580 I-91.748 J35.995
G02 X120.056 Y95.205 I-28.972 J-20.005
G02 X117.190 Y85.677 I-59.858 J12.814
G02 X121.617 Y77.240 I-35.362 J-23.934
G02 X138.197 Y92.580 I172.659 J-169.980
G02 X158.321 Y106.852 I95.744 J-113.682
G01 X159.142 Y112.339  
G02 X161.575 Y120.422 I53.864 J-11.800
G01 X163.617 Y120.408  
G02 X163.592 Y150.164 I38.350 J14.910
G02 X161.373 Y171.437 I37.579 J14.672
G02 X163.598 Y179.667 I42.295 J-7.015
G02 X160.315 Y194.259 I41.548 J17.012
G02 X137.186 Y211.550 I127.019 J194.013
G02 X120.690 Y226.865 I165.756 J195.092
G02 X115.110 Y215.200 I-38.745 J11.368
G01 X115.813 Y213.635  
G02 X116.438 Y185.937 I-30.699 J-14.549
G02 X112.645 Y178.722 I-43.478 J18.251
G02 X121.421 Y150.511 I-41.427 J-28.358
G02 X118.597 Y135.460 I-40.882 J-0.120
G02 X112.341 Y122.461 I-89.975 J35.299
G02 X118.193 Y95.604 I-26.713 J-19.887
G02 X115.039 Y85.434 I-57.995 J12.415
G02 X120.832 Y73.699 I-33.211 J-23.691
G02 X139.424 Y91.123 I173.444 J-166.439
G02 X160.152 Y105.717 I94.517 J-112.225
G02 X161.003 Y111.931 I39.390 J-2.229
G02 X163.617 Y120.408 I52.004 J-11.392
G01 X165.672 Y120.398  
G02 X165.644 Y150.167 I36.294 J14.919
G02 X163.253 Y171.125 I35.527 J14.668
G02 X165.653 Y179.692 I40.416 J-6.703
G02 X162.176 Y195.320 I39.493 J16.987
G02 X138.420 Y213.002 I125.158 J192.952
G02 X119.664 Y230.650 I164.522 J193.640
G02 X112.947 Y215.450 I-37.719 J7.582
G01 X114.091 Y212.819  
G02 X114.681 Y186.674 I-28.978 J-13.733
G02 X110.339 Y178.689 I-41.722 J17.513
G02 X119.516 Y150.505 I-39.121 J-28.325
G02 X116.824 Y136.156 I-38.977 J-0.114
G02 X110.046 Y122.312 I-88.201 J34.604
G02 X116.330 Y96.002 I-24.418 J-19.738
G02 X112.863 Y85.179 I-56.132 J12.016
G02 X119.854 Y69.893 I-31.035 J-23.436
G02 X140.651 Y89.666 I174.421 J-162.634
G02 X162.010 Y104.590 I93.290 J-110.768
G02 X162.864 Y111.523 I37.532 J-1.102
G02 X165.672 Y120.398 I50.143 J-10.985
G01 X167.743 Y120.393  
G02 X167.712 Y150.171 I34.224 J14.924
G02 X165.132 Y170.813 I33.459 J14.665
G02 X167.725 Y179.717 I38.536 J-6.392
G02 X164.061 Y196.371 I37.421 J16.962
G02 X139.653 Y214.454 I123.273 J191.901
G02 X118.353 Y234.810 I163.289 J192.188
G02 X110.790 Y215.756 I-36.408 J3.423
G01 X112.370 Y212.003  
G02 X112.925 Y187.411 I-27.257 J-12.917
G02 X107.986 Y178.657 I-39.965 J16.776
G02 X117.611 Y150.500 I-36.768 J-28.293
G02 X115.051 Y136.851 I-37.072 J-0.108
G02 X107.716 Y122.140 I-86.428 J33.908
G01 X107.995 Y121.798  
G02 X114.468 Y96.401 I-22.366 J-19.224
G02 X110.658 Y84.911 I-54.269 J11.617
G02 X118.600 Y65.707 I-28.830 J-23.167
G02 X141.879 Y88.209 I175.676 J-158.448
G02 X163.899 Y103.472 I92.062 J-109.311
G02 X164.725 Y111.116 I35.644 J0.017
G02 X167.743 Y120.393 I48.282 J-10.577
G01 X169.832 Y120.394  
G02 X169.801 Y150.175 I32.135 J14.924
G02 X167.011 Y170.501 I31.370 J14.660
G02 X169.815 Y179.741 I36.657 J-6.080
G02 X165.972 Y197.410 I35.330 J16.938
G02 X140.887 Y215.906 I121.363 J190.862
G02 X116.582 Y239.572 I162.055 J190.737
G02 X108.638 Y216.119 I-34.638 J-1.340
G01 X110.648 Y211.188  
G02 X111.168 Y188.149 I-25.535 J-12.102
G02 X105.575 Y178.627 I-38.208 J16.039
G02 X115.706 Y150.494 I-34.358 J-28.263
G02 X113.277 Y137.547 I-35.167 J-0.103
G02 X105.447 Y122.102 I-84.655 J33.212
G01 X106.550 Y120.556  
G02 X112.605 Y96.800 I-20.922 J-17.982
G02 X108.417 Y84.626 I-52.406 J11.219
G02 X116.898 Y60.905 I-26.589 J-22.882
G02 X143.106 Y86.752 I177.378 J-153.646
G02 X165.823 Y102.363 I90.835 J-107.854
G02 X166.586 Y110.708 I33.720 J1.126
G02 X169.832 Y120.394 I46.421 J-10.169
G01 X171.941 Y120.401  
G02 X171.915 Y150.180 I30.025 J14.916
G02 X168.891 Y170.190 I29.256 J14.655
G02 X171.929 Y179.763 I34.778 J-5.768
G02 X167.911 Y198.438 I33.217 J16.916
G02 X142.120 Y217.357 I119.423 J189.834
G02 X115.677 Y243.473 I160.822 J189.285
G01 X113.883 Y245.518  
G02 X106.491 Y216.539 I-31.938 J-7.285
G03 X108.927 Y210.372 I47.528 J15.203
G02 X109.412 Y188.886 I-23.814 J-11.286
G02 X103.166 Y178.683 I-36.452 J15.301
G01 X103.168 Y178.517  
G02 X113.801 Y150.488 I-31.950 J-28.153
G02 X111.504 Y138.243 I-33.262 J-0.097
G02 X103.247 Y122.202 I-82.881 J32.516
G03 X105.106 Y119.315 I11.316 J5.241
G02 X110.742 Y97.199 I-19.477 J-16.740
G02 X106.442 Y84.927 I-50.544 J10.820
G03 X106.590 Y83.821 I0.889 J-0.444
G02 X114.276 Y54.839 I-24.762 J-22.078
G02 X144.333 Y85.295 I179.999 J-147.579
G02 X167.787 Y101.265 I89.608 J-106.397
G02 X168.447 Y110.300 I31.756 J2.224
G02 X171.941 Y120.401 I44.560 J-9.762
G00 Z23.080
G00 X139.649 Y179.330  F7000.0
G01 Z13.333 F300.0 M3
G01 Z13.253 
G01 Z13.242 
G01 Z13.146 
G01 Z13.044 
G01 Z12.941 
G01 Z12.862 
G01 Z12.850 
G01 Z12.755 
G01 Z12.652 
G01 Z12.550 
G01 Z12.470 
G01 Z12.458 
G01 Z12.363 
G01 Z12.261 
G01 Z12.158 
G01 Z12.078 
G01 Z12.067 
G01 Z11.971 
G01 Z11.869 
G01 Z11.766 
G01 Z11.686 
G01 Z11.675 
G01 Z11.579 
G01 Z11.477 
G01 Z11.374 
G01 Z11.294 
G01 Z11.283 
G01 Z11.187 
G01 Z11.085 
G01 Z11.000 
G01 Z10.915 
G01 Z10.813 
G01 Z10.717 
G01 Z10.706 
G01 Z10.626 
G01 Z10.523 
G01 Z10.421 
G01 Z10.325 
G01 Z10.314 
G01 Z10.234 
G01 Z10.131 
G01 Z10.029 
G01 Z9.933 
G01 Z9.922 
G01 Z9.842 
G01 Z9.739 
G01 Z9.637 
G01 Z9.542 
G01 Z9.530 
G01 Z9.450 
G01 Z9.348 
G01 Z9.245 
G01 Z9.150 
G01 Z9.138 
G01 Z9.059 
G01 Z8.956 
G01 Z8.854 
G01 Z8.758 
G01 Z8.747 
G01 Z8.667 
G01 X139.231 Y180.992  F3500.0
G01 X139.035 Y181.132 
G01 X138.352 Y179.197 
G01 X139.185 Y177.175 
G01 X139.649 Y179.330 
G01 X141.613 Y179.360  
G01 X140.923 Y182.125  
G01 X137.995 Y184.236 
G01 X136.295 Y179.149 
G02 X139.992 Y168.630 I-65.077 J-28.785
G01 X140.701 Y174.865  
G01 X141.613 Y179.360 
G00 Z23.080
G00 X139.642 Y120.744  F7000.0
G01 Z8.667 F300.0 M3
G01 Z8.483 
G01 Z8.387 
G01 Z8.229 
G01 Z8.219 
G01 Z8.166 
G01 Z7.982 
G01 Z7.887 
G01 Z7.729 
G01 Z7.719 
G01 Z7.666 
G01 Z7.482 
G01 Z7.386 
G01 Z7.229 
G01 Z7.219 
G01 Z7.166 
G01 Z6.982 
G01 Z6.886 
G01 Z6.728 
G01 Z6.718 
G01 Z6.665 
G01 Z6.481 
G01 Z6.386 
G01 Z6.333 
G01 Z6.281 
G01 Z6.185 
G01 Z6.001 
G01 Z5.948 
G01 Z5.938 
G01 Z5.781 
G01 Z5.685 
G01 Z5.501 
G01 Z5.448 
G01 Z5.438 
G01 Z5.280 
G01 Z5.185 
G01 Z5.001 
G01 Z4.948 
G01 Z4.938 
G01 Z4.780 
G01 Z4.684 
G01 Z4.500 
G01 Z4.447 
G01 Z4.437 
G01 Z4.280 
G01 Z4.184 
G01 Z4.000 
G01 X138.863 Y124.607  F3500.0
G01 X138.054 Y122.720 
G01 X139.170 Y119.530 
G01 X139.349 Y119.650 
G01 X139.642 Y120.744 
G01 X141.609 Y120.706  
G02 X139.906 Y133.086 I60.358 J14.611
G01 X138.105 Y127.807  
G01 X135.990 Y122.764 
G02 X138.076 Y116.471 I-50.361 J-20.189
G01 X141.015 Y118.472  
G01 X141.609 Y120.706 
G01 X143.580 Y120.670  
G02 X143.625 Y150.145 I58.387 J14.648
G02 X142.580 Y174.554 I57.546 J14.691
G01 X143.582 Y179.389  
G01 X142.625 Y183.254 
G01 X136.845 Y187.459 
G02 X134.226 Y179.104 I-51.732 J11.627
G02 X140.471 Y150.566 I-63.009 J-28.740
G02 X136.331 Y128.502 I-59.932 J-0.175
G01 X133.916 Y122.800  
G02 X136.874 Y113.282 I-48.288 J-20.226
G01 X142.689 Y117.296  
G01 X143.580 Y120.670 
G01 X145.555 Y120.635  
G02 X145.593 Y150.146 I56.412 J14.683
G02 X144.459 Y174.242 I55.578 J14.689
G01 X145.554 Y179.418  
G01 X144.336 Y184.380 
G01 X135.559 Y190.826 
G02 X132.246 Y179.301 I-50.446 J8.260
G01 X132.146 Y179.063  
G02 X138.566 Y150.561 I-60.928 J-28.699
G02 X134.558 Y129.198 I-58.027 J-0.170
G01 X131.832 Y122.828  
G02 X135.537 Y109.931 I-46.203 J-20.253
G01 X144.372 Y116.122  
G01 X145.555 Y120.635 
G01 X147.535 Y120.601  
G02 X147.566 Y150.147 I54.432 J14.717
G02 X146.339 Y173.930 I53.605 J14.688
G01 X147.532 Y179.447  
G01 X146.058 Y185.500 
G02 X134.100 Y194.379 I141.276 J202.772
G02 X130.490 Y180.038 I-48.987 J4.707
G01 X130.053 Y179.022  
G02 X136.661 Y150.555 I-58.835 J-28.658
G02 X132.785 Y129.894 I-56.122 J-0.164
G01 X129.736 Y122.845  
G02 X134.022 Y106.368 I-44.108 J-20.271
G02 X146.064 Y114.949 I99.919 J-127.470
G01 X146.116 Y115.192  
G01 X147.535 Y120.601 
G01 X149.520 Y120.569  
G02 X149.543 Y150.149 I52.447 J14.749
G02 X148.218 Y173.619 I51.628 J14.687
G01 X149.514 Y179.476  
G02 X147.791 Y186.616 I55.632 J17.203
G02 X132.412 Y198.176 I139.544 J201.656
G02 X128.733 Y180.775 I-47.299 J0.910
G01 X127.946 Y178.983  
G02 X134.756 Y150.550 I-56.729 J-28.619
G02 X131.011 Y130.590 I-54.217 J-0.158
G01 X127.627 Y122.852  
G02 X132.266 Y102.515 I-41.999 J-20.277
G02 X147.767 Y113.779 I101.675 J-123.617
G01 X147.977 Y114.785  
G01 X149.520 Y120.569 
G01 X151.510 Y120.538  
G02 X151.526 Y150.150 I50.456 J14.779
G02 X150.097 Y173.307 I49.645 J14.685
G01 X151.502 Y179.504  
G02 X149.536 Y187.727 I53.644 J17.175
G02 X130.400 Y202.319 I137.799 J200.545
G02 X126.977 Y181.513 I-45.287 J-3.233
G01 X125.825 Y178.943  
G02 X132.851 Y150.544 I-54.607 J-28.579
G02 X129.238 Y131.285 I-52.312 J-0.153
G02 X125.504 Y122.847 I-100.615 J39.474
G02 X130.150 Y98.240 I-39.875 J-20.272
G01 X132.061 Y99.866  
G02 X149.484 Y112.613 I101.880 J-120.968
G01 X149.838 Y114.377  
G01 X151.510 Y120.538 
G01 X153.507 Y120.510  
G02 X153.516 Y150.152 I48.459 J14.807
G02 X151.977 Y172.995 I47.655 J14.684
G02 X153.497 Y179.532 I51.692 J-8.574
G02 X151.294 Y188.832 I51.649 J17.147
G02 X131.019 Y204.291 I136.041 J199.440
G01 X127.885 Y206.996  
G02 X125.220 Y182.250 I-42.772 J-7.911
G01 X123.686 Y178.905  
G02 X130.946 Y150.539 I-52.469 J-28.541
G02 X127.464 Y131.981 I-50.407 J-0.147
G02 X123.364 Y122.828 I-98.842 J38.778
G02 X127.507 Y93.610 I-37.736 J-20.253
G01 X127.447 Y93.333  
G01 X133.288 Y98.409 
G02 X151.216 Y111.451 I100.653 J-119.511
G01 X151.699 Y113.969  
G01 X153.507 Y120.510 
G01 X155.511 Y120.484  
G02 X155.512 Y150.154 I46.455 J14.834
G02 X153.856 Y172.683 I45.659 J14.682
G02 X155.498 Y179.560 I49.812 J-8.262
G02 X153.065 Y189.932 I49.647 J17.119
G02 X132.253 Y205.743 I134.269 J198.340
G01 X124.427 Y212.664  
G02 X123.464 Y182.987 I-39.314 J-13.578
G01 X121.529 Y178.866  
G02 X129.041 Y150.533 I-50.311 J-28.502
G02 X125.691 Y132.677 I-48.502 J-0.142
G02 X121.207 Y122.794 I-97.068 J38.082
G02 X125.644 Y94.008 I-35.578 J-20.219
G01 X123.896 Y87.473  
G02 X134.516 Y96.952 I170.380 J-180.214
G02 X152.964 Y110.293 I99.425 J-118.054
G01 X153.560 Y113.562  
G02 X155.511 Y120.484 I59.447 J-13.023
G01 X157.523 Y120.460  
G02 X157.517 Y150.156 I44.444 J14.857
G02 X155.735 Y172.372 I43.654 J14.680
G02 X157.508 Y179.588 I47.933 J-7.950
G02 X154.852 Y191.025 I47.638 J17.092
G02 X133.486 Y207.195 I132.483 J197.247
G02 X122.765 Y216.824 I169.456 J199.447
G01 X121.591 Y214.721  
G02 X121.707 Y183.725 I-36.478 J-15.635
G01 X119.349 Y178.829  
G02 X127.136 Y150.527 I-48.132 J-28.465
G02 X123.918 Y133.373 I-46.597 J-0.136
G02 X119.029 Y122.743 I-95.295 J37.387
G02 X123.782 Y94.407 I-33.401 J-20.168
G02 X121.429 Y86.135 I-63.583 J13.611
G01 X122.789 Y83.774  
G02 X135.743 Y95.495 I171.487 J-176.515
G02 X154.729 Y109.141 I98.198 J-116.596
G01 X155.421 Y113.154  
G02 X157.523 Y120.460 I57.586 J-12.615
G01 X159.544 Y120.439  
G02 X159.531 Y150.158 I42.423 J14.878
G02 X157.615 Y172.060 I41.640 J14.677
G02 X159.527 Y179.615 I46.054 J-7.639
G02 X156.655 Y192.111 I45.619 J17.065
G02 X134.720 Y208.647 I130.680 J196.161
G02 X122.199 Y220.006 I168.223 J197.995
G02 X119.446 Y214.859 I-40.255 J18.226
G02 X119.951 Y184.462 I-34.333 J-15.773
G02 X117.145 Y178.792 I-46.991 J19.725
G02 X125.231 Y150.522 I-45.927 J-28.428
G02 X122.144 Y134.068 I-44.692 J-0.131
G02 X116.828 Y122.673 I-93.522 J36.691
G02 X121.919 Y94.806 I-31.199 J-20.098
G02 X119.319 Y85.910 I-61.720 J13.212
G02 X122.259 Y80.584 I-37.491 J-24.167
G02 X136.970 Y94.037 I172.017 J-173.324
G02 X156.515 Y107.993 I96.971 J-115.139
G01 X157.282 Y112.746  
G02 X159.544 Y120.439 I55.725 J-12.208
G01 X161.575 Y120.422  
G02 X161.555 Y150.161 I40.392 J14.896
G02 X159.494 Y171.748 I39.616 J14.675
G02 X161.556 Y179.641 I44.174 J-7.327
G02 X158.475 Y193.189 I43.589 J17.038
G02 X135.953 Y210.098 I128.859 J195.083
G02 X121.518 Y223.339 I166.989 J196.544
G02 X117.277 Y215.004 I-39.574 J14.894
G01 X117.534 Y214.451  
G02 X118.194 Y185.199 I-32.421 J-15.365
G02 X114.912 Y178.757 I-45.235 J18.988
G02 X123.326 Y150.516 I-43.694 J-28.393
G02 X120.371 Y134.764 I-42.787 J-0.125
G02 X114.600 Y122.580 I-91.748 J35.995
G02 X120.056 Y95.205 I-28.972 J-20.005
G02 X117.190 Y85.677 I-59.858 J12.814
G02 X121.617 Y77.240 I-35.362 J-23.934
G02 X138.197 Y92.580 I172.659 J-169.980
G02 X158.321 Y106.852 I95.744 J-113.682
G01 X159.142 Y112.339  
G02 X161.575 Y120.422 I53.864 J-11.800
G01 X163.617 Y120.408  
G02 X163.592 Y150.164 I38.350 J14.910
G02 X161.373 Y171.437 I37.579 J14.672
G02 X163.598 Y179.667 I42.295 J-7.015
G02 X160.315 Y194.259 I41.548 J17.012
G02 X137.186 Y211.550 I127.019 J194.013
G02 X120.690 Y226.865 I165.756 J195.092
G02 X115.110 Y215.200 I-38.745 J11.368
G01 X115.813 Y213.635  
G02 X116.438 Y185.937 I-30.699 J-14.549
G02 X112.645 Y178.722 I-43.478 J18.251
G02 X121.421 Y150.511 I-41.427 J-28.358
G02 X118.597 Y135.460 I-40.882 J-0.120
G02 X112.341 Y122.461 I-89.975 J35.299
G02 X118.193 Y95.604 I-26.713 J-19.887
G02 X115.039 Y85.434 I-57.995 J12.415
G02 X120.832 Y73.699 I-33.211 J-23.691
G02 X139.424 Y91.123 I173.444 J-166.439
G02 X160.152 Y105.717 I94.517 J-112.225
G02 X161.003 Y111.931 I39.390 J-2.229
G02 X163.617 Y120.408 I52.004 J-11.392
G01 X165.672 Y120.398  
G02 X165.644 Y150.167 I36.294 J14.919
G02 X163.253 Y171.125 I35.527 J14.668
G02 X165.653 Y179.692 I40.416 J-6.703
G02 X162.176 Y195.320 I39.493 J16.987
G02 X138.420 Y213.002 I125.158 J192.952
G02 X119.664 Y230.650 I164.522 J193.640
G02 X112.947 Y215.450 I-37.719 J7.582
G01 X114.091 Y212.819  
G02 X114.681 Y186.674 I-28.978 J-13.733
G02 X110.339 Y178.689 I-41.722 J17.513
G02 X119.516 Y150.505 I-39.121 J-28.325
G02 X116.824 Y136.156 I-38.977 J-0.114
G02 X110.046 Y122.312 I-88.201 J34.604
G02 X116.330 Y96.002 I-24.418 J-19.738
G02 X112.863 Y85.179 I-56.132 J12.016
G02 X119.854 Y69.893 I-31.035 J-23.436
G02 X140.651 Y89.666 I174.421 J-162.634
G02 X162.010 Y104.590 I93.290 J-110.768
G02 X162.864 Y111.523 I37.532 J-1.102
G02 X165.672 Y120.398 I50.143 J-10.985
G01 X167.743 Y120.393  
G02 X167.712 Y150.171 I34.224 J14.924
G02 X165.132 Y170.813 I33.459 J14.665
G02 X167.725 Y179.717 I38.536 J-6.392
G02 X164.061 Y196.371 I37.421 J16.962
G02 X139.653 Y214.454 I123.273 J191.901
G02 X118.353 Y234.810 I163.289 J192.188
G02 X110.790 Y215.756 I-36.408 J3.423
G01 X112.370 Y212.003  
G02 X112.925 Y187.411 I-27.257 J-12.917
G02 X107.986 Y178.657 I-39.965 J16.776
G02 X117.611 Y150.500 I-36.768 J-28.293
G02 X115.051 Y136.851 I-37.072 J-0.108
G02 X107.716 Y122.140 I-86.428 J33.908
G01 X107.995 Y121.798  
G02 X114.468 Y96.401 I-22.366 J-19.224
G02 X110.658 Y84.911 I-54.269 J11.617
G02 X118.600 Y65.707 I-28.830 J-23.167
G02 X141.879 Y88.209 I175.676 J-158.448
G02 X163.899 Y103.472 I92.062 J-109.311
G02 X164.725 Y111.116 I35.644 J0.017
G02 X167.743 Y120.393 I48.282 J-10.577
G01 X169.832 Y120.394  
G02 X169.801 Y150.175 I32.135 J14.924
G02 X167.011 Y170.501 I31.370 J14.660
G02 X169.815 Y179.741 I36.657 J-6.080
G02 X165.972 Y197.410 I35.330 J16.938
G02 X140.887 Y215.906 I121.363 J190.862
G02 X116.582 Y239.572 I162.055 J190.737
G02 X108.638 Y216.119 I-34.638 J-1.340
G01 X110.648 Y211.188  
G02 X111.168 Y188.149 I-25.535 J-12.102
G02 X105.575 Y178.627 I-38.208 J16.039
G02 X115.706 Y150.494 I-34.358 J-28.263
G02 X113.277 Y137.547 I-35.167 J-0.103
G02 X105.447 Y122.102 I-84.655 J33.212
G01 X106.550 Y120.556  
G02 X112.605 Y96.800 I-20.922 J-17.982
G02 X108.417 Y84.626 I-52.406 J11.219
G02 X116.898 Y60.905 I-26.589 J-22.882
G02 X143.106 Y86.752 I177.378 J-153.646
G02 X165.823 Y102.363 I90.835 J-107.854
G02 X166.586 Y110.708 I33.720 J1.126
G02 X169.832 Y120.394 I46.421 J-10.169
G01 X171.941 Y120.401  
G02 X171.915 Y150.180 I30.025 J14.916
G02 X168.891 Y170.190 I29.256 J14.655
G02 X171.929 Y179.763 I34.778 J-5.768
G02 X167.911 Y198.438 I33.217 J16.916
G02 X142.120 Y217.357 I119.423 J189.834
G02 X115.677 Y243.473 I160.822 J189.285
G01 X113.883 Y245.518  
G02 X106.491 Y216.539 I-31.938 J-7.285
G03 X108.927 Y210.372 I47.528 J15.203
G02 X109.412 Y188.886 I-23.814 J-11.286
G02 X103.166 Y178.683 I-36.452 J15.301
G01 X103.168 Y178.517  
G02 X113.801 Y150.488 I-31.950 J-28.153
G02 X111.504 Y138.243 I-33.262 J-0.097
G02 X103.247 Y122.202 I-82.881 J32.516
G03 X105.106 Y119.315 I11.316 J5.241
G02 X110.742 Y97.199 I-19.477 J-16.740
G02 X106.442 Y84.927 I-50.544 J10.820
G03 X106.590 Y83.821 I0.889 J-0.444
G02 X114.276 Y54.839 I-24.762 J-22.078
G02 X144.333 Y85.295 I179.999 J-147.579
G02 X167.787 Y101.265 I89.608 J-106.397
G02 X168.447 Y110.300 I31.756 J2.224
G02 X171.941 Y120.401 I44.560 J-9.762
G00 Z23.080
G00 X139.649 Y179.330  F7000.0
G01 Z8.667 F300.0 M3
G01 Z8.587 
G01 Z8.575 
G01 Z8.480 
G01 Z8.378 
G01 Z8.275 
G01 Z8.195 
G01 Z8.184 
G01 Z8.088 
G01 Z7.986 
G01 Z7.883 
G01 Z7.803 
G01 Z7.792 
G01 Z7.696 
G01 Z7.594 
G01 Z7.491 
G01 Z7.411 
G01 Z7.400 
G01 Z7.304 
G01 Z7.202 
G01 Z7.099 
G01 Z7.019 
G01 Z7.008 
G01 Z6.912 
G01 Z6.810 
G01 Z6.707 
G01 Z6.627 
G01 Z6.616 
G01 Z6.520 
G01 Z6.418 
G01 Z6.333 
G01 Z6.248 
G01 Z6.146 
G01 Z6.051 
G01 Z6.039 
G01 Z5.959 
G01 Z5.857 
G01 Z5.754 
G01 Z5.659 
G01 Z5.647 
G01 Z5.568 
G01 Z5.465 
G01 Z5.363 
G01 Z5.267 
G01 Z5.256 
G01 Z5.176 
G01 Z5.073 
G01 Z4.971 
G01 Z4.875 
G01 Z4.864 
G01 Z4.784 
G01 Z4.681 
G01 Z4.579 
G01 Z4.483 
G01 Z4.472 
G01 Z4.392 
G01 Z4.289 
G01 Z4.187 
G01 Z4.091 
G01 Z4.080 
G01 Z4.000 
G01 X139.231 Y180.992  F3500.0
G01 X139.035 Y181.132 
G01 X138.352 Y179.197 
G01 X139.185 Y177.175 
G01 X139.649 Y179.330 
G01 X141.613 Y179.360  
G01 X140.923 Y182.125  
G01 X137.995 Y184.236 
G01 X136.295 Y179.149 
G02 X139.992 Y168.630 I-65.077 J-28.785
G01 X140.701 Y174.865  
G01 X141.613 Y179.360 
G00 Z23.080
G00 X222.393 Y160.220  F7000.0
G01 Z18.000 F300.0 M3
G01 Z17.773 
G01 Z17.546 
G01 Z17.318 
G01 Z17.091 
G01 Z17.036 
G01 Z16.851 
G01 Z16.666 
G01 Z16.425 
G01 Z16.184 
G01 Z16.133 
G01 Z15.900 
G01 Z15.667 
G01 Z15.434 
G01 Z15.201 
G01 Z15.150 
G01 Z14.909 
G01 Z14.668 
G01 Z14.482 
G01 Z14.297 
G01 Z14.242 
G01 Z14.015 
G01 Z13.788 
G01 Z13.560 
G01 Z13.333 
G02 X222.683 Y140.860 I-49.427 J-10.420
G01 X223.594 Y141.598  F3500.0
G02 X225.041 Y149.406 I53.741 J-5.925
G02 X223.269 Y159.564 I44.770 J13.045
G01 X222.393 Y160.220  
G01 X219.403 Y164.910  
G01 X219.289 Y164.532  
G02 X219.503 Y135.757 I-46.323 J-14.732
G01 X225.407 Y140.613  
G02 X227.021 Y149.434 I51.927 J-4.940
G02 X225.125 Y160.558 I42.790 J13.017
G01 X219.403 Y164.910  
G01 X218.309 Y168.199  
G01 X217.289 Y164.521  
G02 X217.249 Y134.959 I-44.323 J-14.722
G01 X218.089 Y132.056  
G01 X227.234 Y139.637 
G02 X229.007 Y149.463 I50.100 J-3.964
G02 X226.999 Y161.542 I40.804 J12.988
G01 X218.309 Y168.199  
G01 X217.060 Y171.652  
G02 X215.281 Y164.510 I-45.957 J7.655
G02 X215.239 Y134.971 I-42.315 J-14.711
G02 X216.921 Y128.520 I-44.630 J-15.076
G01 X229.076 Y138.668  
G02 X231.000 Y149.494 I48.259 J-2.996
G02 X228.895 Y162.515 I38.811 J12.957
G02 X217.060 Y171.652 I167.039 J228.586
G01 X215.610 Y175.319  
G02 X213.263 Y164.498 I-44.507 J3.988
G02 X213.220 Y134.983 I-40.297 J-14.699
G02 X215.549 Y124.763 I-42.610 J-15.088
G02 X230.933 Y137.710 I222.856 J-249.177
G02 X233.002 Y149.527 I46.402 J-2.037
G02 X230.813 Y163.474 I36.809 J12.924
G02 X215.610 Y175.319 I165.120 J227.626
G01 X213.883 Y179.279  
G02 X211.233 Y164.486 I-42.780 J0.028
G02 X211.188 Y134.996 I-38.267 J-14.686
G02 X213.900 Y120.700 I-40.579 J-15.101
G02 X232.806 Y136.762 I224.505 J-245.114
G02 X235.014 Y149.564 I44.528 J-1.089
G02 X232.757 Y164.420 I34.797 J12.887
G02 X213.883 Y179.279 I163.177 J226.681
G01 X211.744 Y183.678  
G02 X209.191 Y164.472 I-40.640 J-4.371
G02 X209.144 Y135.010 I-36.225 J-14.673
G02 X211.835 Y116.184 I-38.534 J-15.115
G02 X234.698 Y135.825 I226.569 J-240.597
G02 X237.038 Y149.603 I42.636 J-0.152
G02 X234.729 Y165.350 I32.773 J12.848
G02 X211.744 Y183.678 I161.204 J225.751
G01 X208.890 Y188.834  
G02 X207.133 Y164.458 I-37.787 J-9.527
G02 X207.083 Y135.025 I-34.167 J-14.659
G02 X209.055 Y110.881 I-36.474 J-15.130
G02 X236.610 Y134.901 I229.350 J-235.295
G02 X239.075 Y149.647 I40.724 J0.772
G02 X236.733 Y166.262 I30.736 J12.804
G02 X208.890 Y188.834 I159.200 J224.838
G01 X204.254 Y195.884  
G02 X205.057 Y164.443 I-33.151 J-16.577
G02 X205.004 Y135.042 I-32.091 J-14.643
G02 X204.516 Y103.683 I-34.395 J-15.147
G01 X204.524 Y103.658  
G02 X238.544 Y133.991 I233.880 J-228.072
G02 X241.128 Y149.695 I38.790 J1.682
G02 X238.774 Y167.155 I28.683 J12.756
G02 X204.990 Y195.163 I157.159 J223.946
G01 X204.254 Y195.884  
G01 X203.278 Y199.558  
G01 X201.878 Y196.310  
G02 X202.958 Y164.426 I-30.775 J-17.003
G02 X202.903 Y135.060 I-29.992 J-14.626
G02 X202.448 Y103.796 I-32.294 J-15.166
G01 X203.684 Y100.046  
G02 X240.503 Y133.095 I234.721 J-224.459
G02 X243.201 Y149.748 I36.832 J2.578
G02 X240.856 Y168.024 I26.610 J12.703
G01 X240.847 Y168.030  
G02 X206.319 Y196.527 I155.086 J223.071
G01 X203.278 Y199.558  
G01 X202.488 Y203.120  
G02 X199.745 Y196.291 I-40.179 J12.174
G01 X199.747 Y196.200  
G02 X200.833 Y164.407 I-28.644 J-16.893
G02 X200.775 Y135.081 I-27.867 J-14.608
G02 X200.364 Y103.918 I-30.166 J-15.186
G02 X202.687 Y96.220 I-47.616 J-18.570
G02 X242.489 Y132.217 I235.718 J-220.634
G02 X245.298 Y149.808 I34.846 J3.456
G02 X242.971 Y168.805 I24.513 J12.643
G01 X241.935 Y169.594  
G02 X207.649 Y197.892 I153.998 J221.507
G01 X202.488 Y203.120  
G01 X201.510 Y206.960  
G02 X198.046 Y197.153 I-39.202 J8.333
G03 X198.107 Y195.232 I1.783 J-0.905
G02 X198.675 Y164.386 I-27.003 J-15.926
G02 X198.613 Y135.104 I-25.709 J-14.587
G02 X198.259 Y104.050 I-28.004 J-15.210
G02 X201.484 Y92.114 I-45.511 J-18.702
G02 X244.505 Y131.357 I236.921 J-216.528
G02 X247.424 Y149.877 I32.829 J4.316
G02 X245.106 Y169.448 I22.387 J12.574
G01 X243.022 Y171.158  
G02 X208.978 Y199.256 I152.911 J219.942
G01 X201.510 Y206.960  
G01 X200.262 Y211.208  
G02 X196.347 Y198.015 I-37.954 J4.086
G03 X196.466 Y194.265 I3.481 J-1.767
G02 X196.942 Y165.188 I-25.363 J-14.958
G03 X196.959 Y163.549 I1.473 J-0.805
G02 X196.590 Y135.424 I-23.993 J-13.750
G01 X196.582 Y134.833  
G02 X196.130 Y104.195 I-25.973 J-14.939
G02 X199.992 Y87.615 I-43.381 J-18.847
G02 X246.556 Y130.519 I238.412 J-212.029
G02 X249.588 Y149.956 I30.778 J5.154
G02 X247.259 Y169.967 I20.223 J12.495
G03 X244.110 Y172.722 I-13.895 J-12.701
G02 X210.308 Y200.620 I151.824 J218.378
G02 X200.262 Y211.208 I130.151 J133.555
G00 Z23.080
G00 X222.707 Y159.725  F7000.0
G01 Z13.333 F300.0 M3
G01 Z13.047 
G01 Z12.759 
G01 Z12.473 
G01 Z12.448 
G01 Z12.265 
G01 Z12.082 
G01 Z11.844 
G01 Z11.605 
G01 Z11.584 
G01 Z11.389 
G01 Z11.194 
G01 Z11.000 
G01 Z10.805 
G01 Z10.610 
G01 Z10.415 
G01 Z10.394 
G01 Z10.156 
G01 Z9.917 
G01 Z9.735 
G01 Z9.552 
G01 Z9.527 
G01 Z9.240 
G01 Z8.953 
G01 Z8.667 
G02 X222.982 Y141.371 I-49.741 J-9.926
G01 X223.397 Y141.706  F3500.0
G02 X224.826 Y149.403 I53.938 J-6.033
G02 X223.068 Y159.455 I44.985 J13.047
G01 X222.707 Y159.725  
G01 X219.515 Y164.556  
G01 X219.508 Y164.533  
G02 X219.899 Y136.364 I-46.542 J-14.733
G01 X225.207 Y140.721  
G02 X226.803 Y149.430 I52.127 J-5.048
G02 X224.919 Y160.450 I43.008 J13.020
G01 X219.515 Y164.556  
G01 X218.437 Y167.826  
G01 X217.511 Y164.522  
G02 X217.472 Y134.958 I-44.545 J-14.723
G01 X218.209 Y132.437  
G01 X227.031 Y139.745 
G02 X228.786 Y149.459 I50.304 J-4.072
G02 X226.790 Y161.434 I41.025 J12.992
G01 X218.437 Y167.826  
G01 X217.209 Y171.255  
G02 X215.506 Y164.511 I-46.106 J8.052
G02 X215.465 Y134.969 I-42.540 J-14.712
G02 X217.061 Y128.927 I-44.856 J-15.075
G01 X228.869 Y138.777  
G02 X230.776 Y149.490 I48.466 J-3.104
G02 X228.681 Y162.406 I39.035 J12.961
G01 X217.209 Y171.255  
G01 X215.786 Y174.891  
G02 X213.492 Y164.499 I-44.683 J4.416
G02 X213.449 Y134.981 I-40.526 J-14.700
G02 X215.717 Y125.201 I-42.840 J-15.087
G02 X230.722 Y137.818 I222.688 J-249.615
G02 X232.775 Y149.523 I46.613 J-2.145
G02 X230.595 Y163.366 I37.036 J12.928
G02 X215.786 Y174.891 I165.339 J227.734
G01 X214.098 Y178.808  
G02 X211.466 Y164.487 I-42.995 J0.499
G02 X211.421 Y134.994 I-38.500 J-14.688
G02 X214.106 Y121.184 I-40.812 J-15.100
G02 X232.591 Y136.870 I224.299 J-245.598
G02 X234.784 Y149.559 I44.743 J-1.197
G02 X232.533 Y164.313 I35.027 J12.892
G02 X214.098 Y178.808 I163.400 J226.788
G01 X212.018 Y183.141  
G02 X209.427 Y164.474 I-40.915 J-3.834
G02 X209.380 Y135.008 I-36.461 J-14.675
G02 X212.102 Y116.735 I-38.771 J-15.114
G02 X234.479 Y135.933 I226.303 J-241.149
G02 X236.804 Y149.598 I42.856 J-0.260
G02 X234.500 Y165.244 I33.007 J12.852
G02 X212.018 Y183.141 I161.433 J225.857
G01 X209.278 Y188.175  
G02 X207.373 Y164.460 I-38.175 J-8.868
G02 X207.324 Y135.023 I-34.407 J-14.660
G02 X209.434 Y111.559 I-36.715 J-15.129
G02 X236.387 Y135.008 I228.971 J-235.973
G02 X238.837 Y149.641 I40.948 J0.665
G02 X236.498 Y166.157 I30.974 J12.809
G02 X209.278 Y188.175 I159.435 J224.943
G01 X205.003 Y194.838  
G02 X205.302 Y164.444 I-33.900 J-15.532
G02 X205.250 Y135.040 I-32.336 J-14.645
G02 X205.225 Y104.694 I-34.640 J-15.145
G02 X238.316 Y134.097 I233.179 J-229.108
G02 X240.886 Y149.689 I39.019 J1.576
G02 X238.532 Y167.051 I28.925 J12.762
G02 X205.003 Y194.838 I157.401 J224.050
G01 X203.362 Y199.151  
G01 X202.132 Y196.317  
G02 X203.208 Y164.428 I-31.029 J-17.010
G02 X203.153 Y135.058 I-30.242 J-14.628
G02 X202.694 Y103.782 I-32.544 J-15.163
G01 X203.791 Y100.483  
G02 X240.270 Y133.200 I234.614 J-224.897
G02 X242.954 Y149.741 I37.065 J2.473
G02 X240.607 Y167.922 I26.856 J12.709
G02 X206.162 Y196.366 I155.326 J223.178
G01 X203.362 Y199.151  
G01 X202.591 Y202.681  
G02 X199.981 Y196.253 I-40.282 J12.612
G02 X201.089 Y164.409 I-28.877 J-16.946
G02 X201.031 Y135.078 I-28.123 J-14.610
G02 X200.614 Y103.902 I-30.422 J-15.184
G02 X202.816 Y96.690 I-47.866 J-18.555
G02 X242.250 Y132.321 I235.589 J-221.104
G02 X245.046 Y149.801 I35.085 J3.352
G02 X242.717 Y168.719 I24.765 J12.650
G01 X241.805 Y169.407  
G02 X207.490 Y197.729 I154.128 J221.693
G01 X202.591 Y202.681  
G01 X201.640 Y206.479  
G02 X198.251 Y197.049 I-39.332 J8.814
G03 X198.304 Y195.349 I1.578 J-0.801
G02 X198.937 Y164.389 I-27.201 J-16.042
G02 X198.876 Y135.101 I-25.971 J-14.590
G02 X198.514 Y104.033 I-28.267 J-15.207
G02 X201.643 Y92.627 I-45.766 J-18.686
G02 X244.261 Y131.460 I236.762 J-217.041
G02 X247.166 Y149.868 I33.074 J4.213
G02 X244.848 Y169.377 I22.645 J12.583
G01 X242.891 Y170.970  
G02 X208.818 Y199.092 I153.042 J220.131
G01 X201.640 Y206.479  
G01 X200.433 Y210.663  
G02 X196.554 Y197.910 I-38.125 J4.631
G03 X196.665 Y194.382 I3.275 J-1.662
G02 X197.146 Y165.077 I-25.562 J-15.076
G03 X197.160 Y163.665 I1.269 J-0.694
G02 X196.788 Y135.304 I-24.194 J-13.865
G01 X196.783 Y134.949  
G02 X196.390 Y104.176 I-26.174 J-15.054
G02 X200.193 Y88.189 I-43.642 J-18.829
G02 X246.305 Y130.620 I238.211 J-212.602
G02 X249.323 Y149.946 I31.030 J5.053
G02 X246.996 Y169.910 I20.488 J12.505
G03 X243.978 Y172.532 I-13.632 J-12.644
G02 X210.146 Y200.454 I151.956 J218.568
G02 X200.433 Y210.663 I130.313 J133.721
G00 Z23.080
G00 X222.707 Y159.725  F7000.0
G01 Z8.667 F300.0 M3
G01 Z8.380 
G01 Z8.092 
G01 Z7.806 
G01 Z7.781 
G01 Z7.598 
G01 Z7.415 
G01 Z7.177 
G01 Z6.938 
G01 Z6.917 
G01 Z6.723 
G01 Z6.528 
G01 Z6.333 
G01 Z6.139 
G01 Z5.943 
G01 Z5.749 
G01 Z5.728 
G01 Z5.489 
G01 Z5.251 
G01 Z5.068 
G01 Z4.885 
G01 Z4.860 
G01 Z4.574 
G01 Z4.286 
G01 Z4.000 
G02 X222.982 Y141.371 I-49.741 J-9.926
G01 X223.397 Y141.706  F3500.0
G02 X224.826 Y149.403 I53.938 J-6.033
G02 X223.068 Y159.455 I44.985 J13.047
G01 X222.707 Y159.725  
G01 X219.515 Y164.556  
G01 X219.508 Y164.533  
G02 X219.899 Y136.364 I-46.542 J-14.733
G01 X225.207 Y140.721  
G02 X226.803 Y149.430 I52.127 J-5.048
G02 X224.919 Y160.450 I43.008 J13.020
G01 X219.515 Y164.556  
G01 X218.437 Y167.826  
G01 X217.511 Y164.522  
G02 X217.472 Y134.958 I-44.545 J-14.723
G01 X218.209 Y132.437  
G01 X227.031 Y139.745 
G02 X228.786 Y149.459 I50.304 J-4.072
G02 X226.790 Y161.434 I41.025 J12.992
G01 X218.437 Y167.826  
G01 X217.209 Y171.255  
G02 X215.506 Y164.511 I-46.106 J8.052
G02 X215.465 Y134.969 I-42.540 J-14.712
G02 X217.061 Y128.927 I-44.856 J-15.075
G01 X228.869 Y138.777  
G02 X230.776 Y149.490 I48.466 J-3.104
G02 X228.681 Y162.406 I39.035 J12.961
G01 X217.209 Y171.255  
G01 X215.786 Y174.891  
G02 X213.492 Y164.499 I-44.683 J4.416
G02 X213.449 Y134.981 I-40.526 J-14.700
G02 X215.717 Y125.201 I-42.840 J-15.087
G02 X230.722 Y137.818 I222.688 J-249.615
G02 X232.775 Y149.523 I46.613 J-2.145
G02 X230.595 Y163.366 I37.036 J12.928
G02 X215.786 Y174.891 I165.339 J227.734
G01 X214.098 Y178.808  
G02 X211.466 Y164.487 I-42.995 J0.499
G02 X211.421 Y134.994 I-38.500 J-14.688
G02 X214.106 Y121.184 I-40.812 J-15.100
G02 X232.591 Y136.870 I224.299 J-245.598
G02 X234.784 Y149.559 I44.743 J-1.197
G02 X232.533 Y164.313 I35.027 J12.892
G02 X214.098 Y178.808 I163.400 J226.788
G01 X212.018 Y183.141  
G02 X209.427 Y164.474 I-40.915 J-3.834
G02 X209.380 Y135.008 I-36.461 J-14.675
G02 X212.102 Y116.735 I-38.771 J-15.114
G02 X234.479 Y135.933 I226.303 J-241.149
G02 X236.804 Y149.598 I42.856 J-0.260
G02 X234.500 Y165.244 I33.007 J12.852
G02 X212.018 Y183.141 I161.433 J225.857
G01 X209.278 Y188.175  
G02 X207.373 Y164.460 I-38.175 J-8.868
G02 X207.324 Y135.023 I-34.407 J-14.660
G02 X209.434 Y111.559 I-36.715 J-15.129
G02 X236.387 Y135.008 I228.971 J-235.973
G02 X238.837 Y149.641 I40.948 J0.665
G02 X236.498 Y166.157 I30.974 J12.809
G02 X209.278 Y188.175 I159.435 J224.943
G01 X205.003 Y194.838  
G02 X205.302 Y164.444 I-33.900 J-15.532
G02 X205.250 Y135.040 I-32.336 J-14.645
G02 X205.225 Y104.694 I-34.640 J-15.145
G02 X238.316 Y134.097 I233.179 J-229.108
G02 X240.886 Y149.689 I39.019 J1.576
G02 X238.532 Y167.051 I28.925 J12.762
G02 X205.003 Y194.838 I157.401 J224.050
G01 X203.362 Y199.151  
G01 X202.132 Y196.317  
G02 X203.208 Y164.428 I-31.029 J-17.010
G02 X203.153 Y135.058 I-30.242 J-14.628
G02 X202.694 Y103.782 I-32.544 J-15.163
G01 X203.791 Y100.483  
G02 X240.270 Y133.200 I234.614 J-224.897
G02 X242.954 Y149.741 I37.065 J2.473
G02 X240.607 Y167.922 I26.856 J12.709
G02 X206.162 Y196.366 I155.326 J223.178
G01 X203.362 Y199.151  
G01 X202.591 Y202.681  
G02 X199.981 Y196.253 I-40.282 J12.612
G02 X201.089 Y164.409 I-28.877 J-16.946
G02 X201.031 Y135.078 I-28.123 J-14.610
G02 X200.614 Y103.902 I-30.422 J-15.184
G02 X202.816 Y96.690 I-47.866 J-18.555
G02 X242.250 Y132.321 I235.589 J-221.104
G02 X245.046 Y149.801 I35.085 J3.352
G02 X242.717 Y168.719 I24.765 J12.650
G01 X241.805 Y169.407  
G02 X207.490 Y197.729 I154.128 J221.693
G01 X202.591 Y202.681  
G01 X201.640 Y206.479  
G02 X198.251 Y197.049 I-39.332 J8.814
G03 X198.304 Y195.349 I1.578 J-0.801
G02 X198.937 Y164.389 I-27.201 J-16.042
G02 X198.876 Y135.101 I-25.971 J-14.590
G02 X198.514 Y104.033 I-28.267 J-15.207
G02 X201.643 Y92.627 I-45.766 J-18.686
G02 X244.261 Y131.460 I236.762 J-217.041
G02 X247.166 Y149.868 I33.074 J4.213
G02 X244.848 Y169.377 I22.645 J12.583
G01 X242.891 Y170.970  
G02 X208.818 Y199.092 I153.042 J220.131
G01 X201.640 Y206.479  
G01 X200.433 Y210.663  
G02 X196.554 Y197.910 I-38.125 J4.631
G03 X196.665 Y194.382 I3.275 J-1.662
G02 X197.146 Y165.077 I-25.562 J-15.076
G03 X197.160 Y163.665 I1.269 J-0.694
G02 X196.788 Y135.304 I-24.194 J-13.865
G01 X196.783 Y134.949  
G02 X196.390 Y104.176 I-26.174 J-15.054
G02 X200.193 Y88.189 I-43.642 J-18.829
G02 X246.305 Y130.620 I238.211 J-212.602
G02 X249.323 Y149.946 I31.030 J5.053
G02 X246.996 Y169.910 I20.488 J12.505
G03 X243.978 Y172.532 I-13.632 J-12.644
G02 X210.146 Y200.454 I151.956 J218.568
G02 X200.433 Y210.663 I130.313 J133.721
G00 Z23.080
G00 X285.287 Y152.984  F7000.0
G01 Z18.000 F300.0 M3
G01 Z17.873 
G01 Z17.747 
G01 Z17.536 
G01 Z17.323 
G01 Z17.196 
G01 Z17.069 
G01 Z16.859 
G01 Z16.645 
G01 Z16.519 
G01 Z16.392 
G01 Z16.182 
G01 Z15.968 
G01 Z15.842 
G01 Z15.715 
G01 Z15.667 
G01 Z15.618 
G01 Z15.492 
G01 Z15.365 
G01 Z15.152 
G01 Z14.941 
G01 Z14.815 
G01 Z14.688 
G01 Z14.474 
G01 Z14.264 
G01 Z14.137 
G01 Z14.011 
G01 Z13.797 
G01 Z13.587 
G01 Z13.460 
G01 Z13.333 
G02 X285.391 Y147.562 I-35.762 J-3.400
G01 X288.984 Y150.291  F3500.0
G01 X285.287 Y152.984 
G01 X282.596 Y157.555  
G02 X282.890 Y142.950 I-33.071 J-7.970
G02 X292.343 Y150.310 I58.287 J-65.108
G02 X282.596 Y157.555 I62.094 J93.717
G01 X278.457 Y163.772  
G01 X279.165 Y161.943  
G02 X279.809 Y138.900 I-29.640 J-12.359
G01 X279.376 Y136.909  
G01 X280.219 Y137.769 
G02 X295.851 Y150.317 I60.957 J-59.927
G02 X278.457 Y163.772 I58.586 J93.710
G01 X277.765 Y167.100  
G01 X277.224 Y167.646  
G01 X276.408 Y163.867 
G01 X277.407 Y161.210 
G02 X278.012 Y139.533 I-27.882 J-11.626
G03 X277.931 Y133.074 I9.494 J-3.350
G01 X278.022 Y132.788  
G01 X281.578 Y136.433 
G02 X299.542 Y150.310 I59.599 J-58.592
G02 X277.765 Y167.100 I54.895 J93.718
G01 X279.109 Y168.449  
G01 X276.207 Y171.569  
G01 X275.882 Y171.947 
G02 X274.423 Y163.806 I-48.690 J4.527
G01 X275.648 Y160.477  
G02 X276.216 Y140.167 I-26.123 J-10.893
G03 X276.119 Y132.485 I11.290 J-3.983
G01 X276.934 Y128.912  
G01 X282.936 Y135.098 
G02 X303.462 Y150.284 I58.240 J-57.256
G02 X279.109 Y168.449 I50.975 J93.744
G00 Z23.080
G00 X285.563 Y152.485  F7000.0
G01 Z13.333 F300.0 M3
G01 Z13.127 
G01 Z12.955 
G01 Z12.781 
G01 Z12.574 
G01 Z12.402 
G01 Z12.228 
G01 Z12.021 
G01 Z11.849 
G01 Z11.675 
G01 Z11.469 
G01 Z11.297 
G01 Z11.122 
G01 Z11.000 
G01 Z10.878 
G01 Z10.703 
G01 Z10.531 
G01 Z10.325 
G01 Z10.151 
G01 Z9.979 
G01 Z9.772 
G01 Z9.598 
G01 Z9.426 
G01 Z9.219 
G01 Z9.045 
G01 Z8.873 
G01 Z8.667 
G01 X285.648 Y148.062  F3500.0
G01 X288.585 Y150.288 
G01 X285.563 Y152.485 
G01 X282.975 Y156.941  
G02 X283.243 Y143.573 I-33.450 J-7.357
G02 X291.927 Y150.308 I57.933 J-65.732
G02 X282.975 Y156.941 I62.510 J93.719
G01 X279.019 Y162.927  
G01 X279.379 Y162.032  
G02 X280.027 Y138.822 I-29.854 J-12.448
G01 X279.697 Y137.568  
G01 X280.054 Y137.931 
G02 X295.416 Y150.317 I61.123 J-60.089
G02 X279.019 Y162.927 I59.021 J93.711
G01 X277.601 Y166.936  
G01 X277.372 Y167.165  
G01 X276.649 Y163.876 
G01 X277.620 Y161.299 
G02 X278.231 Y139.456 I-28.095 J-11.715
G03 X278.125 Y133.227 I9.275 J-3.273
G01 X281.412 Y136.596  
G02 X299.082 Y150.311 I59.764 J-58.754
G02 X277.601 Y166.936 I55.355 J93.716
G01 X278.946 Y168.285  
G01 X276.059 Y171.386  
G02 X274.664 Y163.812 I-48.868 J5.088
G01 X275.862 Y160.566  
G02 X276.434 Y140.090 I-26.337 J-10.982
G03 X276.339 Y132.557 I11.072 J-3.906
G01 X277.095 Y129.414  
G01 X282.771 Y135.260 
G02 X302.972 Y150.288 I58.406 J-57.418
G02 X278.946 Y168.285 I51.465 J93.740
G00 Z23.080
G00 X285.563 Y152.485  F7000.0
G01 Z8.667 F300.0 M3
G01 Z8.460 
G01 Z8.288 
G01 Z8.114 
G01 Z7.907 
G01 Z7.735 
G01 Z7.561 
G01 Z7.355 
G01 Z7.183 
G01 Z7.008 
G01 Z6.802 
G01 Z6.630 
G01 Z6.456 
G01 Z6.333 
G01 Z6.211 
G01 Z6.037 
G01 Z5.865 
G01 Z5.658 
G01 Z5.484 
G01 Z5.312 
G01 Z5.105 
G01 Z4.931 
G01 Z4.759 
G01 Z4.553 
G01 Z4.378 
G01 Z4.206 
G01 Z4.000 
G01 X285.648 Y148.062  F3500.0
G01 X288.585 Y150.288 
G01 X285.563 Y152.485 
G01 X282.975 Y156.941  
G02 X283.243 Y143.573 I-33.450 J-7.357
G02 X291.927 Y150.308 I57.933 J-65.732
G02 X282.975 Y156.941 I62.510 J93.719
G01 X279.019 Y162.927  
G01 X279.379 Y162.032  
G02 X280.027 Y138.822 I-29.854 J-12.448
G01 X279.697 Y137.568  
G01 X280.054 Y137.931 
G02 X295.416 Y150.317 I61.123 J-60.089
G02 X279.019 Y162.927 I59.021 J93.711
G01 X277.601 Y166.936  
G01 X277.372 Y167.165  
G01 X276.649 Y163.876 
G01 X277.620 Y161.299 
G02 X278.231 Y139.456 I-28.095 J-11.715
G03 X278.125 Y133.227 I9.275 J-3.273
G01 X281.412 Y136.596  
G02 X299.082 Y150.311 I59.764 J-58.754
G02 X277.601 Y166.936 I55.355 J93.716
G01 X278.946 Y168.285  
G01 X276.059 Y171.386  
G02 X274.664 Y163.812 I-48.868 J5.088
G01 X275.862 Y160.566  
G02 X276.434 Y140.090 I-26.337 J-10.982
G03 X276.339 Y132.557 I11.072 J-3.906
G01 X277.095 Y129.414  
G01 X282.771 Y135.260 
G02 X302.972 Y150.288 I58.406 J-57.418
G02 X278.946 Y168.285 I51.465 J93.740
G00 Z23.080
G00 Z38.320
M05
M1
( face [3] )
T2 M6( TOOL USE End Mill 4 mm )
S18000 M03
( face [3] )
G00 X105.594 Y80.152 Z23.080 F4000.0
G01 Z3.500 F1200.0 M3
G01 X105.232 Y81.185  F2000.0
G02 X106.032 Y90.861 I66.746 J-0.648
G01 X106.663 Y93.339  
G01 X107.156 Y95.437 
G01 X107.410 Y96.587 
G01 X106.966 Y94.611 
G01 X106.411 Y92.324 
G01 X106.032 Y90.861 
G02 X103.983 Y86.155 I-45.834 J17.157
G03 X104.538 Y81.992 I3.349 J-1.672
G01 X105.232 Y81.185  
G01 X105.594 Y80.152 
G00 Z23.080
G00 X119.674 Y78.135  F4000.0
G01 Z3.500 F1200.0 M3
G02 X110.019 Y79.207 I-4.757 J1.177
G02 X110.841 Y90.682 I61.959 J1.331
G02 X125.439 Y141.147 I221.699 J-36.787
G02 X150.410 Y184.589 I188.245 J-79.308
G02 X160.997 Y198.358 I639.796 J-481.002
G02 X165.276 Y201.605 I8.364 J-6.577
G02 X172.307 Y199.782 I2.311 J-5.557
G02 X172.235 Y195.262 I-2.802 J-2.217
G03 X148.504 Y162.036 I193.693 J-163.433
G03 X132.510 Y128.938 I176.548 J-105.728
G03 X125.395 Y103.935 I145.875 J-55.026
G02 X119.674 Y78.135 I-531.527 J104.309
G00 Z23.080
G00 X105.164 Y122.108  F4000.0
G01 Z3.500 F1200.0 M3
G01 X105.590 Y122.100  F2000.0
G03 X106.643 Y120.636 I8.973 J5.343
G01 X107.613 Y119.441  
G01 X107.759 Y118.637 
G01 X107.613 Y119.441 
G02 X116.636 Y144.856 I224.927 J-65.546
G02 X119.644 Y151.662 I197.048 J-83.017
G01 X120.206 Y152.006  
G01 X119.644 Y151.662 
G02 X115.786 Y152.320 I0.886 J16.858
G01 X115.396 Y152.821  
G01 X115.786 Y152.320 
G01 X115.828 Y150.494 
G02 X113.391 Y137.503 I-35.289 J-0.103
G02 X105.590 Y122.100 I-84.768 J33.257
G01 X105.164 Y122.108  
G01 X102.846 Y122.247  
G01 X102.843 Y122.219  
G03 X104.832 Y119.079 I11.720 J5.225
G02 X108.449 Y113.547 I-19.203 J-16.505
G01 X108.541 Y112.468  
G01 X108.449 Y113.547 
G02 X118.837 Y143.928 I224.091 J-59.652
G02 X123.562 Y154.348 I194.847 J-82.090
G01 X124.230 Y154.884  
G01 X123.562 Y154.348 
G02 X113.048 Y156.108 I-3.032 J14.173
G01 X112.572 Y156.846  
G01 X113.048 Y156.108 
G02 X113.440 Y150.487 I-41.830 J-5.744
G02 X111.168 Y138.375 I-32.901 J-0.096
G02 X102.846 Y122.247 I-82.545 J32.385
G01 X100.847 Y123.554  
G03 X100.662 Y121.246 I2.024 J-1.323
G03 X103.021 Y117.523 I13.901 J6.197
G02 X108.528 Y103.815 I-17.392 J-14.948
G01 X108.378 Y102.280  
G01 X108.154 Y100.563 
G01 X107.999 Y99.585 
G01 X108.250 Y101.243 
G01 X108.465 Y103.106 
G01 X108.528 Y103.815 
G02 X121.037 Y143.001 I224.012 J-49.921
G02 X129.106 Y159.977 I192.647 J-81.162
G01 X129.675 Y160.779  
G01 X130.317 Y161.770 
G01 X130.910 Y162.787 
G01 X131.456 Y163.831 
G01 X131.953 Y164.903 
G01 X132.328 Y165.811 
G02 X146.593 Y187.459 I181.356 J-103.972
G01 X150.080 Y192.064  
G01 X151.167 Y192.887 
G01 X150.080 Y192.064 
G02 X137.694 Y194.973 I-3.839 J11.480
G01 X137.645 Y195.547  
G01 X137.694 Y194.973 
G02 X135.758 Y192.772 I-11.320 J8.004
G02 X120.643 Y180.624 I-98.682 J107.304
G01 X119.401 Y180.206  
G01 X120.643 Y180.624 
G02 X131.696 Y173.192 I-0.114 J-12.104
G02 X132.397 Y170.904 I-11.222 J-4.694
G02 X132.636 Y168.521 I-11.808 J-2.384
G02 X132.328 Y165.811 I-12.105 J0.000
G01 X131.953 Y164.903  
G01 X131.456 Y163.831 
G01 X130.910 Y162.787 
G01 X130.317 Y161.770 
G01 X129.675 Y160.779 
G01 X129.106 Y159.977 
G02 X108.664 Y166.125 I-8.576 J8.543
G02 X109.639 Y173.805 I11.865 J2.395
G01 X110.506 Y174.634  
G01 X109.639 Y173.805 
G02 X103.720 Y173.395 I-3.569 J8.603
G01 X102.760 Y174.093  
G01 X103.720 Y173.395 
G02 X111.052 Y150.480 I-32.502 J-23.031
G02 X108.945 Y139.247 I-30.513 J-0.089
G02 X100.847 Y123.554 I-80.322 J31.512
G00 Z23.080
G00 X127.716 Y169.959  F4000.0
G01 Z3.500 F1200.0 M3
G02 X127.859 Y168.521 I-7.126 J-1.439
G02 X113.346 Y167.070 I-7.329 J0.000
G02 X127.289 Y171.348 I7.183 J1.450
G02 X127.716 Y169.959 I-6.816 J-2.851
G01 X130.057 Y170.432  F2000.0
G02 X130.247 Y168.521 I-9.467 J-1.911
G02 X111.005 Y166.598 I-9.717 J0.000
G02 X129.492 Y172.270 I9.524 J1.923
G02 X130.057 Y170.432 I-9.019 J-3.773
G00 Z23.080
G00 X133.752 Y182.030  F4000.0
G01 Z3.500 F1200.0 M3
G01 X134.104 Y182.013  F2000.0
G01 X134.138 Y181.641 
G01 X134.104 Y182.013 
G01 X135.221 Y183.248 
G01 X134.104 Y182.013 
G01 X133.752 Y182.030 
G01 X130.586 Y182.078  
G02 X134.326 Y178.245 I-10.057 J-13.557
G01 X134.334 Y177.587  
G01 X134.326 Y178.245 
G02 X140.744 Y187.583 I179.358 J-116.406
G01 X141.334 Y187.773  
G01 X140.744 Y187.583 
G02 X138.316 Y188.639 I5.497 J15.961
G01 X138.262 Y189.083  
G01 X138.316 Y188.639 
G02 X130.586 Y182.078 I-101.240 J111.437
G01 X129.981 Y182.064  
G01 X130.586 Y182.078 
G01 X126.326 Y181.802  
G02 X133.899 Y174.113 I-5.797 J-13.282
G01 X134.139 Y173.499  
G01 X134.041 Y172.648 
G01 X134.139 Y173.499 
G02 X144.684 Y188.894 I179.545 J-111.660
G01 X144.852 Y189.118  
G01 X145.545 Y189.432 
G01 X144.852 Y189.118 
G02 X138.001 Y191.622 I1.390 J14.427
G01 X137.955 Y192.100  
G01 X138.001 Y191.622 
G01 X137.375 Y191.014 
G02 X126.326 Y181.802 I-100.298 J109.062
G01 X125.595 Y181.709  
G01 X126.326 Y181.802 
G00 Z23.080
G00 X113.016 Y181.266  F4000.0
G01 Z3.500 F1200.0 M3
G02 X108.270 Y178.438 I-47.434 J74.212
G02 X102.348 Y185.005 I-2.200 J3.970
G02 X110.967 Y191.932 I16.146 J-11.265
G03 X125.648 Y201.745 I-17.257 J41.705
G03 X125.083 Y202.838 I-0.457 J0.456
G03 X121.383 Y201.521 I1.906 J-11.210
G02 X116.533 Y201.372 I-2.566 J4.528
G02 X115.842 Y209.420 I2.066 J4.231
G02 X122.314 Y212.124 I9.013 J-12.476
G02 X129.143 Y211.632 I2.399 J-14.335
G02 X132.525 Y196.287 I-2.770 J-8.655
G02 X113.016 Y181.266 I-95.449 J103.789
G00 Z23.080
G00 X108.365 Y216.169  F4000.0
G01 Z3.500 F1200.0 M3
G01 X108.776 Y216.094  F2000.0
G01 X108.816 Y215.979 
G01 X108.664 Y215.319 
G01 X108.816 Y215.979 
G02 X110.248 Y217.163 I9.783 J-10.376
G01 X111.190 Y217.811  
G01 X111.907 Y217.836 
G01 X111.190 Y217.811 
G01 X110.431 Y218.268 
G01 X110.333 Y218.767 
G01 X110.431 Y218.268 
G02 X108.776 Y216.094 I-28.486 J19.965
G01 X108.365 Y216.169  
G01 X106.085 Y216.626  
G01 X106.012 Y216.642  
G01 X106.085 Y216.626 
G03 X108.139 Y211.219 I47.934 J15.116
G01 X108.125 Y210.372  
G01 X108.139 Y211.219 
G02 X111.646 Y215.227 I10.460 J-5.616
G02 X117.253 Y218.179 I13.208 J-18.283
G01 X119.087 Y218.372  
G01 X117.253 Y218.179 
G02 X109.821 Y221.724 I2.265 J14.315
G01 X109.735 Y222.300  
G01 X109.821 Y221.724 
G02 X106.085 Y216.626 I-27.876 J16.509
G00 Z23.080
G00 X131.034 Y220.654  F4000.0
G01 Z3.500 F1200.0 M3
G01 X131.724 Y220.833  F2000.0
G01 X132.054 Y220.729 
G02 X137.460 Y217.961 I-5.681 J-17.753
G01 X137.440 Y217.520  
G01 X137.460 Y217.961 
G01 X137.971 Y218.260 
G01 X138.605 Y218.189 
G01 X137.971 Y218.260 
G02 X133.174 Y222.571 I164.972 J188.382
G01 X133.117 Y223.119  
G01 X133.174 Y222.571 
G02 X131.724 Y220.833 I-13.656 J9.924
G01 X131.034 Y220.654  
G01 X131.327 Y218.455  
G02 X137.334 Y214.976 I-4.953 J-15.478
G01 X137.315 Y214.496  
G01 X137.334 Y214.976 
G02 X142.467 Y217.536 I8.907 J-11.432
G01 X143.249 Y217.352  
G01 X142.467 Y217.536 
G01 X142.354 Y217.632 
G02 X132.638 Y226.337 I160.588 J189.010
G01 X132.516 Y226.955  
G01 X132.638 Y226.337 
G02 X125.849 Y219.457 I-13.120 J6.157
G01 X124.052 Y219.113  
G01 X125.849 Y219.457 
G02 X131.327 Y218.455 I-1.136 J-21.669
G01 X130.599 Y216.181  
G02 X137.218 Y211.613 I-4.225 J-13.204
G01 X137.202 Y211.037  
G01 X137.218 Y211.613 
G02 X148.859 Y215.362 I9.022 J-8.069
G01 X150.089 Y214.732  
G01 X150.600 Y214.445 
G01 X149.641 Y214.971 
G01 X148.859 Y215.362 
G02 X143.900 Y219.452 I138.476 J172.910
G02 X131.496 Y230.743 I159.042 J187.190
G01 X131.219 Y231.523  
G01 X131.496 Y230.743 
G02 X109.329 Y225.958 I-11.978 J1.752
G01 X109.277 Y226.752  
G01 X109.329 Y225.958 
G02 X104.283 Y218.193 I-27.385 J12.274
G03 X103.796 Y215.945 I1.729 J-1.551
G03 X106.443 Y209.194 I50.223 J15.797
G02 X108.524 Y196.080 I-21.329 J-10.109
G01 X108.069 Y195.468  
G01 X108.524 Y196.080 
G01 X109.141 Y196.345 
G03 X112.814 Y198.087 I-15.431 J37.292
G01 X113.496 Y198.044  
G01 X112.814 Y198.087 
G02 X113.045 Y213.291 I5.785 J7.516
G02 X121.526 Y216.834 I11.810 J-16.348
G02 X130.599 Y216.181 I3.188 J-19.046
G00 Z23.080
G00 X126.704 Y233.933  F4000.0
G01 Z3.500 F1200.0 M3
G02 X126.847 Y232.495 I-7.126 J-1.439
G02 X112.334 Y231.044 I-7.329 J0.000
G02 X126.277 Y235.323 I7.183 J1.450
G02 X126.704 Y233.933 I-6.816 J-2.851
G01 X129.044 Y234.406  F2000.0
G02 X129.235 Y232.495 I-9.467 J-1.911
G02 X109.993 Y230.572 I-9.717 J0.000
G02 X126.015 Y239.718 I9.524 J1.923
G01 X126.552 Y239.173  
G01 X127.068 Y238.609 
G02 X128.480 Y236.244 I-7.551 J-6.115
G02 X129.044 Y234.406 I-9.019 J-3.773
G00 Z23.080
G00 X114.641 Y245.754  F4000.0
G01 Z3.500 F1200.0 M3
G01 X114.023 Y245.905  F2000.0
G01 X113.171 Y246.864 
G01 X112.343 Y248.337 
G01 X113.171 Y246.864 
G01 X113.478 Y245.668 
G01 X113.224 Y245.143 
G01 X113.478 Y245.668 
G01 X114.023 Y245.905 
G01 X114.641 Y245.754 
G01 X117.749 Y245.279  
G03 X107.552 Y256.539 I-298.667 J-260.236
G01 X107.141 Y257.505  
G01 X107.552 Y256.539 
G03 X108.983 Y251.252 I14.892 J1.194
G02 X111.745 Y241.773 I-27.038 J-13.019
G01 X111.458 Y241.031  
G01 X111.745 Y241.773 
G02 X118.391 Y244.546 I7.772 J-9.279
G01 X119.155 Y244.229  
G01 X118.391 Y244.546 
G01 X117.749 Y245.279 
G00 Z23.080
G00 X153.571 Y203.544  F4000.0
G01 Z3.500 F1200.0 M3
G02 X139.057 Y202.094 I-7.329 J0.000
G02 X153.001 Y206.372 I7.183 J1.450
G02 X153.427 Y204.983 I-6.816 J-2.851
G02 X153.571 Y203.544 I-7.126 J-1.439
G00 Z23.080
G00 X157.785 Y201.402  F4000.0
G01 Z3.500 F1200.0 M3
G01 X158.303 Y202.523  F2000.0
G02 X162.235 Y205.451 I11.057 J-10.742
G01 X162.954 Y205.401  
G01 X162.235 Y205.451 
G02 X156.952 Y209.180 I125.100 J182.821
G01 X156.021 Y210.201  
G01 X155.609 Y210.618 
G01 X156.370 Y209.831 
G01 X156.952 Y209.180 
G01 X157.407 Y208.215 
G02 X158.108 Y205.928 I-11.222 J-4.695
G02 X158.347 Y203.544 I-11.807 J-2.384
G01 X158.303 Y202.523  
G01 X157.785 Y201.402 
G01 X159.120 Y199.834  
G02 X164.359 Y203.810 I10.241 J-8.053
G02 X168.055 Y204.442 I3.227 J-7.762
G01 X168.789 Y204.184  
G01 X169.724 Y203.801 
G01 X168.789 Y204.184 
G01 X168.055 Y204.442 
G02 X145.446 Y221.272 I119.279 J183.830
G02 X127.068 Y238.609 I157.496 J185.370
G01 X126.552 Y239.173  
G01 X126.015 Y239.718 
G02 X119.550 Y246.848 I176.927 J166.924
G03 X106.152 Y261.473 I-300.468 J-261.804
G03 X105.483 Y261.280 I-0.284 J-0.273
G03 X106.831 Y250.216 I16.961 J-3.546
G02 X102.505 Y219.788 I-24.887 J-11.983
G03 X101.518 Y215.228 I3.507 J-3.146
G03 X104.285 Y208.172 I52.501 J16.514
G02 X104.725 Y190.995 I-19.172 J-9.086
G01 X103.738 Y189.666  
G01 X104.725 Y190.995 
G02 X110.054 Y194.138 I13.769 J-17.255
G03 X118.047 Y198.495 I-16.344 J39.499
G01 X118.574 Y198.642  
G01 X119.143 Y198.827 
G01 X118.574 Y198.642 
G01 X118.047 Y198.495 
G02 X115.485 Y199.226 I0.770 J7.554
G02 X114.443 Y211.356 I3.114 J6.377
G02 X121.920 Y214.479 I10.411 J-14.412
G02 X129.871 Y213.906 I2.793 J-16.690
G02 X137.140 Y206.948 I-3.497 J-10.930
G01 X137.143 Y205.712  
G01 X137.140 Y206.948 
G02 X155.204 Y207.294 I9.100 J-3.404
G02 X155.768 Y205.456 I-9.019 J-3.773
G02 X155.959 Y203.544 I-9.467 J-1.911
G02 X137.349 Y199.626 I-9.717 J0.000
G01 X137.282 Y200.860  
G01 X137.349 Y199.626 
G02 X134.142 Y194.530 I-10.976 J3.350
G02 X114.302 Y179.254 I-97.065 J105.546
G02 X109.427 Y176.350 I-48.720 J76.224
G02 X99.162 Y181.902 I-3.357 J6.059
G01 X99.528 Y182.920  
G01 X99.162 Y181.902 
G03 X99.314 Y175.121 I4.101 J-3.301
G02 X108.664 Y150.473 I-28.096 J-24.757
G02 X106.722 Y140.119 I-28.125 J-0.082
G02 X98.848 Y124.860 I-78.099 J30.640
G03 X98.481 Y120.274 I4.023 J-2.629
G03 X101.210 Y115.966 I16.082 J7.169
G02 X105.719 Y98.274 I-15.581 J-13.392
G02 X101.847 Y87.222 I-45.521 J9.745
G03 X102.756 Y80.403 I5.485 J-2.739
G02 X109.096 Y55.218 I-20.927 J-18.659
G01 X105.264 Y39.308  
G01 X104.768 Y38.803 
G01 X105.264 Y39.308 
G03 X112.496 Y44.265 I-3.764 J13.244
G02 X147.642 Y81.366 I181.780 J-137.006
G02 X172.095 Y97.735 I86.299 J-102.468
G03 X173.099 Y99.085 I-0.890 J1.710
G01 X173.246 Y99.443  
G01 X173.427 Y100.120 
G01 X173.246 Y99.443 
G01 X173.099 Y99.085 
G02 X156.152 Y103.433 I-7.423 J6.271
G02 X173.814 Y110.664 I9.524 J1.923
G01 X173.953 Y109.708  
G01 X173.814 Y110.664 
G02 X177.406 Y119.806 I39.193 J-10.125
G03 X177.539 Y120.485 I-1.020 J0.552
G03 X177.270 Y121.317 I-2.159 J-0.238
G02 X177.328 Y149.419 I24.697 J14.000
G03 X177.322 Y150.974 I-1.350 J0.773
G02 X173.958 Y169.349 I23.849 J13.861
G02 X177.407 Y179.163 I29.710 J-4.928
G03 X177.521 Y179.912 I-0.935 J0.525
G03 X177.148 Y180.898 I-3.415 J-0.728
G02 X173.248 Y192.753 I27.998 J15.781
G01 X173.517 Y193.641  
G01 X173.248 Y192.753 
G03 X150.553 Y160.809 I192.681 J-160.924
G03 X134.744 Y128.095 I174.500 J-104.501
G03 X127.738 Y103.475 I143.641 J-54.184
G02 X121.993 Y77.561 I-533.870 J104.769
G02 X107.632 Y79.155 I-7.075 J1.751
G02 X108.485 Y91.073 I64.347 J1.382
G02 X123.238 Y142.074 I224.055 J-37.178
G02 X148.501 Y186.024 I190.446 J-80.235
G02 X159.120 Y199.834 I641.704 J-482.437
G00 Z23.080
G00 X173.604 Y201.384  F4000.0
G01 Z3.500 F1200.0 M3
G01 X173.678 Y201.322  F2000.0
G01 X173.704 Y201.269 
G01 X173.678 Y201.322 
G01 X173.604 Y201.384 
G00 Z23.080
G00 X166.891 Y170.521  F4000.0
G01 Z3.500 F1200.0 M3
G02 X167.562 Y173.701 I36.777 J-6.100
G01 X168.488 Y175.606  F2000.0
G01 X167.562 Y173.701 
G03 X162.314 Y166.060 I198.366 J-141.872
G01 X161.677 Y165.755  
G01 X162.314 Y166.060 
G02 X166.423 Y165.061 I-1.902 J-16.773
G01 X166.788 Y164.523  
G01 X166.423 Y165.061 
G02 X166.891 Y170.521 I34.748 J-0.225
G01 X169.247 Y170.131  
G02 X172.332 Y179.768 I34.422 J-5.709
G01 X172.740 Y179.772  
G01 X172.332 Y179.768 
G02 X171.087 Y182.442 I32.813 J16.912
G01 X171.186 Y183.163  
G01 X171.087 Y182.442 
G03 X157.850 Y163.551 I194.841 J-150.613
G01 X157.083 Y163.018  
G01 X157.850 Y163.551 
G02 X169.048 Y160.925 I2.562 J-14.264
G01 X169.530 Y160.079  
G01 X169.048 Y160.925 
G02 X169.247 Y170.131 I32.123 J3.910
G01 X171.603 Y169.740  
G02 X175.029 Y179.794 I32.066 J-5.318
G01 X175.442 Y179.792  
G01 X175.029 Y179.794 
G02 X171.905 Y187.342 I30.117 J16.885
G01 X172.070 Y188.128  
G01 X171.905 Y187.342 
G03 X152.601 Y159.582 I194.023 J-155.513
G01 X151.077 Y156.993  
G01 X150.491 Y156.107 
G01 X149.949 Y155.196 
G01 X149.449 Y154.262 
G01 X148.993 Y153.303 
G03 X136.979 Y127.252 I176.059 J-96.995
G03 X130.081 Y103.015 I141.406 J-53.341
G02 X124.311 Y76.988 I-536.214 J105.229
G02 X110.974 Y70.476 I-9.393 J2.324
G01 X110.368 Y71.188  
G01 X110.974 Y70.476 
G02 X111.418 Y54.662 I-29.146 J-8.733
G01 X108.809 Y43.829  
G01 X108.215 Y42.916 
G01 X108.809 Y43.829 
G03 X110.589 Y45.703 I-7.309 J8.724
G02 X146.104 Y83.192 I183.687 J-138.443
G02 X161.083 Y94.156 I87.837 J-104.294
G01 X161.900 Y94.239  
G01 X161.083 Y94.156 
G02 X153.811 Y102.961 I4.593 J11.200
G02 X172.723 Y115.197 I11.865 J2.395
G01 X172.900 Y114.610  
G01 X172.723 Y115.197 
G02 X175.031 Y120.427 I40.284 J-14.658
G01 X175.446 Y120.432  
G01 X175.031 Y120.427 
G02 X175.021 Y150.189 I26.935 J14.891
G01 X175.438 Y150.191  
G01 X175.021 Y150.189 
G02 X171.603 Y169.740 I26.150 J14.647
G00 Z23.080
G00 X179.400 Y148.233  F4000.0
G01 Z3.500 F1200.0 M3
G03 X179.387 Y152.174 I-3.423 J1.959
G02 X176.314 Y168.958 I21.784 J12.661
G02 X179.490 Y177.995 I27.354 J-4.537
G03 X179.857 Y180.410 I-3.017 J1.694
G03 X179.228 Y182.071 I-5.750 J-1.226
G02 X175.708 Y200.983 I25.918 J14.608
G03 X174.726 Y203.071 I-2.068 J0.302
G02 X146.993 Y223.092 I112.609 J185.201
G02 X121.350 Y248.417 I155.950 J183.550
G03 X107.873 Y263.129 I-302.268 J-263.373
G03 X103.145 Y261.769 I-2.004 J-1.930
G03 X104.680 Y249.180 I19.299 J-4.035
G02 X100.728 Y221.382 I-22.735 J-10.947
G03 X99.240 Y214.511 I5.284 J-4.741
G03 X102.127 Y207.149 I54.779 J17.231
G02 X102.473 Y191.799 I-17.014 J-8.063
G02 X97.416 Y183.538 I-29.513 J12.389
G03 X97.522 Y173.542 I5.847 J-4.937
G02 X106.276 Y150.466 I-26.304 J-23.178
G02 X104.499 Y140.991 I-25.737 J-0.075
G02 X96.849 Y126.167 I-75.876 J29.768
G03 X96.300 Y119.302 I6.022 J-3.936
G03 X99.399 Y114.410 I18.263 J8.142
G02 X103.384 Y98.774 I-13.770 J-11.835
G02 X99.710 Y88.289 I-43.185 J9.245
G03 X100.973 Y78.813 I7.622 J-3.806
G02 X106.773 Y55.774 I-19.145 J-17.070
G01 X102.744 Y39.040  F2000.0
G03 X104.964 Y36.771 I1.819 J-0.441
G03 X114.403 Y42.828 I-3.463 J15.781
G02 X149.180 Y79.539 I179.873 J-135.569
G02 X173.198 Y95.617 I84.761 J-100.641
G03 X175.478 Y100.055 I-1.992 J3.828
G02 X175.797 Y108.690 I24.065 J3.433
G02 X179.506 Y118.669 I37.209 J-8.151
G03 X179.913 Y120.747 I-3.120 J1.688
G03 X179.347 Y122.495 I-4.532 J-0.500
G02 X179.400 Y148.233 I22.620 J12.822
G00 Z23.080
G00 X153.229 Y147.837  F4000.0
G01 Z3.500 F1200.0 M3
G02 X167.172 Y152.116 I7.183 J1.450
G02 X167.598 Y150.726 I-6.816 J-2.851
G02 X167.742 Y149.288 I-7.126 J-1.439
G02 X153.229 Y147.837 I-7.329 J0.000
G01 X150.888 Y147.365  F2000.0
G02 X169.375 Y153.037 I9.524 J1.923
G02 X169.939 Y151.199 I-9.019 J-3.773
G02 X170.130 Y149.288 I-9.467 J-1.911
G02 X150.888 Y147.365 I-9.717 J0.000
G01 X148.547 Y146.892  
G02 X148.993 Y153.303 I11.865 J2.395
G01 X149.449 Y154.262  
G01 X149.949 Y155.196 
G01 X150.491 Y156.107 
G01 X151.077 Y156.993 
G02 X171.578 Y153.959 I9.335 J-7.705
G02 X172.280 Y151.672 I-11.222 J-4.695
G02 X172.518 Y149.288 I-11.807 J-2.384
G02 X148.547 Y146.892 I-12.105 J0.000
G00 Z23.080
G00 X148.150 Y123.038  F4000.0
G01 Z3.500 F1200.0 M3
G01 X147.387 Y120.965  F2000.0
G01 X146.590 Y119.527 
G01 X146.305 Y118.977 
G01 X146.864 Y120.037 
G01 X147.387 Y120.965 
G02 X153.692 Y126.201 I18.288 J-15.610
G01 X154.658 Y126.317  
G01 X153.692 Y126.201 
G02 X149.954 Y127.636 I6.721 J23.087
G01 X149.764 Y128.136  
G01 X149.954 Y127.636 
G01 X148.150 Y123.038 
G01 X145.916 Y123.881  
G03 X139.455 Y101.176 I132.469 J-49.969
G02 X136.624 Y87.644 I-545.587 J107.069
G01 X136.025 Y86.634  
G01 X136.624 Y87.644 
G01 X139.950 Y90.498 
G02 X146.348 Y95.587 I93.991 J-111.600
G01 X146.812 Y95.480  
G01 X146.348 Y95.587 
G02 X144.448 Y101.070 I19.329 J9.769
G02 X162.550 Y126.785 I21.228 J4.286
G01 X162.991 Y126.478  
G01 X162.550 Y126.785 
G01 X162.360 Y127.718 
G01 X162.656 Y128.113 
G01 X162.360 Y127.718 
G02 X148.775 Y131.023 I-1.947 J21.570
G01 X148.610 Y131.565  
G01 X148.775 Y131.023 
G03 X145.916 Y123.881 I176.277 J-74.715
G01 X143.682 Y124.724  
G03 X137.111 Y101.636 I134.703 J-50.812
G02 X132.604 Y80.801 I-543.244 J106.609
G01 X131.970 Y79.709  
G01 X132.604 Y80.801 
G02 X141.489 Y88.672 I161.671 J-173.542
G02 X149.473 Y94.928 I92.452 J-109.774
G01 X149.968 Y94.837  
G01 X149.473 Y94.928 
G02 X146.788 Y101.543 I16.204 J10.428
G02 X165.564 Y124.624 I18.887 J3.813
G01 X166.054 Y124.256  
G01 X165.564 Y124.624 
G02 X164.342 Y130.423 I36.403 J10.694
G01 X164.654 Y130.865  
G01 X164.342 Y130.423 
G02 X147.781 Y134.736 I-3.929 J18.864
G01 X147.651 Y135.340  
G01 X147.781 Y134.736 
G03 X143.682 Y124.724 I177.271 J-78.428
G01 X141.447 Y125.567  
G03 X134.768 Y102.096 I136.937 J-51.655
G02 X128.947 Y75.841 I-540.900 J106.149
G02 X127.868 Y72.897 I-14.029 J3.471
G01 X127.101 Y71.872  
G01 X126.125 Y70.684 
G01 X125.093 Y69.552 
G01 X124.004 Y68.473 
G01 X122.858 Y67.448 
G01 X121.865 Y66.639 
G02 X116.879 Y64.994 I-6.947 J12.673
G01 X116.483 Y65.311  
G01 X116.879 Y64.994 
G02 X117.026 Y61.240 I-35.051 J-3.250
G01 X116.633 Y60.228  
G01 X117.026 Y61.240 
G02 X121.865 Y66.639 I177.249 J-153.980
G01 X122.858 Y67.448  
G01 X124.004 Y68.473 
G01 X125.093 Y69.552 
G01 X126.125 Y70.684 
G01 X127.101 Y71.872 
G01 X127.868 Y72.897 
G02 X143.027 Y86.845 I166.407 J-165.638
G02 X152.836 Y94.397 I90.914 J-107.947
G01 X153.377 Y94.331  
G01 X152.836 Y94.397 
G02 X149.129 Y102.015 I12.840 J10.959
G02 X169.044 Y121.897 I16.546 J3.341
G01 X169.653 Y121.386  
G01 X169.044 Y121.897 
G02 X166.459 Y133.526 I32.923 J13.421
G01 X166.800 Y134.056  
G01 X166.459 Y133.526 
G02 X147.069 Y138.948 I-6.046 J15.762
G01 X146.996 Y139.654  
G01 X147.069 Y138.948 
G03 X141.447 Y125.567 I177.984 J-82.640
G01 X139.213 Y126.410  
G03 X132.425 Y102.556 I139.172 J-52.498
G02 X126.629 Y76.414 I-538.557 J105.689
G02 X114.173 Y67.271 I-11.711 J2.898
G01 X113.731 Y67.672  
G01 X114.173 Y67.271 
G02 X113.741 Y54.106 I-32.345 J-5.527
G01 X113.571 Y53.401  
G01 X112.836 Y51.904 
G01 X113.571 Y53.401 
G02 X144.565 Y85.019 I180.705 J-146.142
G02 X156.581 Y94.072 I89.376 J-106.121
G01 X157.203 Y94.050  
G01 X156.581 Y94.072 
G02 X151.470 Y102.488 I9.095 J11.284
G02 X171.519 Y118.618 I14.205 J2.868
G01 X171.706 Y118.132  
G01 X171.519 Y118.618 
G01 X172.344 Y120.404 
G01 X172.751 Y120.406 
G01 X172.344 Y120.404 
G02 X168.875 Y137.521 I29.623 J14.914
G01 X169.302 Y138.305  
G01 X168.875 Y137.521 
G02 X146.883 Y144.093 I-8.462 J11.767
G01 X146.941 Y145.030  
G01 X146.883 Y144.093 
G03 X139.213 Y126.410 I178.169 J-87.785
G00 Z23.080
G00 X139.868 Y93.064  F4000.0
G01 Z3.500 F1200.0 M3
G01 X140.437 Y94.000  F2000.0
G01 X143.388 Y96.335 
G01 X143.830 Y96.217 
G01 X143.388 Y96.335 
G02 X142.107 Y100.598 I22.289 J9.021
G01 X141.948 Y101.468  
G01 X142.011 Y103.112 
G01 X142.051 Y103.730 
G01 X141.981 Y102.533 
G01 X141.948 Y101.468 
G01 X141.798 Y100.716 
G01 X140.437 Y94.000 
G01 X139.868 Y93.064 
G00 Z23.080
G00 X172.436 Y108.184  F4000.0
G01 Z3.500 F1200.0 M3
G02 X172.862 Y106.795 I-6.816 J-2.851
G02 X173.006 Y105.356 I-7.126 J-1.439
G02 X158.492 Y103.906 I-7.329 J0.000
G02 X172.436 Y108.184 I7.183 J1.450
G00 Z23.080
G00 X210.553 Y102.500  F4000.0
G01 Z3.500 F1200.0 M3
G02 X199.217 Y93.322 I-12.191 J3.468
G01 X198.795 Y93.658  F2000.0
G01 X199.217 Y93.322 
G02 X199.858 Y87.238 I-46.469 J-7.975
G01 X199.529 Y86.337  
G01 X199.858 Y87.238 
G01 X200.094 Y87.502 
G02 X215.630 Y103.779 I238.311 J-211.916
G01 X216.244 Y103.878  
G01 X215.630 Y103.779 
G02 X211.787 Y106.603 I6.530 J12.915
G01 X211.632 Y107.292  
G01 X211.787 Y106.603 
G01 X210.553 Y102.500 
G01 X208.263 Y103.152  
G02 X196.256 Y95.892 I-9.901 J2.816
G01 X195.767 Y96.376  
G01 X196.256 Y95.892 
G02 X197.306 Y81.021 I-43.507 J-10.545
G01 X196.840 Y80.039  
G01 X197.306 Y81.021 
G03 X201.873 Y85.920 I-101.455 J99.178
G02 X220.098 Y104.780 I236.532 J-210.334
G01 X220.879 Y105.030  
G01 X220.098 Y104.780 
G02 X211.057 Y111.908 I2.062 J11.914
G01 X211.045 Y112.934  
G01 X211.057 Y111.908 
G03 X208.263 Y103.152 I136.521 J-48.384
G00 Z23.080
G00 X214.976 Y115.243  F4000.0
G01 Z3.500 F1200.0 M3
G02 X228.919 Y119.521 I7.183 J1.450
G02 X229.346 Y118.132 I-6.816 J-2.851
G02 X229.489 Y116.693 I-7.126 J-1.439
G02 X214.976 Y115.243 I-7.329 J0.000
G00 Z23.080
G00 X235.539 Y121.184  F4000.0
G01 Z3.500 F1200.0 M3
G01 X235.705 Y121.783  F2000.0
G02 X246.720 Y130.454 I202.700 J-246.197
G01 X247.110 Y130.300  
G01 X246.720 Y130.454 
G01 X246.606 Y131.177 
G01 X246.876 Y131.839 
G01 X246.606 Y131.177 
G02 X235.714 Y123.504 I-90.678 J117.155
G01 X235.120 Y123.128  
G01 X234.653 Y123.257 
G01 X235.120 Y123.128 
G01 X235.509 Y122.278 
G01 X235.705 Y121.783 
G01 X235.539 Y121.184 
G01 X233.312 Y121.359  
G02 X234.013 Y119.074 I-11.209 J-4.689
G02 X234.227 Y117.452 I-11.793 J-2.381
G01 X233.894 Y116.702  
G01 X234.227 Y117.452 
G02 X249.344 Y129.444 I204.178 J-241.866
G01 X249.744 Y129.296  
G01 X249.344 Y129.444 
G02 X248.660 Y135.866 I27.990 J6.229
G01 X249.033 Y136.639  
G01 X248.660 Y135.866 
G02 X234.432 Y125.511 I-92.733 J112.467
G01 X231.851 Y123.920  
G01 X231.321 Y124.022 
G01 X231.851 Y123.920 
G02 X233.312 Y121.359 I-9.692 J-7.227
G00 Z23.080
G00 X226.012 Y143.256  F4000.0
G01 Z3.500 F1200.0 M3
G01 X227.000 Y144.149  F2000.0
G01 X227.997 Y144.588 
G03 X231.692 Y146.341 I-15.436 J37.305
G01 X232.361 Y146.300  
G01 X231.692 Y146.341 
G02 X229.729 Y148.376 I5.758 J7.519
G01 X229.727 Y149.023  
G01 X229.729 Y148.376 
G01 X227.000 Y144.149 
G01 X226.012 Y143.256 
G01 X224.133 Y144.070  
G03 X213.645 Y124.650 I139.465 J-87.859
G03 X205.973 Y103.803 I133.932 J-61.127
G02 X192.071 Y101.169 I-7.611 J2.165
G01 X191.530 Y102.189  
G01 X191.262 Y102.758 
G01 X190.879 Y103.666 
G01 X190.734 Y104.049 
G01 X190.658 Y104.308 
G01 X190.616 Y104.647 
G01 X190.634 Y104.995 
G01 X190.695 Y105.288 
G01 X190.811 Y105.695 
G01 X190.662 Y105.154 
G01 X190.616 Y104.790 
G01 X190.623 Y104.547 
G01 X190.658 Y104.308 
G01 X190.734 Y104.049 
G01 X190.986 Y103.398 
G01 X191.262 Y102.758 
G01 X191.647 Y101.956 
G01 X192.071 Y101.169 
G02 X193.622 Y74.127 I-39.323 J-15.821
G01 X192.924 Y73.006  
G01 X193.622 Y74.127 
G03 X203.652 Y84.338 I-97.772 J106.073
G02 X252.043 Y128.480 I234.753 J-208.751
G01 X252.444 Y128.344  
G01 X252.043 Y128.480 
G02 X251.728 Y141.646 I25.291 J7.193
G01 X252.370 Y142.709  
G01 X251.728 Y141.646 
G02 X233.150 Y127.517 I-95.800 J106.687
G02 X228.275 Y124.612 I-48.716 J76.218
G01 X227.984 Y124.460  
G01 X227.258 Y124.532 
G01 X227.984 Y124.460 
G02 X231.116 Y120.440 I-5.825 J-7.767
G02 X231.679 Y118.603 I-9.012 J-3.770
G02 X231.870 Y116.693 I-9.460 J-1.910
G02 X212.642 Y114.772 I-9.710 J0.000
G02 X219.728 Y126.093 I9.517 J1.921
G01 X220.427 Y125.883  
G01 X219.728 Y126.093 
G02 X219.247 Y134.624 I5.194 J4.572
G02 X228.908 Y142.388 I18.099 J-12.627
G03 X236.919 Y146.757 I-16.347 J39.505
G01 X237.436 Y146.902  
G01 X237.994 Y147.084 
G01 X237.436 Y146.902 
G01 X236.919 Y146.757 
G02 X234.340 Y147.489 I0.750 J7.549
G02 X230.365 Y153.635 I3.111 J6.371
G01 X230.665 Y154.557  
G01 X230.802 Y154.919 
G01 X230.549 Y154.228 
G01 X230.365 Y153.635 
G03 X224.133 Y144.070 I309.297 J-208.338
G00 Z23.080
G00 X222.118 Y145.340  F4000.0
G01 Z3.500 F1200.0 M3
G03 X211.479 Y125.639 I141.479 J-89.128
G03 X203.683 Y104.454 I136.098 J-62.115
G02 X192.856 Y106.506 I-5.321 J1.513
G02 X197.234 Y121.676 I43.065 J-4.210
G02 X233.758 Y180.577 I342.182 J-171.411
G02 X236.951 Y180.579 I1.597 J-1.204
G03 X241.182 Y175.565 I48.493 J36.638
G02 X241.315 Y172.981 I-1.457 J-1.371
G03 X222.118 Y145.340 I298.347 J-227.685
G00 Z23.080
G00 X251.377 Y144.544  F4000.0
G01 Z3.500 F1200.0 M3
G02 X231.867 Y129.523 I-95.449 J103.789
G02 X227.121 Y126.695 I-47.434 J74.212
G02 X221.199 Y133.261 I-2.200 J3.970
G02 X229.818 Y140.188 I16.146 J-11.265
G03 X244.499 Y150.001 I-17.257 J41.705
G03 X243.934 Y151.094 I-0.457 J0.456
G03 X240.235 Y149.777 I1.906 J-11.210
G02 X235.384 Y149.628 I-2.566 J4.528
G02 X234.693 Y157.676 I2.066 J4.231
G02 X241.166 Y160.380 I9.013 J-12.476
G02 X247.995 Y159.888 I2.399 J-14.335
G02 X251.377 Y144.544 I-2.770 J-8.655
G00 Z23.080
G00 X257.501 Y150.703  F4000.0
G01 Z3.500 F1200.0 M3
G03 X255.825 Y153.738 I-29.736 J-14.447
G02 X255.224 Y170.116 I13.986 J8.713
G03 X255.146 Y171.678 I-1.359 J0.714
G03 X248.273 Y178.711 I-21.782 J-14.412
G02 X215.398 Y205.844 I147.660 J212.390
G02 X195.582 Y228.725 I125.061 J128.332
G03 X191.070 Y226.533 I-2.060 J-1.499
G01 X191.096 Y226.465  F2000.0
G02 X189.844 Y201.316 I-28.788 J-11.171
G03 X190.183 Y190.560 I9.985 J-5.068
G02 X190.542 Y168.685 I-19.080 J-11.253
G03 X190.631 Y159.923 I7.873 J-4.302
G02 X190.359 Y139.215 I-17.665 J-10.124
G03 X190.260 Y131.197 I6.726 J-4.093
G02 X188.943 Y106.562 I-19.651 J-11.302
G03 X188.639 Y103.018 I2.783 J-2.024
G02 X190.947 Y73.462 I-35.891 J-17.671
G03 X194.169 Y71.402 I1.893 J-0.589
G03 X205.431 Y82.756 I-98.319 J108.797
G02 X253.649 Y126.706 I232.973 J-207.169
G03 X254.395 Y128.919 I-1.205 J1.638
G02 X257.379 Y148.850 I22.940 J6.754
G03 X257.501 Y150.703 I-1.566 J1.034
G00 Z23.080
G00 X247.835 Y170.085  F4000.0
G01 Z3.500 F1200.0 M3
G01 X247.653 Y170.048  F2000.0
G01 X247.615 Y170.329 
G01 X247.653 Y170.048 
G01 X247.031 Y168.698 
G01 X246.170 Y167.565 
G01 X245.504 Y167.277 
G01 X246.170 Y167.565 
G01 X246.734 Y167.489 
G01 X247.013 Y167.084 
G01 X246.734 Y167.489 
G01 X247.031 Y168.698 
G01 X247.653 Y170.048 
G01 X247.835 Y170.085 
G01 X250.145 Y170.475  
G01 X250.555 Y170.531  
G01 X250.145 Y170.475 
G03 X246.487 Y174.115 I-16.781 J-13.209
G01 X246.096 Y174.855  
G01 X246.487 Y174.115 
G02 X245.101 Y170.093 I-6.761 J0.080
G01 X241.449 Y165.225  
G01 X240.664 Y164.761 
G01 X241.449 Y165.225 
G02 X248.685 Y164.650 I2.116 J-19.180
G01 X249.000 Y164.187  
G01 X248.685 Y164.650 
G02 X250.145 Y170.475 I21.126 J-2.199
G01 X252.886 Y170.770  
G01 X253.299 Y170.798  
G01 X252.886 Y170.770 
G03 X246.914 Y176.756 I-19.522 J-13.504
G02 X234.893 Y185.634 I149.019 J214.345
G01 X234.457 Y186.431  
G01 X234.893 Y185.634 
G01 X234.907 Y185.121 
G02 X234.805 Y183.719 I-9.710 J0.000
G01 X234.366 Y183.273  
G01 X234.805 Y183.719 
G02 X238.850 Y182.014 I0.550 J-4.346
G03 X242.916 Y177.197 I46.593 J35.203
G02 X243.208 Y171.537 I-3.190 J-3.002
G03 X235.388 Y160.905 I296.454 J-226.241
G01 X234.788 Y160.366  
G01 X234.137 Y159.750 
G01 X234.788 Y160.366 
G01 X235.388 Y160.905 
G02 X240.773 Y162.728 I8.318 J-15.705
G02 X248.720 Y162.156 I2.792 J-16.683
G02 X250.997 Y161.143 I-3.495 J-10.923
G01 X251.417 Y160.459  
G01 X250.997 Y161.143 
G02 X252.886 Y170.770 I18.813 J1.308
G00 Z23.080
G00 X218.013 Y183.671  F4000.0
G01 Z3.500 F1200.0 M3
G02 X231.956 Y187.949 I7.183 J1.450
G02 X232.382 Y186.560 I-6.816 J-2.851
G02 X232.526 Y185.121 I-7.126 J-1.439
G02 X218.013 Y183.671 I-7.329 J0.000
G00 Z23.080
G00 X216.133 Y193.000  F4000.0
G01 Z3.500 F1200.0 M3
G02 X204.114 Y171.511 I-128.605 J57.822
G02 X200.865 Y167.043 I-72.823 J49.540
G02 X192.836 Y170.747 I-3.585 J2.783
G02 X198.031 Y180.508 I19.277 J-3.998
G03 X207.662 Y195.309 I-32.284 J31.541
G03 X206.712 Y196.091 I-0.600 J0.239
G03 X203.830 Y193.424 I6.166 J-9.553
G02 X199.431 Y191.377 I-4.142 J3.152
G02 X195.626 Y198.503 I0.233 J4.703
G02 X200.511 Y203.537 I13.197 J-7.919
G02 X206.982 Y205.774 I7.850 J-12.233
G02 X216.133 Y193.000 I0.862 J-9.047
G00 Z23.080
G00 X197.962 Y187.127  F4000.0
G01 Z3.500 F1200.0 M3
G01 X197.331 Y186.902  F2000.0
G01 X196.885 Y187.027 
G01 X196.332 Y187.598 
G01 X196.885 Y187.027 
G01 X197.029 Y186.528 
G01 X196.862 Y185.766 
G01 X197.029 Y186.528 
G01 X197.331 Y186.902 
G01 X197.962 Y187.127 
G01 X199.313 Y188.999  
G02 X193.585 Y199.728 I0.351 J7.081
G02 X199.225 Y205.541 I15.239 J-9.144
G02 X206.757 Y208.144 I9.136 J-14.236
G02 X209.878 Y208.014 I1.088 J-11.417
G01 X210.988 Y207.384  
G01 X209.878 Y208.014 
G02 X193.657 Y227.324 I130.581 J126.162
G03 X193.355 Y227.224 I-0.135 J-0.098
G01 X193.005 Y227.140  
G01 X193.355 Y227.224 
G02 X191.967 Y200.239 I-31.047 J-11.931
G03 X192.234 Y191.769 I7.862 J-3.991
G02 X195.551 Y181.335 I-21.131 J-12.462
G01 X195.252 Y180.428  
G01 X195.551 Y181.335 
G01 X196.328 Y182.172 
G03 X201.972 Y189.342 I-30.581 J29.878
G01 X202.390 Y189.679  
G01 X202.832 Y190.066 
G01 X202.390 Y189.679 
G01 X201.972 Y189.342 
G02 X199.313 Y188.999 I-2.283 J7.234
G00 Z23.080
G00 X199.703 Y210.787  F4000.0
G01 Z3.500 F1200.0 M3
G01 X200.126 Y211.357  F2000.0
G01 X200.278 Y211.418 
G01 X200.883 Y211.270 
G01 X200.278 Y211.418 
G01 X200.148 Y211.567 
G01 X199.865 Y212.436 
G01 X200.148 Y211.567 
G01 X200.126 Y211.357 
G01 X199.703 Y210.787 
G01 X197.940 Y207.545  
G02 X204.543 Y210.219 I10.422 J-16.240
G01 X205.241 Y209.985  
G01 X204.543 Y210.219 
G02 X197.848 Y217.984 I135.917 J123.956
G01 X197.384 Y219.124  
G01 X197.848 Y217.984 
G02 X196.937 Y206.858 I-35.540 J-2.690
G01 X196.330 Y205.939  
G01 X196.937 Y206.858 
G01 X197.940 Y207.545 
G00 Z23.080
G00 X214.332 Y169.106  F4000.0
G01 Z3.500 F1200.0 M3
G01 X214.237 Y169.582  F2000.0
G01 X215.442 Y171.379 
G01 X215.937 Y171.470 
G01 X215.442 Y171.379 
G01 X215.403 Y171.406 
G01 X215.303 Y171.922 
G01 X215.403 Y171.406 
G01 X214.733 Y170.337 
G01 X214.237 Y169.582 
G01 X213.759 Y169.476 
G01 X214.237 Y169.582 
G01 X214.332 Y169.106 
G01 X214.804 Y166.172  
G01 X214.869 Y165.624  
G01 X214.804 Y166.172 
G01 X218.840 Y172.120 
G01 X219.374 Y172.264 
G01 X218.840 Y172.120 
G02 X214.822 Y175.032 I6.357 J13.001
G01 X214.757 Y175.622  
G01 X214.822 Y175.032 
G02 X210.845 Y168.719 I-127.294 J75.790
G01 X210.306 Y168.556  
G01 X210.845 Y168.719 
G02 X214.804 Y166.172 I-5.746 J-13.281
G01 X215.078 Y162.262  
G01 X215.078 Y161.608  
G01 X215.078 Y162.262 
G02 X222.579 Y173.317 I324.337 J-211.997
G01 X223.188 Y173.561  
G01 X222.579 Y173.317 
G02 X214.571 Y179.352 I2.618 J11.804
G01 X214.587 Y180.110  
G01 X214.571 Y179.352 
G02 X208.051 Y168.833 I-127.043 J71.471
G01 X207.037 Y167.372  
G01 X206.403 Y167.098 
G01 X207.037 Y167.372 
G02 X215.078 Y162.262 I-1.938 J-11.933
G00 Z23.080
G00 X211.859 Y158.266  F4000.0
G01 Z3.500 F1200.0 M3
G02 X212.285 Y156.877 I-6.816 J-2.851
G02 X212.429 Y155.439 I-7.126 J-1.439
G02 X197.915 Y153.988 I-7.329 J0.000
G02 X211.859 Y158.266 I7.183 J1.450
G00 Z23.080
G00 X196.216 Y134.451  F4000.0
G01 Z3.500 F1200.0 M3
G01 X196.228 Y134.898  F2000.0
G01 X196.293 Y135.207 
G01 X196.429 Y135.522 
G01 X197.073 Y136.673 
G01 X197.848 Y138.145 
G01 X198.157 Y138.762 
G01 X199.923 Y141.924 
G01 X200.441 Y142.115 
G01 X199.923 Y141.924 
G01 X199.382 Y142.144 
G01 X199.151 Y142.639 
G01 X199.382 Y142.144 
G02 X198.157 Y138.762 I-26.416 J7.655
G01 X197.625 Y137.712  
G01 X197.073 Y136.673 
G01 X196.410 Y135.487 
G01 X196.293 Y135.207 
G01 X196.228 Y134.898 
G01 X196.216 Y134.451 
G01 X194.388 Y133.571  
G02 X196.127 Y129.960 I-23.779 J-13.676
G01 X196.074 Y129.089  
G01 X196.127 Y129.960 
G02 X203.533 Y143.450 I343.289 J-179.695
G01 X204.115 Y143.746  
G01 X203.533 Y143.450 
G02 X197.771 Y145.822 I1.567 J11.989
G01 X197.509 Y146.490  
G01 X197.771 Y145.822 
G02 X194.427 Y136.740 I-24.805 J3.978
G03 X194.388 Y133.571 I2.658 J-1.618
G01 X192.324 Y132.384  
G02 X195.418 Y123.366 I-21.715 J-12.489
G01 X195.201 Y122.131  
G01 X195.418 Y123.366 
G02 X207.848 Y146.126 I343.998 J-173.100
G01 X208.656 Y146.788  
G01 X207.848 Y146.126 
G02 X195.582 Y153.517 I-2.749 J9.313
G02 X199.261 Y163.196 I9.517 J1.921
G01 X200.963 Y164.100  
G01 X201.765 Y164.557 
G02 X214.055 Y159.185 I3.333 J-9.119
G02 X214.619 Y157.348 I-9.012 J-3.770
G01 X214.647 Y157.204  
G01 X214.423 Y156.185 
G01 X214.647 Y157.204 
G02 X227.135 Y175.607 I324.769 J-206.938
G01 X228.004 Y176.200  
G01 X227.135 Y175.607 
G02 X215.679 Y183.200 I-1.938 J9.515
G02 X215.553 Y186.252 I9.517 J1.921
G01 X215.839 Y187.133  
G01 X216.234 Y188.172 
G01 X216.683 Y189.184 
G01 X217.187 Y190.169 
G01 X217.746 Y191.130 
G01 X218.251 Y191.906 
G02 X223.903 Y194.744 I6.944 J-6.785
G01 X224.767 Y194.463  
G01 X223.903 Y194.744 
G02 X219.067 Y199.088 I172.030 J196.357
G01 X218.403 Y200.190  
G01 X219.067 Y199.088 
G02 X218.304 Y192.024 I-11.223 J-2.361
G01 X218.251 Y191.906  
G01 X217.746 Y191.130 
G01 X217.187 Y190.169 
G01 X216.683 Y189.184 
G01 X216.234 Y188.172 
G01 X215.839 Y187.133 
G01 X215.553 Y186.252 
G02 X206.083 Y170.172 I-128.025 J64.570
G02 X202.746 Y165.583 I-74.792 J50.880
G02 X201.765 Y164.557 I-5.466 J4.243
G01 X200.081 Y163.620  
G01 X199.261 Y163.196 
G02 X191.913 Y165.459 I-1.981 J6.630
G01 X191.814 Y165.881  
G01 X191.739 Y166.309 
G01 X191.814 Y165.881 
G01 X191.913 Y165.459 
G03 X192.697 Y161.107 I6.502 J-1.075
G02 X192.393 Y137.978 I-19.731 J-11.308
G03 X192.324 Y132.384 I4.692 J-2.855
G00 Z23.080
G00 X271.331 Y115.784  F4000.0
G01 Z3.500 F1200.0 M3
G02 X283.763 Y128.943 I476.995 J-438.209
G01 X286.700 Y131.410  F2000.0
G01 X283.763 Y128.943 
G01 X281.551 Y127.501 
G02 X276.676 Y124.596 I-48.727 J76.235
G02 X272.051 Y123.842 I-3.363 J6.069
G01 X271.734 Y124.295  
G01 X272.051 Y123.842 
G02 X270.023 Y118.188 I-15.380 J2.326
G03 X270.822 Y115.678 I1.509 J-0.902
G03 X271.331 Y115.784 I0.180 J0.408
G00 Z23.080
G00 X273.507 Y121.112  F4000.0
G01 Z3.500 F1200.0 M3
G01 X273.775 Y121.586  F2000.0
G01 X274.091 Y121.736 
G01 X273.775 Y121.586 
G01 X273.675 Y121.709 
G01 X273.775 Y121.586 
G01 X273.507 Y121.112 
G00 Z23.080
G00 X269.711 Y127.903  F4000.0
G01 Z3.500 F1200.0 M3
G02 X267.963 Y119.419 I-13.040 J-1.736
G03 X269.853 Y113.482 I3.569 J-2.133
G03 X273.098 Y114.160 I1.150 J2.603
G02 X288.137 Y129.985 I475.227 J-436.586
G02 X312.603 Y146.512 I53.039 J-52.143
G03 X314.159 Y150.769 I-1.184 J2.845
G03 X309.588 Y155.306 I-9.281 J-4.779
G02 X284.258 Y173.615 I44.849 J88.722
G02 X281.731 Y176.332 I34.678 J34.793
G02 X274.145 Y185.337 I389.098 J335.467
G03 X268.324 Y182.738 I-2.553 J-2.101
G02 X266.877 Y163.976 I-41.133 J-6.264
G03 X266.870 Y163.622 I0.598 J-0.188
G03 X268.917 Y157.670 I47.507 J13.003
G02 X269.338 Y142.594 I-19.392 J-8.086
G03 X268.838 Y131.421 I18.168 J-6.410
G02 X269.591 Y133.261 I4.475 J-0.757
G02 X278.210 Y140.188 I16.146 J-11.265
G03 X292.891 Y150.001 I-17.257 J41.705
G03 X292.325 Y151.094 I-0.457 J0.456
G03 X288.626 Y149.777 I1.906 J-11.210
G02 X283.776 Y149.628 I-2.566 J4.528
G02 X283.085 Y157.676 I2.066 J4.231
G02 X289.557 Y160.380 I9.013 J-12.476
G02 X296.386 Y159.888 I2.399 J-14.335
G02 X299.768 Y144.544 I-2.770 J-8.655
G02 X280.259 Y129.523 I-95.449 J103.789
G02 X275.513 Y126.695 I-47.434 J74.212
G02 X269.711 Y127.903 I-2.200 J3.970
G00 Z23.080
G00 X280.715 Y146.301  F4000.0
G01 Z3.500 F1200.0 M3
G01 X280.013 Y146.347  F2000.0
G02 X276.335 Y154.055 I5.829 J7.513
G01 X276.725 Y154.390  
G01 X276.335 Y154.055 
G02 X274.896 Y154.323 I1.498 J12.036
G01 X274.408 Y154.848  
G01 X274.896 Y154.323 
G02 X274.690 Y143.850 I-25.371 J-4.739
G01 X274.126 Y143.128  
G01 X274.690 Y143.850 
G01 X276.374 Y144.623 
G03 X280.013 Y146.347 I-15.422 J37.270
G01 X280.715 Y146.301  
G01 X282.723 Y147.472  
G02 X279.227 Y156.462 I3.119 J6.388
G01 X279.867 Y156.961  
G01 X279.227 Y156.462 
G02 X270.828 Y159.340 I-1.393 J9.629
G01 X270.266 Y160.281  
G01 X269.761 Y161.275 
G01 X269.554 Y161.741 
G01 X269.943 Y160.897 
G01 X270.266 Y160.281 
G01 X270.828 Y159.340 
G01 X271.132 Y158.594 
G02 X271.601 Y141.795 I-21.607 J-9.009
G03 X270.765 Y138.235 I15.905 J-5.612
G01 X270.298 Y137.261  
G01 X270.765 Y138.235 
G02 X277.292 Y142.406 I14.972 J-16.239
G03 X285.257 Y146.743 I-16.340 J39.488
G01 X285.799 Y146.893  
G01 X286.385 Y147.084 
G01 X285.799 Y146.893 
G01 X285.257 Y146.743 
G02 X282.723 Y147.472 I0.803 J7.562
G00 Z23.080
G00 X307.123 Y151.596  F4000.0
G01 Z3.500 F1200.0 M3
G01 X307.502 Y150.981  F2000.0
G02 X307.389 Y149.449 I-13.885 J0.252
G01 X306.908 Y148.802  
G01 X307.389 Y149.449 
G01 X308.760 Y150.080 
G01 X309.402 Y149.954 
G01 X308.760 Y150.080 
G03 X307.502 Y150.981 I-3.882 J-4.090
G01 X307.123 Y151.596  
G01 X308.505 Y153.164  
G02 X304.320 Y155.403 I45.932 J90.864
G01 X303.503 Y156.305  
G01 X304.320 Y155.403 
G02 X302.812 Y144.347 I-10.704 J-4.171
G01 X301.726 Y143.433  
G01 X300.658 Y142.614 
G01 X301.726 Y143.433 
G01 X302.812 Y144.347 
G02 X311.681 Y148.728 I38.365 J-66.506
G03 X312.025 Y149.670 I-0.262 J0.630
G03 X308.505 Y153.164 I-7.147 J-3.680
G00 Z23.080
G00 X285.987 Y161.508  F4000.0
G01 Z3.500 F1200.0 M3
G01 X286.735 Y162.164  F2000.0
G02 X289.161 Y162.747 I5.363 J-16.964
G02 X292.847 Y162.956 I2.795 J-16.702
G01 X294.137 Y162.459  
G01 X292.847 Y162.956 
G02 X287.484 Y167.325 I61.590 J81.071
G01 X286.913 Y168.330  
G01 X287.484 Y167.325 
G01 X287.563 Y166.091 
G02 X286.735 Y162.164 I-9.729 J0.000
G01 X285.987 Y161.508  
G00 Z23.080
G00 X284.593 Y168.919  F4000.0
G01 Z3.500 F1200.0 M3
G02 X285.019 Y167.530 I-6.816 J-2.851
G02 X285.163 Y166.091 I-7.126 J-1.439
