%
( hallhangare ) ( File created: Saturday October 05 2024 - 01:50 PM)
( for LinuxCNC )
( Material Size) ( X= 1300.000, Y= 180.000, Z= 20.000)
G90 (Incremental distance mode)
G17 G21 (Active Plane: XY)(Metric Mode)
G40 G49 G80(Tool Diameter, Length compensation & canned cycles OFF)
G64 P0.05 Q0.05(Path Blending)
M600
G90 (absolute distance mode)
G54 (Coordinate System)
S18000M3
G00 Z5.000
G4 P6
( 3D Finish 1 )
G00 X58.387 Y88.738 Z5.000 F8000.0
G01 Z-1.679 F2000.0 M3
G01 X58.410 Y88.461 Z-1.694 F4000.0
G01 X58.502 Y88.048 Z-1.706
G01 X58.671 Y87.577 Z-1.711
G01 X58.906 Y87.106 Z-1.703
G01 X59.110 Y86.790 Z-1.689
G01 X59.010 Y87.221 Z-1.701
G01 X58.832 Y87.745 Z-1.702
G01 X58.551 Y88.401 Z-1.695
G01 X58.387 Y88.738 Z-1.679
G01 X58.087 Y88.798 Z-1.678
G01 X58.116 Y88.416 Z-1.697
G01 X58.216 Y87.965 Z-1.708
G01 X58.398 Y87.460 Z-1.712
G01 X58.649 Y86.958 Z-1.704
G01 X58.942 Y86.513 Z-1.685
G01 X59.232 Y86.173 Z-1.659
G01 X59.381 Y86.034 Z-1.644
G01 X59.436 Y86.378 Z-1.658
G01 X59.420 Y86.732 Z-1.671
G01 X59.354 Y87.082 Z-1.681
G01 X59.214 Y87.560 Z-1.686
G01 X58.976 Y88.177 Z-1.685
G01 X58.580 Y89.017 Z-1.656
G01 X58.134 Y89.814 Z-1.610
G01 X58.103 Y89.404 Z-1.640
G01 X58.087 Y88.798 Z-1.678
G01 X57.790 Y88.796 Z-1.670
G01 X57.822 Y88.372 Z-1.690
G01 X57.931 Y87.883 Z-1.703
G01 X58.125 Y87.343 Z-1.707
G01 X58.392 Y86.809 Z-1.699
G01 X58.704 Y86.335 Z-1.680
G01 X59.020 Y85.965 Z-1.655
G01 X59.283 Y85.731 Z-1.628
G01 X59.463 Y85.620 Z-1.614
G01 X59.547 Y85.590 Z-1.606
G01 X59.681 Y86.004 Z-1.622
G01 X59.733 Y86.364 Z-1.634
G01 X59.715 Y86.771 Z-1.647
G01 X59.643 Y87.152 Z-1.657
G01 X59.496 Y87.655 Z-1.664
G01 X59.250 Y88.294 Z-1.661
G01 X58.845 Y89.153 Z-1.634
G01 X58.588 Y89.629 Z-1.612
G01 X57.941 Y90.662 Z-1.537
G01 X57.854 Y90.033 Z-1.593
G01 X57.806 Y89.419 Z-1.633
G01 X57.790 Y88.796 Z-1.670
G01 X57.493 Y88.794 Z-1.658
G01 X57.528 Y88.328 Z-1.678
G01 X57.645 Y87.800 Z-1.691
G01 X57.852 Y87.226 Z-1.694
G01 X58.134 Y86.661 Z-1.689
G01 X58.467 Y86.156 Z-1.670
G01 X58.808 Y85.756 Z-1.640
G01 X59.104 Y85.493 Z-1.615
G01 X59.349 Y85.345 Z-1.593
G01 X59.719 Y85.249 Z-1.564
G01 X59.870 Y85.602 Z-1.582
G01 X60.000 Y86.079 Z-1.601
G01 X60.033 Y86.488 Z-1.611
G01 X60.009 Y86.809 Z-1.619
G01 X59.932 Y87.221 Z-1.627
G01 X59.777 Y87.751 Z-1.631
G01 X59.523 Y88.410 Z-1.632
G01 X59.109 Y89.289 Z-1.606
G01 X58.847 Y89.775 Z-1.582
G01 X58.572 Y90.241 Z-1.557
G01 X58.002 Y91.094 Z-1.496
G01 X57.788 Y91.375 Z-1.464
G01 X57.634 Y90.640 Z-1.540
G01 X57.558 Y90.064 Z-1.586
G01 X57.509 Y89.435 Z-1.622
G01 X57.493 Y88.794 Z-1.658
G01 X57.196 Y88.792 Z-1.636
G01 X57.234 Y88.284 Z-1.656
G01 X57.360 Y87.717 Z-1.669
G01 X57.578 Y87.109 Z-1.678
G01 X57.877 Y86.512 Z-1.667
G01 X58.229 Y85.978 Z-1.647
G01 X58.596 Y85.548 Z-1.621
G01 X58.925 Y85.256 Z-1.594
G01 X59.172 Y85.100 Z-1.574
G01 X59.461 Y84.996 Z-1.554
G01 X59.800 Y84.947 Z-1.528
G01 X59.915 Y84.964 Z-1.522
G01 X60.150 Y85.502 Z-1.546
G01 X60.259 Y85.867 Z-1.557
G01 X60.327 Y86.334 Z-1.568
G01 X60.323 Y86.661 Z-1.575
G01 X60.271 Y87.055 Z-1.584
G01 X60.151 Y87.553 Z-1.592
G01 X59.941 Y88.171 Z-1.595
G01 X59.627 Y88.905 Z-1.585
G01 X59.373 Y89.425 Z-1.569
G01 X59.106 Y89.921 Z-1.546
G01 X58.825 Y90.397 Z-1.522
G01 X58.536 Y90.848 Z-1.500
G01 X58.242 Y91.269 Z-1.464
G01 X57.663 Y91.999 Z-1.390
G01 X57.564 Y91.697 Z-1.428
G01 X57.443 Y91.223 Z-1.479
G01 X57.341 Y90.687 Z-1.526
G01 X57.263 Y90.095 Z-1.568
G01 X57.213 Y89.450 Z-1.602
G01 X57.196 Y88.792 Z-1.636
G01 X56.898 Y88.790 Z-1.606
G01 X56.909 Y88.512 Z-1.616
G01 X56.940 Y88.240 Z-1.628
G01 X56.995 Y87.945 Z-1.638
G01 X57.075 Y87.634 Z-1.644
G01 X57.178 Y87.314 Z-1.646
G01 X57.305 Y86.992 Z-1.647
G01 X57.453 Y86.673 Z-1.645
G01 X57.619 Y86.364 Z-1.640
G01 X57.800 Y86.071 Z-1.631
G01 X57.991 Y85.799 Z-1.620
G01 X58.384 Y85.340 Z-1.592
G01 X58.747 Y85.018 Z-1.564
G01 X59.037 Y84.835 Z-1.545
G01 X59.387 Y84.708 Z-1.523
G01 X59.761 Y84.650 Z-1.497
G01 X60.116 Y84.701 Z-1.476
G01 X60.351 Y85.200 Z-1.500
G01 X60.497 Y85.608 Z-1.513
G01 X60.585 Y85.977 Z-1.518
G01 X60.624 Y86.319 Z-1.520
G01 X60.619 Y86.682 Z-1.523
G01 X60.563 Y87.110 Z-1.529
G01 X60.436 Y87.636 Z-1.535
G01 X60.218 Y88.277 Z-1.536
G01 X59.896 Y89.031 Z-1.532
G01 X59.637 Y89.560 Z-1.519
G01 X59.365 Y90.066 Z-1.502
G01 X59.079 Y90.552 Z-1.481
G01 X58.783 Y91.013 Z-1.459
G01 X58.482 Y91.444 Z-1.429
G01 X58.181 Y91.840 Z-1.396
G01 X57.886 Y92.196 Z-1.359
G01 X57.559 Y92.551 Z-1.317
G01 X57.418 Y92.205 Z-1.360
G01 X57.278 Y91.779 Z-1.409
G01 X57.153 Y91.287 Z-1.460
G01 X57.047 Y90.734 Z-1.508
G01 X56.967 Y90.125 Z-1.544
G01 X56.916 Y89.465 Z-1.576
G01 X56.898 Y88.790 Z-1.606
G01 X56.601 Y88.788 Z-1.571
G01 X56.613 Y88.490 Z-1.580
G01 X56.646 Y88.196 Z-1.593
G01 X56.705 Y87.881 Z-1.602
G01 X56.789 Y87.552 Z-1.607
G01 X56.899 Y87.214 Z-1.610
G01 X57.032 Y86.875 Z-1.611
G01 X57.188 Y86.540 Z-1.609
G01 X57.362 Y86.215 Z-1.604
G01 X57.552 Y85.907 Z-1.597
G01 X57.754 Y85.621 Z-1.585
G01 X57.962 Y85.361 Z-1.572
G01 X58.172 Y85.132 Z-1.559
G01 X58.568 Y84.781 Z-1.532
G01 X58.901 Y84.570 Z-1.508
G01 X59.152 Y84.468 Z-1.493
G01 X59.476 Y84.385 Z-1.475
G01 X59.829 Y84.353 Z-1.452
G01 X60.309 Y84.444 Z-1.418
G01 X60.409 Y84.618 Z-1.426
G01 X60.709 Y85.301 Z-1.448
G01 X60.837 Y85.730 Z-1.453
G01 X60.905 Y86.115 Z-1.456
G01 X60.924 Y86.498 Z-1.458
G01 X60.893 Y86.923 Z-1.459
G01 X60.799 Y87.428 Z-1.463
G01 X60.621 Y88.037 Z-1.467
G01 X60.343 Y88.760 Z-1.466
G01 X59.901 Y89.696 Z-1.453
G01 X59.623 Y90.212 Z-1.439
G01 X59.332 Y90.708 Z-1.420
G01 X59.030 Y91.178 Z-1.401
G01 X58.722 Y91.619 Z-1.380
G01 X58.414 Y92.025 Z-1.351
G01 X58.110 Y92.391 Z-1.323
G01 X57.818 Y92.712 Z-1.286
G01 X57.480 Y93.042 Z-1.241
G01 X57.292 Y92.684 Z-1.292
G01 X57.139 Y92.308 Z-1.340
G01 X56.993 Y91.862 Z-1.386
G01 X56.863 Y91.352 Z-1.432
G01 X56.754 Y90.782 Z-1.478
G01 X56.671 Y90.156 Z-1.514
G01 X56.619 Y89.481 Z-1.545
G01 X56.601 Y88.788 Z-1.571
G01 X56.304 Y88.786 Z-1.521
G01 X56.316 Y88.467 Z-1.530
G01 X56.352 Y88.152 Z-1.542
G01 X56.415 Y87.817 Z-1.551
G01 X56.504 Y87.469 Z-1.556
G01 X56.619 Y87.114 Z-1.561
G01 X56.759 Y86.758 Z-1.564
G01 X56.922 Y86.407 Z-1.562
G01 X57.105 Y86.067 Z-1.561
G01 X57.304 Y85.744 Z-1.549
G01 X57.516 Y85.442 Z-1.535
G01 X57.737 Y85.167 Z-1.522
G01 X57.960 Y84.924 Z-1.507
G01 X58.180 Y84.715 Z-1.494
G01 X58.389 Y84.543 Z-1.483
G01 X58.766 Y84.306 Z-1.463
G01 X59.059 Y84.186 Z-1.449
G01 X59.423 Y84.092 Z-1.427
G01 X59.740 Y84.056 Z-1.404
G01 X59.945 Y84.066 Z-1.394
G01 X60.395 Y84.160 Z-1.361
G01 X60.507 Y84.210 Z-1.353
G01 X60.675 Y84.484 Z-1.363
G01 X60.898 Y84.968 Z-1.379
G01 X61.067 Y85.438 Z-1.386
G01 X61.171 Y85.875 Z-1.383
G01 X61.217 Y86.289 Z-1.379
G01 X61.212 Y86.724 Z-1.378
G01 X61.147 Y87.218 Z-1.381
G01 X61.007 Y87.801 Z-1.389
G01 X60.773 Y88.490 Z-1.389
G01 X60.435 Y89.283 Z-1.386
G01 X60.166 Y89.832 Z-1.376
G01 X59.882 Y90.358 Z-1.365
G01 X59.585 Y90.864 Z-1.351
G01 X59.276 Y91.344 Z-1.335
G01 X58.962 Y91.794 Z-1.313
G01 X58.646 Y92.209 Z-1.291
G01 X58.334 Y92.585 Z-1.268
G01 X58.032 Y92.917 Z-1.239
G01 X57.748 Y93.200 Z-1.211
G01 X57.415 Y93.489 Z-1.165
G01 X57.186 Y93.131 Z-1.223
G01 X57.022 Y92.807 Z-1.265
G01 X56.860 Y92.410 Z-1.308
G01 X56.708 Y91.945 Z-1.353
G01 X56.573 Y91.417 Z-1.400
G01 X56.461 Y90.829 Z-1.441
G01 X56.376 Y90.187 Z-1.473
G01 X56.322 Y89.496 Z-1.502
G01 X56.304 Y88.786 Z-1.521
G01 X56.007 Y88.785 Z-1.455
G01 X56.020 Y88.444 Z-1.464
G01 X56.058 Y88.108 Z-1.476
G01 X56.124 Y87.753 Z-1.488
G01 X56.218 Y87.386 Z-1.491
G01 X56.339 Y87.014 Z-1.493
G01 X56.486 Y86.641 Z-1.499
G01 X56.656 Y86.274 Z-1.498
G01 X56.847 Y85.919 Z-1.495
G01 X57.056 Y85.580 Z-1.486
G01 X57.279 Y85.264 Z-1.471
G01 X57.511 Y84.974 Z-1.457
G01 X57.748 Y84.716 Z-1.443
G01 X57.983 Y84.492 Z-1.430
G01 X58.211 Y84.306 Z-1.417
G01 X58.424 Y84.158 Z-1.409
G01 X58.780 Y83.973 Z-1.395
G01 X59.165 Y83.845 Z-1.376
G01 X59.561 Y83.771 Z-1.355
G01 X59.857 Y83.759 Z-1.340
G01 X60.344 Y83.839 Z-1.313
G01 X60.661 Y83.945 Z-1.283
G01 X60.797 Y84.105 Z-1.282
G01 X60.940 Y84.350 Z-1.291
G01 X61.171 Y84.851 Z-1.304
G01 X61.351 Y85.353 Z-1.306
G01 X61.463 Y85.824 Z-1.304
G01 X61.514 Y86.275 Z-1.297
G01 X61.508 Y86.745 Z-1.294
G01 X61.439 Y87.272 Z-1.298
G01 X61.292 Y87.884 Z-1.301
G01 X61.050 Y88.596 Z-1.301
G01 X60.704 Y89.409 Z-1.298
G01 X60.430 Y89.968 Z-1.291
G01 X60.141 Y90.504 Z-1.280
G01 X59.838 Y91.019 Z-1.273
G01 X59.523 Y91.509 Z-1.256
G01 X59.202 Y91.969 Z-1.242
G01 X58.879 Y92.394 Z-1.221
G01 X58.559 Y92.780 Z-1.200
G01 X58.247 Y93.123 Z-1.179
G01 X57.952 Y93.416 Z-1.151
G01 X57.682 Y93.657 Z-1.123
G01 X57.376 Y93.889 Z-1.083
G01 X57.176 Y93.665 Z-1.127
G01 X56.926 Y93.277 Z-1.185
G01 X56.751 Y92.930 Z-1.228
G01 X56.581 Y92.513 Z-1.268
G01 X56.422 Y92.028 Z-1.304
G01 X56.283 Y91.481 Z-1.342
G01 X56.167 Y90.876 Z-1.382
G01 X56.080 Y90.218 Z-1.424
G01 X56.026 Y89.511 Z-1.442
G01 X56.007 Y88.785 Z-1.455
G01 X55.710 Y88.783 Z-1.380
G01 X55.724 Y88.422 Z-1.388
G01 X55.765 Y88.064 Z-1.399
G01 X55.834 Y87.689 Z-1.412
G01 X55.933 Y87.304 Z-1.416
G01 X56.060 Y86.913 Z-1.421
G01 X56.213 Y86.524 Z-1.424
G01 X56.390 Y86.141 Z-1.422
G01 X56.590 Y85.770 Z-1.423
G01 X56.808 Y85.416 Z-1.412
G01 X57.041 Y85.085 Z-1.398
G01 X57.285 Y84.781 Z-1.383
G01 X57.536 Y84.507 Z-1.369
G01 X57.786 Y84.269 Z-1.357
G01 X58.032 Y84.068 Z-1.345
G01 X58.266 Y83.907 Z-1.335
G01 X58.666 Y83.698 Z-1.324
G01 X59.091 Y83.557 Z-1.309
G01 X59.528 Y83.476 Z-1.287
G01 X59.872 Y83.462 Z-1.271
G01 X60.216 Y83.508 Z-1.252
G01 X60.678 Y83.628 Z-1.219
G01 X60.863 Y83.724 Z-1.202
G01 X61.045 Y83.941 Z-1.207
G01 X61.205 Y84.217 Z-1.210
G01 X61.445 Y84.735 Z-1.221
G01 X61.636 Y85.268 Z-1.220
G01 X61.756 Y85.773 Z-1.211
G01 X61.811 Y86.260 Z-1.202
G01 X61.805 Y86.766 Z-1.198
G01 X61.731 Y87.327 Z-1.199
G01 X61.577 Y87.967 Z-1.204
G01 X61.328 Y88.703 Z-1.203
G01 X60.973 Y89.534 Z-1.202
G01 X60.694 Y90.103 Z-1.192
G01 X60.400 Y90.650 Z-1.188
G01 X60.091 Y91.175 Z-1.181
G01 X59.770 Y91.674 Z-1.170
G01 X59.442 Y92.144 Z-1.156
G01 X59.111 Y92.579 Z-1.142
G01 X58.783 Y92.975 Z-1.128
G01 X58.462 Y93.328 Z-1.104
G01 X58.156 Y93.633 Z-1.081
G01 X57.873 Y93.885 Z-1.057
G01 X57.623 Y94.081 Z-1.034
G01 X57.363 Y94.248 Z-1.006
G01 X57.175 Y94.107 Z-1.036
G01 X56.940 Y93.846 Z-1.077
G01 X56.667 Y93.423 Z-1.137
G01 X56.481 Y93.054 Z-1.172
G01 X56.302 Y92.615 Z-1.206
G01 X56.137 Y92.111 Z-1.242
G01 X55.993 Y91.546 Z-1.278
G01 X55.874 Y90.924 Z-1.314
G01 X55.785 Y90.249 Z-1.353
G01 X55.729 Y89.527 Z-1.368
G01 X55.710 Y88.783 Z-1.380
G01 X55.413 Y88.781 Z-1.293
G01 X55.427 Y88.399 Z-1.301
G01 X55.471 Y88.020 Z-1.312
G01 X55.544 Y87.625 Z-1.327
G01 X55.647 Y87.221 Z-1.336
G01 X55.780 Y86.813 Z-1.336
G01 X55.940 Y86.407 Z-1.339
G01 X56.125 Y86.008 Z-1.342
G01 X56.332 Y85.622 Z-1.338
G01 X56.560 Y85.253 Z-1.328
G01 X56.804 Y84.907 Z-1.315
G01 X57.060 Y84.587 Z-1.301
G01 X57.323 Y84.299 Z-1.287
G01 X57.590 Y84.046 Z-1.273
G01 X57.853 Y83.831 Z-1.263
G01 X58.108 Y83.655 Z-1.254
G01 X58.359 Y83.512 Z-1.248
G01 X58.778 Y83.340 Z-1.241
G01 X59.261 Y83.216 Z-1.225
G01 X59.709 Y83.165 Z-1.202
G01 X60.058 Y83.181 Z-1.187
G01 X60.651 Y83.306 Z-1.153
G01 X60.951 Y83.426 Z-1.125
G01 X61.096 Y83.533 Z-1.117
G01 X61.292 Y83.776 Z-1.114
G01 X61.471 Y84.083 Z-1.123
G01 X61.718 Y84.619 Z-1.127
G01 X61.921 Y85.183 Z-1.125
G01 X62.049 Y85.721 Z-1.112
G01 X62.107 Y86.245 Z-1.098
G01 X62.101 Y86.787 Z-1.091
G01 X62.024 Y87.381 Z-1.094
G01 X61.863 Y88.050 Z-1.096
G01 X61.605 Y88.809 Z-1.096
G01 X61.242 Y89.660 Z-1.091
G01 X60.958 Y90.239 Z-1.090
G01 X60.659 Y90.796 Z-1.083
G01 X60.344 Y91.331 Z-1.077
G01 X60.017 Y91.840 Z-1.072
G01 X59.682 Y92.319 Z-1.064
G01 X59.344 Y92.764 Z-1.051
G01 X59.007 Y93.170 Z-1.037
G01 X58.677 Y93.533 Z-1.023
G01 X58.360 Y93.849 Z-1.004
G01 X58.063 Y94.113 Z-0.981
G01 X57.798 Y94.321 Z-0.968
G01 X57.414 Y94.559 Z-0.931
G01 X57.369 Y94.568 Z-0.929
G01 X57.184 Y94.488 Z-0.951
G01 X56.973 Y94.326 Z-0.977
G01 X56.704 Y94.027 Z-1.024
G01 X56.408 Y93.568 Z-1.071
G01 X56.210 Y93.177 Z-1.102
G01 X56.023 Y92.718 Z-1.137
G01 X55.852 Y92.194 Z-1.168
G01 X55.703 Y91.610 Z-1.202
G01 X55.581 Y90.971 Z-1.240
G01 X55.489 Y90.280 Z-1.275
G01 X55.432 Y89.542 Z-1.284
G01 X55.413 Y88.781 Z-1.293
G01 X55.115 Y88.779 Z-1.200
G01 X55.131 Y88.377 Z-1.208
G01 X55.177 Y87.975 Z-1.220
G01 X55.254 Y87.561 Z-1.233
G01 X55.362 Y87.138 Z-1.239
G01 X55.500 Y86.713 Z-1.242
G01 X55.666 Y86.290 Z-1.250
G01 X55.859 Y85.875 Z-1.246
G01 X56.075 Y85.473 Z-1.246
G01 X56.312 Y85.089 Z-1.238
G01 X56.566 Y84.728 Z-1.222
G01 X56.834 Y84.394 Z-1.209
G01 X57.111 Y84.091 Z-1.195
G01 X57.393 Y83.823 Z-1.183
G01 X57.674 Y83.593 Z-1.171
G01 X57.950 Y83.403 Z-1.161
G01 X58.224 Y83.247 Z-1.156
G01 X58.684 Y83.058 Z-1.152
G01 X59.207 Y82.923 Z-1.139
G01 X59.698 Y82.868 Z-1.117
G01 X60.096 Y82.887 Z-1.099
G01 X60.551 Y82.972 Z-1.075
G01 X60.886 Y83.071 Z-1.053
G01 X61.171 Y83.212 Z-1.023
G01 X61.371 Y83.390 Z-1.015
G01 X61.539 Y83.611 Z-1.019
G01 X61.736 Y83.949 Z-1.022
G01 X61.992 Y84.503 Z-1.030
G01 X62.206 Y85.098 Z-1.017
G01 X62.341 Y85.670 Z-1.002
G01 X62.404 Y86.230 Z-0.986
G01 X62.397 Y86.808 Z-0.978
G01 X62.316 Y87.435 Z-0.976
G01 X62.148 Y88.133 Z-0.976
G01 X61.882 Y88.916 Z-0.980
G01 X61.511 Y89.786 Z-0.973
G01 X61.223 Y90.375 Z-0.971
G01 X60.917 Y90.942 Z-0.969
G01 X60.597 Y91.486 Z-0.963
G01 X60.264 Y92.005 Z-0.963
G01 X59.922 Y92.494 Z-0.957
G01 X59.577 Y92.948 Z-0.951
G01 X59.231 Y93.365 Z-0.943
G01 X58.892 Y93.738 Z-0.928
G01 X58.563 Y94.065 Z-0.912
G01 X58.254 Y94.341 Z-0.901
G01 X57.972 Y94.562 Z-0.881
G01 X57.730 Y94.724 Z-0.868
G01 X57.420 Y94.877 Z-0.849
G01 X57.237 Y94.839 Z-0.863
G01 X57.030 Y94.742 Z-0.878
G01 X56.772 Y94.544 Z-0.912
G01 X56.469 Y94.208 Z-0.955
G01 X56.149 Y93.714 Z-0.994
G01 X55.940 Y93.300 Z-1.022
G01 X55.744 Y92.820 Z-1.052
G01 X55.566 Y92.277 Z-1.087
G01 X55.413 Y91.675 Z-1.116
G01 X55.287 Y91.018 Z-1.150
G01 X55.194 Y90.311 Z-1.188
G01 X55.136 Y89.557 Z-1.194
G01 X55.115 Y88.779 Z-1.200
G01 X54.818 Y88.777 Z-1.094
G01 X54.835 Y88.354 Z-1.099
G01 X54.883 Y87.931 Z-1.112
G01 X54.964 Y87.497 Z-1.127
G01 X55.077 Y87.055 Z-1.135
G01 X55.220 Y86.612 Z-1.138
G01 X55.393 Y86.173 Z-1.143
G01 X55.593 Y85.742 Z-1.144
G01 X55.818 Y85.325 Z-1.143
G01 X56.064 Y84.926 Z-1.133
G01 X56.329 Y84.549 Z-1.121
G01 X56.608 Y84.200 Z-1.104
G01 X56.899 Y83.883 Z-1.092
G01 X57.197 Y83.600 Z-1.079
G01 X57.496 Y83.356 Z-1.066
G01 X57.792 Y83.151 Z-1.063
G01 X58.088 Y82.983 Z-1.053
G01 X58.325 Y82.874 Z-1.055
G01 X58.590 Y82.776 Z-1.053
G01 X59.153 Y82.631 Z-1.046
G01 X59.688 Y82.571 Z-1.021
G01 X60.134 Y82.592 Z-1.001
G01 X60.620 Y82.683 Z-0.977
G01 X60.990 Y82.793 Z-0.954
G01 X61.241 Y82.907 Z-0.926
G01 X61.506 Y83.102 Z-0.911
G01 X61.686 Y83.305 Z-0.904
G01 X61.896 Y83.622 Z-0.909
G01 X62.002 Y83.816 Z-0.913
G01 X62.265 Y84.387 Z-0.911
G01 X62.490 Y85.013 Z-0.903
G01 X62.634 Y85.619 Z-0.878
G01 X62.701 Y86.215 Z-0.852
G01 X62.694 Y86.829 Z-0.843
G01 X62.608 Y87.489 Z-0.844
G01 X62.433 Y88.216 Z-0.849
G01 X62.160 Y89.022 Z-0.845
G01 X61.780 Y89.912 Z-0.843
G01 X61.487 Y90.511 Z-0.831
G01 X61.176 Y91.087 Z-0.829
G01 X60.850 Y91.642 Z-0.829
G01 X60.510 Y92.170 Z-0.827
G01 X60.162 Y92.669 Z-0.829
G01 X59.809 Y93.133 Z-0.832
G01 X59.456 Y93.559 Z-0.829
G01 X59.106 Y93.944 Z-0.823
G01 X58.767 Y94.282 Z-0.812
G01 X58.445 Y94.569 Z-0.798
G01 X58.147 Y94.802 Z-0.787
G01 X57.885 Y94.978 Z-0.775
G01 X57.672 Y95.095 Z-0.764
G01 X57.452 Y95.176 Z-0.758
G01 X57.228 Y95.146 Z-0.772
G01 X56.969 Y95.048 Z-0.789
G01 X56.676 Y94.855 Z-0.826
G01 X56.347 Y94.530 Z-0.860
G01 X56.132 Y94.250 Z-0.878
G01 X55.889 Y93.859 Z-0.901
G01 X55.669 Y93.423 Z-0.931
G01 X55.465 Y92.923 Z-0.960
G01 X55.281 Y92.360 Z-0.988
G01 X55.123 Y91.740 Z-1.021
G01 X54.994 Y91.066 Z-1.054
G01 X54.898 Y90.342 Z-1.086
G01 X54.839 Y89.573 Z-1.089
G01 X54.818 Y88.777 Z-1.094
G01 X54.521 Y88.775 Z-0.977
G01 X54.538 Y88.331 Z-0.981
G01 X54.589 Y87.887 Z-0.997
G01 X54.674 Y87.433 Z-1.015
G01 X54.791 Y86.973 Z-1.019
G01 X54.941 Y86.512 Z-1.022
G01 X55.120 Y86.056 Z-1.030
G01 X55.327 Y85.609 Z-1.028
G01 X55.560 Y85.176 Z-1.029
G01 X55.816 Y84.762 Z-1.019
G01 X56.091 Y84.371 Z-1.004
G01 X56.383 Y84.007 Z-0.991
G01 X56.687 Y83.675 Z-0.977
G01 X57.000 Y83.377 Z-0.963
G01 X57.317 Y83.118 Z-0.955
G01 X57.634 Y82.899 Z-0.944
G01 X57.953 Y82.718 Z-0.943
G01 X58.211 Y82.600 Z-0.943
G01 X58.496 Y82.494 Z-0.943
G01 X58.796 Y82.406 Z-0.948
G01 X59.099 Y82.339 Z-0.942
G01 X59.396 Y82.295 Z-0.933
G01 X59.677 Y82.273 Z-0.916
G01 X59.930 Y82.275 Z-0.906
G01 X60.435 Y82.340 Z-0.884
G01 X60.908 Y82.452 Z-0.854
G01 X61.252 Y82.580 Z-0.828
G01 X61.503 Y82.719 Z-0.804
G01 X61.711 Y82.887 Z-0.787
G01 X61.922 Y83.124 Z-0.784
G01 X62.152 Y83.472 Z-0.786
G01 X62.267 Y83.682 Z-0.786
G01 X62.539 Y84.270 Z-0.784
G01 X62.775 Y84.928 Z-0.759
G01 X62.927 Y85.568 Z-0.725
G01 X62.998 Y86.200 Z-0.700
G01 X62.990 Y86.851 Z-0.688
G01 X62.900 Y87.544 Z-0.687
G01 X62.719 Y88.299 Z-0.696
G01 X62.437 Y89.129 Z-0.700
G01 X62.049 Y90.038 Z-0.684
G01 X61.751 Y90.647 Z-0.680
G01 X61.435 Y91.233 Z-0.676
G01 X61.103 Y91.797 Z-0.674
G01 X60.757 Y92.336 Z-0.679
G01 X60.402 Y92.844 Z-0.687
G01 X60.042 Y93.318 Z-0.688
G01 X59.680 Y93.754 Z-0.691
G01 X59.321 Y94.149 Z-0.695
G01 X58.971 Y94.498 Z-0.691
G01 X58.635 Y94.797 Z-0.686
G01 X58.321 Y95.043 Z-0.677
G01 X58.039 Y95.232 Z-0.664
G01 X57.801 Y95.363 Z-0.663
G01 X57.621 Y95.438 Z-0.656
G01 X57.485 Y95.474 Z-0.657
G01 X57.158 Y95.435 Z-0.678
G01 X56.834 Y95.313 Z-0.702
G01 X56.489 Y95.085 Z-0.731
G01 X56.246 Y94.860 Z-0.755
G01 X55.997 Y94.570 Z-0.774
G01 X55.630 Y94.005 Z-0.800
G01 X55.399 Y93.547 Z-0.827
G01 X55.186 Y93.025 Z-0.854
G01 X54.995 Y92.443 Z-0.882
G01 X54.833 Y91.804 Z-0.909
G01 X54.701 Y91.113 Z-0.945
G01 X54.603 Y90.373 Z-0.977
G01 X54.542 Y89.588 Z-0.975
G01 X54.521 Y88.775 Z-0.977
G01 X54.224 Y88.773 Z-0.839
G01 X54.242 Y88.309 Z-0.843
G01 X54.295 Y87.843 Z-0.861
G01 X54.383 Y87.369 Z-0.885
G01 X54.506 Y86.890 Z-0.892
G01 X54.661 Y86.412 Z-0.900
G01 X54.847 Y85.939 Z-0.902
G01 X55.062 Y85.476 Z-0.901
G01 X55.303 Y85.028 Z-0.894
G01 X55.568 Y84.598 Z-0.881
G01 X55.854 Y84.192 Z-0.870
G01 X56.157 Y83.814 Z-0.858
G01 X56.475 Y83.466 Z-0.847
G01 X56.803 Y83.154 Z-0.841
G01 X57.138 Y82.881 Z-0.826
G01 X57.476 Y82.648 Z-0.822
G01 X57.817 Y82.453 Z-0.818
G01 X58.097 Y82.325 Z-0.818
G01 X58.403 Y82.212 Z-0.818
G01 X58.722 Y82.118 Z-0.823
G01 X59.045 Y82.047 Z-0.819
G01 X59.363 Y81.999 Z-0.809
G01 X59.666 Y81.976 Z-0.793
G01 X59.944 Y81.978 Z-0.782
G01 X60.489 Y82.048 Z-0.760
G01 X60.993 Y82.167 Z-0.723
G01 X61.376 Y82.309 Z-0.692
G01 X61.669 Y82.473 Z-0.667
G01 X61.916 Y82.672 Z-0.648
G01 X62.157 Y82.943 Z-0.635
G01 X62.409 Y83.322 Z-0.634
G01 X62.532 Y83.548 Z-0.637
G01 X62.812 Y84.154 Z-0.635
G01 X63.060 Y84.843 Z-0.604
G01 X63.151 Y85.182 Z-0.584
G01 X63.220 Y85.517 Z-0.563
G01 X63.267 Y85.851 Z-0.544
G01 X63.295 Y86.186 Z-0.531
G01 X63.301 Y86.525 Z-0.523
G01 X63.287 Y86.872 Z-0.518
G01 X63.251 Y87.229 Z-0.516
G01 X63.192 Y87.598 Z-0.519
G01 X63.098 Y87.990 Z-0.533
G01 X63.004 Y88.382 Z-0.526
G01 X62.714 Y89.235 Z-0.530
G01 X62.318 Y90.164 Z-0.534
G01 X62.015 Y90.782 Z-0.508
G01 X61.694 Y91.379 Z-0.505
G01 X61.356 Y91.953 Z-0.533
G01 X61.004 Y92.501 Z-0.553
G01 X60.643 Y93.019 Z-0.518
G01 X60.275 Y93.503 Z-0.528
G01 X59.904 Y93.949 Z-0.565
G01 X59.536 Y94.354 Z-0.544
G01 X59.175 Y94.714 Z-0.542
G01 X58.826 Y95.025 Z-0.550
G01 X58.496 Y95.283 Z-0.548
G01 X58.194 Y95.486 Z-0.543
G01 X57.930 Y95.631 Z-0.534
G01 X57.717 Y95.720 Z-0.525
G01 X57.487 Y95.772 Z-0.531
G01 X57.219 Y95.750 Z-0.562
G01 X56.957 Y95.686 Z-0.574
G01 X56.699 Y95.577 Z-0.597
G01 X56.436 Y95.418 Z-0.616
G01 X56.167 Y95.199 Z-0.640
G01 X55.896 Y94.917 Z-0.650
G01 X55.639 Y94.582 Z-0.667
G01 X55.371 Y94.150 Z-0.678
G01 X55.128 Y93.670 Z-0.704
G01 X54.907 Y93.127 Z-0.734
G01 X54.710 Y92.526 Z-0.760
G01 X54.543 Y91.869 Z-0.789
G01 X54.407 Y91.160 Z-0.821
G01 X54.307 Y90.404 Z-0.846
G01 X54.245 Y89.603 Z-0.840
G01 X54.224 Y88.773 Z-0.839
G01 X53.927 Y88.772 Z-0.689
G01 X53.945 Y88.286 Z-0.693
G01 X54.001 Y87.799 Z-0.713
G01 X54.093 Y87.305 Z-0.734
G01 X54.220 Y86.807 Z-0.749
G01 X54.381 Y86.312 Z-0.758
G01 X54.574 Y85.822 Z-0.759
G01 X54.796 Y85.343 Z-0.754
G01 X55.045 Y84.879 Z-0.741
G01 X55.320 Y84.435 Z-0.730
G01 X55.616 Y84.014 Z-0.716
G01 X55.932 Y83.620 Z-0.705
G01 X56.263 Y83.258 Z-0.700
G01 X56.607 Y82.931 Z-0.689
G01 X56.960 Y82.643 Z-0.686
G01 X57.317 Y82.396 Z-0.681
G01 X57.682 Y82.189 Z-0.673
G01 X57.983 Y82.051 Z-0.673
G01 X58.309 Y81.930 Z-0.674
G01 X58.648 Y81.830 Z-0.672
G01 X58.991 Y81.754 Z-0.667
G01 X59.330 Y81.704 Z-0.664
G01 X59.656 Y81.679 Z-0.660
G01 X59.958 Y81.681 Z-0.644
G01 X60.247 Y81.708 Z-0.631
G01 X60.827 Y81.816 Z-0.593
G01 X61.302 Y81.958 Z-0.557
G01 X61.676 Y82.128 Z-0.528
G01 X61.982 Y82.334 Z-0.491
G01 X62.258 Y82.598 Z-0.478
G01 X62.529 Y82.952 Z-0.464
G01 X62.798 Y83.414 Z-0.496
G01 X63.086 Y84.038 Z-0.462
G01 X63.226 Y84.398 Z-0.456
G01 X63.345 Y84.759 Z-0.427
G01 X63.440 Y85.114 Z-0.403
G01 X63.512 Y85.466 Z-0.382
G01 X63.563 Y85.817 Z-0.365
G01 X63.591 Y86.171 Z-0.352
G01 X63.598 Y86.528 Z-0.343
G01 X63.583 Y86.893 Z-0.336
G01 X63.545 Y87.267 Z-0.332
G01 X63.484 Y87.652 Z-0.331
G01 X63.399 Y88.051 Z-0.449
G01 X63.289 Y88.464 Z-0.374
G01 X62.992 Y89.342 Z-0.346
G01 X62.587 Y90.290 Z-0.352
G01 X62.279 Y90.918 Z-0.322
G01 X61.953 Y91.525 Z-0.389
G01 X61.609 Y92.109 Z-0.371
G01 X61.251 Y92.666 Z-0.384
G01 X60.883 Y93.194 Z-0.396
G01 X60.507 Y93.687 Z-0.401
G01 X60.129 Y94.144 Z-0.405
G01 X59.751 Y94.559 Z-0.431
G01 X59.378 Y94.930 Z-0.444
G01 X59.016 Y95.253 Z-0.404
G01 X58.670 Y95.524 Z-0.400
G01 X58.348 Y95.740 Z-0.383
G01 X58.059 Y95.899 Z-0.367
G01 X57.813 Y96.001 Z-0.370
G01 X57.549 Y96.066 Z-0.402
G01 X57.171 Y96.043 Z-0.424
G01 X56.864 Y95.968 Z-0.448
G01 X56.563 Y95.842 Z-0.460
G01 X56.264 Y95.660 Z-0.500
G01 X55.965 Y95.417 Z-0.510
G01 X55.670 Y95.110 Z-0.510
G01 X55.392 Y94.748 Z-0.521
G01 X55.112 Y94.296 Z-0.532
G01 X54.858 Y93.793 Z-0.557
G01 X54.628 Y93.230 Z-0.582
G01 X54.425 Y92.609 Z-0.612
G01 X54.252 Y91.933 Z-0.645
G01 X54.114 Y91.208 Z-0.672
G01 X54.012 Y90.435 Z-0.699
G01 X53.949 Y89.619 Z-0.692
G01 X53.927 Y88.772 Z-0.689
G01 X53.630 Y88.770 Z-0.516
G01 X53.649 Y88.264 Z-0.520
G01 X53.707 Y87.755 Z-0.542
G01 X53.803 Y87.240 Z-0.569
G01 X53.935 Y86.724 Z-0.589
G01 X54.102 Y86.211 Z-0.593
G01 X54.301 Y85.705 Z-0.601
G01 X54.530 Y85.210 Z-0.589
G01 X54.788 Y84.731 Z-0.580
G01 X55.072 Y84.271 Z-0.563
G01 X55.379 Y83.835 Z-0.550
G01 X55.706 Y83.427 Z-0.539
G01 X56.051 Y83.050 Z-0.527
G01 X56.410 Y82.709 Z-0.523
G01 X56.781 Y82.405 Z-0.519
G01 X57.159 Y82.144 Z-0.515
G01 X57.546 Y81.924 Z-0.507
G01 X57.869 Y81.776 Z-0.504
G01 X58.215 Y81.648 Z-0.509
G01 X58.574 Y81.542 Z-0.511
G01 X58.937 Y81.462 Z-0.505
G01 X59.297 Y81.408 Z-0.500
G01 X59.645 Y81.382 Z-0.495
G01 X59.973 Y81.384 Z-0.480
G01 X60.285 Y81.413 Z-0.487
G01 X60.896 Y81.527 Z-0.430
G01 X61.406 Y81.679 Z-0.379
G01 X61.821 Y81.869 Z-0.383
G01 X62.168 Y82.103 Z-0.349
G01 X62.480 Y82.400 Z-0.381
G01 X62.776 Y82.788 Z-0.321
G01 X63.063 Y83.281 Z-0.337
G01 X63.359 Y83.922 Z-0.317
G01 X63.506 Y84.298 Z-0.422
G01 X63.629 Y84.674 Z-0.295
G01 X63.729 Y85.045 Z-0.270
G01 X63.805 Y85.415 Z-0.249
G01 X63.858 Y85.784 Z-0.230
G01 X63.888 Y86.156 Z-0.253
G01 X63.895 Y86.532 Z-0.252
G01 X63.879 Y86.914 Z-0.255
G01 X63.840 Y87.305 Z-0.186
G01 X63.776 Y87.706 Z-0.182
G01 X63.688 Y88.120 Z-0.276
G01 X63.575 Y88.547 Z-0.261
G01 X63.422 Y88.998 Z-0.251
G01 X63.269 Y89.448 Z-0.307
G01 X63.063 Y89.932 Z-0.232
G01 X62.856 Y90.416 Z-0.319
G01 X62.544 Y91.054 Z-0.392
G01 X62.211 Y91.671 Z-0.267
G01 X61.862 Y92.264 Z-0.190
G01 X61.498 Y92.831 Z-0.365
G01 X61.123 Y93.369 Z-0.217
G01 X60.740 Y93.872 Z-0.397
G01 X60.353 Y94.339 Z-0.372
G01 X59.966 Y94.765 Z-0.361
G01 X59.582 Y95.147 Z-0.355
G01 X59.207 Y95.481 Z-0.408
G01 X58.845 Y95.765 Z-0.320
G01 X58.503 Y95.994 Z-0.292
G01 X58.188 Y96.167 Z-0.221
G01 X57.909 Y96.283 Z-0.229
G01 X57.578 Y96.362 Z-0.376
G01 X57.307 Y96.359 Z-0.374
G01 X56.946 Y96.301 Z-0.339
G01 X56.598 Y96.186 Z-0.316
G01 X56.260 Y96.013 Z-0.342
G01 X55.927 Y95.777 Z-0.340
G01 X55.603 Y95.478 Z-0.357
G01 X55.290 Y95.112 Z-0.374
G01 X55.146 Y94.914 Z-0.382
G01 X54.852 Y94.442 Z-0.392
G01 X54.588 Y93.917 Z-0.383
G01 X54.349 Y93.332 Z-0.416
G01 X54.139 Y92.692 Z-0.441
G01 X53.962 Y91.998 Z-0.479
G01 X53.892 Y91.626 Z-0.502
G01 X53.821 Y91.255 Z-0.504
G01 X53.716 Y90.466 Z-0.530
G01 X53.652 Y89.634 Z-0.520
G01 X53.630 Y88.770 Z-0.516
G01 X53.332 Y88.768 Z-0.380
G01 X53.353 Y88.241 Z-0.382
G01 X53.413 Y87.711 Z-0.405
G01 X53.513 Y87.176 Z-0.392
G01 X53.650 Y86.642 Z-0.407
G01 X53.822 Y86.111 Z-0.432
G01 X54.027 Y85.588 Z-0.431
G01 X54.264 Y85.077 Z-0.448
G01 X54.531 Y84.582 Z-0.446
G01 X54.824 Y84.108 Z-0.442
G01 X55.141 Y83.657 Z-0.423
G01 X55.480 Y83.234 Z-0.354
G01 X55.839 Y82.842 Z-0.344
G01 X56.214 Y82.486 Z-0.371
G01 X56.602 Y82.168 Z-0.436
G01 X57.001 Y81.892 Z-0.354
G01 X57.411 Y81.660 Z-0.321
G01 X57.756 Y81.502 Z-0.360
G01 X58.122 Y81.365 Z-0.369
G01 X58.500 Y81.254 Z-0.382
G01 X58.883 Y81.170 Z-0.319
G01 X59.264 Y81.113 Z-0.317
G01 X59.635 Y81.085 Z-0.314
G01 X59.987 Y81.087 Z-0.298
G01 X60.323 Y81.118 Z-0.313
G01 X60.964 Y81.238 Z-0.324
G01 X61.510 Y81.401 Z-0.246
G01 X61.966 Y81.609 Z-0.212
G01 X62.355 Y81.871 Z-0.295
G01 X62.701 Y82.202 Z-0.254
G01 X63.024 Y82.623 Z-0.356
G01 X63.329 Y83.147 Z-0.203
G01 X63.633 Y83.806 Z-0.263
G01 X63.785 Y84.197 Z-0.331
G01 X63.914 Y84.589 Z0.000
G01 X64.018 Y84.977 Z-0.243
G01 X64.098 Y85.364 Z-0.252
G01 X64.153 Y85.751 Z-0.253
G01 X64.185 Y86.141 Z-0.246
G01 X64.192 Y86.535 Z-0.236
G01 X64.176 Y86.935 Z-0.230
G01 X64.135 Y87.343 Z-0.226
G01 X64.068 Y87.761 Z-0.225
G01 X63.977 Y88.189 Z0.000
G01 X63.860 Y88.630 Z-0.230
G01 X63.716 Y89.085 Z-0.225
G01 X63.533 Y89.563 Z0.000
G01 X63.349 Y90.040 Z-0.220
G01 X63.125 Y90.542 Z0.000
G01 X62.808 Y91.190 Z-0.212
G01 X62.470 Y91.817 Z0.000
G01 X62.115 Y92.420 
G01 X61.745 Y92.997 
G01 X61.363 Y93.544 Z-0.233
G01 X60.973 Y94.057 Z0.000
G01 X60.577 Y94.533 
G01 X60.181 Y94.970 
G01 X59.786 Y95.363 
G01 X59.397 Y95.709 Z-0.266
G01 X59.020 Y96.005 Z-0.265
G01 X58.657 Y96.248 Z-0.261
G01 X58.317 Y96.435 Z-0.250
G01 X58.005 Y96.565 Z-0.168
G01 X57.606 Y96.658 Z-0.220
G01 X57.283 Y96.655 Z-0.273
G01 X56.875 Y96.590 Z-0.307
G01 X56.484 Y96.460 Z-0.331
G01 X56.105 Y96.267 Z-0.289
G01 X55.740 Y96.008 Z-0.193
G01 X55.389 Y95.684 Z-0.226
G01 X55.055 Y95.293 Z-0.258
G01 X54.899 Y95.080 Z-0.271
G01 X54.593 Y94.587 Z-0.413
G01 X54.317 Y94.040 Z-0.239
G01 X54.070 Y93.435 Z-0.319
G01 X53.854 Y92.775 Z-0.258
G01 X53.763 Y92.419 Z-0.315
G01 X53.672 Y92.063 Z-0.332
G01 X53.600 Y91.682 Z-0.473
G01 X53.527 Y91.302 Z-0.322
G01 X53.421 Y90.497 Z-0.377
G01 X53.388 Y90.073 Z-0.397
G01 X53.355 Y89.649 Z-0.385
G01 X53.332 Y88.768 Z-0.380
G01 X53.035 Y88.766 Z-0.329
G01 X53.056 Y88.218 Z-0.327
G01 X53.119 Y87.667 Z-0.335
G01 X53.223 Y87.112 Z-0.318
G01 X53.364 Y86.559 Z-0.249
G01 X53.542 Y86.011 Z-0.323
G01 X53.754 Y85.471 Z-0.265
G01 X53.999 Y84.944 Z-0.297
G01 X54.273 Y84.434 Z-0.265
G01 X54.576 Y83.944 Z-0.418
G01 X54.903 Y83.478 Z-0.261
G01 X55.255 Y83.040 Z-0.249
G01 X55.627 Y82.634 Z-0.327
G01 X56.017 Y82.263 Z-0.185
G01 X56.424 Y81.930 Z-0.252
G01 X56.843 Y81.640 Z-0.296
G01 X57.275 Y81.395 Z-0.235
G01 X57.642 Y81.227 Z-0.177
G01 X58.028 Y81.083 Z-0.318
G01 X58.426 Y80.966 Z-0.343
G01 X58.829 Y80.877 Z-0.193
G01 X59.231 Y80.818 Z-0.176
G01 X59.624 Y80.788 Z-0.201
G01 X60.002 Y80.790 Z-0.202
G01 X60.361 Y80.823 Z-0.132
G01 X61.033 Y80.949 Z-0.320
G01 X61.614 Y81.122 Z-0.272
G01 X61.872 Y81.229 Z-0.195
G01 X62.111 Y81.350 Z-0.188
G01 X62.333 Y81.486 Z-0.213
G01 X62.541 Y81.640 Z0.000
G01 X62.737 Y81.812 Z-0.190
G01 X62.923 Y82.004 Z0.000
G01 X63.100 Y82.219 
G01 X63.436 Y82.723 
G01 X63.594 Y83.013 
G01 X63.750 Y83.351 Z-0.178
G01 X63.906 Y83.689 Z0.000
G01 X64.065 Y84.097 
G01 X64.199 Y84.504 
G01 X64.307 Y84.908 Z-0.105
G01 X64.391 Y85.313 Z0.000
G01 X64.449 Y85.718 
G01 X64.482 Y86.126 
G01 X64.490 Y86.538 
G01 X64.472 Y86.956 
G01 X64.429 Y87.381 
G01 X64.361 Y87.815 
G01 X64.266 Y88.258 
G01 X64.145 Y88.713 
G01 X63.998 Y89.180 
G01 X63.622 Y90.157 
G01 X63.233 Y90.996 
G01 X62.729 Y91.962 
G01 X62.368 Y92.576 
G01 X61.991 Y93.162 
G01 X61.603 Y93.718 
G01 X61.205 Y94.242 
G01 X60.802 Y94.728 
G01 X60.395 Y95.175 
G01 X59.990 Y95.579 
G01 X59.588 Y95.937 
G01 X59.194 Y96.246 
G01 X58.812 Y96.502 
G01 X58.446 Y96.703 Z-0.076
G01 X58.101 Y96.847 Z0.000
G01 X57.776 Y96.934 
G01 X57.493 Y96.961 
G01 X57.030 Y96.924 
G01 X56.584 Y96.815 
G01 X56.158 Y96.636 Z-0.190
G01 X55.749 Y96.388 Z0.000
G01 X55.361 Y96.073 Z-0.212
G01 X54.994 Y95.690 Z-0.225
G01 X54.653 Y95.246 Z0.000
G01 X54.334 Y94.733 Z-0.254
G01 X54.047 Y94.163 Z-0.273
G01 X53.791 Y93.537 Z-0.300
G01 X53.569 Y92.857 Z-0.246
G01 X53.382 Y92.127 Z-0.293
G01 X53.308 Y91.738 Z-0.355
G01 X53.234 Y91.350 Z-0.190
G01 X53.180 Y90.939 Z-0.203
G01 X53.125 Y90.528 Z-0.365
G01 X53.059 Y89.665 Z-0.342
G01 X53.035 Y88.766 Z-0.329
G01 X52.738 Y88.764 Z-0.233
G01 X52.760 Y88.196 Z-0.237
G01 X52.825 Y87.623 Z-0.261
G01 X52.932 Y87.048 Z-0.256
G01 X53.079 Y86.476 Z-0.290
G01 X53.262 Y85.910 Z-0.178
G01 X53.481 Y85.354 Z-0.296
G01 X53.733 Y84.811 Z-0.291
G01 X54.016 Y84.286 Z-0.288
G01 X54.327 Y83.780 Z-0.279
G01 X54.666 Y83.300 Z0.000
G01 X55.029 Y82.847 Z-0.251
G01 X55.415 Y82.426 Z-0.237
G01 X55.821 Y82.040 Z-0.224
G01 X56.245 Y81.693 Z0.000
G01 X56.685 Y81.388 Z-0.212
G01 X57.140 Y81.130 Z-0.211
G01 X57.528 Y80.952 Z-0.215
G01 X57.934 Y80.801 Z0.000
G01 X58.352 Y80.679 
G01 X58.776 Y80.585 Z-0.213
G01 X59.198 Y80.522 Z-0.189
G01 X59.614 Y80.491 Z-0.192
G01 X60.016 Y80.493 Z-0.182
G01 X60.399 Y80.528 Z-0.171
G01 X61.102 Y80.660 Z0.000
G01 X61.718 Y80.844 Z-0.092
G01 X61.996 Y80.959 Z0.000
G01 X62.256 Y81.090 
G01 X62.499 Y81.240 
G01 X62.728 Y81.408 
G01 X62.942 Y81.596 
G01 X63.145 Y81.806 
G01 X63.336 Y82.038 
G01 X63.518 Y82.294 
G01 X63.860 Y82.880 
G01 X64.180 Y83.573 
G01 X64.345 Y83.997 
G01 X64.483 Y84.419 
G01 X64.596 Y84.840 
G01 X64.683 Y85.262 
G01 X64.744 Y85.685 
G01 X64.778 Y86.111 
G01 X64.787 Y86.542 
G01 X64.769 Y86.977 
G01 X64.724 Y87.419 
G01 X64.653 Y87.869 
G01 X64.555 Y88.328 
G01 X64.430 Y88.796 
G01 X64.279 Y89.276 
G01 X64.101 Y89.768 
G01 X63.663 Y90.793 
G01 X63.162 Y91.785 
G01 X62.621 Y92.731 
G01 X62.238 Y93.327 
G01 X61.843 Y93.893 
G01 X61.438 Y94.426 
G01 X61.026 Y94.923 
G01 X60.610 Y95.380 
G01 X60.193 Y95.795 
G01 X59.779 Y96.165 
G01 X59.369 Y96.486 
G01 X58.966 Y96.756 
G01 X58.575 Y96.971 
G01 X58.197 Y97.128 
G01 X57.836 Y97.225 
G01 X57.494 Y97.258 
G01 X57.236 Y97.248 
G01 X56.982 Y97.217 
G01 X56.734 Y97.167 
G01 X56.254 Y97.008 
G01 X55.797 Y96.775 
G01 X55.365 Y96.470 
G01 X54.960 Y96.095 
G01 X54.583 Y95.655 
G01 X54.406 Y95.411 
G01 X54.075 Y94.878 
G01 X53.776 Y94.287 Z-0.094
G01 X53.512 Y93.640 Z0.000
G01 X53.397 Y93.290 Z-0.133
G01 X53.283 Y92.940 Z-0.146
G01 X53.188 Y92.566 Z0.000
G01 X53.092 Y92.192 
G01 X53.016 Y91.794 
G01 X52.941 Y91.397 Z-0.202
G01 X52.830 Y90.559 Z-0.237
G01 X52.762 Y89.680 Z-0.236
G01 X52.738 Y88.764 Z-0.233
G00 Z5.000
G00 X68.391 Y98.978  F8000.0
G01 Z-1.894 F2000.0 M3
G01 X68.514 Y99.491 Z-1.906 F4000.0
G01 X68.594 Y99.984 Z-1.908
G01 X68.652 Y100.561 Z-1.905
G01 X68.698 Y101.509 Z-1.869
G01 X68.699 Y101.858 Z-1.851
G01 X68.468 Y101.300 Z-1.882
G01 X68.308 Y100.761 Z-1.907
G01 X68.250 Y100.406 Z-1.913
G01 X68.239 Y99.916 Z-1.915
G01 X68.287 Y99.442 Z-1.910
G01 X68.391 Y98.978 Z-1.894
G01 X68.099 Y98.915 Z-1.892
G01 X68.245 Y98.499 Z-1.873
G01 X68.411 Y98.169 Z-1.849
G01 X68.594 Y98.623 Z-1.873
G01 X68.706 Y98.993 Z-1.889
G01 X68.806 Y99.435 Z-1.896
G01 X68.889 Y99.946 Z-1.895
G01 X68.948 Y100.539 Z-1.890
G01 X68.995 Y101.501 Z-1.855
G01 X68.997 Y102.417 Z-1.806
G01 X68.971 Y102.957 Z-1.771
G01 X68.566 Y102.263 Z-1.828
G01 X68.270 Y101.615 Z-1.869
G01 X68.063 Y101.003 Z-1.896
G01 X67.965 Y100.530 Z-1.909
G01 X67.940 Y100.160 Z-1.910
G01 X67.960 Y99.648 Z-1.910
G01 X68.040 Y99.149 Z-1.902
G01 X68.099 Y98.915 Z-1.892
G01 X67.814 Y98.833 Z-1.883
G01 X67.971 Y98.384 Z-1.862
G01 X68.146 Y98.032 Z-1.842
G01 X68.353 Y97.744 Z-1.818
G01 X68.464 Y97.680 Z-1.809
G01 X68.635 Y97.953 Z-1.828
G01 X68.732 Y98.153 Z-1.841
G01 X68.875 Y98.527 Z-1.856
G01 X68.993 Y98.917 Z-1.869
G01 X69.098 Y99.378 Z-1.879
G01 X69.183 Y99.907 Z-1.878
G01 X69.244 Y100.517 Z-1.871
G01 X69.292 Y101.493 Z-1.837
G01 X69.294 Y102.423 Z-1.790
G01 X69.253 Y103.281 Z-1.735
G01 X69.200 Y103.804 Z-1.692
G01 X68.912 Y103.412 Z-1.735
G01 X68.601 Y102.931 Z-1.780
G01 X68.202 Y102.199 Z-1.834
G01 X67.908 Y101.500 Z-1.868
G01 X67.729 Y100.892 Z-1.894
G01 X67.658 Y100.453 Z-1.901
G01 X67.645 Y99.893 Z-1.901
G01 X67.700 Y99.348 Z-1.899
G01 X67.814 Y98.833 Z-1.883
G01 X67.528 Y98.752 Z-1.867
G01 X67.697 Y98.268 Z-1.849
G01 X67.890 Y97.882 Z-1.825
G01 X68.067 Y97.620 Z-1.806
G01 X68.227 Y97.464 Z-1.793
G01 X68.545 Y97.328 Z-1.774
G01 X68.722 Y97.529 Z-1.789
G01 X68.897 Y97.814 Z-1.804
G01 X69.006 Y98.038 Z-1.816
G01 X69.156 Y98.430 Z-1.834
G01 X69.280 Y98.841 Z-1.846
G01 X69.390 Y99.321 Z-1.854
G01 X69.478 Y99.869 Z-1.851
G01 X69.541 Y100.494 Z-1.844
G01 X69.589 Y101.486 Z-1.811
G01 X69.591 Y102.430 Z-1.767
G01 X69.549 Y103.303 Z-1.714
G01 X69.409 Y104.519 Z-1.610
G01 X69.016 Y104.054 Z-1.672
G01 X68.667 Y103.581 Z-1.725
G01 X68.346 Y103.085 Z-1.767
G01 X67.934 Y102.327 Z-1.816
G01 X67.628 Y101.599 Z-1.853
G01 X67.439 Y100.958 Z-1.875
G01 X67.361 Y100.477 Z-1.885
G01 X67.348 Y99.881 Z-1.885
G01 X67.406 Y99.301 Z-1.882
G01 X67.528 Y98.752 Z-1.867
G01 X67.242 Y98.671 Z-1.846
G01 X67.424 Y98.152 Z-1.826
G01 X67.633 Y97.732 Z-1.805
G01 X67.835 Y97.435 Z-1.784
G01 X68.022 Y97.242 Z-1.768
G01 X68.361 Y97.079 Z-1.749
G01 X68.583 Y97.013 Z-1.736
G01 X68.729 Y97.095 Z-1.742
G01 X68.906 Y97.279 Z-1.753
G01 X69.091 Y97.552 Z-1.769
G01 X69.280 Y97.924 Z-1.787
G01 X69.438 Y98.334 Z-1.802
G01 X69.568 Y98.765 Z-1.815
G01 X69.681 Y99.265 Z-1.825
G01 X69.773 Y99.830 Z-1.819
G01 X69.837 Y100.472 Z-1.809
G01 X69.886 Y101.478 Z-1.777
G01 X69.888 Y102.437 Z-1.735
G01 X69.846 Y103.325 Z-1.685
G01 X69.761 Y104.169 Z-1.622
G01 X69.593 Y105.142 Z-1.535
G01 X69.161 Y104.690 Z-1.602
G01 X68.782 Y104.238 Z-1.656
G01 X68.423 Y103.750 Z-1.704
G01 X68.092 Y103.238 Z-1.746
G01 X67.666 Y102.456 Z-1.794
G01 X67.349 Y101.699 Z-1.829
G01 X67.150 Y101.024 Z-1.853
G01 X67.065 Y100.501 Z-1.861
G01 X67.052 Y99.869 Z-1.861
G01 X67.113 Y99.254 Z-1.860
G01 X67.242 Y98.671 Z-1.846
G01 X66.956 Y98.589 Z-1.815
G01 X67.150 Y98.037 Z-1.798
G01 X67.377 Y97.581 Z-1.776
G01 X67.603 Y97.249 Z-1.757
G01 X67.844 Y97.004 Z-1.737
G01 X68.084 Y96.873 Z-1.725
G01 X68.548 Y96.703 Z-1.699
G01 X68.768 Y96.767 Z-1.700
G01 X68.965 Y96.907 Z-1.705
G01 X69.204 Y97.181 Z-1.723
G01 X69.422 Y97.535 Z-1.738
G01 X69.554 Y97.809 Z-1.751
G01 X69.719 Y98.238 Z-1.767
G01 X69.855 Y98.689 Z-1.777
G01 X69.973 Y99.208 Z-1.786
G01 X70.067 Y99.792 Z-1.780
G01 X70.133 Y100.450 Z-1.770
G01 X70.183 Y101.471 Z-1.738
G01 X70.185 Y102.444 Z-1.699
G01 X70.142 Y103.346 Z-1.652
G01 X70.056 Y104.205 Z-1.592
G01 X69.944 Y104.909 Z-1.535
G01 X69.760 Y105.695 Z-1.460
G01 X69.367 Y105.337 Z-1.519
G01 X68.939 Y104.888 Z-1.580
G01 X68.549 Y104.422 Z-1.632
G01 X68.178 Y103.919 Z-1.679
G01 X67.838 Y103.392 Z-1.719
G01 X67.398 Y102.584 Z-1.764
G01 X67.069 Y101.799 Z-1.798
G01 X66.860 Y101.089 Z-1.823
G01 X66.769 Y100.524 Z-1.834
G01 X66.751 Y100.185 Z-1.833
G01 X66.778 Y99.530 Z-1.833
G01 X66.880 Y98.892 Z-1.823
G01 X66.956 Y98.589 Z-1.815
G01 X66.670 Y98.508 Z-1.780
G01 X66.876 Y97.921 Z-1.763
G01 X67.120 Y97.431 Z-1.742
G01 X67.371 Y97.064 Z-1.721
G01 X67.586 Y96.832 Z-1.705
G01 X67.814 Y96.673 Z-1.695
G01 X68.334 Y96.457 Z-1.670
G01 X68.550 Y96.403 Z-1.658
G01 X68.801 Y96.459 Z-1.656
G01 X68.998 Y96.556 Z-1.657
G01 X69.230 Y96.749 Z-1.668
G01 X69.445 Y97.008 Z-1.678
G01 X69.684 Y97.395 Z-1.693
G01 X69.828 Y97.694 Z-1.703
G01 X70.000 Y98.142 Z-1.716
G01 X70.142 Y98.613 Z-1.729
G01 X70.265 Y99.151 Z-1.739
G01 X70.362 Y99.753 Z-1.725
G01 X70.429 Y100.428 Z-1.710
G01 X70.480 Y101.463 Z-1.678
G01 X70.482 Y102.451 Z-1.646
G01 X70.438 Y103.368 Z-1.602
G01 X70.351 Y104.241 Z-1.553
G01 X70.236 Y104.964 Z-1.503
G01 X70.089 Y105.621 Z-1.447
G01 X69.916 Y106.196 Z-1.385
G01 X69.337 Y105.718 Z-1.471
G01 X68.718 Y105.086 Z-1.555
G01 X68.315 Y104.605 Z-1.602
G01 X67.934 Y104.088 Z-1.645
G01 X67.583 Y103.546 Z-1.684
G01 X67.130 Y102.713 Z-1.727
G01 X66.890 Y102.165 Z-1.751
G01 X66.702 Y101.641 Z-1.771
G01 X66.570 Y101.155 Z-1.785
G01 X66.473 Y100.548 Z-1.795
G01 X66.454 Y100.191 Z-1.794
G01 X66.458 Y99.845 Z-1.795
G01 X66.482 Y99.500 Z-1.794
G01 X66.526 Y99.160 Z-1.793
G01 X66.670 Y98.508 Z-1.780
G01 X66.385 Y98.426 Z-1.737
G01 X66.487 Y98.106 Z-1.730
G01 X66.730 Y97.529 Z-1.713
G01 X67.002 Y97.063 Z-1.690
G01 X67.269 Y96.728 Z-1.674
G01 X67.487 Y96.528 Z-1.659
G01 X67.677 Y96.410 Z-1.654
G01 X68.038 Y96.248 Z-1.639
G01 X68.501 Y96.102 Z-1.609
G01 X68.830 Y96.156 Z-1.603
G01 X69.094 Y96.267 Z-1.607
G01 X69.367 Y96.468 Z-1.611
G01 X69.602 Y96.723 Z-1.616
G01 X69.859 Y97.099 Z-1.627
G01 X70.102 Y97.579 Z-1.641
G01 X70.281 Y98.045 Z-1.655
G01 X70.430 Y98.538 Z-1.665
G01 X70.556 Y99.095 Z-1.674
G01 X70.656 Y99.715 Z-1.662
G01 X70.726 Y100.406 Z-1.642
G01 X70.777 Y101.456 Z-1.611
G01 X70.779 Y102.457 Z-1.582
G01 X70.735 Y103.390 Z-1.541
G01 X70.645 Y104.277 Z-1.499
G01 X70.528 Y105.020 Z-1.459
G01 X70.377 Y105.695 Z-1.408
G01 X70.207 Y106.265 Z-1.357
G01 X70.059 Y106.652 Z-1.313
G01 X69.555 Y106.295 Z-1.386
G01 X68.947 Y105.757 Z-1.464
G01 X68.496 Y105.284 Z-1.518
G01 X68.082 Y104.789 Z-1.563
G01 X67.689 Y104.257 Z-1.606
G01 X67.329 Y103.699 Z-1.638
G01 X66.863 Y102.841 Z-1.677
G01 X66.614 Y102.275 Z-1.699
G01 X66.419 Y101.730 Z-1.717
G01 X66.280 Y101.221 Z-1.735
G01 X66.198 Y100.765 Z-1.750
G01 X66.157 Y100.197 Z-1.747
G01 X66.161 Y99.833 Z-1.748
G01 X66.186 Y99.471 Z-1.747
G01 X66.233 Y99.113 Z-1.745
G01 X66.299 Y98.763 Z-1.741
G01 X66.385 Y98.426 Z-1.737
G01 X66.099 Y98.345 Z-1.675
G01 X66.206 Y98.007 Z-1.670
G01 X66.329 Y97.690 Z-1.665
G01 X66.464 Y97.396 Z-1.658
G01 X66.757 Y96.895 Z-1.635
G01 X67.052 Y96.524 Z-1.618
G01 X67.309 Y96.291 Z-1.605
G01 X67.539 Y96.146 Z-1.602
G01 X67.930 Y95.971 Z-1.589
G01 X68.341 Y95.834 Z-1.561
G01 X68.496 Y95.803 Z-1.551
G01 X68.821 Y95.847 Z-1.543
G01 X69.082 Y95.931 Z-1.542
G01 X69.320 Y96.057 Z-1.541
G01 X69.567 Y96.249 Z-1.544
G01 X69.834 Y96.538 Z-1.550
G01 X70.115 Y96.948 Z-1.559
G01 X70.376 Y97.465 Z-1.571
G01 X70.562 Y97.949 Z-1.582
G01 X70.717 Y98.462 Z-1.595
G01 X70.848 Y99.038 Z-1.602
G01 X70.951 Y99.676 Z-1.586
G01 X71.022 Y100.384 Z-1.567
G01 X71.074 Y101.448 Z-1.537
G01 X71.076 Y102.464 Z-1.511
G01 X71.031 Y103.412 Z-1.471
G01 X70.940 Y104.313 Z-1.430
G01 X70.819 Y105.075 Z-1.396
G01 X70.664 Y105.770 Z-1.363
G01 X70.488 Y106.361 Z-1.315
G01 X70.304 Y106.837 Z-1.266
G01 X70.191 Y107.073 Z-1.236
G01 X69.786 Y106.830 Z-1.299
G01 X69.371 Y106.528 Z-1.351
G01 X68.935 Y106.156 Z-1.403
G01 X68.274 Y105.482 Z-1.476
G01 X67.848 Y104.972 Z-1.514
G01 X67.445 Y104.426 Z-1.546
G01 X67.074 Y103.853 Z-1.576
G01 X66.729 Y103.238 Z-1.604
G01 X66.460 Y102.676 Z-1.623
G01 X66.230 Y102.099 Z-1.644
G01 X66.056 Y101.548 Z-1.661
G01 X65.940 Y101.038 Z-1.678
G01 X65.880 Y100.595 Z-1.687
G01 X65.860 Y100.203 Z-1.685
G01 X65.864 Y99.822 Z-1.685
G01 X65.891 Y99.441 Z-1.684
G01 X65.939 Y99.066 Z-1.680
G01 X66.009 Y98.699 Z-1.676
G01 X66.099 Y98.345 Z-1.675
G01 X65.813 Y98.263 Z-1.607
G01 X65.926 Y97.909 Z-1.601
G01 X66.055 Y97.574 Z-1.594
G01 X66.198 Y97.263 Z-1.591
G01 X66.351 Y96.980 Z-1.582
G01 X66.512 Y96.727 Z-1.574
G01 X66.835 Y96.321 Z-1.553
G01 X67.131 Y96.053 Z-1.541
G01 X67.402 Y95.883 Z-1.536
G01 X67.822 Y95.694 Z-1.530
G01 X68.264 Y95.548 Z-1.499
G01 X68.452 Y95.505 Z-1.485
G01 X68.771 Y95.534 Z-1.476
G01 X69.099 Y95.618 Z-1.472
G01 X69.388 Y95.751 Z-1.470
G01 X69.671 Y95.946 Z-1.471
G01 X69.966 Y96.232 Z-1.471
G01 X70.270 Y96.634 Z-1.480
G01 X70.569 Y97.171 Z-1.489
G01 X70.844 Y97.853 Z-1.503
G01 X71.004 Y98.386 Z-1.512
G01 X71.140 Y98.981 Z-1.524
G01 X71.246 Y99.638 Z-1.504
G01 X71.318 Y100.362 Z-1.481
G01 X71.371 Y101.441 Z-1.451
G01 X71.373 Y102.471 Z-1.428
G01 X71.327 Y103.434 Z-1.390
G01 X71.235 Y104.349 Z-1.356
G01 X71.111 Y105.131 Z-1.329
G01 X70.952 Y105.845 Z-1.296
G01 X70.770 Y106.457 Z-1.262
G01 X70.576 Y106.957 Z-1.215
G01 X70.313 Y107.460 Z-1.160
G01 X69.826 Y107.208 Z-1.230
G01 X69.407 Y106.929 Z-1.279
G01 X68.962 Y106.576 Z-1.326
G01 X68.527 Y106.178 Z-1.369
G01 X68.053 Y105.680 Z-1.414
G01 X67.614 Y105.156 Z-1.449
G01 X67.200 Y104.594 Z-1.479
G01 X66.820 Y104.006 Z-1.505
G01 X66.466 Y103.377 Z-1.530
G01 X66.188 Y102.795 Z-1.553
G01 X65.950 Y102.198 Z-1.571
G01 X65.769 Y101.626 Z-1.590
G01 X65.648 Y101.091 Z-1.607
G01 X65.584 Y100.619 Z-1.615
G01 X65.563 Y100.209 Z-1.611
G01 X65.567 Y99.810 Z-1.612
G01 X65.595 Y99.412 Z-1.611
G01 X65.646 Y99.019 Z-1.608
G01 X65.719 Y98.635 Z-1.607
G01 X65.813 Y98.263 Z-1.607
G01 X65.527 Y98.182 Z-1.526
G01 X65.646 Y97.810 Z-1.523
G01 X65.781 Y97.458 Z-1.520
G01 X65.932 Y97.130 Z-1.515
G01 X66.095 Y96.830 Z-1.512
G01 X66.266 Y96.559 Z-1.499
G01 X66.442 Y96.321 Z-1.490
G01 X66.618 Y96.118 Z-1.482
G01 X66.952 Y95.815 Z-1.471
G01 X67.264 Y95.619 Z-1.465
G01 X67.715 Y95.417 Z-1.460
G01 X68.186 Y95.261 Z-1.434
G01 X68.432 Y95.207 Z-1.415
G01 X68.820 Y95.241 Z-1.404
G01 X69.198 Y95.338 Z-1.397
G01 X69.535 Y95.492 Z-1.394
G01 X69.860 Y95.717 Z-1.389
G01 X70.188 Y96.035 Z-1.391
G01 X70.519 Y96.472 Z-1.394
G01 X70.837 Y97.043 Z-1.405
G01 X71.125 Y97.757 Z-1.416
G01 X71.292 Y98.310 Z-1.424
G01 X71.432 Y98.925 Z-1.433
G01 X71.540 Y99.599 Z-1.415
G01 X71.615 Y100.340 Z-1.391
G01 X71.668 Y101.433 Z-1.360
G01 X71.670 Y102.478 Z-1.339
G01 X71.623 Y103.456 Z-1.304
G01 X71.530 Y104.385 Z-1.273
G01 X71.403 Y105.186 Z-1.247
G01 X71.239 Y105.919 Z-1.223
G01 X71.051 Y106.553 Z-1.195
G01 X70.848 Y107.076 Z-1.160
G01 X70.647 Y107.482 Z-1.118
G01 X70.421 Y107.822 Z-1.079
G01 X70.073 Y107.679 Z-1.129
G01 X69.673 Y107.462 Z-1.174
G01 X69.232 Y107.169 Z-1.220
G01 X68.769 Y106.802 Z-1.266
G01 X68.317 Y106.388 Z-1.307
G01 X67.831 Y105.878 Z-1.343
G01 X67.381 Y105.340 Z-1.372
G01 X66.956 Y104.763 Z-1.400
G01 X66.566 Y104.160 Z-1.427
G01 X66.204 Y103.516 Z-1.452
G01 X65.916 Y102.915 Z-1.470
G01 X65.670 Y102.298 Z-1.493
G01 X65.483 Y101.703 Z-1.509
G01 X65.355 Y101.144 Z-1.528
G01 X65.288 Y100.643 Z-1.538
G01 X65.266 Y100.216 Z-1.533
G01 X65.270 Y99.798 Z-1.534
G01 X65.299 Y99.382 Z-1.534
G01 X65.353 Y98.972 Z-1.531
G01 X65.429 Y98.570 Z-1.528
G01 X65.527 Y98.182 Z-1.526
G01 X65.242 Y98.101 Z-1.440
G01 X65.365 Y97.711 Z-1.438
G01 X65.508 Y97.343 Z-1.434
G01 X65.666 Y96.997 Z-1.432
G01 X65.839 Y96.679 Z-1.430
G01 X66.021 Y96.391 Z-1.420
G01 X66.210 Y96.136 Z-1.409
G01 X66.401 Y95.914 Z-1.401
G01 X66.591 Y95.728 Z-1.397
G01 X66.774 Y95.577 Z-1.390
G01 X67.127 Y95.356 Z-1.389
G01 X67.607 Y95.141 Z-1.386
G01 X68.108 Y94.974 Z-1.363
G01 X68.423 Y94.910 Z-1.339
G01 X68.869 Y94.948 Z-1.325
G01 X69.297 Y95.058 Z-1.313
G01 X69.681 Y95.234 Z-1.308
G01 X70.048 Y95.487 Z-1.300
G01 X70.411 Y95.839 Z-1.296
G01 X70.767 Y96.310 Z-1.301
G01 X70.996 Y96.697 Z-1.305
G01 X71.199 Y97.121 Z-1.315
G01 X71.406 Y97.660 Z-1.319
G01 X71.579 Y98.234 Z-1.327
G01 X71.723 Y98.868 Z-1.335
G01 X71.835 Y99.561 Z-1.314
G01 X71.911 Y100.318 Z-1.287
G01 X71.965 Y101.426 Z-1.257
G01 X71.967 Y102.484 Z-1.239
G01 X71.920 Y103.478 Z-1.204
G01 X71.825 Y104.421 Z-1.178
G01 X71.695 Y105.241 Z-1.159
G01 X71.527 Y105.994 Z-1.140
G01 X71.332 Y106.649 Z-1.115
G01 X71.120 Y107.196 Z-1.089
G01 X70.906 Y107.628 Z-1.055
G01 X70.708 Y107.938 Z-1.023
G01 X70.516 Y108.159 Z-0.997
G01 X70.140 Y108.033 Z-1.048
G01 X69.738 Y107.842 Z-1.092
G01 X69.292 Y107.572 Z-1.132
G01 X68.819 Y107.227 Z-1.174
G01 X68.333 Y106.813 Z-1.215
G01 X68.107 Y106.598 Z-1.230
G01 X67.609 Y106.076 Z-1.263
G01 X67.147 Y105.523 Z-1.289
G01 X66.711 Y104.932 Z-1.316
G01 X66.311 Y104.313 Z-1.339
G01 X65.942 Y103.656 Z-1.360
G01 X65.644 Y103.034 Z-1.381
G01 X65.390 Y102.398 Z-1.402
G01 X65.196 Y101.781 Z-1.423
G01 X65.063 Y101.197 Z-1.439
G01 X64.992 Y100.666 Z-1.449
G01 X64.969 Y100.222 Z-1.444
G01 X64.973 Y99.786 Z-1.445
G01 X65.004 Y99.353 Z-1.444
G01 X65.059 Y98.925 Z-1.441
G01 X65.139 Y98.506 Z-1.440
G01 X65.242 Y98.101 Z-1.440
G01 X64.956 Y98.019 Z-1.344
G01 X65.085 Y97.613 Z-1.341
G01 X65.234 Y97.227 Z-1.342
G01 X65.401 Y96.864 Z-1.342
G01 X65.582 Y96.529 Z-1.336
G01 X65.776 Y96.223 Z-1.330
G01 X65.978 Y95.950 Z-1.321
G01 X66.184 Y95.711 Z-1.314
G01 X66.392 Y95.507 Z-1.307
G01 X66.596 Y95.339 Z-1.306
G01 X66.990 Y95.092 Z-1.305
G01 X67.499 Y94.864 Z-1.306
G01 X68.030 Y94.687 Z-1.282
G01 X68.417 Y94.613 Z-1.254
G01 X68.918 Y94.655 Z-1.239
G01 X69.396 Y94.778 Z-1.225
G01 X69.828 Y94.975 Z-1.216
G01 X70.237 Y95.257 Z-1.205
G01 X70.633 Y95.642 Z-1.199
G01 X70.891 Y95.964 Z-1.196
G01 X71.139 Y96.345 Z-1.200
G01 X71.373 Y96.786 Z-1.204
G01 X71.473 Y97.006 Z-1.208
G01 X71.687 Y97.564 Z-1.217
G01 X71.866 Y98.158 Z-1.220
G01 X72.015 Y98.811 Z-1.228
G01 X72.130 Y99.522 Z-1.207
G01 X72.207 Y100.296 Z-1.177
G01 X72.262 Y101.418 Z-1.145
G01 X72.264 Y102.491 Z-1.129
G01 X72.216 Y103.500 Z-1.096
G01 X72.120 Y104.457 Z-1.077
G01 X71.987 Y105.297 Z-1.060
G01 X71.814 Y106.069 Z-1.044
G01 X71.613 Y106.744 Z-1.030
G01 X71.392 Y107.316 Z-1.010
G01 X71.164 Y107.774 Z-0.979
G01 X70.947 Y108.113 Z-0.952
G01 X70.691 Y108.402 Z-0.924
G01 X70.587 Y108.477 Z-0.917
G01 X70.222 Y108.382 Z-0.965
G01 X69.818 Y108.216 Z-1.000
G01 X69.366 Y107.971 Z-1.038
G01 X68.883 Y107.649 Z-1.074
G01 X68.383 Y107.254 Z-1.113
G01 X67.897 Y106.809 Z-1.143
G01 X67.388 Y106.274 Z-1.170
G01 X66.913 Y105.707 Z-1.195
G01 X66.467 Y105.101 Z-1.217
G01 X66.057 Y104.467 Z-1.240
G01 X65.679 Y103.795 Z-1.264
G01 X65.372 Y103.154 Z-1.283
G01 X65.110 Y102.498 Z-1.303
G01 X64.909 Y101.859 Z-1.324
G01 X64.771 Y101.250 Z-1.346
G01 X64.696 Y100.690 Z-1.353
G01 X64.672 Y100.228 Z-1.347
G01 X64.676 Y99.774 Z-1.348
G01 X64.708 Y99.323 Z-1.348
G01 X64.766 Y98.878 Z-1.346
G01 X64.849 Y98.442 Z-1.348
G01 X64.956 Y98.019 Z-1.344
G01 X64.670 Y97.938 Z-1.239
G01 X64.804 Y97.514 Z-1.241
G01 X64.960 Y97.111 Z-1.238
G01 X65.135 Y96.732 Z-1.237
G01 X65.326 Y96.379 Z-1.239
G01 X65.531 Y96.055 Z-1.232
G01 X65.746 Y95.764 Z-1.224
G01 X65.968 Y95.507 Z-1.217
G01 X66.193 Y95.286 Z-1.213
G01 X66.418 Y95.101 Z-1.210
G01 X66.654 Y94.940 Z-1.211
G01 X67.108 Y94.705 Z-1.217
G01 X67.681 Y94.483 Z-1.211
G01 X68.182 Y94.346 Z-1.182
G01 X68.411 Y94.315 Z-1.166
G01 X68.775 Y94.336 Z-1.154
G01 X69.150 Y94.398 Z-1.142
G01 X69.495 Y94.498 Z-1.128
G01 X69.819 Y94.635 Z-1.117
G01 X70.127 Y94.810 Z-1.108
G01 X70.425 Y95.028 Z-1.096
G01 X70.715 Y95.293 Z-1.090
G01 X70.995 Y95.611 Z-1.087
G01 X71.265 Y95.985 Z-1.086
G01 X71.520 Y96.418 Z-1.088
G01 X71.747 Y96.891 Z-1.094
G01 X71.968 Y97.468 Z-1.099
G01 X72.154 Y98.082 Z-1.107
G01 X72.307 Y98.755 Z-1.110
G01 X72.424 Y99.484 Z-1.087
G01 X72.503 Y100.274 Z-1.054
G01 X72.559 Y101.411 Z-1.023
G01 X72.561 Y102.498 Z-1.010
G01 X72.512 Y103.522 Z-0.978
G01 X72.415 Y104.493 Z-0.959
G01 X72.278 Y105.352 Z-0.948
G01 X72.102 Y106.143 Z-0.942
G01 X71.894 Y106.840 Z-0.928
G01 X71.664 Y107.435 Z-0.917
G01 X71.423 Y107.920 Z-0.898
G01 X71.187 Y108.289 Z-0.871
G01 X70.976 Y108.541 Z-0.852
G01 X70.751 Y108.727 Z-0.837
G01 X70.629 Y108.774 Z-0.837
G01 X70.489 Y108.763 Z-0.853
G01 X70.126 Y108.663 Z-0.883
G01 X69.690 Y108.484 Z-0.919
G01 X69.213 Y108.226 Z-0.952
G01 X68.708 Y107.889 Z-0.987
G01 X68.191 Y107.480 Z-1.021
G01 X67.687 Y107.019 Z-1.046
G01 X67.166 Y106.471 Z-1.070
G01 X66.680 Y105.890 Z-1.092
G01 X66.222 Y105.270 Z-1.114
G01 X65.802 Y104.620 Z-1.134
G01 X65.417 Y103.934 Z-1.154
G01 X65.100 Y103.273 Z-1.175
G01 X64.831 Y102.598 Z-1.196
G01 X64.622 Y101.937 Z-1.216
G01 X64.478 Y101.303 Z-1.238
G01 X64.399 Y100.714 Z-1.249
G01 X64.375 Y100.234 Z-1.243
G01 X64.379 Y99.762 Z-1.244
G01 X64.412 Y99.293 Z-1.243
G01 X64.472 Y98.831 Z-1.240
G01 X64.559 Y98.378 Z-1.241
G01 X64.670 Y97.938 Z-1.239
G01 X64.384 Y97.856 Z-1.127
G01 X64.524 Y97.416 Z-1.126
G01 X64.686 Y96.996 Z-1.126
G01 X64.869 Y96.599 Z-1.127
G01 X65.070 Y96.228 Z-1.124
G01 X65.285 Y95.887 Z-1.123
G01 X65.514 Y95.579 Z-1.117
G01 X65.751 Y95.304 Z-1.111
G01 X65.994 Y95.065 Z-1.107
G01 X66.239 Y94.863 Z-1.106
G01 X66.497 Y94.688 Z-1.110
G01 X66.986 Y94.434 Z-1.118
G01 X67.587 Y94.201 Z-1.117
G01 X68.123 Y94.054 Z-1.085
G01 X68.405 Y94.018 Z-1.065
G01 X68.808 Y94.040 Z-1.050
G01 X69.216 Y94.108 Z-1.034
G01 X69.595 Y94.218 Z-1.022
G01 X69.950 Y94.368 Z-1.011
G01 X70.289 Y94.560 Z-0.995
G01 X70.614 Y94.798 Z-0.978
G01 X70.927 Y95.085 Z-0.969
G01 X71.227 Y95.425 Z-0.965
G01 X71.514 Y95.823 Z-0.962
G01 X71.782 Y96.279 Z-0.964
G01 X72.021 Y96.776 Z-0.967
G01 X72.250 Y97.372 Z-0.974
G01 X72.441 Y98.006 Z-0.978
G01 X72.598 Y98.698 Z-0.976
G01 X72.719 Y99.445 Z-0.950
G01 X72.800 Y100.252 Z-0.916
G01 X72.856 Y101.403 Z-0.882
G01 X72.858 Y102.505 Z-0.870
G01 X72.809 Y103.544 Z-0.843
G01 X72.710 Y104.529 Z-0.831
G01 X72.570 Y105.408 Z-0.828
G01 X72.389 Y106.218 Z-0.821
G01 X72.175 Y106.936 Z-0.817
G01 X71.936 Y107.555 Z-0.809
G01 X71.682 Y108.067 Z-0.802
G01 X71.426 Y108.465 Z-0.784
G01 X71.188 Y108.749 Z-0.763
G01 X70.986 Y108.927 Z-0.753
G01 X70.771 Y109.045 Z-0.749
G01 X70.606 Y109.073 Z-0.755
G01 X70.433 Y109.055 Z-0.765
G01 X70.030 Y108.944 Z-0.795
G01 X69.563 Y108.752 Z-0.824
G01 X69.059 Y108.480 Z-0.855
G01 X68.533 Y108.130 Z-0.883
G01 X67.998 Y107.706 Z-0.916
G01 X67.477 Y107.229 Z-0.934
G01 X66.944 Y106.669 Z-0.956
G01 X66.446 Y106.074 Z-0.974
G01 X65.978 Y105.439 Z-0.994
G01 X65.548 Y104.774 Z-1.016
G01 X65.154 Y104.073 Z-1.036
G01 X64.828 Y103.392 Z-1.057
G01 X64.551 Y102.698 Z-1.076
G01 X64.336 Y102.015 Z-1.099
G01 X64.186 Y101.356 Z-1.124
G01 X64.103 Y100.737 Z-1.131
G01 X64.078 Y100.241 Z-1.124
G01 X64.082 Y99.751 Z-1.125
G01 X64.117 Y99.264 Z-1.125
G01 X64.179 Y98.784 Z-1.124
G01 X64.269 Y98.313 Z-1.127
G01 X64.384 Y97.856 Z-1.127
G01 X64.099 Y97.775 Z-0.999
G01 X64.244 Y97.317 Z-1.004
G01 X64.413 Y96.880 Z-1.006
G01 X64.603 Y96.466 Z-1.003
G01 X64.813 Y96.078 Z-1.001
G01 X65.040 Y95.719 Z-0.998
G01 X65.281 Y95.393 Z-0.995
G01 X65.534 Y95.101 Z-0.994
G01 X65.795 Y94.844 Z-0.990
G01 X66.061 Y94.625 Z-0.994
G01 X66.341 Y94.435 Z-0.996
G01 X66.865 Y94.163 Z-1.008
G01 X67.494 Y93.919 Z-1.011
G01 X68.064 Y93.763 Z-0.978
G01 X68.399 Y93.721 Z-0.954
G01 X68.840 Y93.745 Z-0.938
G01 X69.281 Y93.819 Z-0.921
G01 X69.694 Y93.938 Z-0.902
G01 X70.082 Y94.101 Z-0.885
G01 X70.450 Y94.311 Z-0.867
G01 X70.802 Y94.568 Z-0.848
G01 X71.139 Y94.877 Z-0.832
G01 X71.460 Y95.240 Z-0.827
G01 X71.763 Y95.660 Z-0.819
G01 X72.045 Y96.139 Z-0.821
G01 X72.295 Y96.662 Z-0.823
G01 X72.531 Y97.275 Z-0.829
G01 X72.728 Y97.930 Z-0.834
G01 X72.890 Y98.641 Z-0.828
G01 X73.014 Y99.407 Z-0.797
G01 X73.096 Y100.230 Z-0.758
G01 X73.153 Y101.396 Z-0.725
G01 X73.155 Y102.511 Z-0.714
G01 X73.105 Y103.566 Z-0.684
G01 X73.005 Y104.564 Z-0.675
G01 X72.862 Y105.463 Z-0.681
G01 X72.677 Y106.293 Z-0.689
G01 X72.457 Y107.032 Z-0.690
G01 X72.208 Y107.675 Z-0.689
G01 X71.940 Y108.213 Z-0.688
G01 X71.666 Y108.641 Z-0.678
G01 X71.401 Y108.957 Z-0.666
G01 X71.161 Y109.167 Z-0.650
G01 X70.958 Y109.289 Z-0.648
G01 X70.699 Y109.365 Z-0.656
G01 X70.507 Y109.366 Z-0.661
G01 X70.167 Y109.297 Z-0.681
G01 X69.689 Y109.133 Z-0.705
G01 X69.174 Y108.888 Z-0.734
G01 X68.634 Y108.562 Z-0.758
G01 X68.082 Y108.160 Z-0.783
G01 X67.530 Y107.688 Z-0.804
G01 X66.995 Y107.153 Z-0.825
G01 X66.723 Y106.867 Z-0.830
G01 X66.212 Y106.258 Z-0.845
G01 X65.734 Y105.608 Z-0.863
G01 X65.293 Y104.927 Z-0.881
G01 X64.892 Y104.213 Z-0.902
G01 X64.556 Y103.512 Z-0.925
G01 X64.271 Y102.797 Z-0.947
G01 X64.049 Y102.093 Z-0.969
G01 X63.894 Y101.409 Z-0.996
G01 X63.807 Y100.761 Z-0.998
G01 X63.781 Y100.247 Z-0.993
G01 X63.785 Y99.739 Z-0.995
G01 X63.821 Y99.234 Z-0.997
G01 X63.886 Y98.737 Z-1.000
G01 X63.979 Y98.249 Z-1.001
G01 X64.099 Y97.775 Z-0.999
G01 X63.813 Y97.693 Z-0.863
G01 X63.963 Y97.219 Z-0.868
G01 X64.139 Y96.764 Z-0.868
G01 X64.338 Y96.333 Z-0.866
G01 X64.557 Y95.928 Z-0.859
G01 X64.795 Y95.552 Z-0.855
G01 X65.049 Y95.207 Z-0.854
G01 X65.317 Y94.897 Z-0.857
G01 X65.596 Y94.624 Z-0.859
G01 X65.883 Y94.387 Z-0.866
G01 X66.185 Y94.182 Z-0.874
G01 X66.743 Y93.892 Z-0.889
G01 X67.401 Y93.636 Z-0.891
G01 X68.005 Y93.472 Z-0.860
G01 X68.393 Y93.424 Z-0.835
G01 X68.872 Y93.450 Z-0.816
G01 X69.347 Y93.529 Z-0.792
G01 X69.793 Y93.658 Z-0.764
G01 X70.213 Y93.835 Z-0.737
G01 X70.612 Y94.061 Z-0.724
G01 X70.991 Y94.338 Z-0.701
G01 X71.351 Y94.669 Z-0.678
G01 X71.692 Y95.055 Z-0.664
G01 X72.011 Y95.498 Z-0.660
G01 X72.307 Y96.000 Z-0.659
G01 X72.569 Y96.547 Z-0.662
G01 X72.812 Y97.179 Z-0.668
G01 X73.016 Y97.854 Z-0.672
G01 X73.182 Y98.585 Z-0.665
G01 X73.308 Y99.368 Z-0.636
G01 X73.392 Y100.208 Z-0.590
G01 X73.450 Y101.388 Z-0.553
G01 X73.452 Y102.518 Z-0.542
G01 X73.401 Y103.587 Z-0.513
G01 X73.350 Y104.094 Z-0.513
G01 X73.300 Y104.600 Z-0.534
G01 X73.154 Y105.519 Z-0.514
G01 X72.965 Y106.367 Z-0.527
G01 X72.738 Y107.128 Z-0.542
G01 X72.480 Y107.794 Z-0.551
G01 X72.199 Y108.359 Z-0.545
G01 X71.906 Y108.816 Z-0.548
G01 X71.614 Y109.164 Z-0.546
G01 X71.337 Y109.407 Z-0.546
G01 X71.084 Y109.558 Z-0.531
G01 X70.851 Y109.640 Z-0.534
G01 X70.612 Y109.668 Z-0.537
G01 X70.321 Y109.639 Z-0.549
G01 X69.837 Y109.506 Z-0.573
G01 X69.308 Y109.289 Z-0.589
G01 X68.752 Y108.989 Z-0.607
G01 X68.184 Y108.610 Z-0.629
G01 X67.612 Y108.158 Z-0.653
G01 X67.057 Y107.649 Z-0.665
G01 X66.501 Y107.065 Z-0.682
G01 X65.979 Y106.441 Z-0.696
G01 X65.489 Y105.777 Z-0.711
G01 X65.039 Y105.081 Z-0.732
G01 X64.629 Y104.352 Z-0.749
G01 X64.284 Y103.631 Z-0.773
G01 X63.991 Y102.897 Z-0.800
G01 X63.762 Y102.171 Z-0.824
G01 X63.601 Y101.462 Z-0.851
G01 X63.511 Y100.785 Z-0.851
G01 X63.483 Y100.253 Z-0.845
G01 X63.489 Y99.727 Z-0.847
G01 X63.525 Y99.205 Z-0.850
G01 X63.592 Y98.690 Z-0.855
G01 X63.689 Y98.185 Z-0.861
G01 X63.813 Y97.693 Z-0.863
G01 X63.527 Y97.612 Z-0.706
G01 X63.683 Y97.120 Z-0.715
G01 X63.865 Y96.648 Z-0.716
G01 X64.072 Y96.200 Z-0.709
G01 X64.301 Y95.777 Z-0.704
G01 X64.550 Y95.384 Z-0.702
G01 X64.817 Y95.022 Z-0.699
G01 X65.100 Y94.694 Z-0.701
G01 X65.397 Y94.403 Z-0.713
G01 X65.704 Y94.149 Z-0.720
G01 X66.028 Y93.929 Z-0.740
G01 X66.302 Y93.775 Z-0.749
G01 X66.961 Y93.479 Z-0.756
G01 X67.642 Y93.253 Z-0.731
G01 X68.194 Y93.139 Z-0.709
G01 X68.387 Y93.126 Z-0.698
G01 X68.904 Y93.154 Z-0.677
G01 X69.413 Y93.239 Z-0.641
G01 X69.892 Y93.378 Z-0.607
G01 X70.345 Y93.568 Z-0.583
G01 X70.773 Y93.812 Z-0.559
G01 X71.179 Y94.109 Z-0.527
G01 X71.563 Y94.461 Z-0.505
G01 X71.924 Y94.869 Z-0.495
G01 X72.260 Y95.336 Z-0.486
G01 X72.569 Y95.860 Z-0.484
G01 X72.843 Y96.432 Z-0.488
G01 X73.093 Y97.083 Z-0.491
G01 X73.303 Y97.778 Z-0.499
G01 X73.388 Y98.153 Z-0.512
G01 X73.474 Y98.528 Z-0.485
G01 X73.603 Y99.330 Z-0.454
G01 X73.689 Y100.186 Z-0.409
G01 X73.747 Y101.381 Z-0.372
G01 X73.749 Y102.525 Z-0.361
G01 X73.698 Y103.609 Z-0.327
G01 X73.646 Y104.123 Z-0.324
G01 X73.594 Y104.636 Z-0.428
G01 X73.520 Y105.105 Z-0.372
G01 X73.446 Y105.574 Z-0.369
G01 X73.349 Y106.008 Z-0.376
G01 X73.252 Y106.442 Z-0.350
G01 X73.135 Y106.833 Z-0.358
G01 X73.019 Y107.224 Z-0.391
G01 X72.752 Y107.914 Z-0.376
G01 X72.458 Y108.505 Z-0.383
G01 X72.145 Y108.992 Z-0.423
G01 X71.826 Y109.372 Z-0.422
G01 X71.512 Y109.647 Z-0.400
G01 X71.211 Y109.828 Z-0.400
G01 X70.918 Y109.930 Z-0.372
G01 X70.615 Y109.965 Z-0.378
G01 X70.264 Y109.931 Z-0.398
G01 X69.741 Y109.788 Z-0.440
G01 X69.180 Y109.557 Z-0.431
G01 X68.599 Y109.243 Z-0.446
G01 X68.009 Y108.850 Z-0.466
G01 X67.420 Y108.384 Z-0.485
G01 X66.847 Y107.860 Z-0.500
G01 X66.280 Y107.263 Z-0.511
G01 X65.745 Y106.625 Z-0.525
G01 X65.245 Y105.946 Z-0.541
G01 X64.785 Y105.234 Z-0.560
G01 X64.367 Y104.491 Z-0.583
G01 X64.012 Y103.751 Z-0.610
G01 X63.712 Y102.997 Z-0.632
G01 X63.476 Y102.248 Z-0.665
G01 X63.309 Y101.515 Z-0.688
G01 X63.215 Y100.808 Z-0.692
G01 X63.186 Y100.259 Z-0.687
G01 X63.192 Y99.715 Z-0.689
G01 X63.230 Y99.175 Z-0.690
G01 X63.299 Y98.643 Z-0.693
G01 X63.398 Y98.120 Z-0.698
G01 X63.527 Y97.612 Z-0.706
G01 X63.241 Y97.530 Z-0.534
G01 X63.403 Y97.022 Z-0.540
G01 X63.592 Y96.533 Z-0.543
G01 X63.806 Y96.067 Z-0.536
G01 X64.044 Y95.627 Z-0.533
G01 X64.305 Y95.216 Z-0.530
G01 X64.585 Y94.836 Z-0.532
G01 X64.883 Y94.491 Z-0.534
G01 X65.198 Y94.182 Z-0.540
G01 X65.526 Y93.911 Z-0.560
G01 X65.872 Y93.676 Z-0.582
G01 X66.165 Y93.512 Z-0.594
G01 X66.499 Y93.351 Z-0.599
G01 X66.856 Y93.211 Z-0.603
G01 X67.214 Y93.072 Z-0.586
G01 X67.564 Y92.966 Z-0.571
G01 X67.887 Y92.889 Z-0.558
G01 X68.160 Y92.844 Z-0.545
G01 X68.381 Y92.829 Z-0.545
G01 X68.937 Y92.859 Z-0.512
G01 X69.479 Y92.949 Z-0.504
G01 X69.991 Y93.097 Z-0.472
G01 X70.476 Y93.302 Z-0.448
G01 X70.934 Y93.562 Z-0.383
G01 X71.367 Y93.879 Z-0.346
G01 X71.775 Y94.253 Z-0.361
G01 X72.156 Y94.684 Z-0.366
G01 X72.509 Y95.173 Z-0.343
G01 X72.832 Y95.721 Z-0.339
G01 X73.117 Y96.317 Z-0.336
G01 X73.375 Y96.987 Z-0.303
G01 X73.482 Y97.345 Z-0.349
G01 X73.590 Y97.702 Z-0.350
G01 X73.678 Y98.087 Z-0.461
G01 X73.765 Y98.471 Z-0.352
G01 X73.898 Y99.292 Z-0.319
G01 X73.985 Y100.163 Z-0.272
G01 X74.005 Y100.567 Z-0.260
G01 X74.024 Y100.970 Z-0.290
G01 X74.044 Y101.373 Z-0.277
G01 X74.046 Y102.532 Z-0.270
G01 X74.020 Y103.082 Z-0.269
G01 X73.994 Y103.631 Z-0.184
G01 X73.942 Y104.152 Z-0.180
G01 X73.889 Y104.672 Z-0.247
G01 X73.813 Y105.151 Z-0.398
G01 X73.738 Y105.630 Z-0.286
G01 X73.540 Y106.517 Z-0.277
G01 X73.300 Y107.320 Z-0.325
G01 X73.024 Y108.034 Z-0.222
G01 X72.716 Y108.651 Z-0.264
G01 X72.385 Y109.168 Z-0.259
G01 X72.039 Y109.580 Z-0.287
G01 X71.688 Y109.887 Z-0.248
G01 X71.337 Y110.097 Z-0.299
G01 X70.985 Y110.219 Z-0.247
G01 X70.805 Y110.251 Z-0.246
G01 X70.618 Y110.263 Z-0.242
G01 X70.422 Y110.254 Z-0.242
G01 X70.208 Y110.223 Z-0.250
G01 X69.645 Y110.069 Z-0.290
G01 X69.052 Y109.826 Z-0.296
G01 X68.446 Y109.498 Z-0.311
G01 X68.140 Y109.294 Z-0.329
G01 X67.834 Y109.090 Z-0.425
G01 X67.530 Y108.850 Z-0.306
G01 X67.227 Y108.610 Z-0.302
G01 X66.637 Y108.070 Z-0.332
G01 X66.348 Y107.765 Z-0.362
G01 X66.058 Y107.461 Z-0.328
G01 X65.785 Y107.135 Z-0.380
G01 X65.512 Y106.809 Z-0.341
G01 X65.256 Y106.462 Z-0.396
G01 X65.000 Y106.115 Z-0.398
G01 X64.765 Y105.751 Z-0.450
G01 X64.530 Y105.388 Z-0.379
G01 X64.317 Y105.009 Z-0.435
G01 X64.105 Y104.631 Z-0.439
G01 X63.922 Y104.250 Z-0.457
G01 X63.740 Y103.870 Z-0.424
G01 X63.432 Y103.097 Z-0.455
G01 X63.189 Y102.326 Z-0.485
G01 X63.017 Y101.567 Z-0.514
G01 X62.919 Y100.832 Z-0.514
G01 X62.889 Y100.265 Z-0.508
G01 X62.895 Y99.703 Z-0.511
G01 X62.934 Y99.146 Z-0.512
G01 X63.005 Y98.596 Z-0.518
G01 X63.108 Y98.056 Z-0.527
G01 X63.241 Y97.530 Z-0.534
G01 X62.955 Y97.449 Z-0.383
G01 X63.122 Y96.923 Z-0.365
G01 X63.318 Y96.417 Z-0.366
G01 X63.540 Y95.934 Z-0.352
G01 X63.788 Y95.477 Z-0.390
G01 X64.059 Y95.048 Z-0.343
G01 X64.353 Y94.651 Z-0.400
G01 X64.667 Y94.287 Z-0.402
G01 X64.999 Y93.961 Z-0.360
G01 X65.348 Y93.673 Z-0.410
G01 X65.715 Y93.424 Z-0.403
G01 X66.028 Y93.248 Z-0.421
G01 X66.377 Y93.080 Z-0.449
G01 X66.746 Y92.925 Z-0.458
G01 X67.121 Y92.790 Z-0.409
G01 X67.487 Y92.680 Z-0.401
G01 X67.828 Y92.598 Z-0.423
G01 X68.126 Y92.548 Z-0.406
G01 X68.375 Y92.532 Z-0.390
G01 X68.969 Y92.564 Z-0.364
G01 X69.545 Y92.660 Z-0.331
G01 X70.090 Y92.817 Z-0.329
G01 X70.607 Y93.035 Z-0.413
G01 X71.096 Y93.313 Z-0.232
G01 X71.556 Y93.649 Z-0.335
G01 X71.987 Y94.045 Z-0.294
G01 X72.388 Y94.499 Z-0.230
G01 X72.758 Y95.011 Z-0.377
G01 X73.094 Y95.581 Z-0.377
G01 X73.392 Y96.203 Z-0.202
G01 X73.524 Y96.547 Z-0.200
G01 X73.656 Y96.891 Z-0.294
G01 X73.878 Y97.627 Z-0.314
G01 X73.967 Y98.021 Z-0.346
G01 X74.057 Y98.415 Z-0.328
G01 X74.192 Y99.253 Z-0.277
G01 X74.237 Y99.697 Z-0.330
G01 X74.281 Y100.141 Z-0.303
G01 X74.341 Y101.366 Z-0.265
G01 X74.343 Y102.539 Z-0.255
G01 X74.290 Y103.653 Z-0.223
G01 X74.237 Y104.181 Z-0.222
G01 X74.184 Y104.708 Z0.000
G01 X74.029 Y105.685 
G01 X73.928 Y106.138 Z-0.235
G01 X73.827 Y106.591 Z-0.234
G01 X73.704 Y107.003 Z0.000
G01 X73.581 Y107.416 
G01 X73.438 Y107.784 Z-0.254
G01 X73.296 Y108.153 Z-0.249
G01 X72.975 Y108.798 Z-0.256
G01 X72.625 Y109.344 Z-0.237
G01 X72.441 Y109.578 Z-0.255
G01 X72.252 Y109.787 Z-0.276
G01 X72.059 Y109.970 Z-0.276
G01 X71.863 Y110.127 Z-0.266
G01 X71.664 Y110.259 Z-0.270
G01 X71.463 Y110.366 Z0.000
G01 X71.260 Y110.449 
G01 X71.052 Y110.509 Z-0.229
G01 X70.840 Y110.546 Z-0.251
G01 X70.621 Y110.560 Z-0.251
G01 X70.393 Y110.550 Z-0.261
G01 X70.152 Y110.515 Z-0.167
G01 X69.855 Y110.444 Z-0.287
G01 X69.549 Y110.350 Z0.000
G01 X68.925 Y110.094 Z-0.313
G01 X68.292 Y109.752 Z-0.273
G01 X67.976 Y109.541 Z-0.300
G01 X67.659 Y109.331 Z-0.294
G01 X67.347 Y109.083 Z-0.153
G01 X67.034 Y108.836 Z-0.169
G01 X66.731 Y108.558 Z-0.166
G01 X66.427 Y108.280 Z-0.199
G01 X66.132 Y107.970 Z-0.314
G01 X65.836 Y107.659 Z-0.310
G01 X65.278 Y106.992 Z-0.195
G01 X65.017 Y106.638 Z-0.278
G01 X64.756 Y106.284 Z-0.430
G01 X64.516 Y105.913 Z-0.312
G01 X64.276 Y105.542 Z-0.452
G01 X64.059 Y105.156 Z-0.344
G01 X63.842 Y104.770 Z-0.473
G01 X63.655 Y104.380 Z-0.290
G01 X63.468 Y103.990 Z-0.279
G01 X63.310 Y103.593 Z-0.355
G01 X63.152 Y103.197 Z-0.307
G01 X62.902 Y102.404 Z-0.339
G01 X62.813 Y102.012 Z-0.322
G01 X62.724 Y101.620 Z-0.328
G01 X62.673 Y101.238 Z-0.361
G01 X62.622 Y100.856 Z-0.372
G01 X62.592 Y100.272 Z-0.371
G01 X62.598 Y99.691 Z-0.370
G01 X62.638 Y99.116 Z-0.369
G01 X62.712 Y98.549 Z-0.331
G01 X62.818 Y97.992 Z-0.335
G01 X62.955 Y97.449 Z-0.383
G01 X62.670 Y97.368 Z-0.295
G01 X62.842 Y96.825 Z-0.258
G01 X63.044 Y96.301 Z-0.326
G01 X63.274 Y95.801 Z-0.239
G01 X63.532 Y95.326 Z-0.360
G01 X63.814 Y94.880 Z-0.219
G01 X64.121 Y94.465 Z-0.229
G01 X64.450 Y94.084 Z-0.243
G01 X64.800 Y93.740 Z-0.344
G01 X65.169 Y93.435 Z-0.228
G01 X65.559 Y93.171 Z-0.318
G01 X65.890 Y92.985 Z-0.335
G01 X66.255 Y92.809 Z-0.478
G01 X66.638 Y92.648 Z-0.338
G01 X67.027 Y92.508 Z-0.300
G01 X67.409 Y92.393 Z-0.274
G01 X67.769 Y92.307 Z-0.391
G01 X68.092 Y92.253 Z-0.355
G01 X68.368 Y92.235 Z-0.331
G01 X69.001 Y92.268 Z-0.270
G01 X69.610 Y92.370 Z-0.258
G01 X70.190 Y92.537 Z-0.328
G01 X70.739 Y92.769 Z0.000
G01 X71.257 Y93.063 Z-0.257
G01 X71.744 Y93.420 Z-0.228
G01 X72.199 Y93.836 Z0.000
G01 X72.621 Y94.313 
G01 X73.007 Y94.849 Z-0.201
G01 X73.356 Y95.442 Z-0.192
G01 X73.666 Y96.088 Z0.000
G01 X73.801 Y96.441 Z-0.193
G01 X73.937 Y96.794 Z-0.190
G01 X74.051 Y97.172 Z0.000
G01 X74.165 Y97.551 
G01 X74.257 Y97.954 
G01 X74.349 Y98.358 Z-0.182
G01 X74.487 Y99.215 Z-0.167
G01 X74.532 Y99.667 Z0.000
G01 X74.578 Y100.119 
G01 X74.638 Y101.358 
G01 X74.640 Y102.545 
G01 X74.587 Y103.675 
G01 X74.479 Y104.744 
G01 X74.321 Y105.741 
G01 X74.115 Y106.666 
G01 X73.862 Y107.512 
G01 X73.567 Y108.273 
G01 X73.233 Y108.944 
G01 X73.053 Y109.244 Z-0.094
G01 X72.864 Y109.519 Z0.000
G01 X72.668 Y109.770 
G01 X72.464 Y109.995 
G01 X72.254 Y110.194 
G01 X72.038 Y110.367 
G01 X71.817 Y110.514 
G01 X71.590 Y110.635 
G01 X71.357 Y110.730 
G01 X71.119 Y110.799 Z-0.093
G01 X70.875 Y110.842 Z0.000
G01 X70.624 Y110.858 
G01 X70.365 Y110.846 
G01 X70.096 Y110.807 
G01 X69.777 Y110.731 Z-0.117
G01 X69.453 Y110.631 Z0.000
G01 X69.126 Y110.508 
G01 X68.797 Y110.351 
G01 X68.468 Y110.195 Z-0.148
G01 X68.139 Y109.996 Z0.000
G01 X67.811 Y109.798 Z-0.165
G01 X67.486 Y109.562 Z0.000
G01 X67.161 Y109.325 Z-0.174
G01 X66.526 Y108.783 Z-0.178
G01 X66.217 Y108.490 Z0.000
G01 X65.916 Y108.174 Z-0.210
G01 X65.615 Y107.857 Z-0.218
G01 X65.329 Y107.516 Z-0.125
G01 X65.044 Y107.176 Z-0.234
G01 X64.778 Y106.814 Z0.000
G01 X64.511 Y106.453 
G01 X64.266 Y106.074 
G01 X64.021 Y105.695 Z-0.274
G01 X63.801 Y105.302 Z0.000
G01 X63.580 Y104.909 Z-0.295
G01 X63.388 Y104.509 Z-0.152
G01 X63.196 Y104.109 Z-0.319
G01 X63.034 Y103.703 Z-0.232
G01 X62.872 Y103.297 Z-0.344
G01 X62.744 Y102.889 Z-0.272
G01 X62.616 Y102.482 Z-0.291
G01 X62.524 Y102.078 Z-0.189
G01 X62.432 Y101.673 Z-0.179
G01 X62.379 Y101.276 Z-0.206
G01 X62.326 Y100.879 Z-0.338
G01 X62.295 Y100.278 Z-0.322
G01 X62.301 Y99.680 Z-0.309
G01 X62.343 Y99.086 Z-0.298
G01 X62.419 Y98.501 Z-0.184
G01 X62.528 Y97.928 Z-0.186
G01 X62.670 Y97.368 Z-0.295
G01 X62.384 Y97.286 Z0.000
G01 X62.562 Y96.726 Z-0.237
G01 X62.770 Y96.186 Z0.000
G01 X63.009 Y95.668 Z-0.238
G01 X63.275 Y95.176 Z0.000
G01 X63.569 Y94.712 Z-0.240
G01 X63.889 Y94.279 Z-0.214
G01 X64.233 Y93.881 Z-0.247
G01 X64.601 Y93.519 Z-0.252
G01 X64.991 Y93.197 Z-0.265
G01 X65.403 Y92.918 Z-0.286
G01 X65.753 Y92.721 Z0.000
G01 X66.133 Y92.538 Z-0.308
G01 X66.531 Y92.371 Z0.000
G01 X66.934 Y92.226 Z-0.292
G01 X67.331 Y92.106 Z-0.243
G01 X67.710 Y92.015 Z-0.275
G01 X68.057 Y91.958 Z-0.258
G01 X68.362 Y91.937 Z-0.249
G01 X69.033 Y91.973 Z-0.226
G01 X69.676 Y92.080 Z0.000
G01 X70.289 Y92.257 
G01 X70.870 Y92.502 
G01 X71.419 Y92.814 
G01 X71.933 Y93.190 
G01 X72.411 Y93.628 
G01 X72.853 Y94.128 
G01 X73.256 Y94.686 
G01 X73.618 Y95.302 
G01 X73.940 Y95.973 
G01 X74.218 Y96.698 
G01 X74.452 Y97.475 
G01 X74.640 Y98.301 
G01 X74.781 Y99.176 
G01 X74.874 Y100.097 
G01 X74.935 Y101.350 
G01 X74.937 Y102.552 
G01 X74.883 Y103.697 
G01 X74.774 Y104.780 
G01 X74.613 Y105.796 
G01 X74.402 Y106.741 
G01 X74.144 Y107.608 
G01 X73.839 Y108.392 
G01 X73.492 Y109.090 
G01 X73.303 Y109.404 
G01 X73.104 Y109.695 
G01 X72.895 Y109.961 
G01 X72.677 Y110.203 
G01 X72.450 Y110.418 
G01 X72.214 Y110.607 
G01 X71.969 Y110.770 
G01 X71.716 Y110.905 
G01 X71.455 Y111.011 
G01 X71.186 Y111.089 
G01 X70.910 Y111.137 
G01 X70.627 Y111.155 
G01 X70.337 Y111.143 
G01 X70.040 Y111.098 
G01 X69.699 Y111.018 
G01 X69.357 Y110.912 
G01 X69.013 Y110.783 
G01 X68.670 Y110.631 
G01 X67.985 Y110.261 
G01 X67.310 Y109.811 
G01 X66.648 Y109.288 
G01 X66.007 Y108.700 
G01 X65.393 Y108.055 
G01 X64.811 Y107.359 
G01 X64.267 Y106.621 
G01 X63.767 Y105.849 
G01 X63.317 Y105.048 
G01 X63.121 Y104.638 
G01 X62.924 Y104.229 Z-0.132
G01 X62.758 Y103.813 Z0.000
G01 X62.592 Y103.396 Z-0.154
G01 X62.461 Y102.978 Z-0.174
G01 X62.329 Y102.560 Z0.000
G01 X62.234 Y102.143 
G01 X62.140 Y101.726 Z-0.207
G01 X62.074 Y101.313 Z-0.175
G01 X62.030 Y100.903 Z-0.221
G01 X61.998 Y100.284 Z-0.219
G01 X62.004 Y99.668 Z-0.223
G01 X62.047 Y99.057 Z-0.223
G01 X62.125 Y98.454 Z-0.226
G01 X62.238 Y97.863 Z-0.230
G01 X62.384 Y97.286 Z0.000
G00 Z5.000
G00 X84.889 Y101.509  F8000.0
G01 Z-1.874 F2000.0 M3
G01 X84.889 Y100.658 Z-1.910 F4000.0
G01 X84.909 Y99.812 Z-1.913
G01 X84.944 Y99.271 Z-1.905
G01 X84.982 Y98.981 Z-1.894
G01 X85.019 Y98.898 Z-1.890
G01 X85.115 Y99.295 Z-1.904
G01 X85.184 Y99.830 Z-1.909
G01 X85.195 Y100.298 Z-1.909
G01 X85.152 Y100.636 Z-1.908
G01 X85.094 Y100.893 Z-1.899
G01 X84.889 Y101.509 Z-1.874
G01 X85.246 Y101.410 Z-1.871
G01 X85.085 Y101.827 Z-1.853
G01 X84.882 Y102.265 Z-1.828
G01 X84.619 Y102.746 Z-1.797
G01 X84.592 Y101.772 Z-1.861
G01 X84.592 Y100.655 Z-1.909
G01 X84.612 Y99.799 Z-1.913
G01 X84.648 Y99.243 Z-1.906
G01 X84.693 Y98.900 Z-1.893
G01 X84.896 Y98.499 Z-1.871
G01 X85.075 Y98.225 Z-1.854
G01 X85.237 Y98.604 Z-1.871
G01 X85.371 Y99.067 Z-1.887
G01 X85.462 Y99.612 Z-1.895
G01 X85.494 Y100.205 Z-1.897
G01 X85.468 Y100.546 Z-1.895
G01 X85.381 Y100.972 Z-1.885
G01 X85.246 Y101.410 Z-1.871
G01 X85.526 Y101.507 Z-1.852
G01 X85.358 Y101.943 Z-1.833
G01 X85.147 Y102.398 Z-1.812
G01 X84.897 Y102.862 Z-1.781
G01 X84.612 Y103.321 Z-1.748
G01 X84.381 Y103.648 Z-1.717
G01 X84.325 Y102.855 Z-1.786
G01 X84.295 Y101.776 Z-1.854
G01 X84.295 Y100.651 Z-1.901
G01 X84.315 Y99.786 Z-1.904
G01 X84.352 Y99.214 Z-1.897
G01 X84.409 Y98.807 Z-1.881
G01 X84.639 Y98.351 Z-1.863
G01 X84.857 Y98.018 Z-1.839
G01 X85.102 Y97.707 Z-1.813
G01 X85.286 Y97.989 Z-1.829
G01 X85.461 Y98.359 Z-1.847
G01 X85.617 Y98.826 Z-1.865
G01 X85.731 Y99.378 Z-1.876
G01 X85.788 Y100.002 Z-1.878
G01 X85.779 Y100.449 Z-1.877
G01 X85.701 Y100.916 Z-1.870
G01 X85.526 Y101.507 Z-1.852
G01 X85.807 Y101.605 Z-1.826
G01 X85.632 Y102.059 Z-1.810
G01 X85.413 Y102.532 Z-1.785
G01 X85.154 Y103.011 Z-1.760
G01 X84.860 Y103.485 Z-1.725
G01 X84.535 Y103.945 Z-1.682
G01 X84.166 Y104.404 Z-1.637
G01 X84.096 Y103.819 Z-1.697
G01 X84.028 Y102.870 Z-1.776
G01 X83.998 Y101.780 Z-1.841
G01 X83.998 Y100.648 Z-1.885
G01 X84.018 Y99.773 Z-1.889
G01 X84.056 Y99.185 Z-1.883
G01 X84.129 Y98.705 Z-1.866
G01 X84.381 Y98.202 Z-1.846
G01 X84.616 Y97.844 Z-1.825
G01 X85.018 Y97.351 Z-1.779
G01 X85.153 Y97.321 Z-1.775
G01 X85.355 Y97.548 Z-1.788
G01 X85.546 Y97.844 Z-1.806
G01 X85.737 Y98.248 Z-1.824
G01 X85.903 Y98.749 Z-1.839
G01 X86.025 Y99.334 Z-1.851
G01 X86.085 Y99.992 Z-1.853
G01 X86.075 Y100.478 Z-1.853
G01 X85.990 Y100.982 Z-1.844
G01 X85.807 Y101.605 Z-1.826
G01 X86.088 Y101.702 Z-1.794
G01 X85.905 Y102.175 Z-1.775
G01 X85.679 Y102.665 Z-1.754
G01 X85.411 Y103.160 Z-1.726
G01 X85.107 Y103.649 Z-1.696
G01 X84.773 Y104.123 Z-1.655
G01 X84.415 Y104.572 Z-1.614
G01 X83.960 Y105.064 Z-1.556
G01 X83.800 Y103.848 Z-1.685
G01 X83.731 Y102.885 Z-1.762
G01 X83.701 Y101.784 Z-1.823
G01 X83.701 Y100.644 Z-1.865
G01 X83.721 Y99.759 Z-1.869
G01 X83.761 Y99.156 Z-1.862
G01 X83.838 Y98.641 Z-1.842
G01 X83.955 Y98.367 Z-1.834
G01 X84.232 Y97.877 Z-1.816
G01 X84.547 Y97.444 Z-1.786
G01 X84.858 Y97.086 Z-1.751
G01 X85.230 Y97.007 Z-1.736
G01 X85.462 Y97.211 Z-1.749
G01 X85.662 Y97.467 Z-1.765
G01 X85.876 Y97.834 Z-1.781
G01 X86.076 Y98.305 Z-1.800
G01 X86.239 Y98.869 Z-1.812
G01 X86.348 Y99.513 Z-1.818
G01 X86.385 Y100.209 Z-1.819
G01 X86.350 Y100.672 Z-1.819
G01 X86.239 Y101.211 Z-1.808
G01 X86.088 Y101.702 Z-1.794
G01 X86.369 Y101.799 Z-1.752
G01 X86.179 Y102.291 Z-1.736
G01 X85.944 Y102.798 Z-1.714
G01 X85.668 Y103.309 Z-1.690
G01 X85.355 Y103.813 Z-1.658
G01 X85.010 Y104.302 Z-1.622
G01 X84.641 Y104.764 Z-1.584
G01 X84.254 Y105.193 Z-1.538
G01 X83.775 Y105.650 Z-1.479
G01 X83.613 Y104.775 Z-1.583
G01 X83.504 Y103.876 Z-1.666
G01 X83.435 Y102.899 Z-1.738
G01 X83.404 Y101.789 Z-1.794
G01 X83.404 Y100.641 Z-1.834
G01 X83.425 Y99.746 Z-1.839
G01 X83.465 Y99.127 Z-1.832
G01 X83.552 Y98.561 Z-1.812
G01 X83.689 Y98.235 Z-1.807
G01 X83.983 Y97.715 Z-1.787
G01 X84.315 Y97.259 Z-1.761
G01 X84.698 Y96.823 Z-1.721
G01 X85.151 Y96.718 Z-1.704
G01 X85.307 Y96.713 Z-1.696
G01 X85.490 Y96.828 Z-1.703
G01 X85.755 Y97.095 Z-1.717
G01 X85.987 Y97.422 Z-1.733
G01 X86.216 Y97.858 Z-1.751
G01 X86.419 Y98.395 Z-1.765
G01 X86.574 Y99.021 Z-1.778
G01 X86.665 Y99.722 Z-1.781
G01 X86.678 Y100.373 Z-1.780
G01 X86.612 Y100.908 Z-1.777
G01 X86.526 Y101.291 Z-1.768
G01 X86.369 Y101.799 Z-1.752
G01 X86.650 Y101.897 Z-1.699
G01 X86.453 Y102.407 Z-1.685
G01 X86.210 Y102.931 Z-1.666
G01 X85.925 Y103.458 Z-1.641
G01 X85.603 Y103.978 Z-1.608
G01 X85.248 Y104.480 Z-1.578
G01 X84.868 Y104.957 Z-1.545
G01 X84.468 Y105.399 Z-1.503
G01 X84.058 Y105.799 Z-1.457
G01 X83.603 Y106.186 Z-1.401
G01 X83.449 Y105.550 Z-1.484
G01 X83.319 Y104.816 Z-1.562
G01 X83.209 Y103.904 Z-1.643
G01 X83.138 Y102.914 Z-1.710
G01 X83.107 Y101.793 Z-1.762
G01 X83.107 Y100.638 Z-1.799
G01 X83.128 Y99.733 Z-1.805
G01 X83.169 Y99.098 Z-1.798
G01 X83.243 Y98.572 Z-1.780
G01 X83.298 Y98.380 Z-1.774
G01 X83.422 Y98.104 Z-1.768
G01 X83.734 Y97.553 Z-1.753
G01 X84.083 Y97.074 Z-1.728
G01 X84.540 Y96.562 Z-1.682
G01 X84.933 Y96.455 Z-1.669
G01 X85.292 Y96.407 Z-1.654
G01 X85.457 Y96.454 Z-1.653
G01 X85.676 Y96.597 Z-1.661
G01 X85.901 Y96.811 Z-1.671
G01 X86.154 Y97.134 Z-1.685
G01 X86.407 Y97.568 Z-1.697
G01 X86.636 Y98.106 Z-1.713
G01 X86.819 Y98.737 Z-1.724
G01 X86.938 Y99.448 Z-1.728
G01 X86.980 Y100.212 Z-1.725
G01 X86.938 Y100.756 Z-1.721
G01 X86.812 Y101.371 Z-1.710
G01 X86.650 Y101.897 Z-1.699
G01 X86.930 Y101.994 Z-1.632
G01 X86.726 Y102.523 Z-1.618
G01 X86.476 Y103.064 Z-1.602
G01 X86.182 Y103.607 Z-1.577
G01 X85.850 Y104.142 Z-1.547
G01 X85.486 Y104.658 Z-1.518
G01 X85.094 Y105.149 Z-1.486
G01 X84.682 Y105.605 Z-1.452
G01 X84.259 Y106.018 Z-1.412
G01 X83.619 Y106.548 Z-1.348
G01 X83.444 Y106.672 Z-1.325
G01 X83.235 Y105.954 Z-1.421
G01 X83.086 Y105.236 Z-1.500
G01 X82.969 Y104.395 Z-1.573
G01 X82.913 Y103.933 Z-1.607
G01 X82.841 Y102.929 Z-1.674
G01 X82.810 Y101.797 Z-1.722
G01 X82.820 Y100.177 Z-1.760
G01 X82.831 Y99.720 Z-1.761
G01 X82.873 Y99.069 Z-1.749
G01 X82.953 Y98.507 Z-1.731
G01 X83.023 Y98.269 Z-1.728
G01 X83.155 Y97.972 Z-1.726
G01 X83.486 Y97.391 Z-1.711
G01 X83.850 Y96.889 Z-1.689
G01 X84.245 Y96.435 Z-1.654
G01 X84.379 Y96.305 Z-1.640
G01 X84.872 Y96.165 Z-1.626
G01 X85.283 Y96.109 Z-1.603
G01 X85.480 Y96.144 Z-1.600
G01 X85.712 Y96.257 Z-1.603
G01 X85.945 Y96.435 Z-1.609
G01 X86.213 Y96.717 Z-1.617
G01 X86.493 Y97.110 Z-1.626
G01 X86.758 Y97.614 Z-1.639
G01 X86.986 Y98.218 Z-1.651
G01 X87.158 Y98.911 Z-1.665
G01 X87.258 Y99.679 Z-1.660
G01 X87.272 Y100.403 Z-1.657
G01 X87.197 Y101.017 Z-1.653
G01 X87.098 Y101.450 Z-1.645
G01 X86.930 Y101.994 Z-1.632
G01 X87.211 Y102.092 Z-1.555
G01 X87.000 Y102.639 Z-1.542
G01 X86.741 Y103.197 Z-1.526
G01 X86.439 Y103.756 Z-1.505
G01 X86.098 Y104.306 Z-1.476
G01 X85.723 Y104.837 Z-1.451
G01 X85.320 Y105.341 Z-1.422
G01 X84.897 Y105.811 Z-1.390
G01 X84.459 Y106.238 Z-1.354
G01 X83.795 Y106.787 Z-1.301
G01 X83.297 Y107.121 Z-1.248
G01 X83.118 Y106.635 Z-1.321
G01 X82.947 Y106.025 Z-1.392
G01 X82.793 Y105.288 Z-1.468
G01 X82.674 Y104.430 Z-1.537
G01 X82.617 Y103.961 Z-1.566
G01 X82.545 Y102.943 Z-1.625
G01 X82.513 Y101.801 Z-1.668
G01 X82.523 Y100.169 Z-1.697
G01 X82.534 Y99.707 Z-1.698
G01 X82.578 Y99.040 Z-1.687
G01 X82.663 Y98.442 Z-1.670
G01 X82.747 Y98.157 Z-1.666
G01 X82.889 Y97.841 Z-1.666
G01 X83.237 Y97.229 Z-1.660
G01 X83.618 Y96.703 Z-1.638
G01 X84.032 Y96.229 Z-1.606
G01 X84.232 Y96.042 Z-1.585
G01 X84.591 Y95.926 Z-1.584
G01 X85.018 Y95.836 Z-1.564
G01 X85.327 Y95.813 Z-1.545
G01 X85.575 Y95.862 Z-1.540
G01 X85.871 Y96.006 Z-1.540
G01 X86.143 Y96.214 Z-1.546
G01 X86.442 Y96.528 Z-1.549
G01 X86.746 Y96.955 Z-1.558
G01 X87.029 Y97.492 Z-1.568
G01 X87.270 Y98.129 Z-1.580
G01 X87.450 Y98.856 Z-1.590
G01 X87.529 Y99.383 Z-1.590
G01 X87.569 Y99.939 Z-1.587
G01 X87.568 Y100.418 Z-1.585
G01 X87.489 Y101.071 Z-1.578
G01 X87.384 Y101.530 Z-1.567
G01 X87.211 Y102.092 Z-1.555
G01 X87.492 Y102.189 Z-1.471
G01 X87.273 Y102.755 Z-1.457
G01 X87.007 Y103.330 Z-1.445
G01 X86.696 Y103.905 Z-1.424
G01 X86.346 Y104.470 Z-1.401
G01 X85.961 Y105.015 Z-1.375
G01 X85.547 Y105.534 Z-1.348
G01 X85.111 Y106.017 Z-1.318
G01 X84.660 Y106.457 Z-1.288
G01 X83.972 Y107.026 Z-1.241
G01 X83.520 Y107.334 Z-1.202
G01 X83.166 Y107.538 Z-1.161
G01 X82.927 Y106.993 Z-1.255
G01 X82.745 Y106.426 Z-1.327
G01 X82.576 Y105.732 Z-1.393
G01 X82.436 Y104.941 Z-1.448
G01 X82.321 Y103.990 Z-1.507
G01 X82.248 Y102.958 Z-1.564
G01 X82.216 Y101.805 Z-1.601
G01 X82.227 Y100.161 Z-1.629
G01 X82.237 Y99.694 Z-1.630
G01 X82.282 Y99.012 Z-1.618
G01 X82.373 Y98.377 Z-1.598
G01 X82.472 Y98.045 Z-1.593
G01 X82.622 Y97.710 Z-1.595
G01 X82.988 Y97.066 Z-1.597
G01 X83.386 Y96.518 Z-1.576
G01 X83.818 Y96.023 Z-1.543
G01 X84.062 Y95.792 Z-1.524
G01 X84.515 Y95.639 Z-1.521
G01 X84.974 Y95.542 Z-1.498
G01 X85.345 Y95.517 Z-1.476
G01 X85.587 Y95.555 Z-1.470
G01 X85.842 Y95.650 Z-1.467
G01 X86.131 Y95.823 Z-1.474
G01 X86.450 Y96.095 Z-1.473
G01 X86.782 Y96.479 Z-1.476
G01 X87.103 Y96.977 Z-1.484
G01 X87.391 Y97.583 Z-1.492
G01 X87.625 Y98.285 Z-1.506
G01 X87.742 Y98.801 Z-1.510
G01 X87.824 Y99.350 Z-1.506
G01 X87.866 Y99.929 Z-1.502
G01 X87.865 Y100.433 Z-1.499
G01 X87.821 Y100.882 Z-1.495
G01 X87.671 Y101.610 Z-1.483
G01 X87.492 Y102.189 Z-1.471
G01 X87.773 Y102.286 Z-1.378
G01 X87.547 Y102.871 Z-1.368
G01 X87.273 Y103.463 Z-1.353
G01 X86.953 Y104.054 Z-1.337
G01 X86.594 Y104.634 Z-1.311
G01 X86.198 Y105.194 Z-1.288
G01 X85.773 Y105.726 Z-1.263
G01 X85.325 Y106.223 Z-1.236
G01 X84.860 Y106.676 Z-1.212
G01 X84.363 Y107.100 Z-1.184
G01 X83.911 Y107.433 Z-1.156
G01 X83.446 Y107.724 Z-1.120
G01 X83.052 Y107.927 Z-1.077
G01 X82.840 Y107.552 Z-1.151
G01 X82.648 Y107.096 Z-1.218
G01 X82.459 Y106.507 Z-1.280
G01 X82.285 Y105.793 Z-1.337
G01 X82.142 Y104.983 Z-1.388
G01 X82.026 Y104.018 Z-1.441
G01 X81.951 Y102.973 Z-1.492
G01 X81.919 Y101.809 Z-1.523
G01 X81.930 Y100.152 Z-1.549
G01 X81.941 Y99.681 Z-1.550
G01 X81.986 Y98.983 Z-1.538
G01 X82.083 Y98.313 Z-1.519
G01 X82.196 Y97.934 Z-1.516
G01 X82.356 Y97.578 Z-1.518
G01 X82.579 Y97.164 Z-1.522
G01 X82.933 Y96.623 Z-1.518
G01 X83.384 Y96.057 Z-1.493
G01 X83.790 Y95.634 Z-1.459
G01 X83.902 Y95.538 Z-1.451
G01 X84.204 Y95.421 Z-1.451
G01 X84.690 Y95.292 Z-1.442
G01 X85.128 Y95.225 Z-1.418
G01 X85.464 Y95.229 Z-1.401
G01 X85.763 Y95.298 Z-1.392
G01 X86.078 Y95.438 Z-1.392
G01 X86.420 Y95.670 Z-1.393
G01 X86.780 Y96.010 Z-1.392
G01 X87.137 Y96.466 Z-1.396
G01 X87.469 Y97.034 Z-1.401
G01 X87.666 Y97.472 Z-1.407
G01 X87.837 Y97.953 Z-1.412
G01 X87.977 Y98.472 Z-1.420
G01 X88.082 Y99.028 Z-1.422
G01 X88.146 Y99.614 Z-1.413
G01 X88.168 Y100.218 Z-1.409
G01 X88.144 Y100.680 Z-1.407
G01 X88.073 Y101.180 Z-1.402
G01 X87.957 Y101.689 Z-1.390
G01 X87.773 Y102.286 Z-1.378
G01 X88.053 Y102.384 Z-1.280
G01 X87.820 Y102.987 Z-1.266
G01 X87.538 Y103.597 Z-1.254
G01 X87.210 Y104.203 Z-1.238
G01 X86.841 Y104.798 Z-1.214
G01 X86.436 Y105.372 Z-1.191
G01 X86.000 Y105.918 Z-1.169
G01 X85.539 Y106.429 Z-1.143
G01 X85.060 Y106.896 Z-1.122
G01 X84.550 Y107.331 Z-1.098
G01 X84.078 Y107.679 Z-1.073
G01 X83.592 Y107.982 Z-1.046
G01 X83.138 Y108.216 Z-1.005
G01 X82.955 Y108.287 Z-0.988
G01 X82.762 Y108.029 Z-1.045
G01 X82.572 Y107.681 Z-1.105
G01 X82.369 Y107.199 Z-1.168
G01 X82.173 Y106.587 Z-1.224
G01 X81.995 Y105.854 Z-1.271
G01 X81.848 Y105.024 Z-1.316
G01 X81.730 Y104.046 Z-1.368
G01 X81.654 Y102.987 Z-1.414
G01 X81.622 Y101.813 Z-1.439
G01 X81.633 Y100.144 Z-1.463
G01 X81.644 Y99.668 Z-1.464
G01 X81.690 Y98.954 Z-1.453
G01 X81.793 Y98.248 Z-1.433
G01 X81.921 Y97.822 Z-1.427
G01 X82.089 Y97.447 Z-1.432
G01 X82.322 Y97.015 Z-1.440
G01 X82.692 Y96.448 Z-1.439
G01 X83.160 Y95.862 Z-1.416
G01 X83.589 Y95.415 Z-1.382
G01 X83.769 Y95.271 Z-1.372
G01 X84.112 Y95.138 Z-1.375
G01 X84.629 Y95.001 Z-1.368
G01 X85.103 Y94.929 Z-1.343
G01 X85.380 Y94.923 Z-1.326
G01 X85.738 Y94.981 Z-1.311
G01 X86.098 Y95.114 Z-1.306
G01 X86.477 Y95.340 Z-1.306
G01 X86.869 Y95.674 Z-1.301
G01 X87.257 Y96.123 Z-1.301
G01 X87.505 Y96.487 Z-1.302
G01 X87.735 Y96.901 Z-1.305
G01 X87.942 Y97.361 Z-1.309
G01 X88.121 Y97.864 Z-1.317
G01 X88.267 Y98.406 Z-1.321
G01 X88.375 Y98.984 Z-1.321
G01 X88.443 Y99.593 Z-1.314
G01 X88.465 Y100.220 Z-1.309
G01 X88.440 Y100.709 Z-1.306
G01 X88.365 Y101.234 Z-1.298
G01 X88.243 Y101.769 Z-1.288
G01 X88.053 Y102.384 Z-1.280
G01 X88.334 Y102.481 Z-1.167
G01 X88.094 Y103.103 Z-1.156
G01 X87.804 Y103.730 Z-1.140
G01 X87.468 Y104.352 Z-1.127
G01 X87.089 Y104.962 Z-1.106
G01 X86.674 Y105.551 Z-1.087
G01 X86.226 Y106.111 Z-1.066
G01 X85.753 Y106.635 Z-1.043
G01 X85.261 Y107.115 Z-1.026
G01 X84.737 Y107.562 Z-1.004
G01 X84.245 Y107.924 Z-0.983
G01 X83.739 Y108.241 Z-0.959
G01 X83.259 Y108.487 Z-0.932
G01 X82.932 Y108.600 Z-0.903
G01 X82.855 Y108.598 Z-0.905
G01 X82.689 Y108.436 Z-0.941
G01 X82.511 Y108.188 Z-0.990
G01 X82.304 Y107.810 Z-1.056
G01 X82.091 Y107.302 Z-1.106
G01 X81.887 Y106.668 Z-1.154
G01 X81.704 Y105.914 Z-1.200
G01 X81.554 Y105.066 Z-1.237
G01 X81.434 Y104.075 Z-1.282
G01 X81.358 Y103.002 Z-1.325
G01 X81.325 Y101.818 Z-1.347
G01 X81.336 Y100.136 Z-1.369
G01 X81.371 Y99.290 Z-1.371
G01 X81.395 Y98.925 Z-1.357
G01 X81.503 Y98.183 Z-1.334
G01 X81.646 Y97.710 Z-1.331
G01 X81.822 Y97.315 Z-1.341
G01 X82.064 Y96.867 Z-1.349
G01 X82.452 Y96.274 Z-1.355
G01 X82.936 Y95.666 Z-1.332
G01 X83.388 Y95.196 Z-1.298
G01 X83.587 Y95.032 Z-1.285
G01 X83.794 Y94.937 Z-1.287
G01 X84.286 Y94.777 Z-1.296
G01 X84.841 Y94.661 Z-1.273
G01 X85.266 Y94.623 Z-1.247
G01 X85.677 Y94.662 Z-1.228
G01 X86.088 Y94.785 Z-1.218
G01 X86.508 Y95.002 Z-1.214
G01 X86.936 Y95.328 Z-1.204
G01 X87.219 Y95.610 Z-1.203
G01 X87.495 Y95.945 Z-1.198
G01 X87.758 Y96.332 Z-1.198
G01 X88.000 Y96.768 Z-1.201
G01 X88.217 Y97.250 Z-1.204
G01 X88.404 Y97.776 Z-1.207
G01 X88.556 Y98.340 Z-1.215
G01 X88.669 Y98.940 Z-1.212
G01 X88.739 Y99.571 Z-1.203
G01 X88.762 Y100.221 Z-1.198
G01 X88.736 Y100.738 Z-1.195
G01 X88.657 Y101.288 Z-1.188
G01 X88.529 Y101.849 Z-1.180
G01 X88.334 Y102.481 Z-1.167
G01 X88.615 Y102.579 Z-1.046
G01 X88.368 Y103.219 Z-1.032
G01 X88.070 Y103.863 Z-1.018
G01 X87.725 Y104.501 Z-0.999
G01 X87.337 Y105.126 Z-0.980
G01 X86.911 Y105.729 Z-0.965
G01 X86.453 Y106.303 Z-0.950
G01 X85.967 Y106.841 Z-0.930
G01 X85.461 Y107.335 Z-0.916
G01 X84.924 Y107.793 Z-0.899
G01 X84.413 Y108.170 Z-0.882
G01 X83.886 Y108.499 Z-0.865
G01 X83.381 Y108.758 Z-0.840
G01 X83.087 Y108.868 Z-0.824
G01 X82.860 Y108.905 Z-0.817
G01 X82.727 Y108.868 Z-0.825
G01 X82.548 Y108.723 Z-0.857
G01 X82.364 Y108.502 Z-0.905
G01 X82.149 Y108.158 Z-0.960
G01 X81.923 Y107.687 Z-1.012
G01 X81.704 Y107.091 Z-1.057
G01 X81.503 Y106.376 Z-1.093
G01 X81.331 Y105.547 Z-1.132
G01 X81.199 Y104.605 Z-1.176
G01 X81.138 Y104.103 Z-1.190
G01 X81.061 Y103.017 Z-1.223
G01 X81.028 Y101.822 Z-1.243
G01 X81.039 Y100.127 Z-1.262
G01 X81.075 Y99.269 Z-1.265
G01 X81.099 Y98.896 Z-1.252
G01 X81.213 Y98.119 Z-1.230
G01 X81.370 Y97.599 Z-1.227
G01 X81.556 Y97.184 Z-1.236
G01 X81.807 Y96.719 Z-1.250
G01 X82.211 Y96.099 Z-1.257
G01 X82.713 Y95.470 Z-1.236
G01 X83.186 Y94.978 Z-1.204
G01 X83.429 Y94.780 Z-1.194
G01 X83.684 Y94.660 Z-1.195
G01 X84.210 Y94.490 Z-1.205
G01 X84.797 Y94.367 Z-1.188
G01 X85.262 Y94.326 Z-1.159
G01 X85.576 Y94.345 Z-1.144
G01 X85.889 Y94.406 Z-1.129
G01 X86.200 Y94.510 Z-1.117
G01 X86.511 Y94.659 Z-1.114
G01 X86.823 Y94.857 Z-1.104
G01 X87.134 Y95.107 Z-1.101
G01 X87.439 Y95.410 Z-1.090
G01 X87.733 Y95.767 Z-1.086
G01 X88.011 Y96.176 Z-1.086
G01 X88.266 Y96.634 Z-1.087
G01 X88.493 Y97.139 Z-1.090
G01 X88.688 Y97.687 Z-1.093
G01 X88.846 Y98.274 Z-1.095
G01 X88.963 Y98.896 Z-1.092
G01 X89.035 Y99.550 Z-1.084
G01 X89.059 Y100.223 Z-1.080
G01 X89.031 Y100.767 Z-1.078
G01 X88.949 Y101.343 Z-1.069
G01 X88.816 Y101.929 Z-1.057
G01 X88.615 Y102.579 Z-1.046
G01 X88.896 Y102.676 Z-0.912
G01 X88.641 Y103.335 Z-0.896
G01 X88.335 Y103.996 Z-0.878
G01 X87.982 Y104.650 Z-0.857
G01 X87.585 Y105.290 Z-0.837
G01 X87.149 Y105.908 Z-0.824
G01 X86.679 Y106.496 Z-0.812
G01 X86.181 Y107.047 Z-0.798
G01 X85.661 Y107.554 Z-0.793
G01 X85.111 Y108.024 Z-0.778
G01 X84.580 Y108.416 Z-0.766
G01 X84.033 Y108.757 Z-0.750
G01 X83.502 Y109.029 Z-0.734
G01 X83.168 Y109.154 Z-0.721
G01 X82.940 Y109.199 Z-0.718
G01 X82.738 Y109.190 Z-0.722
G01 X82.578 Y109.126 Z-0.737
G01 X82.336 Y108.931 Z-0.789
G01 X82.124 Y108.676 Z-0.834
G01 X81.889 Y108.301 Z-0.881
G01 X81.650 Y107.803 Z-0.931
G01 X81.421 Y107.183 Z-0.967
G01 X81.215 Y106.446 Z-1.005
G01 X81.038 Y105.599 Z-1.034
G01 X80.965 Y105.149 Z-1.049
G01 X80.843 Y104.131 Z-1.086
G01 X80.764 Y103.031 Z-1.116
G01 X80.731 Y101.421 Z-1.137
G01 X80.742 Y100.119 Z-1.150
G01 X80.778 Y99.248 Z-1.154
G01 X80.803 Y98.867 Z-1.141
G01 X80.881 Y98.266 Z-1.120
G01 X80.975 Y97.847 Z-1.111
G01 X81.095 Y97.487 Z-1.112
G01 X81.289 Y97.053 Z-1.127
G01 X81.550 Y96.570 Z-1.138
G01 X81.743 Y96.255 Z-1.149
G01 X82.224 Y95.592 Z-1.144
G01 X82.749 Y94.991 Z-1.117
G01 X83.168 Y94.601 Z-1.092
G01 X83.377 Y94.470 Z-1.090
G01 X83.836 Y94.291 Z-1.106
G01 X84.447 Y94.129 Z-1.106
G01 X85.027 Y94.040 Z-1.076
G01 X85.433 Y94.033 Z-1.050
G01 X85.790 Y94.078 Z-1.030
G01 X86.139 Y94.170 Z-1.016
G01 X86.483 Y94.310 Z-1.009
G01 X86.826 Y94.501 Z-0.995
G01 X87.165 Y94.744 Z-0.984
G01 X87.497 Y95.041 Z-0.976
G01 X87.817 Y95.393 Z-0.966
G01 X88.120 Y95.798 Z-0.965
G01 X88.401 Y96.255 Z-0.959
G01 X88.654 Y96.759 Z-0.962
G01 X88.875 Y97.308 Z-0.963
G01 X89.059 Y97.899 Z-0.969
G01 X89.202 Y98.526 Z-0.960
G01 X89.300 Y99.187 Z-0.953
G01 X89.350 Y99.876 Z-0.942
G01 X89.349 Y100.509 Z-0.940
G01 X89.291 Y101.092 Z-0.942
G01 X89.176 Y101.709 Z-0.930
G01 X89.102 Y102.008 Z-0.927
G01 X88.896 Y102.676 Z-0.912
G01 X89.177 Y102.773 Z-0.765
G01 X88.915 Y103.451 Z-0.747
G01 X88.601 Y104.129 Z-0.720
G01 X88.239 Y104.799 Z-0.697
G01 X87.832 Y105.454 Z-0.683
G01 X87.386 Y106.086 Z-0.669
G01 X86.906 Y106.688 Z-0.657
G01 X86.396 Y107.253 Z-0.644
G01 X85.862 Y107.774 Z-0.643
G01 X85.298 Y108.255 Z-0.641
G01 X84.747 Y108.661 Z-0.634
G01 X84.179 Y109.016 Z-0.624
G01 X83.624 Y109.300 Z-0.603
G01 X83.248 Y109.441 Z-0.593
G01 X82.967 Y109.495 Z-0.603
G01 X82.761 Y109.494 Z-0.610
G01 X82.514 Y109.427 Z-0.631
G01 X82.336 Y109.323 Z-0.664
G01 X82.124 Y109.139 Z-0.699
G01 X81.883 Y108.851 Z-0.755
G01 X81.628 Y108.445 Z-0.793
G01 X81.376 Y107.918 Z-0.833
G01 X81.139 Y107.274 Z-0.871
G01 X80.926 Y106.516 Z-0.898
G01 X80.746 Y105.650 Z-0.929
G01 X80.671 Y105.190 Z-0.940
G01 X80.547 Y104.160 Z-0.965
G01 X80.467 Y103.046 Z-0.991
G01 X80.434 Y101.422 Z-1.009
G01 X80.445 Y100.111 Z-1.021
G01 X80.482 Y99.227 Z-1.027
G01 X80.507 Y98.838 Z-1.014
G01 X80.588 Y98.218 Z-0.992
G01 X80.689 Y97.767 Z-0.985
G01 X80.819 Y97.375 Z-0.991
G01 X81.023 Y96.921 Z-1.002
G01 X81.292 Y96.422 Z-1.022
G01 X81.494 Y96.093 Z-1.026
G01 X81.992 Y95.407 Z-1.031
G01 X82.535 Y94.785 Z-1.009
G01 X82.985 Y94.367 Z-0.983
G01 X83.246 Y94.203 Z-0.979
G01 X83.744 Y94.008 Z-0.995
G01 X84.386 Y93.838 Z-1.003
G01 X85.002 Y93.744 Z-0.968
G01 X85.451 Y93.737 Z-0.939
G01 X85.847 Y93.787 Z-0.918
G01 X86.233 Y93.888 Z-0.901
G01 X86.612 Y94.042 Z-0.884
G01 X86.985 Y94.250 Z-0.869
G01 X87.351 Y94.512 Z-0.853
G01 X87.706 Y94.830 Z-0.840
G01 X88.046 Y95.204 Z-0.830
G01 X88.366 Y95.631 Z-0.823
G01 X88.660 Y96.110 Z-0.815
G01 X88.925 Y96.637 Z-0.817
G01 X89.155 Y97.209 Z-0.818
G01 X89.346 Y97.822 Z-0.822
G01 X89.494 Y98.471 Z-0.806
G01 X89.595 Y99.154 Z-0.801
G01 X89.647 Y99.866 Z-0.790
G01 X89.645 Y100.524 Z-0.788
G01 X89.585 Y101.134 Z-0.788
G01 X89.466 Y101.775 Z-0.779
G01 X89.388 Y102.088 Z-0.776
G01 X89.177 Y102.773 Z-0.765
G01 X89.457 Y102.871 Z-0.600
G01 X89.188 Y103.567 Z-0.575
G01 X88.867 Y104.262 Z-0.551
G01 X88.496 Y104.948 Z-0.531
G01 X88.288 Y105.283 Z-0.519
G01 X88.080 Y105.618 Z-0.559
G01 X87.852 Y105.941 Z-0.508
G01 X87.624 Y106.265 Z-0.495
G01 X87.132 Y106.880 Z-0.486
G01 X86.871 Y107.170 Z-0.483
G01 X86.610 Y107.459 Z-0.509
G01 X86.336 Y107.726 Z-0.477
G01 X86.062 Y107.993 Z-0.503
G01 X85.773 Y108.240 Z-0.478
G01 X85.485 Y108.486 Z-0.477
G01 X84.914 Y108.907 Z-0.484
G01 X84.326 Y109.274 Z-0.465
G01 X83.745 Y109.572 Z-0.449
G01 X83.328 Y109.727 Z-0.436
G01 X82.995 Y109.791 Z-0.449
G01 X82.729 Y109.790 Z-0.466
G01 X82.502 Y109.741 Z-0.500
G01 X82.280 Y109.641 Z-0.530
G01 X82.040 Y109.468 Z-0.574
G01 X81.778 Y109.200 Z-0.632
G01 X81.505 Y108.821 Z-0.670
G01 X81.233 Y108.325 Z-0.708
G01 X80.976 Y107.713 Z-0.745
G01 X80.743 Y106.989 Z-0.773
G01 X80.541 Y106.157 Z-0.790
G01 X80.377 Y105.232 Z-0.807
G01 X80.251 Y104.188 Z-0.823
G01 X80.171 Y103.061 Z-0.849
G01 X80.137 Y101.834 Z-0.865
G01 X80.148 Y100.103 Z-0.878
G01 X80.186 Y99.206 Z-0.885
G01 X80.212 Y98.809 Z-0.872
G01 X80.295 Y98.170 Z-0.851
G01 X80.402 Y97.688 Z-0.845
G01 X80.544 Y97.264 Z-0.851
G01 X80.756 Y96.790 Z-0.870
G01 X81.035 Y96.273 Z-0.882
G01 X81.245 Y95.931 Z-0.887
G01 X81.490 Y95.576 Z-0.892
G01 X82.042 Y94.884 Z-0.888
G01 X82.322 Y94.578 Z-0.878
G01 X82.583 Y94.322 Z-0.868
G01 X82.802 Y94.133 Z-0.854
G01 X82.956 Y94.023 Z-0.853
G01 X83.356 Y93.832 Z-0.867
G01 X83.981 Y93.629 Z-0.885
G01 X84.664 Y93.486 Z-0.868
G01 X84.977 Y93.448 Z-0.850
G01 X85.469 Y93.440 Z-0.818
G01 X85.904 Y93.495 Z-0.789
G01 X86.327 Y93.607 Z-0.767
G01 X86.740 Y93.774 Z-0.739
G01 X87.144 Y93.999 Z-0.723
G01 X87.537 Y94.281 Z-0.705
G01 X87.916 Y94.620 Z-0.687
G01 X88.275 Y95.015 Z-0.672
G01 X88.612 Y95.464 Z-0.660
G01 X88.920 Y95.966 Z-0.657
G01 X89.196 Y96.515 Z-0.653
G01 X89.435 Y97.109 Z-0.657
G01 X89.632 Y97.744 Z-0.661
G01 X89.786 Y98.416 Z-0.645
G01 X89.891 Y99.121 Z-0.634
G01 X89.944 Y99.855 Z-0.622
G01 X89.942 Y100.539 Z-0.620
G01 X89.879 Y101.176 Z-0.621
G01 X89.756 Y101.841 Z-0.615
G01 X89.566 Y102.519 Z-0.608
G01 X89.457 Y102.871 Z-0.600
G01 X89.738 Y102.968 Z-0.418
G01 X89.462 Y103.683 Z-0.429
G01 X89.297 Y104.039 Z-0.383
G01 X89.132 Y104.395 Z-0.404
G01 X88.753 Y105.097 Z-0.399
G01 X88.328 Y105.782 Z-0.387
G01 X88.095 Y106.113 Z-0.381
G01 X87.861 Y106.443 Z-0.310
G01 X87.610 Y106.758 Z-0.362
G01 X87.359 Y107.073 Z-0.376
G01 X87.091 Y107.369 Z-0.345
G01 X86.824 Y107.665 Z-0.375
G01 X86.543 Y107.939 Z-0.339
G01 X86.262 Y108.213 Z-0.331
G01 X85.967 Y108.465 Z-0.388
G01 X85.671 Y108.717 Z-0.322
G01 X85.376 Y108.935 Z-0.331
G01 X85.081 Y109.153 Z-0.400
G01 X84.473 Y109.532 Z-0.289
G01 X83.867 Y109.843 Z-0.310
G01 X83.408 Y110.013 Z-0.258
G01 X83.023 Y110.087 Z-0.318
G01 X82.697 Y110.086 Z-0.327
G01 X82.409 Y110.024 Z-0.349
G01 X82.131 Y109.898 Z-0.390
G01 X81.846 Y109.693 Z-0.461
G01 X81.551 Y109.391 Z-0.517
G01 X81.253 Y108.979 Z-0.556
G01 X80.966 Y108.454 Z-0.581
G01 X80.697 Y107.816 Z-0.610
G01 X80.577 Y107.443 Z-0.636
G01 X80.457 Y107.070 Z-0.640
G01 X80.250 Y106.218 Z-0.646
G01 X80.083 Y105.273 Z-0.659
G01 X79.955 Y104.216 Z-0.668
G01 X79.874 Y103.075 Z-0.691
G01 X79.840 Y101.838 Z-0.705
G01 X79.851 Y100.094 Z-0.717
G01 X79.889 Y99.185 Z-0.726
G01 X79.916 Y98.781 Z-0.713
G01 X80.002 Y98.122 Z-0.692
G01 X80.116 Y97.608 Z-0.688
G01 X80.268 Y97.152 Z-0.694
G01 X80.489 Y96.658 Z-0.715
G01 X80.777 Y96.125 Z-0.727
G01 X80.996 Y95.769 Z-0.737
G01 X81.249 Y95.402 Z-0.740
G01 X81.528 Y95.037 Z-0.741
G01 X81.818 Y94.688 Z-0.740
G01 X82.108 Y94.372 Z-0.732
G01 X82.381 Y94.103 Z-0.724
G01 X82.618 Y93.899 Z-0.719
G01 X82.798 Y93.771 Z-0.716
G01 X82.985 Y93.669 Z-0.722
G01 X83.246 Y93.555 Z-0.729
G01 X83.905 Y93.341 Z-0.739
G01 X84.620 Y93.192 Z-0.729
G01 X84.952 Y93.152 Z-0.714
G01 X85.486 Y93.143 Z-0.673
G01 X85.960 Y93.203 Z-0.635
G01 X86.421 Y93.325 Z-0.604
G01 X86.868 Y93.506 Z-0.582
G01 X87.303 Y93.748 Z-0.563
G01 X87.723 Y94.049 Z-0.533
G01 X88.125 Y94.409 Z-0.513
G01 X88.504 Y94.826 Z-0.502
G01 X88.857 Y95.298 Z-0.491
G01 X89.179 Y95.821 Z-0.479
G01 X89.466 Y96.393 Z-0.478
G01 X89.714 Y97.010 Z-0.479
G01 X89.919 Y97.667 Z-0.483
G01 X90.078 Y98.361 Z-0.466
G01 X90.186 Y99.088 Z-0.458
G01 X90.213 Y99.467 Z-0.496
G01 X90.241 Y99.845 Z-0.486
G01 X90.239 Y100.554 Z-0.482
G01 X90.174 Y101.218 Z-0.443
G01 X90.045 Y101.907 Z-0.430
G01 X89.961 Y102.247 Z-0.425
G01 X89.849 Y102.608 Z-0.440
G01 X89.738 Y102.968 Z-0.418
G01 X90.019 Y103.066 Z-0.309
G01 X89.877 Y103.432 Z-0.253
G01 X89.736 Y103.799 Z-0.378
G01 X89.398 Y104.528 Z-0.373
G01 X89.204 Y104.887 Z-0.242
G01 X89.010 Y105.247 Z-0.215
G01 X88.793 Y105.596 Z-0.374
G01 X88.576 Y105.946 Z-0.368
G01 X88.099 Y106.622 Z-0.337
G01 X87.842 Y106.943 Z-0.377
G01 X87.585 Y107.265 Z-0.309
G01 X87.312 Y107.568 Z-0.372
G01 X87.038 Y107.871 Z-0.289
G01 X86.750 Y108.152 Z-0.364
G01 X86.463 Y108.432 Z-0.361
G01 X86.161 Y108.690 Z-0.260
G01 X85.858 Y108.948 Z-0.354
G01 X85.553 Y109.173 Z-0.218
G01 X85.248 Y109.398 Z0.000
G01 X84.934 Y109.594 Z-0.270
G01 X84.619 Y109.791 Z-0.203
G01 X83.988 Y110.114 Z-0.245
G01 X83.729 Y110.221 Z-0.156
G01 X83.489 Y110.299 Z-0.150
G01 X83.263 Y110.353 Z-0.134
G01 X82.852 Y110.392 Z-0.278
G01 X82.487 Y110.353 Z-0.220
G01 X82.148 Y110.241 Z-0.222
G01 X81.817 Y110.049 Z-0.311
G01 X81.487 Y109.763 Z-0.343
G01 X81.161 Y109.373 Z-0.374
G01 X80.847 Y108.874 Z-0.429
G01 X80.555 Y108.264 Z-0.433
G01 X80.423 Y107.906 Z-0.476
G01 X80.290 Y107.548 Z-0.485
G01 X80.060 Y106.727 Z-0.486
G01 X79.868 Y105.806 Z-0.480
G01 X79.789 Y105.315 Z-0.484
G01 X79.660 Y104.245 Z-0.499
G01 X79.577 Y103.090 Z-0.523
G01 X79.554 Y102.258 Z-0.539
G01 X79.543 Y100.596 Z-0.539
G01 X79.566 Y99.576 Z-0.553
G01 X79.620 Y98.752 Z-0.546
G01 X79.708 Y98.074 Z-0.517
G01 X79.830 Y97.529 Z-0.509
G01 X79.993 Y97.040 Z-0.521
G01 X80.223 Y96.527 Z-0.542
G01 X80.520 Y95.977 Z-0.559
G01 X80.747 Y95.606 Z-0.566
G01 X81.009 Y95.227 Z-0.575
G01 X81.295 Y94.851 Z-0.580
G01 X81.594 Y94.493 Z-0.572
G01 X81.894 Y94.166 Z-0.568
G01 X82.180 Y93.884 Z-0.561
G01 X82.435 Y93.665 Z-0.554
G01 X82.640 Y93.519 Z-0.556
G01 X82.854 Y93.402 Z-0.560
G01 X83.137 Y93.279 Z-0.566
G01 X83.468 Y93.161 Z-0.579
G01 X83.829 Y93.054 Z-0.579
G01 X84.204 Y92.965 Z-0.574
G01 X84.575 Y92.898 Z-0.567
G01 X84.927 Y92.856 Z-0.557
G01 X85.245 Y92.840 Z-0.529
G01 X85.762 Y92.871 Z-0.483
G01 X86.268 Y92.969 Z-0.446
G01 X86.758 Y93.133 Z-0.421
G01 X87.232 Y93.360 Z-0.390
G01 X87.688 Y93.649 Z-0.374
G01 X88.125 Y94.000 Z-0.413
G01 X88.537 Y94.410 Z-0.363
G01 X88.922 Y94.877 Z-0.348
G01 X89.276 Y95.397 Z-0.413
G01 X89.593 Y95.968 Z-0.339
G01 X89.871 Y96.585 Z-0.332
G01 X90.106 Y97.245 Z-0.300
G01 X90.294 Y97.944 Z-0.298
G01 X90.363 Y98.310 Z-0.337
G01 X90.432 Y98.677 Z-0.327
G01 X90.517 Y99.442 Z-0.345
G01 X90.531 Y99.836 Z-0.350
G01 X90.544 Y100.230 Z-0.430
G01 X90.510 Y100.911 Z-0.364
G01 X90.409 Y101.614 Z-0.289
G01 X90.247 Y102.327 Z-0.268
G01 X90.133 Y102.696 Z-0.332
G01 X90.019 Y103.066 Z-0.309
G01 X90.300 Y103.163 Z-0.294
G01 X90.154 Y103.539 Z-0.290
G01 X90.009 Y103.915 Z0.000
G01 X89.836 Y104.288 Z-0.269
G01 X89.664 Y104.662 Z0.000
G01 X89.465 Y105.029 Z-0.255
G01 X89.267 Y105.396 Z-0.237
G01 X89.045 Y105.753 Z0.000
G01 X88.823 Y106.111 
G01 X88.580 Y106.455 
G01 X88.337 Y106.800 Z-0.206
G01 X88.074 Y107.129 Z0.000
G01 X87.811 Y107.458 
G01 X87.532 Y107.767 Z-0.196
G01 X87.252 Y108.077 Z0.000
G01 X86.958 Y108.364 Z-0.191
G01 X86.663 Y108.652 Z0.000
G01 X86.354 Y108.915 
G01 X86.045 Y109.179 Z-0.178
G01 X85.730 Y109.412 Z0.000
G01 X85.415 Y109.644 
G01 X84.766 Y110.049 
G01 X84.438 Y110.217 Z-0.170
G01 X84.110 Y110.385 Z0.000
G01 X83.832 Y110.500 
G01 X83.569 Y110.586 Z-0.151
G01 X83.318 Y110.645 Z-0.157
G01 X83.079 Y110.679 Z-0.122
G01 X82.851 Y110.689 Z-0.154
G01 X82.633 Y110.677 Z-0.187
G01 X82.424 Y110.643 Z-0.203
G01 X82.222 Y110.588 Z-0.228
G01 X82.026 Y110.512 Z-0.250
G01 X81.833 Y110.413 Z-0.283
G01 X81.644 Y110.290 Z-0.220
G01 X81.458 Y110.144 Z-0.322
G01 X81.274 Y109.971 Z-0.196
G01 X81.095 Y109.773 Z-0.234
G01 X80.750 Y109.296 Z-0.253
G01 X80.430 Y108.712 Z-0.343
G01 X80.285 Y108.367 Z-0.298
G01 X80.140 Y108.022 Z-0.393
G01 X80.012 Y107.626 Z-0.332
G01 X79.885 Y107.230 Z-0.330
G01 X79.777 Y106.785 Z-0.345
G01 X79.668 Y106.339 Z-0.295
G01 X79.494 Y105.356 Z-0.329
G01 X79.429 Y104.815 Z-0.363
G01 X79.364 Y104.273 Z-0.367
G01 X79.322 Y103.689 Z-0.397
G01 X79.281 Y103.105 Z-0.332
G01 X79.257 Y102.266 Z-0.350
G01 X79.245 Y100.593 Z-0.349
G01 X79.270 Y99.563 Z-0.363
G01 X79.297 Y99.143 Z-0.367
G01 X79.324 Y98.723 Z-0.462
G01 X79.415 Y98.026 Z-0.369
G01 X79.543 Y97.450 Z-0.346
G01 X79.717 Y96.929 Z-0.333
G01 X79.956 Y96.396 Z-0.361
G01 X80.262 Y95.828 Z-0.445
G01 X80.498 Y95.444 Z-0.385
G01 X80.768 Y95.053 Z-0.450
G01 X81.063 Y94.666 Z-0.461
G01 X81.371 Y94.297 Z-0.441
G01 X81.680 Y93.959 Z-0.384
G01 X81.979 Y93.666 Z-0.414
G01 X82.251 Y93.431 Z-0.399
G01 X82.482 Y93.267 Z-0.380
G01 X82.724 Y93.135 Z-0.403
G01 X83.027 Y93.003 Z-0.420
G01 X83.376 Y92.878 Z-0.440
G01 X83.753 Y92.767 Z-0.401
G01 X84.143 Y92.674 Z-0.403
G01 X84.531 Y92.604 Z-0.433
G01 X84.901 Y92.560 Z-0.406
G01 X85.241 Y92.543 Z-0.379
G01 X85.800 Y92.576 Z-0.337
G01 X86.343 Y92.682 Z-0.304
G01 X86.869 Y92.857 Z-0.279
G01 X87.376 Y93.100 Z-0.256
G01 X87.862 Y93.408 Z-0.242
G01 X88.323 Y93.779 Z-0.325
G01 X88.757 Y94.210 Z-0.393
G01 X89.160 Y94.699 Z-0.384
G01 X89.529 Y95.242 Z0.000
G01 X89.859 Y95.835 Z-0.203
G01 X90.147 Y96.474 Z-0.271
G01 X90.390 Y97.156 Z-0.166
G01 X90.487 Y97.517 Z-0.342
G01 X90.584 Y97.878 Z-0.305
G01 X90.655 Y98.255 Z-0.300
G01 X90.726 Y98.633 Z-0.323
G01 X90.813 Y99.420 Z-0.339
G01 X90.842 Y100.231 Z-0.336
G01 X90.805 Y100.940 Z-0.335
G01 X90.753 Y101.305 Z-0.325
G01 X90.701 Y101.669 Z-0.291
G01 X90.617 Y102.038 Z-0.168
G01 X90.533 Y102.407 Z-0.189
G01 X90.416 Y102.785 Z-0.190
G01 X90.300 Y103.163 Z-0.294
G01 X90.580 Y103.261 Z0.000
G01 X90.283 Y104.031 
G01 X89.929 Y104.795 
G01 X89.524 Y105.545 
G01 X89.071 Y106.275 
G01 X88.574 Y106.979 
G01 X88.038 Y107.650 
G01 X87.466 Y108.283 
G01 X86.864 Y108.871 
G01 X86.232 Y109.410 
G01 X85.582 Y109.889 
G01 X84.913 Y110.307 
G01 X84.231 Y110.656 
G01 X83.935 Y110.779 
G01 X83.649 Y110.872 
G01 X83.373 Y110.937 
G01 X83.106 Y110.975 
G01 X82.849 Y110.987 
G01 X82.601 Y110.973 
G01 X82.361 Y110.934 
G01 X82.129 Y110.871 
G01 X81.903 Y110.783 Z-0.095
G01 X81.684 Y110.670 Z0.000
G01 X81.471 Y110.532 
G01 X81.263 Y110.369 
G01 X81.062 Y110.179 Z-0.208
G01 X80.867 Y109.964 Z-0.236
G01 X80.679 Y109.722 Z-0.258
G01 X80.499 Y109.454 Z-0.279
G01 X80.162 Y108.840 Z-0.306
G01 X79.861 Y108.125 Z-0.338
G01 X79.730 Y107.718 Z-0.351
G01 X79.599 Y107.311 Z-0.294
G01 X79.488 Y106.855 Z-0.276
G01 X79.378 Y106.400 Z-0.162
G01 X79.289 Y105.899 Z-0.168
G01 X79.200 Y105.398 Z-0.329
G01 X79.068 Y104.301 Z-0.369
G01 X79.026 Y103.710 Z-0.265
G01 X78.984 Y103.119 Z-0.197
G01 X78.960 Y102.274 Z-0.213
G01 X78.948 Y100.589 Z-0.211
G01 X78.973 Y99.550 Z-0.223
G01 X79.001 Y99.122 Z-0.223
G01 X79.028 Y98.694 Z-0.271
G01 X79.122 Y97.978 Z-0.380
G01 X79.257 Y97.370 Z-0.241
G01 X79.442 Y96.817 Z-0.289
G01 X79.690 Y96.264 Z-0.251
G01 X80.005 Y95.680 Z-0.371
G01 X80.249 Y95.282 Z-0.267
G01 X80.528 Y94.878 Z-0.426
G01 X80.831 Y94.481 Z-0.287
G01 X81.147 Y94.102 Z-0.256
G01 X81.466 Y93.753 Z-0.286
G01 X81.778 Y93.447 Z-0.317
G01 X82.068 Y93.197 Z-0.371
G01 X82.324 Y93.014 Z-0.298
G01 X82.593 Y92.868 Z-0.226
G01 X82.917 Y92.726 Z-0.348
G01 X83.284 Y92.595 Z-0.292
G01 X83.676 Y92.480 Z-0.268
G01 X84.082 Y92.384 Z-0.280
G01 X84.487 Y92.310 Z-0.389
G01 X84.876 Y92.263 Z-0.349
G01 X85.238 Y92.246 Z-0.308
G01 X85.539 Y92.253 Z-0.269
G01 X86.131 Y92.328 Z-0.202
G01 X86.703 Y92.479 Z-0.228
G01 X87.253 Y92.702 Z-0.290
G01 X87.781 Y92.995 Z-0.227
G01 X88.282 Y93.354 Z0.000
G01 X88.753 Y93.776 
G01 X89.192 Y94.258 
G01 X89.595 Y94.797 
G01 X89.958 Y95.387 Z-0.191
G01 X90.279 Y96.027 Z-0.180
G01 X90.416 Y96.369 Z-0.186
G01 X90.554 Y96.711 Z0.000
G01 X90.667 Y97.073 
G01 X90.780 Y97.435 Z-0.170
G01 X90.953 Y98.196 Z-0.170
G01 X91.013 Y98.593 Z0.000
G01 X91.072 Y98.990 
G01 X91.132 Y99.813 
G01 X91.129 Y100.599 
G01 X91.056 Y101.344 
G01 X90.985 Y101.725 
G01 X90.914 Y102.105 Z-0.132
G01 X90.819 Y102.486 Z-0.120
G01 X90.700 Y102.873 Z0.000
G01 X90.580 Y103.261 
G01 X90.861 Y103.358 
G01 X90.556 Y104.147 
G01 X90.195 Y104.928 
G01 X89.781 Y105.694 
G01 X89.319 Y106.439 
G01 X88.812 Y107.157 
G01 X88.264 Y107.842 
G01 X87.680 Y108.489 
G01 X87.064 Y109.091 
G01 X86.419 Y109.641 
G01 X85.749 Y110.135 
G01 X85.059 Y110.566 
G01 X84.353 Y110.927 
G01 X84.038 Y111.058 
G01 X83.729 Y111.158 
G01 X83.428 Y111.229 
G01 X83.134 Y111.271 
G01 X82.848 Y111.284 
G01 X82.569 Y111.269 
G01 X82.298 Y111.225 
G01 X82.036 Y111.153 
G01 X81.781 Y111.054 
G01 X81.535 Y110.928 
G01 X81.298 Y110.774 
G01 X81.069 Y110.594 
G01 X80.850 Y110.387 
G01 X80.640 Y110.155 
G01 X80.439 Y109.896 
G01 X80.248 Y109.612 
G01 X80.066 Y109.303 
G01 X79.733 Y108.611 
G01 X79.588 Y108.216 
G01 X79.442 Y107.821 Z-0.176
G01 X79.318 Y107.379 Z0.000
G01 X79.194 Y106.937 
G01 X79.092 Y106.449 Z-0.180
G01 X78.991 Y105.961 Z-0.139
G01 X78.906 Y105.439 Z-0.187
G01 X78.839 Y104.885 Z0.000
G01 X78.772 Y104.330 
G01 X78.730 Y103.732 
G01 X78.687 Y103.134 Z-0.162
G01 X78.652 Y101.432 Z-0.158
G01 X78.664 Y100.061 Z-0.169
G01 X78.676 Y99.537 Z-0.161
G01 X78.704 Y99.101 Z-0.266
G01 X78.733 Y98.665 Z0.000
G01 X78.829 Y97.930 
G01 X78.971 Y97.291 Z-0.211
G01 X79.167 Y96.705 Z0.000
G01 X79.423 Y96.133 Z-0.240
G01 X79.747 Y95.532 Z0.000
G01 X80.000 Y95.120 Z-0.275
G01 X80.287 Y94.704 Z0.000
G01 X80.598 Y94.296 
G01 X80.923 Y93.906 Z-0.207
G01 X81.253 Y93.547 Z-0.280
G01 X81.576 Y93.229 Z0.000
G01 X81.884 Y92.963 Z-0.258
G01 X82.167 Y92.762 Z0.000
G01 X82.462 Y92.601 Z-0.261
G01 X82.808 Y92.450 Z-0.281
G01 X83.192 Y92.313 Z0.000
G01 X83.600 Y92.193 Z-0.294
G01 X84.021 Y92.093 Z-0.249
G01 X84.443 Y92.017 Z-0.282
G01 X84.851 Y91.967 Z-0.265
G01 X85.235 Y91.948 Z-0.244
G01 X85.557 Y91.957 Z-0.222
G01 X85.875 Y91.986 Z-0.198
G01 X86.187 Y92.037 Z-0.178
G01 X86.495 Y92.107 Z-0.157
G01 X86.797 Y92.197 Z0.000
G01 X87.382 Y92.434 Z-0.108
G01 X87.940 Y92.744 Z0.000
G01 X88.468 Y93.122 
G01 X88.962 Y93.566 
G01 X89.421 Y94.069 
G01 X89.840 Y94.630 
G01 X90.218 Y95.243 
G01 X90.550 Y95.905 
G01 X90.834 Y96.611 
G01 X91.067 Y97.358 
G01 X91.245 Y98.141 
G01 X91.367 Y98.958 
G01 X91.428 Y99.803 
G01 X91.426 Y100.614 
G01 X91.350 Y101.386 
G01 X91.204 Y102.171 
G01 X91.106 Y102.566 
G01 X90.861 Y103.358 
G00 Z5.000
G00 X95.124 Y88.792  F8000.0
G01 Z-1.674 F2000.0 M3
G01 X94.809 Y88.087 Z-1.709 F4000.0
G01 X94.606 Y87.533 Z-1.712
G01 X94.390 Y86.774 Z-1.699
G01 X94.748 Y87.271 Z-1.708
G01 X94.892 Y87.554 Z-1.710
G01 X94.993 Y87.879 Z-1.706
G01 X95.080 Y88.326 Z-1.696
G01 X95.124 Y88.792 Z-1.674
G01 X95.426 Y88.850 Z-1.659
G01 X95.428 Y89.472 Z-1.624
G01 X95.396 Y89.918 Z-1.595
G01 X95.073 Y89.352 Z-1.639
G01 X94.785 Y88.778 Z-1.681
G01 X94.533 Y88.197 Z-1.702
G01 X94.324 Y87.627 Z-1.710
G01 X94.095 Y86.820 Z-1.693
G01 X94.059 Y86.644 Z-1.688
G01 X94.100 Y86.313 Z-1.675
G01 X94.159 Y86.082 Z-1.665
