%
( harry ) ( File created: Sunday December 15 2024 - 04:29 PM)
( for LinuxCNC )
( Material Size) ( X= 100.000, Y= 300.000, Z= 20.000)
G90 (Incremental distance mode)
G17 G21 (Active Plane: XY)(Metric Mode)
G40 G49 G80(Tool Diameter, Length compensation & canned cycles OFF)
G64 P0.05 Q0.05(Path Blending)
T7 M06 (TOOL USE Ball Nose 1/8)
G90 (absolute distance mode)
G54 (Coordinate System)
S17000M3
G00 Z40.320
G4 P6
( 3D Finish 1 )
G00 X83.680 Y0.608 Z25.080 F6000.0
G01 Z16.664 F1200.0 M3
G01 X6.104 Y0.630 Z16.666 F3000.0
G01 X5.921 Y0.666 Z16.668
G01 X5.825 Y0.704 Z16.667
G01 X5.761 Y0.792 Z16.670
G01 X5.743 Y0.862 Z16.674
G01 X7.216 Y0.862 Z16.687
G01 X84.062 Y0.862 Z16.683
G01 X84.322 Y0.862 Z16.654
G01 X84.336 Y1.116 Z16.657
G01 X83.903 Y1.116 Z16.690
G01 X5.784 Y1.116 Z16.682
G01 X5.698 Y1.116 Z16.674
G01 X5.668 Y1.370 Z16.671
G01 X6.188 Y1.370 Z16.690
G01 X84.136 Y1.370 Z16.682
G01 X84.396 Y1.370 Z16.648
G01 X84.416 Y1.386 Z16.644
G01 X84.502 Y1.386 Z16.623
G01 X84.502 Y1.624 Z16.625
G01 X84.156 Y1.624 Z16.681
G01 X5.815 Y1.624 Z16.685
G01 X5.642 Y1.624 Z16.668
G01 X5.628 Y1.878 Z16.666
G01 X6.061 Y1.878 Z16.690
G01 X84.156 Y1.878 Z16.681
G01 X84.502 Y1.878 Z16.626
G01 X84.502 Y2.132 Z16.627
G01 X84.156 Y2.132 Z16.681
G01 X5.801 Y2.132 Z16.685
G01 X5.628 Y2.132 Z16.667
G01 X5.628 Y2.386 Z16.667
G01 X6.061 Y2.386 Z16.690
G01 X84.156 Y2.386 Z16.682
G01 X84.502 Y2.386 Z16.628
G01 X84.502 Y2.640 Z16.628
G01 X84.156 Y2.640 Z16.682
G01 X5.801 Y2.640 Z16.685
G01 X5.628 Y2.640 Z16.668
G01 X5.628 Y2.894 Z16.668
G01 X6.147 Y2.894 Z16.690
G01 X84.156 Y2.894 Z16.682
G01 X84.502 Y2.894 Z16.629
G01 X84.502 Y3.148 Z16.630
G01 X84.156 Y3.148 Z16.683
G01 X5.801 Y3.148 Z16.685
G01 X5.628 Y3.148 Z16.669
G01 X5.628 Y3.402 Z16.669
G01 X6.147 Y3.402 Z16.690
G01 X84.156 Y3.402 Z16.683
G01 X84.502 Y3.402 Z16.630
G01 X84.502 Y3.656 Z16.631
G01 X84.156 Y3.656 Z16.683
G01 X5.801 Y3.656 Z16.686
G01 X5.628 Y3.656 Z16.669
G01 X5.628 Y3.910 Z16.670
G01 X6.147 Y3.910 Z16.690
G01 X84.156 Y3.910 Z16.684
G01 X84.502 Y3.910 Z16.631
G01 X84.502 Y4.164 Z16.632
G01 X84.156 Y4.164 Z16.684
G01 X5.801 Y4.164 Z16.686
G01 X5.628 Y4.164 Z16.670
G01 X5.628 Y4.418 Z16.670
G01 X6.147 Y4.418 Z16.690
G01 X84.156 Y4.418 Z16.684
G01 X84.502 Y4.418 Z16.632
G01 X84.502 Y4.672 Z16.632
G01 X84.156 Y4.672 Z16.684
G01 X5.801 Y4.672 Z16.686
G01 X5.628 Y4.672 Z16.670
G01 X5.628 Y4.926 Z16.671
G01 X6.234 Y4.926 Z16.690
G01 X84.156 Y4.926 Z16.684
G01 X84.502 Y4.926 Z16.632
G01 X84.502 Y5.180 Z16.633
G01 X84.156 Y5.180 Z16.684
G01 X5.801 Y5.180 Z16.686
G01 X5.628 Y5.180 Z16.671
G01 X5.628 Y5.434 Z16.671
G01 X6.234 Y5.434 Z16.690
G01 X84.156 Y5.434 Z16.684
G01 X84.502 Y5.434 Z16.633
G01 X84.502 Y5.688 Z16.633
G01 X84.156 Y5.688 Z16.684
G01 X5.801 Y5.688 Z16.686
G01 X5.628 Y5.688 Z16.671
G01 X5.628 Y5.942 Z16.671
G01 X6.234 Y5.942 Z16.690
G01 X84.156 Y5.942 Z16.684
G01 X84.502 Y5.942 Z16.633
G01 X84.502 Y6.196 Z16.633
G01 X84.156 Y6.196 Z16.684
G01 X5.801 Y6.196 Z16.686
G01 X5.628 Y6.196 Z16.671
G01 X5.628 Y6.450 Z16.671
G01 X6.234 Y6.450 Z16.690
G01 X84.156 Y6.450 Z16.684
G01 X84.502 Y6.450 Z16.633
G01 X84.502 Y6.704 Z16.633
G01 X84.156 Y6.704 Z16.684
G01 X5.801 Y6.704 Z16.686
G01 X5.628 Y6.704 Z16.671
G01 X5.628 Y6.958 Z16.671
G01 X6.234 Y6.958 Z16.690
G01 X84.156 Y6.958 Z16.684
G01 X84.502 Y6.958 Z16.634
G01 X84.502 Y7.212 Z16.634
G01 X84.156 Y7.212 Z16.685
G01 X5.801 Y7.212 Z16.686
G01 X5.628 Y7.212 Z16.671
G01 X5.628 Y7.466 Z16.672
G01 X6.234 Y7.466 Z16.690
G01 X84.156 Y7.466 Z16.685
G01 X84.502 Y7.466 Z16.634
G01 X84.502 Y7.720 Z16.635
G01 X84.156 Y7.720 Z16.685
G01 X5.801 Y7.720 Z16.686
G01 X5.628 Y7.720 Z16.672
G01 X5.628 Y7.974 Z16.672
G01 X6.234 Y7.974 Z16.690
G01 X84.156 Y7.974 Z16.685
G01 X84.502 Y7.974 Z16.635
G01 X84.502 Y8.228 Z16.635
G01 X84.156 Y8.228 Z16.685
G01 X5.801 Y8.228 Z16.686
G01 X5.628 Y8.228 Z16.672
G01 X5.628 Y8.482 Z16.672
G01 X6.234 Y8.482 Z16.690
G01 X84.156 Y8.482 Z16.685
G01 X84.502 Y8.482 Z16.635
G01 X84.502 Y8.736 Z16.635
G01 X84.156 Y8.736 Z16.685
G01 X5.801 Y8.736 Z16.686
G01 X5.628 Y8.736 Z16.672
G01 X5.628 Y8.990 Z16.672
G01 X6.234 Y8.990 Z16.690
G01 X84.156 Y8.990 Z16.685
G01 X84.502 Y8.990 Z16.635
G01 X84.502 Y9.244 Z16.635
G01 X84.156 Y9.244 Z16.685
G01 X5.801 Y9.244 Z16.686
G01 X5.628 Y9.244 Z16.672
G01 X5.628 Y9.498 Z16.672
G01 X6.234 Y9.498 Z16.690
G01 X84.156 Y9.498 Z16.685
G01 X84.502 Y9.498 Z16.635
G01 X84.502 Y9.752 Z16.635
G01 X84.156 Y9.752 Z16.685
G01 X5.801 Y9.752 Z16.686
G01 X5.628 Y9.752 Z16.672
G01 X5.628 Y10.006 Z16.672
G01 X6.234 Y10.006 Z16.690
G01 X84.156 Y10.006 Z16.685
G01 X84.502 Y10.006 Z16.635
G01 X84.502 Y10.260 Z16.635
G01 X84.156 Y10.260 Z16.685
G01 X74.805 Y10.260 Z16.683
G01 X74.372 Y10.260 Z16.663
G01 X15.325 Y10.260 Z16.665
G01 X14.719 Y10.260 Z16.690
G01 X5.801 Y10.260 Z16.686
G01 X5.628 Y10.260 Z16.672
G01 X5.628 Y10.514 Z16.672
G01 X6.234 Y10.514 Z16.690
G01 X15.065 Y10.514 Z16.684
G01 X15.411 Y10.514 Z16.637
G01 X15.584 Y10.514 Z16.606
G01 X74.286 Y10.514 Z16.606
G01 X74.372 Y10.514 Z16.607
G01 X74.719 Y10.514 Z16.674
G01 X75.411 Y10.514 Z16.690
G01 X84.156 Y10.514 Z16.685
G01 X84.502 Y10.514 Z16.635
G01 X84.502 Y10.768 Z16.635
G01 X84.156 Y10.768 Z16.685
G01 X74.805 Y10.768 Z16.681
G01 X74.459 Y10.768 Z16.626
G01 X74.113 Y10.768 Z16.515
G01 X59.827 Y10.768 Z16.500
G01 X16.190 Y10.768 Z16.511
G01 X15.758 Y10.768 Z16.526
G01 X15.411 Y10.768 Z16.635
G01 X15.065 Y10.768 Z16.684
G01 X5.801 Y10.768 Z16.686
G01 X5.628 Y10.768 Z16.672
G01 X5.628 Y11.022 Z16.672
G01 X6.234 Y11.022 Z16.690
G01 X15.065 Y11.022 Z16.684
G01 X15.411 Y11.022 Z16.634
G01 X15.758 Y11.022 Z16.523
G01 X16.017 Y11.022 Z16.386
G01 X16.364 Y11.022 Z16.370
G01 X72.987 Y11.022 Z16.368
G01 X73.853 Y11.022 Z16.374
G01 X74.286 Y11.022 Z16.575
G01 X74.632 Y11.022 Z16.661
G01 X75.065 Y11.022 Z16.690
G01 X84.156 Y11.022 Z16.685
G01 X84.502 Y11.022 Z16.635
G01 X84.502 Y11.276 Z16.636
G01 X84.156 Y11.276 Z16.685
G01 X74.805 Y11.276 Z16.680
G01 X74.459 Y11.276 Z16.623
G01 X74.199 Y11.276 Z16.541
G01 X73.853 Y11.276 Z16.363
G01 X73.593 Y11.276 Z16.185
G01 X66.667 Y11.276 Z16.161
G01 X17.662 Y11.276 Z16.172
G01 X16.277 Y11.276 Z16.185
G01 X16.017 Y11.276 Z16.384
G01 X15.758 Y11.276 Z16.521
G01 X15.411 Y11.276 Z16.633
G01 X15.065 Y11.276 Z16.683
G01 X5.801 Y11.276 Z16.687
G01 X5.628 Y11.276 Z16.673
G01 X5.628 Y11.530 Z16.673
G01 X6.320 Y11.530 Z16.690
G01 X15.065 Y11.530 Z16.683
G01 X15.498 Y11.530 Z16.610
G01 X15.844 Y11.530 Z16.480
G01 X16.104 Y11.530 Z16.322
G01 X16.364 Y11.530 Z16.098
G01 X16.537 Y11.530 Z15.892
G01 X25.022 Y11.530 Z15.871
G01 X72.208 Y11.530 Z15.882
G01 X73.333 Y11.530 Z15.892
G01 X73.420 Y11.530 Z15.943
G01 X73.593 Y11.530 Z16.150
G01 X73.853 Y11.530 Z16.361
G01 X74.199 Y11.530 Z16.539
G01 X74.545 Y11.530 Z16.643
G01 X74.892 Y11.530 Z16.687
G01 X84.156 Y11.530 Z16.685
G01 X84.502 Y11.530 Z16.636
G01 X84.502 Y11.784 Z16.636
G01 X84.156 Y11.784 Z16.685
G01 X74.805 Y11.784 Z16.680
G01 X74.459 Y11.784 Z16.621
G01 X74.199 Y11.784 Z16.538
G01 X73.853 Y11.784 Z16.359
G01 X73.593 Y11.784 Z16.148
G01 X73.420 Y11.784 Z15.941
G01 X73.247 Y11.784 Z15.674
G01 X73.160 Y11.784 Z15.494
G01 X73.074 Y11.784 Z15.393
G01 X68.571 Y11.784 Z15.361
G01 X18.788 Y11.784 Z15.370
G01 X16.797 Y11.784 Z15.394
G01 X16.623 Y11.784 Z15.749
G01 X16.450 Y11.784 Z15.999
G01 X16.190 Y11.784 Z16.250
G01 X15.931 Y11.784 Z16.433
G01 X15.584 Y11.784 Z16.582
G01 X15.238 Y11.784 Z16.664
G01 X14.805 Y11.784 Z16.690
G01 X5.714 Y11.784 Z16.680
G01 X5.628 Y11.784 Z16.673
G01 X5.628 Y12.038 Z16.673
G01 X6.320 Y12.038 Z16.690
G01 X15.065 Y12.038 Z16.683
G01 X15.411 Y12.038 Z16.631
G01 X15.758 Y12.038 Z16.516
G01 X16.017 Y12.038 Z16.379
G01 X16.277 Y12.038 Z16.171
G01 X16.450 Y12.038 Z15.996
G01 X16.623 Y12.038 Z15.746
G01 X16.797 Y12.038 Z15.384
G01 X16.970 Y12.038 Z14.910
G01 X17.056 Y12.038 Z14.848
G01 X21.472 Y12.038 Z14.814
G01 X70.736 Y12.038 Z14.822
G01 X72.900 Y12.038 Z14.850
G01 X73.247 Y12.038 Z15.669
G01 X73.506 Y12.038 Z16.052
G01 X73.766 Y12.038 Z16.297
G01 X74.026 Y12.038 Z16.455
G01 X74.286 Y12.038 Z16.570
G01 X74.632 Y12.038 Z16.659
G01 X75.065 Y12.038 Z16.690
G01 X84.156 Y12.038 Z16.685
G01 X84.502 Y12.038 Z16.636
G01 X84.502 Y12.292 Z16.636
G01 X84.156 Y12.292 Z16.685
G01 X74.805 Y12.292 Z16.680
G01 X74.459 Y12.292 Z16.620
G01 X74.199 Y12.292 Z16.537
G01 X73.853 Y12.292 Z16.356
G01 X73.593 Y12.292 Z16.145
G01 X73.420 Y12.292 Z15.938
G01 X73.247 Y12.292 Z15.665
G01 X73.074 Y12.292 Z15.271
G01 X72.727 Y12.292 Z14.324
G01 X72.554 Y12.292 Z14.302
G01 X68.052 Y12.292 Z14.269
G01 X19.394 Y12.292 Z14.278
G01 X17.229 Y12.292 Z14.305
G01 X17.143 Y12.292 Z14.430
G01 X16.797 Y12.292 Z15.377
G01 X16.623 Y12.292 Z15.743
G01 X16.450 Y12.292 Z15.993
G01 X16.104 Y12.292 Z16.318
G01 X15.844 Y12.292 Z16.476
G01 X15.498 Y12.292 Z16.608
G01 X15.152 Y12.292 Z16.675
G01 X14.372 Y12.292 Z16.690
G01 X5.714 Y12.292 Z16.680
G01 X5.628 Y12.292 Z16.673
G01 X5.628 Y12.546 Z16.673
G01 X6.320 Y12.546 Z16.690
G01 X15.065 Y12.546 Z16.682
G01 X15.411 Y12.546 Z16.630
G01 X15.758 Y12.546 Z16.513
G01 X16.017 Y12.546 Z16.377
G01 X16.277 Y12.546 Z16.166
G01 X16.450 Y12.546 Z15.990
G01 X16.623 Y12.546 Z15.740
G01 X16.797 Y12.546 Z15.371
G01 X17.316 Y12.546 Z13.950
G01 X17.403 Y12.546 Z13.762
G01 X21.299 Y12.546 Z13.725
G01 X70.216 Y12.546 Z13.732
G01 X72.468 Y12.546 Z13.761
G01 X72.554 Y12.546 Z13.843
G01 X73.160 Y12.546 Z15.479
G01 X73.333 Y12.546 Z15.799
G01 X73.506 Y12.546 Z16.048
G01 X73.766 Y12.546 Z16.293
G01 X74.113 Y12.546 Z16.497
G01 X74.459 Y12.546 Z16.620
G01 X74.805 Y12.546 Z16.680
G01 X84.156 Y12.546 Z16.685
G01 X84.502 Y12.546 Z16.636
G01 X84.502 Y12.800 Z16.636
G01 X84.156 Y12.800 Z16.685
G01 X74.892 Y12.800 Z16.687
G01 X74.545 Y12.800 Z16.641
G01 X74.199 Y12.800 Z16.535
G01 X73.853 Y12.800 Z16.353
G01 X73.593 Y12.800 Z16.141
G01 X73.420 Y12.800 Z15.935
G01 X73.247 Y12.800 Z15.655
G01 X73.074 Y12.800 Z15.258
G01 X72.381 Y12.800 Z13.363
G01 X72.294 Y12.800 Z13.217
G01 X68.398 Y12.800 Z13.180
G01 X19.827 Y12.800 Z13.187
G01 X17.662 Y12.800 Z13.215
G01 X17.576 Y12.800 Z13.233
G01 X16.797 Y12.800 Z15.365
G01 X16.623 Y12.800 Z15.738
G01 X16.450 Y12.800 Z15.988
G01 X16.104 Y12.800 Z16.315
G01 X15.844 Y12.800 Z16.474
G01 X15.498 Y12.800 Z16.607
G01 X15.152 Y12.800 Z16.675
G01 X14.372 Y12.800 Z16.690
G01 X5.714 Y12.800 Z16.680
G01 X5.628 Y12.800 Z16.673
G01 X5.628 Y13.054 Z16.673
G01 X6.320 Y13.054 Z16.690
G01 X15.065 Y13.054 Z16.682
G01 X15.411 Y13.054 Z16.629
G01 X15.758 Y13.054 Z16.512
G01 X16.017 Y13.054 Z16.375
G01 X16.277 Y13.054 Z16.164
G01 X16.450 Y13.054 Z15.986
G01 X16.623 Y13.054 Z15.736
G01 X16.797 Y13.054 Z15.361
G01 X17.749 Y13.054 Z12.753
G01 X17.835 Y13.054 Z12.672
G01 X21.645 Y13.054 Z12.634
G01 X69.784 Y13.054 Z12.641
G01 X72.121 Y13.054 Z12.673
G01 X73.160 Y13.054 Z15.472
G01 X73.333 Y13.054 Z15.796
G01 X73.506 Y13.054 Z16.046
G01 X73.766 Y13.054 Z16.291
G01 X74.113 Y13.054 Z16.496
G01 X74.459 Y13.054 Z16.619
G01 X74.805 Y13.054 Z16.680
G01 X81.991 Y13.054 Z16.690
G01 X84.156 Y13.054 Z16.685
G01 X84.502 Y13.054 Z16.636
G01 X84.502 Y13.308 Z16.636
G01 X84.156 Y13.308 Z16.685
G01 X74.892 Y13.308 Z16.687
G01 X74.545 Y13.308 Z16.640
G01 X74.199 Y13.308 Z16.534
G01 X73.853 Y13.308 Z16.350
G01 X73.593 Y13.308 Z16.139
G01 X73.420 Y13.308 Z15.933
G01 X73.247 Y13.308 Z15.649
G01 X73.074 Y13.308 Z15.250
G01 X71.948 Y13.308 Z12.167
G01 X71.861 Y13.308 Z12.126
G01 X68.139 Y13.308 Z12.088
G01 X66.753 Y13.308 Z12.094
G01 X66.407 Y13.308 Z12.143
G01 X66.147 Y13.308 Z12.156
G01 X65.455 Y13.308 Z12.272
G01 X64.935 Y13.308 Z12.331
G01 X64.502 Y13.308 Z12.343
G01 X64.069 Y13.308 Z12.272
G01 X63.723 Y13.308 Z12.283
G01 X63.117 Y13.308 Z12.213
G01 X62.857 Y13.308 Z12.147
G01 X62.684 Y13.308 Z12.085
G01 X32.900 Y13.308 Z12.085
G01 X32.727 Y13.308 Z12.122
G01 X32.381 Y13.308 Z12.200
G01 X31.861 Y13.308 Z12.253
G01 X31.602 Y13.308 Z12.280
G01 X31.169 Y13.308 Z12.375
G01 X30.823 Y13.308 Z12.392
G01 X30.563 Y13.308 Z12.372
G01 X29.957 Y13.308 Z12.482
G01 X29.610 Y13.308 
G01 X29.264 Y13.308 Z12.452
G01 X28.225 Y13.308 Z12.503
G01 X27.446 Y13.308 Z12.456
G01 X27.013 Y13.308 Z12.414
G01 X26.494 Y13.308 Z12.406
G01 X26.234 Y13.308 Z12.409
G01 X25.801 Y13.308 Z12.427
G01 X25.195 Y13.308 Z12.349
G01 X24.242 Y13.308 Z12.432
G01 X23.810 Y13.308 Z12.413
G01 X23.377 Y13.308 Z12.424
G01 X22.684 Y13.308 Z12.512
G01 X22.251 Y13.308 Z12.511
G01 X21.991 Y13.308 Z12.492
G01 X21.385 Y13.308 Z12.559
G01 X20.606 Y13.308 Z12.525
G01 X20.173 Y13.308 Z12.582
G01 X19.134 Y13.308 Z12.614
G01 X18.701 Y13.308 Z12.582
G01 X17.922 Y13.308 Z12.597
G01 X17.835 Y13.308 Z12.590
G01 X17.749 Y13.308 Z12.745
G01 X16.797 Y13.308 Z15.357
G01 X16.623 Y13.308 Z15.734
G01 X16.450 Y13.308 Z15.984
G01 X16.190 Y13.308 Z16.244
G01 X15.931 Y13.308 Z16.427
G01 X15.584 Y13.308 Z16.579
G01 X15.238 Y13.308 Z16.662
G01 X14.805 Y13.308 Z16.690
G01 X5.714 Y13.308 Z16.680
G01 X5.628 Y13.308 Z16.673
G01 X5.628 Y13.562 Z16.673
G01 X6.320 Y13.562 Z16.690
G01 X15.065 Y13.562 Z16.681
G01 X15.411 Y13.562 Z16.628
G01 X15.758 Y13.562 Z16.510
G01 X16.017 Y13.562 Z16.373
G01 X16.277 Y13.562 Z16.162
G01 X16.537 Y13.562 Z15.870
G01 X16.623 Y13.562 Z15.732
G01 X16.797 Y13.562 Z15.353
G01 X17.749 Y13.562 Z12.738
G01 X17.835 Y13.562 Z12.618
G01 X18.355 Y13.562 Z12.619
G01 X18.701 Y13.562 Z12.599
G01 X19.394 Y13.562 Z12.629
G01 X20.173 Y13.562 Z12.558
G01 X20.606 Y13.562 Z12.521
G01 X21.472 Y13.562 Z12.519
G01 X22.165 Y13.562 Z12.468
G01 X22.597 Y13.562 Z12.485
G01 X23.117 Y13.562 Z12.436
G01 X23.723 Y13.562 Z12.392
G01 X24.156 Y13.562 Z12.403
G01 X24.762 Y13.562 Z12.348
G01 X25.108 Y13.562 Z12.313
G01 X25.801 Y13.562 Z12.385
G01 X26.320 Y13.562 Z12.370
G01 X26.667 Y13.562 Z12.401
G01 X27.100 Y13.562 Z12.378
G01 X27.619 Y13.562 Z12.441
G01 X28.485 Y13.562 Z12.473
G01 X29.177 Y13.562 Z12.457
G01 X29.437 Y13.562 Z12.437
G01 X29.784 Y13.562 Z12.476
G01 X30.130 Y13.562 Z12.446
G01 X30.476 Y13.562 Z12.375
G01 X31.082 Y13.562 Z12.390
G01 X31.429 Y13.562 Z12.335
G01 X31.688 Y13.562 Z12.257
G01 X32.121 Y13.562 Z12.237
G01 X32.554 Y13.562 Z12.173
G01 X32.814 Y13.562 Z12.101
G01 X33.247 Y13.562 Z12.024
G01 X33.766 Y13.562 Z11.838
G01 X34.199 Y13.562 Z11.689
G01 X34.545 Y13.562 Z11.546
G01 X55.411 Y13.562 Z11.546
G01 X56.190 Y13.562 Z11.538
G01 X56.623 Y13.562 Z11.572
G01 X57.143 Y13.562 Z11.546
G01 X57.662 Y13.562 Z11.550
G01 X58.095 Y13.562 Z11.571
G01 X58.442 Y13.562 Z11.538
G01 X60.519 Y13.562 Z11.541
G01 X60.952 Y13.562 Z11.636
G01 X61.299 Y13.562 Z11.682
G01 X61.732 Y13.562 Z11.823
G01 X61.991 Y13.562 Z11.892
G01 X62.338 Y13.562 Z11.987
G01 X62.511 Y13.562 Z12.017
G01 X62.944 Y13.562 Z12.169
G01 X63.290 Y13.562 Z12.231
G01 X63.810 Y13.562 Z12.234
G01 X64.416 Y13.562 Z12.355
G01 X64.762 Y13.562 Z12.368
G01 X65.195 Y13.562 Z12.329
G01 X65.628 Y13.562 Z12.240
G01 X66.061 Y13.562 Z12.228
G01 X66.840 Y13.562 Z12.127
G01 X67.446 Y13.562 Z11.941
G01 X67.532 Y13.562 Z11.908
G01 X67.965 Y13.562 Z11.883
G01 X68.312 Y13.562 Z11.805
G01 X68.658 Y13.562 Z11.669
G01 X68.918 Y13.562 Z11.546
G01 X71.688 Y13.562 Z11.582
G01 X71.775 Y13.562 Z11.687
G01 X73.160 Y13.562 Z15.465
G01 X73.333 Y13.562 Z15.794
G01 X73.506 Y13.562 Z16.044
G01 X73.766 Y13.562 Z16.289
G01 X74.113 Y13.562 Z16.494
G01 X74.459 Y13.562 Z16.618
G01 X74.805 Y13.562 Z16.679
G01 X78.961 Y13.562 Z16.690
G01 X84.156 Y13.562 Z16.685
G01 X84.502 Y13.562 Z16.636
G01 X84.502 Y13.816 Z16.636
G01 X84.156 Y13.816 Z16.685
G01 X74.892 Y13.816 Z16.686
G01 X74.545 Y13.816 Z16.640
G01 X74.199 Y13.816 Z16.533
G01 X73.853 Y13.816 Z16.348
G01 X73.593 Y13.816 Z16.137
G01 X73.420 Y13.816 Z15.930
G01 X73.247 Y13.816 Z15.644
G01 X73.074 Y13.816 Z15.242
G01 X71.688 Y13.816 Z11.443
G01 X71.602 Y13.816 Z11.349
G01 X70.823 Y13.816 Z11.221
G01 X70.390 Y13.816 Z11.133
G01 X70.303 Y13.816 Z11.148
G01 X69.957 Y13.816 Z11.275
G01 X69.437 Y13.816 Z11.374
G01 X69.091 Y13.816 Z11.526
G01 X68.745 Y13.816 Z11.636
G01 X68.312 Y13.816 Z11.820
G01 X67.965 Y13.816 Z11.909
G01 X67.532 Y13.816 Z11.953
G01 X67.100 Y13.816 Z12.096
G01 X66.667 Y13.816 Z12.184
G01 X66.320 Y13.816 Z12.217
G01 X65.974 Y13.816 Z12.282
G01 X65.541 Y13.816 Z12.291
G01 X65.195 Y13.816 Z12.355
G01 X64.589 Y13.816 Z12.360
G01 X63.983 Y13.816 Z12.318
G01 X63.636 Y13.816 Z12.242
G01 X63.550 Y13.816 Z12.215
G01 X63.117 Y13.816 Z12.190
G01 X62.771 Y13.816 Z12.108
G01 X61.905 Y13.816 Z11.832
G01 X61.385 Y13.816 Z11.684
G01 X60.866 Y13.816 Z11.611
G01 X60.346 Y13.816 Z11.514
G01 X59.913 Y13.816 Z11.531
G01 X59.654 Y13.816 Z11.511
G01 X59.221 Y13.816 Z11.555
G01 X58.788 Y13.816 Z11.536
G01 X58.615 Y13.816 Z11.526
G01 X58.268 Y13.816 Z11.608
G01 X57.922 Y13.816 Z11.627
G01 X57.489 Y13.816 Z11.557
G01 X57.316 Y13.816 Z11.526
G01 X56.364 Y13.816 Z11.591
G01 X56.017 Y13.816 Z11.557
G01 X55.931 Y13.816 Z11.541
G01 X55.498 Y13.816 Z11.559
G01 X54.978 Y13.816 Z11.508
G01 X54.632 Y13.816 Z11.459
G01 X54.286 Y13.816 Z11.436
G01 X53.420 Y13.816 Z11.256
G01 X53.247 Y13.816 Z11.264
G01 X52.900 Y13.816 Z11.283
G01 X52.554 Y13.816 Z11.245
G01 X52.121 Y13.816 Z11.128
G01 X51.169 Y13.816 Z10.992
G01 X35.498 Y13.816 Z10.992
G01 X34.978 Y13.816 Z11.380
G01 X34.545 Y13.816 Z11.624
G01 X33.939 Y13.816 Z11.859
G01 X33.506 Y13.816 Z11.976
G01 X33.160 Y13.816 Z12.084
G01 X32.814 Y13.816 Z12.132
G01 X32.641 Y13.816 Z12.139
G01 X32.294 Y13.816 Z12.197
G01 X31.775 Y13.816 Z12.243
G01 X31.255 Y13.816 Z12.356
G01 X30.909 Y13.816 Z12.375
G01 X30.303 Y13.816 Z12.379
G01 X29.870 Y13.816 Z12.427
G01 X29.524 Y13.816 Z12.407
G01 X29.437 Y13.816 Z12.390
G01 X29.004 Y13.816 Z12.432
G01 X28.052 Y13.816 Z12.414
G01 X27.359 Y13.816 Z12.365
G01 X27.100 Y13.816 Z12.324
G01 X26.753 Y13.816 Z12.357
G01 X26.407 Y13.816 Z12.336
G01 X26.147 Y13.816 Z12.308
G01 X25.628 Y13.816 Z12.323
G01 X25.108 Y13.816 Z12.263
G01 X24.935 Y13.816 Z12.262
G01 X24.416 Y13.816 Z12.341
G01 X23.896 Y13.816 Z12.365
G01 X23.550 Y13.816 Z12.360
G01 X23.117 Y13.816 Z12.408
G01 X22.511 Y13.816 Z12.430
G01 X22.251 Y13.816 Z12.408
G01 X21.732 Y13.816 Z12.469
G01 X20.693 Y13.816 Z12.523
G01 X20.000 Y13.816 Z12.559
G01 X19.481 Y13.816 Z12.620
G01 X18.874 Y13.816 Z12.632
G01 X18.528 Y13.816 Z12.613
G01 X18.182 Y13.816 Z12.643
G01 X17.835 Y13.816 Z12.619
G01 X17.749 Y13.816 Z12.731
G01 X16.797 Y13.816 Z15.349
G01 X16.623 Y13.816 Z15.730
G01 X16.450 Y13.816 Z15.981
G01 X16.190 Y13.816 Z16.242
G01 X15.931 Y13.816 Z16.425
G01 X15.584 Y13.816 Z16.578
G01 X15.238 Y13.816 Z16.662
G01 X14.805 Y13.816 Z16.690
G01 X5.801 Y13.816 Z16.686
G01 X5.628 Y13.816 Z16.672
G01 X5.628 Y14.070 Z16.672
G01 X6.234 Y14.070 Z16.690
G01 X15.065 Y14.070 Z16.681
G01 X15.411 Y14.070 Z16.627
G01 X15.758 Y14.070 Z16.509
G01 X16.017 Y14.070 Z16.372
G01 X16.277 Y14.070 Z16.161
G01 X16.537 Y14.070 Z15.867
G01 X16.623 Y14.070 Z15.729
G01 X16.797 Y14.070 Z15.346
G01 X17.749 Y14.070 Z12.725
G01 X17.835 Y14.070 Z12.604
G01 X18.268 Y14.070 Z12.626
G01 X18.615 Y14.070 Z12.603
G01 X19.048 Y14.070 Z12.637
G01 X19.827 Y14.070 Z12.558
G01 X20.087 Y14.070 Z12.542
G01 X20.519 Y14.070 Z12.534
G01 X21.299 Y14.070 Z12.428
G01 X21.732 Y14.070 Z12.414
G01 X22.165 Y14.070 Z12.349
G01 X22.251 Y14.070 Z12.332
G01 X22.684 Y14.070 Z12.366
G01 X23.377 Y14.070 Z12.323
G01 X23.723 Y14.070 Z12.281
G01 X24.069 Y14.070 Z12.292
G01 X24.675 Y14.070 Z12.244
G01 X25.022 Y14.070 Z12.173
G01 X25.368 Y14.070 Z12.237
G01 X25.801 Y14.070 Z12.242
G01 X26.234 Y14.070 Z12.235
G01 X26.753 Y14.070 Z12.276
G01 X27.100 Y14.070 Z12.237
G01 X27.619 Y14.070 Z12.305
G01 X27.792 Y14.070 Z12.313
G01 X28.052 Y14.070 Z12.365
G01 X28.398 Y14.070 Z12.376
G01 X28.745 Y14.070 Z12.346
G01 X29.177 Y14.070 Z12.359
G01 X29.437 Y14.070 Z12.322
G01 X29.870 Y14.070 Z12.392
G01 X30.216 Y14.070 Z12.389
G01 X30.563 Y14.070 Z12.346
G01 X31.255 Y14.070 Z12.334
G01 X32.035 Y14.070 Z12.203
G01 X32.381 Y14.070 Z12.179
G01 X32.641 Y14.070 Z12.150
G01 X32.987 Y14.070 Z12.132
G01 X33.333 Y14.070 Z12.058
G01 X33.939 Y14.070 Z11.914
G01 X34.372 Y14.070 Z11.761
G01 X34.978 Y14.070 Z11.450
G01 X35.758 Y14.070 Z10.912
G01 X36.017 Y14.070 Z10.682
G01 X36.190 Y14.070 Z10.481
G01 X36.277 Y14.070 Z10.445
G01 X46.320 Y14.070 Z10.447
G01 X46.840 Y14.070 Z10.516
G01 X47.446 Y14.070 Z10.500
G01 X48.139 Y14.070 Z10.606
G01 X49.004 Y14.070 Z10.709
G01 X49.264 Y14.070 Z10.753
G01 X49.957 Y14.070 Z10.842
G01 X50.390 Y14.070 Z10.989
G01 X50.736 Y14.070 Z11.042
G01 X51.082 Y14.070 Z11.023
G01 X51.255 Y14.070 Z11.009
G01 X51.602 Y14.070 Z11.068
G01 X51.948 Y14.070 Z11.147
G01 X52.294 Y14.070 Z11.174
G01 X52.641 Y14.070 Z11.263
G01 X52.987 Y14.070 Z11.296
G01 X53.333 Y14.070 Z11.265
G01 X53.766 Y14.070 Z11.378
G01 X54.372 Y14.070 Z11.472
G01 X54.719 Y14.070 
G01 X54.892 Y14.070 Z11.461
G01 X55.411 Y14.070 Z11.547
G01 X55.844 Y14.070 Z11.563
G01 X56.190 Y14.070 Z11.626
G01 X56.623 Y14.070 Z11.632
G01 X57.056 Y14.070 Z11.578
G01 X57.489 Y14.070 Z11.575
G01 X57.922 Y14.070 Z11.643
G01 X58.268 Y14.070 Z11.627
G01 X58.701 Y14.070 Z11.546
G01 X59.134 Y14.070 Z11.592
G01 X59.567 Y14.070 Z11.567
G01 X59.827 Y14.070 Z11.531
G01 X60.260 Y14.070 Z11.507
G01 X61.039 Y14.070 Z11.651
G01 X61.299 Y14.070 Z11.669
G01 X61.732 Y14.070 Z11.784
G01 X61.905 Y14.070 Z11.810
G01 X62.424 Y14.070 Z11.996
G01 X63.030 Y14.070 Z12.138
G01 X63.377 Y14.070 Z12.178
G01 X63.810 Y14.070 Z12.316
G01 X64.242 Y14.070 Z12.375
G01 X64.675 Y14.070 Z12.371
G01 X65.022 Y14.070 Z12.391
G01 X65.368 Y14.070 Z12.355
G01 X65.541 Y14.070 Z12.316
G01 X65.974 Y14.070 Z12.313
G01 X66.320 Y14.070 Z12.249
G01 X66.494 Y14.070 Z12.190
G01 X67.013 Y14.070 Z12.142
G01 X67.446 Y14.070 Z12.035
G01 X67.706 Y14.070 Z11.948
G01 X68.052 Y14.070 Z11.889
G01 X68.485 Y14.070 Z11.744
G01 X68.658 Y14.070 Z11.665
G01 X69.004 Y14.070 Z11.605
G01 X69.351 Y14.070 Z11.477
G01 X69.524 Y14.070 Z11.382
G01 X70.130 Y14.070 Z11.217
G01 X70.390 Y14.070 Z11.117
G01 X71.342 Y14.070 Z11.316
G01 X71.602 Y14.070 Z11.345
G01 X71.688 Y14.070 Z11.436
G01 X73.160 Y14.070 Z15.460
G01 X73.333 Y14.070 Z15.792
G01 X73.506 Y14.070 Z16.042
G01 X73.766 Y14.070 Z16.287
G01 X74.113 Y14.070 Z16.493
G01 X74.459 Y14.070 Z16.618
G01 X74.805 Y14.070 Z16.679
G01 X78.095 Y14.070 Z16.690
G01 X84.156 Y14.070 Z16.685
G01 X84.502 Y14.070 Z16.636
G01 X84.502 Y14.324 Z16.636
G01 X84.156 Y14.324 Z16.685
G01 X74.892 Y14.324 Z16.686
G01 X74.545 Y14.324 Z16.640
G01 X74.199 Y14.324 Z16.532
G01 X73.853 Y14.324 Z16.347
G01 X73.593 Y14.324 Z16.136
G01 X73.420 Y14.324 Z15.929
G01 X73.247 Y14.324 Z15.640
G01 X73.074 Y14.324 Z15.236
G01 X71.688 Y14.324 Z11.428
G01 X71.602 Y14.324 Z11.310
G01 X71.082 Y14.324 Z11.255
G01 X70.390 Y14.324 Z11.107
G01 X70.303 Y14.324 Z11.113
G01 X69.610 Y14.324 Z11.369
G01 X69.264 Y14.324 Z11.549
G01 X68.918 Y14.324 Z11.652
G01 X68.571 Y14.324 Z11.692
G01 X67.965 Y14.324 Z11.899
G01 X67.619 Y14.324 Z11.993
G01 X67.186 Y14.324 Z12.116
G01 X66.753 Y14.324 Z12.178
G01 X66.494 Y14.324 Z12.194
G01 X66.147 Y14.324 Z12.302
G01 X65.801 Y14.324 Z12.342
G01 X65.455 Y14.324 Z12.341
G01 X65.108 Y14.324 Z12.390
G01 X64.762 Y14.324 Z12.382
G01 X64.502 Y14.324 Z12.374
G01 X64.156 Y14.324 Z12.369
G01 X63.723 Y14.324 Z12.296
G01 X63.290 Y14.324 Z12.166
G01 X62.338 Y14.324 Z11.936
G01 X61.991 Y14.324 Z11.836
G01 X61.558 Y14.324 Z11.777
G01 X61.212 Y14.324 Z11.676
G01 X60.433 Y14.324 Z11.534
G01 X60.000 Y14.324 Z11.566
G01 X59.740 Y14.324 Z11.551
G01 X59.307 Y14.324 Z11.610
G01 X58.874 Y14.324 Z11.615
G01 X58.701 Y14.324 Z11.596
G01 X58.268 Y14.324 Z11.664
G01 X57.922 Y14.324 Z11.663
G01 X57.576 Y14.324 Z11.616
G01 X57.143 Y14.324 Z11.648
G01 X56.970 Y14.324 Z11.652
G01 X56.623 Y14.324 Z11.691
G01 X56.277 Y14.324 Z11.671
G01 X55.758 Y14.324 Z11.582
G01 X54.892 Y14.324 Z11.490
G01 X54.719 Y14.324 Z11.459
G01 X54.372 Y14.324 Z11.472
G01 X53.680 Y14.324 Z11.399
G01 X53.160 Y14.324 Z11.274
G01 X52.727 Y14.324 Z11.253
G01 X52.468 Y14.324 Z11.219
G01 X51.948 Y14.324 Z11.168
G01 X51.515 Y14.324 Z11.050
G01 X51.429 Y14.324 Z11.018
G01 X51.255 Y14.324 Z11.015
G01 X50.909 Y14.324 Z11.062
G01 X50.563 Y14.324 Z11.043
G01 X50.216 Y14.324 Z10.960
G01 X49.870 Y14.324 Z10.827
G01 X49.004 Y14.324 Z10.703
G01 X48.225 Y14.324 Z10.656
G01 X47.619 Y14.324 Z10.540
G01 X47.532 Y14.324 Z10.517
G01 X47.013 Y14.324 Z10.568
G01 X46.580 Y14.324 Z10.533
G01 X46.061 Y14.324 Z10.453
G01 X45.628 Y14.324 Z10.406
G01 X45.022 Y14.324 Z10.367
G01 X44.848 Y14.324 Z10.343
G01 X44.502 Y14.324 Z10.366
G01 X44.156 Y14.324 Z10.327
G01 X43.983 Y14.324 Z10.301
G01 X43.290 Y14.324 Z10.277
G01 X42.771 Y14.324 Z10.163
G01 X42.251 Y14.324 Z10.159
G01 X41.905 Y14.324 Z10.105
G01 X41.558 Y14.324 Z10.098
G01 X41.039 Y14.324 Z10.038
G01 X40.606 Y14.324 Z10.005
G01 X40.346 Y14.324 Z9.981
G01 X39.827 Y14.324 Z9.938
G01 X39.221 Y14.324 Z9.910
G01 X38.961 Y14.324 Z9.898
G01 X38.442 Y14.324 Z9.951
G01 X38.009 Y14.324 Z9.985
G01 X37.576 Y14.324 Z9.954
G01 X37.316 Y14.324 Z9.898
G01 X36.970 Y14.324 Z9.904
G01 X36.710 Y14.324 Z9.927
G01 X36.623 Y14.324 Z9.992
G01 X36.364 Y14.324 Z10.419
G01 X36.104 Y14.324 Z10.727
G01 X35.758 Y14.324 Z11.028
G01 X34.892 Y14.324 Z11.554
G01 X34.199 Y14.324 Z11.874
G01 X33.593 Y14.324 Z12.028
G01 X32.900 Y14.324 Z12.146
G01 X32.468 Y14.324 Z12.189
G01 X32.121 Y14.324 Z12.228
G01 X31.861 Y14.324 Z12.233
G01 X31.169 Y14.324 Z12.323
G01 X30.823 Y14.324 Z12.310
G01 X30.649 Y14.324 Z12.291
G01 X30.303 Y14.324 Z12.375
G01 X29.957 Y14.324 Z12.394
G01 X29.524 Y14.324 Z12.326
G01 X29.264 Y14.324 Z12.264
G01 X28.745 Y14.324 Z12.246
G01 X28.312 Y14.324 Z12.295
G01 X27.965 Y14.324 Z12.265
G01 X27.706 Y14.324 Z12.198
G01 X27.273 Y14.324 Z12.159
G01 X26.840 Y14.324 Z12.173
G01 X26.320 Y14.324 Z12.122
G01 X25.974 Y14.324 Z12.114
G01 X25.541 Y14.324 Z12.148
G01 X25.195 Y14.324 Z12.110
G01 X25.022 Y14.324 Z12.072
G01 X24.675 Y14.324 Z12.150
G01 X24.069 Y14.324 Z12.185
G01 X23.636 Y14.324 Z12.178
G01 X23.030 Y14.324 Z12.255
G01 X22.597 Y14.324 Z12.272
G01 X22.251 Y14.324 Z12.254
G01 X21.732 Y14.324 Z12.370
G01 X21.385 Y14.324 Z12.388
G01 X21.212 Y14.324 Z12.376
G01 X20.519 Y14.324 Z12.500
G01 X20.000 Y14.324 Z12.510
G01 X19.740 Y14.324 Z12.519
G01 X19.134 Y14.324 Z12.608
G01 X18.788 Y14.324 Z12.594
G01 X18.528 Y14.324 Z12.558
G01 X18.182 Y14.324 Z12.584
G01 X17.835 Y14.324 Z12.568
G01 X17.749 Y14.324 Z12.721
G01 X16.797 Y14.324 Z15.343
G01 X16.623 Y14.324 Z15.728
G01 X16.450 Y14.324 Z15.978
G01 X16.190 Y14.324 Z16.241
G01 X15.931 Y14.324 Z16.424
G01 X15.584 Y14.324 Z16.578
G01 X15.238 Y14.324 Z16.662
G01 X14.805 Y14.324 Z16.690
G01 X5.801 Y14.324 Z16.686
G01 X5.628 Y14.324 Z16.673
G01 X5.628 Y14.578 Z16.673
G01 X6.320 Y14.578 Z16.690
G01 X15.065 Y14.578 Z16.681
G01 X15.411 Y14.578 Z16.627
G01 X15.758 Y14.578 Z16.508
G01 X16.017 Y14.578 Z16.371
G01 X16.277 Y14.578 Z16.160
G01 X16.537 Y14.578 Z15.865
G01 X16.623 Y14.578 Z15.727
G01 X16.797 Y14.578 Z15.341
G01 X17.749 Y14.578 Z12.717
G01 X17.835 Y14.578 Z12.560
G01 X18.095 Y14.578 Z12.521
G01 X19.134 Y14.578 Z12.540
G01 X19.481 Y14.578 Z12.493
G01 X19.654 Y14.578 Z12.452
G01 X20.346 Y14.578 Z12.455
G01 X20.693 Y14.578 Z12.424
G01 X21.212 Y14.578 Z12.299
G01 X21.558 Y14.578 Z12.323
G01 X21.818 Y14.578 Z12.300
G01 X22.165 Y14.578 Z12.202
G01 X22.338 Y14.578 Z12.149
G01 X22.684 Y14.578 Z12.146
G01 X23.463 Y14.578 Z12.306
G01 X24.156 Y14.578 Z12.377
G01 X24.935 Y14.578 Z12.386
G01 X25.714 Y14.578 Z12.327
G01 X26.320 Y14.578 Z12.221
G01 X26.840 Y14.578 Z12.094
G01 X27.706 Y14.578 Z12.126
G01 X28.052 Y14.578 Z12.199
G01 X28.571 Y14.578 Z12.218
G01 X28.831 Y14.578 Z12.230
G01 X29.264 Y14.578 Z12.254
G01 X29.351 Y14.578 Z12.250
G01 X29.784 Y14.578 Z12.344
G01 X30.130 Y14.578 Z12.363
G01 X30.476 Y14.578 Z12.316
G01 X30.649 Y14.578 Z12.280
G01 X31.255 Y14.578 Z12.284
G01 X31.861 Y14.578 Z12.228
G01 X32.294 Y14.578 Z12.226
G01 X32.814 Y14.578 Z12.155
G01 X33.593 Y14.578 Z12.046
G01 X34.113 Y14.578 Z11.922
G01 X34.978 Y14.578 Z11.574
G01 X35.758 Y14.578 Z11.128
G01 X36.017 Y14.578 Z10.930
G01 X36.364 Y14.578 Z10.575
G01 X36.623 Y14.578 Z10.225
G01 X36.797 Y14.578 Z9.938
G01 X37.229 Y14.578 Z9.905
G01 X37.316 Y14.578 Z9.889
G01 X37.489 Y14.578 Z9.916
G01 X37.835 Y14.578 Z9.971
G01 X38.182 Y14.578 Z9.975
G01 X38.528 Y14.578 Z9.934
G01 X38.874 Y14.578 Z9.931
G01 X38.961 Y14.578 Z9.926
G01 X39.307 Y14.578 Z9.973
G01 X39.740 Y14.578 Z9.961
G01 X40.000 Y14.578 Z9.943
G01 X40.260 Y14.578 Z9.950
G01 X40.779 Y14.578 Z10.067
G01 X41.558 Y14.578 Z10.100
G01 X41.991 Y14.578 Z10.126
G01 X42.424 Y14.578 Z10.176
G01 X42.857 Y14.578 Z10.236
G01 X43.290 Y14.578 Z10.307
G01 X43.636 Y14.578 Z10.307
G01 X43.896 Y14.578 Z10.279
G01 X44.242 Y14.578 Z10.374
G01 X44.675 Y14.578 Z10.397
G01 X45.022 Y14.578 Z10.404
G01 X45.368 Y14.578 Z10.424
G01 X45.714 Y14.578 Z10.404
G01 X46.753 Y14.578 Z10.572
G01 X47.100 Y14.578 Z10.584
G01 X47.446 Y14.578 Z10.535
G01 X47.965 Y14.578 Z10.630
G01 X48.658 Y14.578 Z10.718
G01 X49.004 Y14.578 Z10.709
G01 X49.177 Y14.578 Z10.690
G01 X49.697 Y14.578 Z10.823
G01 X49.957 Y14.578 Z10.854
G01 X50.390 Y14.578 Z10.999
G01 X50.736 Y14.578 Z11.050
G01 X51.082 Y14.578 Z11.037
G01 X51.688 Y14.578 Z11.121
G01 X52.121 Y14.578 Z11.226
G01 X52.554 Y14.578 Z11.265
G01 X52.900 Y14.578 Z11.246
G01 X53.593 Y14.578 Z11.426
G01 X54.113 Y14.578 Z11.481
G01 X54.632 Y14.578 Z11.496
G01 X54.978 Y14.578 Z11.560
G01 X55.498 Y14.578 Z11.576
G01 X56.017 Y14.578 Z11.640
G01 X56.364 Y14.578 Z11.709
G01 X56.710 Y14.578 Z11.718
G01 X57.056 Y14.578 Z11.690
G01 X57.403 Y14.578 Z11.670
G01 X57.576 Y14.578 Z11.654
G01 X58.268 Y14.578 Z11.680
G01 X58.701 Y14.578 Z11.627
G01 X59.048 Y14.578 Z11.658
G01 X59.394 Y14.578 Z11.618
G01 X59.654 Y14.578 Z11.555
G01 X60.087 Y14.578 Z11.603
G01 X60.433 Y14.578 Z11.594
G01 X60.693 Y14.578 Z11.554
G01 X61.126 Y14.578 Z11.661
G01 X61.385 Y14.578 Z11.730
G01 X61.732 Y14.578 Z11.807
G01 X61.905 Y14.578 Z11.840
G01 X62.251 Y14.578 Z11.924
G01 X62.597 Y14.578 Z11.959
G01 X63.030 Y14.578 Z12.116
G01 X63.377 Y14.578 Z12.187
G01 X63.550 Y14.578 Z12.219
G01 X63.983 Y14.578 Z12.321
G01 X64.329 Y14.578 Z12.351
G01 X64.675 Y14.578 Z12.331
G01 X65.281 Y14.578 Z12.372
G01 X65.887 Y14.578 Z12.371
G01 X66.234 Y14.578 Z12.313
G01 X66.580 Y14.578 Z12.222
G01 X66.926 Y14.578 Z12.142
G01 X67.446 Y14.578 Z12.036
G01 X67.619 Y14.578 Z12.006
G01 X67.965 Y14.578 Z11.949
G01 X68.312 Y14.578 Z11.833
G01 X68.571 Y14.578 Z11.716
G01 X69.091 Y14.578 Z11.628
G01 X69.437 Y14.578 Z11.497
G01 X69.870 Y14.578 Z11.247
G01 X70.303 Y14.578 Z11.061
G01 X71.169 Y14.578 Z11.223
G01 X71.602 Y14.578 Z11.272
G01 X71.688 Y14.578 Z11.421
G01 X73.160 Y14.578 Z15.457
G01 X73.333 Y14.578 Z15.791
G01 X73.506 Y14.578 Z16.041
G01 X73.766 Y14.578 Z16.286
G01 X74.113 Y14.578 Z16.493
G01 X74.459 Y14.578 Z16.618
G01 X74.805 Y14.578 Z16.679
G01 X78.874 Y14.578 Z16.690
G01 X84.156 Y14.578 Z16.685
G01 X84.502 Y14.578 Z16.636
G01 X84.502 Y14.832 Z16.636
G01 X84.156 Y14.832 Z16.685
G01 X74.892 Y14.832 Z16.687
G01 X74.545 Y14.832 Z16.640
G01 X74.199 Y14.832 Z16.532
G01 X73.853 Y14.832 Z16.346
G01 X73.593 Y14.832 Z16.135
G01 X73.420 Y14.832 Z15.928
G01 X73.247 Y14.832 Z15.636
G01 X73.074 Y14.832 Z15.232
G01 X71.688 Y14.832 Z11.416
G01 X71.602 Y14.832 Z11.242
G01 X70.563 Y14.832 Z11.062
G01 X70.390 Y14.832 Z11.038
G01 X69.957 Y14.832 Z11.209
G01 X69.610 Y14.832 Z11.416
G01 X69.177 Y14.832 Z11.590
G01 X68.831 Y14.832 Z11.668
G01 X68.745 Y14.832 Z11.682
G01 X68.312 Y14.832 Z11.866
G01 X67.879 Y14.832 Z11.985
G01 X67.532 Y14.832 Z12.023
G01 X67.273 Y14.832 Z12.052
G01 X66.753 Y14.832 Z12.224
G01 X65.887 Y14.832 Z12.384
G01 X65.195 Y14.832 Z12.405
G01 X64.848 Y14.832 Z12.358
G01 X64.675 Y14.832 Z12.311
G01 X64.242 Y14.832 Z12.321
G01 X63.896 Y14.832 Z12.274
G01 X63.636 Y14.832 Z12.206
G01 X63.290 Y14.832 Z12.168
G01 X62.944 Y14.832 Z12.072
G01 X62.684 Y14.832 Z11.966
G01 X62.251 Y14.832 Z11.933
G01 X61.905 Y14.832 Z11.850
G01 X61.558 Y14.832 Z11.745
G01 X61.212 Y14.832 Z11.659
G01 X60.866 Y14.832 Z11.586
G01 X60.346 Y14.832 Z11.642
G01 X59.913 Y14.832 Z11.618
G01 X59.740 Y14.832 Z11.580
G01 X59.307 Y14.832 Z11.682
G01 X58.961 Y14.832 Z11.701
G01 X58.528 Y14.832 Z11.650
G01 X57.749 Y14.832 Z11.690
G01 X57.489 Y14.832 Z11.743
G01 X57.056 Y14.832 Z11.757
G01 X56.710 Y14.832 Z11.713
G01 X56.364 Y14.832 Z11.702
G01 X55.931 Y14.832 Z11.624
G01 X55.411 Y14.832 Z11.585
G01 X55.065 Y14.832 Z11.597
G01 X54.719 Y14.832 Z11.550
G01 X54.459 Y14.832 Z11.493
G01 X53.766 Y14.832 Z11.468
G01 X53.333 Y14.832 Z11.386
G01 X52.987 Y14.832 Z11.277
G01 X52.468 Y14.832 Z11.287
G01 X52.121 Y14.832 Z11.236
G01 X51.861 Y14.832 Z11.168
G01 X51.429 Y14.832 Z11.142
G01 X50.996 Y14.832 Z11.044
G01 X50.909 Y14.832 Z11.020
G01 X50.563 Y14.832 Z11.000
G01 X49.784 Y14.832 Z10.873
G01 X49.091 Y14.832 Z10.720
G01 X48.658 Y14.832 Z10.734
G01 X48.312 Y14.832 Z10.677
G01 X48.225 Y14.832 Z10.650
G01 X47.792 Y14.832 Z10.619
G01 X47.273 Y14.832 Z10.556
G01 X46.926 Y14.832 Z10.573
G01 X46.494 Y14.832 Z10.523
G01 X46.147 Y14.832 Z10.458
G01 X45.628 Y14.832 Z10.403
G01 X45.022 Y14.832 Z10.453
G01 X44.242 Y14.832 Z10.399
G01 X43.810 Y14.832 Z10.280
G01 X43.463 Y14.832 Z10.318
G01 X43.030 Y14.832 Z10.290
G01 X42.165 Y14.832 Z10.134
G01 X41.818 Y14.832 Z10.089
G01 X41.472 Y14.832 Z10.097
G01 X40.952 Y14.832 Z10.091
G01 X40.606 Y14.832 Z10.043
G01 X40.346 Y14.832 Z9.995
G01 X39.913 Y14.832 Z9.944
G01 X39.567 Y14.832 Z9.998
G01 X39.221 Y14.832 Z9.997
G01 X38.788 Y14.832 Z9.929
G01 X38.442 Y14.832 Z9.926
G01 X38.095 Y14.832 Z9.973
G01 X37.662 Y14.832 Z9.955
G01 X37.403 Y14.832 Z9.911
G01 X36.883 Y14.832 Z9.980
G01 X36.710 Y14.832 Z10.283
G01 X36.450 Y14.832 Z10.614
G01 X36.017 Y14.832 Z11.042
G01 X35.758 Y14.832 Z11.233
G01 X34.978 Y14.832 Z11.638
G01 X34.459 Y14.832 Z11.810
G01 X34.199 Y14.832 Z11.886
G01 X33.853 Y14.832 Z11.984
G01 X33.160 Y14.832 Z12.106
G01 X32.121 Y14.832 Z12.216
G01 X31.688 Y14.832 Z12.216
G01 X30.736 Y14.832 Z12.287
G01 X30.390 Y14.832 Z12.288
G01 X29.957 Y14.832 Z12.304
G01 X29.524 Y14.832 Z12.249
G01 X29.351 Y14.832 Z12.218
G01 X29.004 Y14.832 Z12.216
G01 X28.571 Y14.832 Z12.157
G01 X28.139 Y14.832 Z12.151
G01 X27.965 Y14.832 Z12.122
G01 X27.792 Y14.832 Z12.173
G01 X27.273 Y14.832 Z12.350
G01 X26.407 Y14.832 Z12.539
G01 X25.541 Y14.832 Z12.642
G01 X24.589 Y14.832 Z12.679
G01 X23.723 Y14.832 Z12.636
G01 X22.857 Y14.832 Z12.517
G01 X22.251 Y14.832 Z12.369
G01 X21.818 Y14.832 Z12.220
G01 X21.299 Y14.832 Z12.212
G01 X20.693 Y14.832 Z12.358
G01 X20.173 Y14.832 Z12.421
G01 X19.740 Y14.832 Z12.404
G01 X19.654 Y14.832 Z12.394
G01 X19.221 Y14.832 Z12.499
G01 X18.442 Y14.832 Z12.550
G01 X17.922 Y14.832 Z12.570
G01 X17.835 Y14.832 Z12.583
G01 X17.749 Y14.832 Z12.713
G01 X16.797 Y14.832 Z15.339
G01 X16.623 Y14.832 Z15.726
G01 X16.450 Y14.832 Z15.976
G01 X16.190 Y14.832 Z16.241
G01 X15.931 Y14.832 Z16.423
G01 X15.584 Y14.832 Z16.577
G01 X15.238 Y14.832 Z16.662
G01 X14.805 Y14.832 Z16.690
G01 X5.714 Y14.832 Z16.680
G01 X5.628 Y14.832 Z16.673
G01 X5.628 Y15.086 Z16.673
G01 X6.320 Y15.086 Z16.690
G01 X15.065 Y15.086 Z16.681
G01 X15.411 Y15.086 Z16.626
G01 X15.758 Y15.086 Z16.507
G01 X16.017 Y15.086 Z16.371
G01 X16.277 Y15.086 Z16.159
G01 X16.537 Y15.086 Z15.863
G01 X16.623 Y15.086 Z15.725
G01 X16.797 Y15.086 Z15.337
G01 X17.749 Y15.086 Z12.708
G01 X17.835 Y15.086 Z12.595
G01 X19.307 Y15.086 Z12.467
G01 X19.740 Y15.086 Z12.359
G01 X20.346 Y15.086 Z12.356
G01 X21.039 Y15.086 Z12.225
G01 X21.212 Y15.086 Z12.283
G01 X21.732 Y15.086 Z12.490
G01 X22.511 Y15.086 Z12.699
G01 X23.290 Y15.086 Z12.831
G01 X24.156 Y15.086 Z12.904
G01 X25.108 Y15.086 Z12.910
G01 X26.147 Y15.086 Z12.837
G01 X27.013 Y15.086 Z12.708
G01 X27.792 Y15.086 Z12.533
G01 X28.398 Y15.086 Z12.339
G01 X28.831 Y15.086 Z12.147
G01 X29.264 Y15.086 Z12.166
G01 X29.437 Y15.086 Z12.152
G01 X29.870 Y15.086 Z12.233
G01 X30.736 Y15.086 Z12.270
G01 X31.429 Y15.086 Z12.218
G01 X31.775 Y15.086 Z12.191
G01 X32.294 Y15.086 Z12.167
G01 X32.554 Y15.086 Z12.144
G01 X32.900 Y15.086 Z12.112
G01 X33.766 Y15.086 Z11.980
G01 X34.113 Y15.086 Z11.900
G01 X34.545 Y15.086 Z11.831
G01 X34.978 Y15.086 Z11.695
G01 X35.584 Y15.086 Z11.417
G01 X35.931 Y15.086 Z11.195
G01 X36.450 Y15.086 Z10.733
G01 X36.710 Y15.086 Z10.441
G01 X36.970 Y15.086 Z10.043
G01 X37.056 Y15.086 Z9.952
G01 X37.403 Y15.086 Z9.915
G01 X37.835 Y15.086 Z9.954
G01 X38.268 Y15.086 Z9.951
G01 X38.701 Y15.086 Z9.953
G01 X38.961 Y15.086 Z9.955
G01 X39.307 Y15.086 Z10.004
G01 X39.654 Y15.086 Z9.996
G01 X39.913 Y15.086 Z9.958
G01 X40.260 Y15.086 Z10.019
G01 X41.299 Y15.086 Z10.101
G01 X41.645 Y15.086 Z10.094
G01 X42.165 Y15.086 Z10.145
G01 X42.511 Y15.086 Z10.197
G01 X43.030 Y15.086 Z10.322
G01 X43.463 Y15.086 Z10.345
G01 X43.723 Y15.086 Z10.311
G01 X44.416 Y15.086 Z10.425
G01 X45.022 Y15.086 Z10.471
G01 X45.974 Y15.086 Z10.471
G01 X46.407 Y15.086 Z10.523
G01 X46.840 Y15.086 Z10.562
G01 X47.186 Y15.086 Z10.557
G01 X47.532 Y15.086 Z10.614
G01 X48.225 Y15.086 Z10.626
G01 X48.571 Y15.086 Z10.703
G01 X49.004 Y15.086 Z10.733
G01 X49.524 Y15.086 Z10.837
G01 X50.043 Y15.086 Z10.917
G01 X50.476 Y15.086 Z11.005
G01 X50.823 Y15.086 Z11.018
G01 X51.429 Y15.086 Z11.169
G01 X51.861 Y15.086 Z11.200
G01 X52.035 Y15.086 Z11.199
G01 X52.468 Y15.086 Z11.287
G01 X52.900 Y15.086 Z11.306
G01 X53.074 Y15.086 Z11.314
G01 X53.506 Y15.086 Z11.422
G01 X53.939 Y15.086 Z11.458
G01 X54.372 Y15.086 Z11.485
G01 X54.892 Y15.086 Z11.576
G01 X55.584 Y15.086 Z11.653
G01 X55.931 Y15.086 Z11.644
G01 X56.104 Y15.086 Z11.627
G01 X56.883 Y15.086 Z11.777
G01 X57.316 Y15.086 Z11.799
G01 X57.662 Y15.086 Z11.760
G01 X57.922 Y15.086 Z11.680
G01 X58.355 Y15.086 Z11.717
G01 X58.701 Y15.086 Z11.691
G01 X59.048 Y15.086 Z11.721
G01 X59.394 Y15.086 Z11.688
G01 X59.740 Y15.086 Z11.624
G01 X59.913 Y15.086 Z11.639
G01 X60.260 Y15.086 Z11.671
G01 X60.606 Y15.086 Z11.649
G01 X60.866 Y15.086 Z11.622
G01 X61.212 Y15.086 Z11.631
G01 X61.558 Y15.086 Z11.744
G01 X61.732 Y15.086 Z11.775
G01 X62.078 Y15.086 Z11.881
G01 X62.771 Y15.086 Z11.980
G01 X63.290 Y15.086 Z12.148
G01 X63.636 Y15.086 Z12.204
G01 X63.983 Y15.086 Z12.297
G01 X64.329 Y15.086 Z12.328
G01 X64.589 Y15.086 Z12.312
G01 X65.022 Y15.086 Z12.405
G01 X65.455 Y15.086 Z12.412
G01 X65.974 Y15.086 Z12.358
G01 X66.234 Y15.086 Z12.312
G01 X66.667 Y15.086 Z12.275
G01 X67.100 Y15.086 Z12.163
G01 X67.532 Y15.086 Z12.008
G01 X68.052 Y15.086 Z11.942
G01 X68.398 Y15.086 Z11.859
G01 X68.831 Y15.086 Z11.688
G01 X68.918 Y15.086 Z11.642
G01 X69.351 Y15.086 Z11.542
G01 X69.697 Y15.086 Z11.389
G01 X69.957 Y15.086 Z11.217
G01 X70.390 Y15.086 Z11.068
G01 X70.476 Y15.086 Z11.029
G01 X71.169 Y15.086 Z11.170
G01 X71.602 Y15.086 Z11.223
G01 X71.775 Y15.086 Z11.650
G01 X73.160 Y15.086 Z15.454
G01 X73.333 Y15.086 Z15.790
G01 X73.506 Y15.086 Z16.040
G01 X73.766 Y15.086 Z16.285
G01 X74.113 Y15.086 Z16.493
G01 X74.459 Y15.086 Z16.618
G01 X74.805 Y15.086 Z16.679
G01 X79.481 Y15.086 Z16.690
G01 X84.156 Y15.086 Z16.686
G01 X84.502 Y15.086 Z16.636
G01 X84.502 Y15.340 Z16.636
G01 X84.156 Y15.340 Z16.686
G01 X74.892 Y15.340 Z16.687
G01 X74.545 Y15.340 Z16.639
G01 X74.199 Y15.340 Z16.531
G01 X73.853 Y15.340 Z16.345
G01 X73.593 Y15.340 Z16.133
G01 X73.420 Y15.340 Z15.927
G01 X73.247 Y15.340 Z15.633
G01 X73.074 Y15.340 Z15.227
G01 X71.602 Y15.340 Z11.182
G01 X70.909 Y15.340 Z11.112
G01 X70.563 Y15.340 Z11.044
G01 X70.043 Y15.340 Z11.217
G01 X69.957 Y15.340 Z11.234
G01 X69.524 Y15.340 Z11.463
G01 X68.485 Y15.340 Z11.843
G01 X68.052 Y15.340 Z11.935
G01 X67.792 Y15.340 Z11.957
G01 X67.619 Y15.340 Z12.019
G01 X67.186 Y15.340 Z12.178
G01 X66.667 Y15.340 Z12.295
G01 X66.320 Y15.340 Z12.324
G01 X66.061 Y15.340 Z12.308
G01 X65.714 Y15.340 Z12.386
G01 X65.195 Y15.340 Z12.411
G01 X64.848 Y15.340 Z12.373
G01 X64.416 Y15.340 Z12.305
G01 X64.069 Y15.340 Z12.287
G01 X63.810 Y15.340 Z12.236
G01 X63.636 Y15.340 Z12.179
G01 X63.290 Y15.340 Z12.137
G01 X62.684 Y15.340 Z11.986
G01 X62.424 Y15.340 Z11.909
G01 X61.818 Y15.340 Z11.787
G01 X61.472 Y15.340 Z11.718
G01 X61.299 Y15.340 Z11.663
G01 X60.866 Y15.340 Z11.650
G01 X60.693 Y15.340 Z11.644
G01 X60.346 Y15.340 Z11.675
G01 X59.913 Y15.340 Z11.641
G01 X59.481 Y15.340 Z11.697
G01 X58.874 Y15.340 Z11.707
G01 X58.528 Y15.340 Z11.760
G01 X58.182 Y15.340 Z11.759
G01 X57.922 Y15.340 Z11.725
G01 X57.749 Y15.340 Z11.751
G01 X57.403 Y15.340 Z11.806
G01 X57.056 Y15.340 Z11.806
G01 X56.537 Y15.340 Z11.749
G01 X56.190 Y15.340 Z11.664
G01 X55.844 Y15.340 Z11.713
G01 X55.411 Y15.340 Z11.689
G01 X54.978 Y15.340 Z11.611
G01 X54.632 Y15.340 Z11.595
G01 X54.372 Y15.340 Z11.543
G01 X54.026 Y15.340 Z11.413
G01 X53.506 Y15.340 Z11.432
G01 X53.160 Y15.340 Z11.387
G01 X52.814 Y15.340 Z11.316
G01 X52.294 Y15.340 Z11.229
G01 X52.121 Y15.340 Z11.195
G01 X51.688 Y15.340 Z11.216
G01 X51.342 Y15.340 Z11.171
G01 X50.736 Y15.340 Z11.023
G01 X50.390 Y15.340 Z10.995
G01 X49.957 Y15.340 Z10.878
G01 X49.610 Y15.340 Z10.868
G01 X49.091 Y15.340 Z10.761
G01 X48.658 Y15.340 Z10.660
G01 X48.312 Y15.340 Z10.622
G01 X47.965 Y15.340 Z10.607
G01 X47.532 Y15.340 Z10.608
G01 X47.273 Y15.340 Z10.569
G01 X46.840 Y15.340 Z10.593
G01 X46.494 Y15.340 Z10.551
G01 X46.320 Y15.340 Z10.516
G01 X45.887 Y15.340 Z10.552
G01 X45.195 Y15.340 Z10.542
G01 X44.762 Y15.340 Z10.447
G01 X44.675 Y15.340 Z10.422
G01 X43.983 Y15.340 Z10.380
G01 X43.723 Y15.340 Z10.336
G01 X43.290 Y15.340 Z10.355
G01 X42.857 Y15.340 Z10.301
G01 X42.511 Y15.340 Z10.216
G01 X41.991 Y15.340 Z10.209
G01 X41.645 Y15.340 Z10.152
G01 X41.385 Y15.340 Z10.094
G01 X40.952 Y15.340 Z10.050
G01 X40.606 Y15.340 Z10.052
G01 X40.000 Y15.340 Z10.003
G01 X39.827 Y15.340 Z9.966
G01 X39.221 Y15.340 Z10.003
G01 X38.874 Y15.340 Z9.966
G01 X38.442 Y15.340 Z9.985
G01 X37.922 Y15.340 Z9.930
G01 X37.143 Y15.340 Z9.924
G01 X36.883 Y15.340 Z10.361
G01 X36.623 Y15.340 Z10.678
G01 X36.277 Y15.340 Z10.992
G01 X35.671 Y15.340 Z11.428
G01 X35.325 Y15.340 Z11.616
G01 X34.805 Y15.340 Z11.803
G01 X34.372 Y15.340 Z11.894
G01 X34.026 Y15.340 Z11.918
G01 X33.593 Y15.340 Z12.030
G01 X33.247 Y15.340 Z12.052
G01 X32.987 Y15.340 Z12.067
G01 X32.641 Y15.340 Z12.110
G01 X32.294 Y15.340 Z12.113
G01 X31.948 Y15.340 Z12.166
G01 X31.169 Y15.340 Z12.208
G01 X30.649 Y15.340 Z12.221
G01 X30.130 Y15.340 Z12.183
G01 X29.697 Y15.340 Z12.132
G01 X29.524 Y15.340 Z12.245
G01 X29.004 Y15.340 Z12.483
G01 X28.225 Y15.340 Z12.727
G01 X27.273 Y15.340 Z12.926
G01 X26.234 Y15.340 Z13.058
G01 X25.108 Y15.340 Z13.117
G01 X24.069 Y15.340 Z13.095
G01 X23.117 Y15.340 Z13.003
G01 X22.251 Y15.340 Z12.848
G01 X21.558 Y15.340 Z12.661
G01 X20.952 Y15.340 Z12.436
G01 X20.606 Y15.340 Z12.269
G01 X20.519 Y15.340 Z12.251
G01 X20.173 Y15.340 Z12.287
G01 X19.913 Y15.340 Z12.298
G01 X19.307 Y15.340 Z12.427
G01 X18.442 Y15.340 Z12.516
G01 X17.835 Y15.340 Z12.593
G01 X17.749 Y15.340 Z12.704
G01 X16.710 Y15.340 Z15.543
G01 X16.623 Y15.340 Z15.724
G01 X16.450 Y15.340 Z15.974
G01 X16.190 Y15.340 Z16.240
G01 X15.931 Y15.340 Z16.423
G01 X15.584 Y15.340 Z16.577
G01 X15.238 Y15.340 Z16.662
G01 X14.805 Y15.340 Z16.690
G01 X5.714 Y15.340 Z16.680
G01 X5.628 Y15.340 Z16.673
G01 X5.628 Y15.594 Z16.673
G01 X6.320 Y15.594 Z16.690
G01 X15.065 Y15.594 Z16.681
G01 X15.411 Y15.594 Z16.626
G01 X15.671 Y15.594 Z16.544
G01 X16.017 Y15.594 Z16.370
G01 X16.277 Y15.594 Z16.159
G01 X16.537 Y15.594 Z15.861
G01 X16.623 Y15.594 Z15.723
G01 X16.797 Y15.594 Z15.333
G01 X17.749 Y15.594 Z12.702
G01 X17.835 Y15.594 Z12.563
G01 X18.268 Y15.594 Z12.492
G01 X18.961 Y15.594 Z12.378
G01 X19.481 Y15.594 Z12.358
G01 X19.913 Y15.594 Z12.260
G01 X20.087 Y15.594 Z12.229
G01 X20.606 Y15.594 Z12.504
G01 X21.299 Y15.594 Z12.769
G01 X21.991 Y15.594 Z12.959
G01 X22.857 Y15.594 Z13.127
G01 X23.810 Y15.594 Z13.240
G01 X24.935 Y15.594 Z13.295
G01 X26.147 Y15.594 Z13.268
G01 X27.273 Y15.594 Z13.166
G01 X28.225 Y15.594 Z13.014
G01 X29.004 Y15.594 Z12.833
G01 X29.610 Y15.594 Z12.640
G01 X30.130 Y15.594 Z12.408
G01 X30.390 Y15.594 Z12.248
G01 X30.476 Y15.594 Z12.181
G01 X30.563 Y15.594 Z12.141
G01 X31.775 Y15.594 Z12.154
G01 X32.294 Y15.594 Z12.087
G01 X32.727 Y15.594 Z12.102
G01 X33.506 Y15.594 Z12.053
G01 X34.026 Y15.594 Z11.924
G01 X34.459 Y15.594 Z11.901
G01 X34.978 Y15.594 Z11.784
G01 X35.325 Y15.594 Z11.660
G01 X35.671 Y15.594 Z11.462
G01 X35.844 Y15.594 Z11.345
G01 X36.190 Y15.594 Z11.154
G01 X36.450 Y15.594 Z10.955
G01 X36.710 Y15.594 Z10.699
G01 X37.056 Y15.594 Z10.263
G01 X37.229 Y15.594 Z9.974
G01 X37.316 Y15.594 Z9.950
G01 X37.835 Y15.594 Z9.922
G01 X38.009 Y15.594 Z9.919
G01 X38.442 Y15.594 Z9.981
G01 X38.874 Y15.594 Z9.967
G01 X39.221 Y15.594 Z10.000
G01 X39.654 Y15.594 Z9.979
G01 X40.173 Y15.594 Z10.063
G01 X40.952 Y15.594 Z10.051
G01 X41.299 Y15.594 Z10.080
G01 X41.818 Y15.594 Z10.227
G01 X42.165 Y15.594 Z10.268
G01 X42.511 Y15.594 Z10.265
G01 X42.684 Y15.594 Z10.246
G01 X43.117 Y15.594 Z10.342
G01 X43.550 Y15.594 Z10.363
G01 X43.636 Y15.594 Z10.362
G01 X44.069 Y15.594 Z10.444
G01 X44.416 Y15.594 Z10.449
G01 X44.589 Y15.594 Z10.433
G01 X44.675 Y15.594 Z10.444
G01 X45.022 Y15.594 Z10.550
G01 X45.455 Y15.594 Z10.598
G01 X45.714 Y15.594 Z10.604
G01 X46.061 Y15.594 Z10.605
G01 X46.407 Y15.594 Z10.546
G01 X46.840 Y15.594 Z10.600
G01 X47.273 Y15.594 Z10.588
G01 X47.792 Y15.594 Z10.645
G01 X48.139 Y15.594 Z10.649
G01 X48.571 Y15.594 Z10.630
G01 X49.091 Y15.594 Z10.765
G01 X49.524 Y15.594 Z10.875
G01 X49.870 Y15.594 Z10.903
G01 X50.130 Y15.594 Z10.900
G01 X50.823 Y15.594 Z11.045
G01 X51.515 Y15.594 Z11.197
G01 X51.861 Y15.594 Z11.215
G01 X52.121 Y15.594 Z11.209
G01 X52.641 Y15.594 Z11.319
G01 X53.247 Y15.594 Z11.429
G01 X53.680 Y15.594 Z11.444
G01 X54.026 Y15.594 Z11.457
G01 X54.459 Y15.594 Z11.588
G01 X54.805 Y15.594 Z11.639
G01 X55.152 Y15.594 Z11.656
G01 X55.498 Y15.594 Z11.733
G01 X55.844 Y15.594 Z11.752
G01 X56.190 Y15.594 Z11.713
G01 X56.883 Y15.594 Z11.782
G01 X57.403 Y15.594 Z11.797
G01 X57.922 Y15.594 Z11.770
G01 X58.442 Y15.594 Z11.793
G01 X58.788 Y15.594 Z11.754
G01 X58.961 Y15.594 Z11.711
G01 X59.567 Y15.594 Z11.712
G01 X59.827 Y15.594 Z11.684
G01 X60.173 Y15.594 Z11.714
G01 X60.519 Y15.594 Z11.680
G01 X60.693 Y15.594 Z11.641
G01 X61.212 Y15.594 Z11.698
G01 X61.472 Y15.594 Z11.708
G01 X61.905 Y15.594 Z11.778
G01 X62.165 Y15.594 Z11.798
G01 X62.944 Y15.594 Z12.066
G01 X63.290 Y15.594 Z12.126
G01 X63.723 Y15.594 Z12.154
G01 X63.983 Y15.594 Z12.223
G01 X64.242 Y15.594 Z12.272
G01 X64.589 Y15.594 Z12.349
G01 X65.281 Y15.594 Z12.391
G01 X65.801 Y15.594 Z12.352
G01 X65.974 Y15.594 Z12.341
G01 X66.494 Y15.594 Z12.329
G01 X67.186 Y15.594 Z12.236
G01 X67.532 Y15.594 Z12.128
G01 X67.792 Y15.594 Z12.030
G01 X68.052 Y15.594 Z11.949
G01 X68.485 Y15.594 Z11.863
G01 X69.264 Y15.594 Z11.588
G01 X69.784 Y15.594 Z11.302
G01 X70.216 Y15.594 Z11.193
G01 X70.563 Y15.594 Z11.051
G01 X70.649 Y15.594 Z11.039
G01 X71.169 Y15.594 Z11.121
G01 X71.602 Y15.594 Z11.201
G01 X71.948 Y15.594 Z12.117
G01 X73.160 Y15.594 Z15.451
G01 X73.333 Y15.594 Z15.789
G01 X73.506 Y15.594 Z16.038
G01 X73.766 Y15.594 Z16.283
G01 X74.113 Y15.594 Z16.492
G01 X74.459 Y15.594 Z16.617
G01 X74.805 Y15.594 Z16.679
G01 X79.567 Y15.594 Z16.690
G01 X84.156 Y15.594 Z16.686
G01 X84.502 Y15.594 Z16.636
G01 X84.502 Y15.848 Z16.636
G01 X84.156 Y15.848 Z16.686
G01 X74.892 Y15.848 Z16.687
G01 X74.545 Y15.848 Z16.639
G01 X74.199 Y15.848 Z16.531
G01 X73.853 Y15.848 Z16.343
G01 X73.593 Y15.848 Z16.132
G01 X73.420 Y15.848 Z15.926
G01 X73.247 Y15.848 Z15.630
G01 X73.074 Y15.848 Z15.223
G01 X71.688 Y15.848 Z11.398
G01 X71.602 Y15.848 Z11.201
G01 X71.169 Y15.848 Z11.137
G01 X70.649 Y15.848 Z11.004
G01 X70.303 Y15.848 Z11.155
G01 X69.697 Y15.848 Z11.371
G01 X69.351 Y15.848 Z11.564
G01 X68.918 Y15.848 Z11.721
G01 X68.139 Y15.848 Z11.966
G01 X67.792 Y15.848 Z12.097
G01 X67.186 Y15.848 Z12.278
G01 X66.840 Y15.848 Z12.321
G01 X66.407 Y15.848 Z12.336
G01 X65.974 Y15.848 Z12.358
G01 X65.628 Y15.848 Z12.325
G01 X64.762 Y15.848 Z12.348
G01 X64.416 Y15.848 Z12.305
G01 X64.069 Y15.848 Z12.216
G01 X63.723 Y15.848 Z12.157
G01 X63.550 Y15.848 Z12.114
G01 X63.117 Y15.848 Z12.077
G01 X62.684 Y15.848 Z11.953
G01 X61.991 Y15.848 Z11.740
G01 X61.645 Y15.848 Z11.740
G01 X61.299 Y15.848 Z11.740
G01 X60.779 Y15.848 Z11.651
G01 X60.606 Y15.848 Z11.676
G01 X60.260 Y15.848 Z11.733
G01 X59.827 Y15.848 Z11.730
G01 X59.394 Y15.848 Z11.781
G01 X58.788 Y15.848 Z11.753
G01 X58.268 Y15.848 Z11.830
G01 X57.835 Y15.848 Z11.821
G01 X57.489 Y15.848 Z11.797
G01 X57.056 Y15.848 Z11.759
G01 X56.537 Y15.848 Z11.773
G01 X56.190 Y15.848 Z11.732
G01 X55.844 Y15.848 Z11.770
G01 X55.411 Y15.848 Z11.723
G01 X55.152 Y15.848 Z11.652
G01 X54.632 Y15.848 Z11.622
G01 X54.286 Y15.848 Z11.544
G01 X54.113 Y15.848 Z11.501
G01 X53.766 Y15.848 Z11.472
G01 X53.593 Y15.848 Z11.437
G01 X53.160 Y15.848 Z11.421
G01 X52.381 Y15.848 Z11.326
G01 X51.948 Y15.848 Z11.215
G01 X51.169 Y15.848 Z11.115
G01 X50.476 Y15.848 Z11.004
G01 X50.043 Y15.848 Z10.903
G01 X49.697 Y15.848 Z10.893
G01 X49.091 Y15.848 Z10.783
G01 X48.745 Y15.848 Z10.708
G01 X48.571 Y15.848 Z10.661
G01 X48.398 Y15.848 Z10.661
G01 X48.052 Y15.848 Z10.702
G01 X47.706 Y15.848 Z10.682
G01 X47.013 Y15.848 Z10.588
G01 X46.580 Y15.848 Z10.576
G01 X45.974 Y15.848 Z10.640
G01 X45.108 Y15.848 Z10.600
G01 X44.762 Y15.848 Z10.523
G01 X44.589 Y15.848 Z10.478
G01 X44.156 Y15.848 Z10.494
G01 X43.723 Y15.848 Z10.436
G01 X43.463 Y15.848 Z10.365
G01 X43.030 Y15.848 Z10.316
G01 X42.771 Y15.848 Z10.253
G01 X42.338 Y15.848 Z10.296
G01 X41.991 Y15.848 Z10.270
G01 X41.558 Y15.848 Z10.167
G01 X41.212 Y15.848 Z10.069
G01 X40.693 Y15.848 Z10.104
G01 X39.913 Y15.848 Z10.045
G01 X39.740 Y15.848 Z10.029
G01 X39.394 Y15.848 Z10.019
G01 X38.874 Y15.848 Z9.942
G01 X38.355 Y15.848 Z9.978
G01 X37.835 Y15.848 Z9.947
G01 X37.662 Y15.848 Z9.932
G01 X37.403 Y15.848 Z9.947
G01 X37.316 Y15.848 Z10.013
G01 X37.056 Y15.848 Z10.405
G01 X36.537 Y15.848 Z10.962
G01 X36.277 Y15.848 Z11.180
G01 X36.017 Y15.848 Z11.337
G01 X35.584 Y15.848 Z11.524
G01 X35.238 Y15.848 Z11.714
G01 X34.892 Y15.848 Z11.823
G01 X34.286 Y15.848 Z11.923
G01 X34.026 Y15.848 Z11.926
G01 X33.506 Y15.848 Z12.063
G01 X32.987 Y15.848 Z12.091
G01 X32.294 Y15.848 Z12.076
G01 X32.035 Y15.848 Z12.065
G01 X31.602 Y15.848 Z12.127
G01 X31.429 Y15.848 Z12.129
G01 X31.255 Y15.848 Z12.257
G01 X30.909 Y15.848 Z12.502
G01 X30.563 Y15.848 Z12.678
G01 X29.957 Y15.848 Z12.905
G01 X29.177 Y15.848 Z13.104
G01 X28.312 Y15.848 Z13.258
G01 X27.186 Y15.848 Z13.386
G01 X25.974 Y15.848 Z13.448
G01 X24.762 Y15.848 Z13.439
G01 X23.636 Y15.848 Z13.363
G01 X22.597 Y15.848 Z13.223
G01 X21.645 Y15.848 Z13.020
G01 X20.866 Y15.848 Z12.784
G01 X20.173 Y15.848 Z12.491
G01 X19.740 Y15.848 Z12.247
G01 X19.394 Y15.848 Z12.300
G01 X18.788 Y15.848 Z12.319
G01 X17.835 Y15.848 Z12.504
G01 X17.662 Y15.848 Z12.938
G01 X16.710 Y15.848 Z15.541
G01 X16.623 Y15.848 Z15.722
G01 X16.450 Y15.848 Z15.972
G01 X16.190 Y15.848 Z16.239
G01 X15.931 Y15.848 Z16.422
G01 X15.584 Y15.848 Z16.577
G01 X15.238 Y15.848 Z16.662
G01 X14.805 Y15.848 Z16.690
G01 X5.714 Y15.848 Z16.680
G01 X5.628 Y15.848 Z16.673
G01 X5.628 Y16.102 Z16.673
G01 X6.320 Y16.102 Z16.690
G01 X15.065 Y16.102 Z16.680
G01 X15.411 Y16.102 Z16.626
G01 X15.671 Y16.102 Z16.544
G01 X16.017 Y16.102 Z16.369
G01 X16.277 Y16.102 Z16.158
G01 X16.537 Y16.102 Z15.859
G01 X16.623 Y16.102 Z15.721
G01 X16.797 Y16.102 Z15.329
G01 X17.835 Y16.102 Z12.457
G01 X17.922 Y16.102 Z12.395
G01 X18.355 Y16.102 Z12.322
G01 X18.528 Y16.102 Z12.295
G01 X18.874 Y16.102 Z12.259
G01 X19.307 Y16.102 Z12.202
G01 X19.394 Y16.102 Z12.229
G01 X19.913 Y16.102 Z12.534
G01 X20.606 Y16.102 Z12.831
G01 X21.385 Y16.102 Z13.076
G01 X22.338 Y16.102 Z13.292
G01 X23.463 Y16.102 Z13.460
G01 X24.675 Y16.102 Z13.562
G01 X26.061 Y16.102 Z13.598
G01 X27.446 Y16.102 Z13.552
G01 X28.658 Y16.102 Z13.445
G01 X29.697 Y16.102 Z13.288
G01 X30.476 Y16.102 Z13.115
G01 X30.996 Y16.102 Z12.955
G01 X31.429 Y16.102 Z12.782
G01 X31.861 Y16.102 Z12.524
G01 X32.121 Y16.102 Z12.284
G01 X32.294 Y16.102 Z12.048
G01 X33.247 Y16.102 Z12.082
G01 X33.680 Y16.102 Z12.009
G01 X33.939 Y16.102 Z11.943
G01 X34.026 Y16.102 Z11.910
G01 X34.459 Y16.102 Z11.883
G01 X34.978 Y16.102 Z11.788
G01 X35.325 Y16.102 Z11.654
G01 X35.498 Y16.102 Z11.570
G01 X35.844 Y16.102 Z11.462
G01 X36.190 Y16.102 Z11.285
G01 X36.450 Y16.102 Z11.095
G01 X36.970 Y16.102 Z10.623
G01 X37.229 Y16.102 Z10.311
G01 X37.489 Y16.102 Z9.910
G01 X37.576 Y16.102 Z9.908
G01 X38.182 Y16.102 Z10.015
G01 X38.615 Y16.102 Z10.016
G01 X38.961 Y16.102 Z9.950
G01 X39.394 Y16.102 Z10.047
G01 X39.740 Y16.102 Z10.065
G01 X39.913 Y16.102 Z10.045
G01 X40.519 Y16.102 Z10.122
G01 X40.952 Y16.102 Z10.121
G01 X41.212 Y16.102 Z10.083
G01 X41.558 Y16.102 Z10.183
G01 X42.251 Y16.102 Z10.287
G01 X42.597 Y16.102 Z10.286
G01 X43.030 Y16.102 Z10.351
G01 X43.290 Y16.102 Z10.345
G01 X43.810 Y16.102 Z10.475
G01 X44.242 Y16.102 Z10.511
G01 X44.589 Y16.102 Z10.520
G01 X45.022 Y16.102 Z10.636
G01 X45.455 Y16.102 Z10.659
G01 X45.801 Y16.102 Z10.653
G01 X46.147 Y16.102 
G01 X46.753 Y16.102 Z10.620
G01 X46.926 Y16.102 Z10.599
G01 X47.273 Y16.102 Z10.677
G01 X47.706 Y16.102 Z10.700
G01 X48.052 Y16.102 Z10.719
G01 X48.312 Y16.102 Z10.696
G01 X48.745 Y16.102 Z10.743
G01 X49.091 Y16.102 Z10.804
G01 X49.437 Y16.102 Z10.815
G01 X50.130 Y16.102 Z10.943
G01 X50.476 Y16.102 Z11.035
G01 X50.909 Y16.102 Z11.082
G01 X51.342 Y16.102 Z11.104
G01 X51.861 Y16.102 Z11.234
G01 X52.468 Y16.102 Z11.370
G01 X53.247 Y16.102 Z11.415
G01 X53.420 Y16.102 Z11.422
G01 X53.766 Y16.102 Z11.499
G01 X54.199 Y16.102 Z11.526
G01 X54.632 Y16.102 Z11.610
G01 X55.065 Y16.102 Z11.624
G01 X55.671 Y16.102 Z11.741
G01 X56.104 Y16.102 Z11.752
G01 X56.537 Y16.102 Z11.785
G01 X56.883 Y16.102 Z11.847
G01 X57.229 Y16.102 
G01 X57.403 Y16.102 Z11.820
G01 X58.182 Y16.102 Z11.877
G01 X58.615 Y16.102 Z11.865
G01 X59.048 Y16.102 Z11.802
G01 X59.481 Y16.102 Z11.814
G01 X59.827 Y16.102 Z11.772
G01 X60.000 Y16.102 Z11.734
G01 X60.346 Y16.102 Z11.731
G01 X60.693 Y16.102 Z11.675
G01 X60.866 Y16.102 Z11.667
G01 X61.299 Y16.102 Z11.747
G01 X61.645 Y16.102 Z11.748
G01 X61.818 Y16.102 Z11.749
G01 X62.165 Y16.102 Z11.790
G01 X62.597 Y16.102 Z11.923
G01 X63.377 Y16.102 Z12.073
G01 X63.723 Y16.102 Z12.200
G01 X64.069 Y16.102 Z12.261
G01 X64.416 Y16.102 Z12.277
G01 X65.108 Y16.102 Z12.375
G01 X65.714 Y16.102 Z12.381
G01 X66.407 Y16.102 Z12.314
G01 X66.840 Y16.102 Z12.336
G01 X67.273 Y16.102 Z12.275
G01 X67.965 Y16.102 Z12.077
G01 X68.312 Y16.102 Z11.924
G01 X68.745 Y16.102 Z11.751
G01 X69.264 Y16.102 Z11.600
G01 X70.216 Y16.102 Z11.186
G01 X70.476 Y16.102 Z11.052
G01 X70.563 Y16.102 Z11.013
G01 X70.649 Y16.102 Z11.003
G01 X71.255 Y16.102 Z11.149
G01 X71.602 Y16.102 Z11.192
G01 X71.948 Y16.102 Z12.111
G01 X73.160 Y16.102 Z15.448
G01 X73.333 Y16.102 Z15.787
G01 X73.506 Y16.102 Z16.037
G01 X73.766 Y16.102 Z16.282
G01 X74.113 Y16.102 Z16.492
G01 X74.459 Y16.102 Z16.617
G01 X74.805 Y16.102 Z16.679
G01 X79.048 Y16.102 Z16.690
G01 X84.156 Y16.102 Z16.686
G01 X84.502 Y16.102 Z16.636
G01 X84.502 Y16.356 Z16.636
G01 X84.156 Y16.356 Z16.686
G01 X74.892 Y16.356 Z16.686
G01 X74.545 Y16.356 Z16.639
G01 X74.199 Y16.356 Z16.530
G01 X73.853 Y16.356 Z16.342
G01 X73.593 Y16.356 Z16.131
G01 X73.420 Y16.356 Z15.925
G01 X73.247 Y16.356 Z15.627
G01 X73.074 Y16.356 Z15.219
G01 X71.602 Y16.356 Z11.175
G01 X71.169 Y16.356 Z11.123
G01 X70.649 Y16.356 Z10.990
G01 X70.390 Y16.356 Z11.113
G01 X69.697 Y16.356 Z11.482
G01 X69.351 Y16.356 Z11.589
G01 X69.004 Y16.356 Z11.666
G01 X67.965 Y16.356 Z12.090
G01 X67.359 Y16.356 Z12.250
G01 X66.926 Y16.356 Z12.316
G01 X66.580 Y16.356 Z12.313
G01 X66.494 Y16.356 Z12.307
G01 X66.147 Y16.356 Z12.378
G01 X65.455 Y16.356 Z12.413
G01 X65.022 Y16.356 Z12.377
G01 X64.589 Y16.356 Z12.271
G01 X64.069 Y16.356 Z12.272
G01 X63.723 Y16.356 Z12.209
G01 X63.290 Y16.356 Z12.040
G01 X62.684 Y16.356 Z11.935
G01 X62.338 Y16.356 Z11.825
G01 X61.818 Y16.356 Z11.784
G01 X61.558 Y16.356 Z11.731
G01 X61.212 Y16.356 Z11.709
G01 X61.039 Y16.356 Z11.688
G01 X60.693 Y16.356 Z11.715
G01 X60.433 Y16.356 Z11.715
G01 X60.000 Y16.356 Z11.758
G01 X59.567 Y16.356 Z11.822
G01 X59.134 Y16.356 Z11.826
G01 X58.701 Y16.356 Z11.920
G01 X58.268 Y16.356 Z11.923
G01 X57.662 Y16.356 Z11.852
G01 X57.489 Y16.356 Z11.864
G01 X57.143 Y16.356 Z11.914
G01 X56.797 Y16.356 Z11.895
G01 X56.450 Y16.356 Z11.817
G01 X56.017 Y16.356 Z11.762
G01 X55.844 Y16.356 Z11.719
G01 X55.498 Y16.356 Z11.735
G01 X55.152 Y16.356 Z11.692
G01 X54.978 Y16.356 Z11.660
G01 X54.632 Y16.356 Z11.668
G01 X54.286 Y16.356 Z11.611
G01 X54.026 Y16.356 Z11.544
G01 X53.593 Y16.356 Z11.502
G01 X53.160 Y16.356 Z11.427
G01 X52.814 Y16.356 Z11.436
G01 X52.381 Y16.356 Z11.378
G01 X51.948 Y16.356 Z11.283
G01 X51.602 Y16.356 Z11.207
G01 X51.169 Y16.356 Z11.075
G01 X50.823 Y16.356 Z11.088
G01 X50.390 Y16.356 Z11.023
G01 X49.957 Y16.356 Z10.932
G01 X49.524 Y16.356 Z10.831
G01 X49.004 Y16.356 Z10.823
G01 X48.658 Y16.356 Z10.765
G01 X48.312 Y16.356 Z10.713
G01 X48.225 Y16.356 Z10.691
G01 X47.792 Y16.356 Z10.692
G01 X47.619 Y16.356 Z10.686
G01 X47.273 Y16.356 Z10.685
G01 X47.013 Y16.356 Z10.637
G01 X46.494 Y16.356 Z10.675
G01 X46.061 Y16.356 Z10.654
G01 X45.714 Y16.356 Z10.653
G01 X45.281 Y16.356 Z10.677
G01 X44.848 Y16.356 Z10.618
G01 X44.502 Y16.356 Z10.533
G01 X43.810 Y16.356 Z10.468
G01 X43.463 Y16.356 Z10.401
G01 X43.030 Y16.356 Z10.402
G01 X42.684 Y16.356 Z10.354
G01 X42.338 Y16.356 Z10.257
G01 X41.732 Y16.356 Z10.214
G01 X41.299 Y16.356 Z10.119
G01 X41.039 Y16.356 Z10.110
G01 X40.693 Y16.356 Z10.138
G01 X40.000 Y16.356 Z10.074
G01 X39.654 Y16.356 Z10.104
G01 X39.307 Y16.356 Z10.080
G01 X38.874 Y16.356 Z9.988
G01 X38.528 Y16.356 Z10.041
G01 X38.182 Y16.356 Z10.024
G01 X37.576 Y16.356 Z9.910
G01 X37.316 Y16.356 Z10.320
G01 X36.970 Y16.356 Z10.724
G01 X36.623 Y16.356 Z11.012
G01 X36.104 Y16.356 Z11.363
G01 X35.758 Y16.356 Z11.520
G01 X35.411 Y16.356 Z11.610
G01 X35.238 Y16.356 Z11.642
G01 X34.892 Y16.356 Z11.764
G01 X34.286 Y16.356 Z11.871
G01 X33.939 Y16.356 Z11.907
G01 X33.420 Y16.356 Z12.029
G01 X33.074 Y16.356 Z12.048
G01 X32.814 Y16.356 Z12.456
G01 X32.727 Y16.356 Z12.554
G01 X32.641 Y16.356 Z12.688
G01 X32.554 Y16.356 Z12.772
G01 X32.121 Y16.356 Z13.007
G01 X31.688 Y16.356 Z13.159
G01 X31.169 Y16.356 Z13.299
G01 X30.303 Y16.356 Z13.463
G01 X29.091 Y16.356 Z13.609
G01 X27.706 Y16.356 Z13.704
G01 X26.234 Y16.356 Z13.730
G01 X24.762 Y16.356 Z13.677
G01 X23.377 Y16.356 Z13.549
G01 X22.251 Y16.356 Z13.374
G01 X21.299 Y16.356 Z13.158
G01 X20.433 Y16.356 Z12.890
G01 X19.740 Y16.356 Z12.597
G01 X19.221 Y16.356 Z12.302
G01 X19.048 Y16.356 Z12.193
G01 X18.701 Y16.356 Z12.257
G01 X18.355 Y16.356 Z12.265
G01 X17.922 Y16.356 Z12.370
G01 X17.835 Y16.356 Z12.455
G01 X16.710 Y16.356 Z15.540
G01 X16.623 Y16.356 Z15.720
G01 X16.450 Y16.356 Z15.970
G01 X16.190 Y16.356 Z16.238
G01 X15.931 Y16.356 Z16.421
G01 X15.584 Y16.356 Z16.576
G01 X15.238 Y16.356 Z16.661
G01 X14.805 Y16.356 Z16.690
G01 X5.714 Y16.356 Z16.680
G01 X5.628 Y16.356 Z16.673
G01 X5.628 Y16.610 Z16.673
G01 X6.320 Y16.610 Z16.690
G01 X15.065 Y16.610 Z16.680
G01 X15.411 Y16.610 Z16.625
G01 X15.671 Y16.610 Z16.543
G01 X16.017 Y16.610 Z16.368
G01 X16.277 Y16.610 Z16.157
G01 X16.537 Y16.610 Z15.857
G01 X16.623 Y16.610 Z15.720
G01 X16.797 Y16.610 Z15.326
G01 X17.835 Y16.610 Z12.452
G01 X17.922 Y16.610 Z12.346
G01 X18.355 Y16.610 Z12.217
G01 X18.788 Y16.610 Z12.184
G01 X19.394 Y16.610 Z12.553
G01 X20.000 Y16.610 Z12.832
G01 X20.693 Y16.610 Z13.078
G01 X21.645 Y16.610 Z13.332
G01 X22.771 Y16.610 Z13.547
G01 X24.069 Y16.610 Z13.712
G01 X25.455 Y16.610 Z13.815
G01 X26.926 Y16.610 Z13.854
G01 X28.571 Y16.610 Z13.819
G01 X30.130 Y16.610 Z13.719
G01 X31.342 Y16.610 Z13.585
G01 X32.208 Y16.610 Z13.436
G01 X32.814 Y16.610 Z13.272
G01 X33.247 Y16.610 Z13.088
G01 X33.333 Y16.610 Z13.030
G01 X33.420 Y16.610 Z12.941
G01 X33.593 Y16.610 Z12.639
G01 X33.680 Y16.610 Z12.223
G01 X33.853 Y16.610 Z12.045
G01 X33.939 Y16.610 Z11.899
G01 X34.286 Y16.610 Z11.880
G01 X34.632 Y16.610 Z11.800
G01 X35.065 Y16.610 Z11.679
G01 X35.584 Y16.610 Z11.589
G01 X35.931 Y16.610 Z11.474
G01 X36.364 Y16.610 Z11.247
G01 X36.797 Y16.610 Z10.957
G01 X37.143 Y16.610 Z10.628
G01 X37.403 Y16.610 Z10.320
G01 X37.576 Y16.610 Z10.061
G01 X37.662 Y16.610 Z9.972
G01 X38.442 Y16.610 Z10.025
G01 X38.788 Y16.610 Z9.995
G01 X38.961 Y16.610 Z10.018
G01 X39.307 Y16.610 Z10.096
G01 X39.654 Y16.610 Z10.109
G01 X40.087 Y16.610 Z10.073
G01 X40.779 Y16.610 Z10.133
G01 X41.299 Y16.610 Z10.187
G01 X41.645 Y16.610 Z10.180
G01 X41.905 Y16.610 Z10.206
G01 X42.251 Y16.610 Z10.281
G01 X42.511 Y16.610 Z10.317
G01 X42.857 Y16.610 Z10.404
G01 X43.377 Y16.610 Z10.452
G01 X43.810 Y16.610 Z10.428
G01 X44.589 Y16.610 Z10.578
G01 X45.281 Y16.610 Z10.664
G01 X45.628 Y16.610 Z10.647
G01 X45.801 Y16.610 Z10.623
G01 X46.407 Y16.610 Z10.696
G01 X47.100 Y16.610 Z10.661
G01 X47.273 Y16.610 Z10.654
G01 X47.619 Y16.610 Z10.654
G01 X47.879 Y16.610 Z10.651
G01 X48.139 Y16.610 Z10.672
G01 X48.571 Y16.610 Z10.764
G01 X49.177 Y16.610 Z10.830
G01 X49.437 Y16.610 Z10.831
G01 X49.957 Y16.610 Z10.963
G01 X50.736 Y16.610 Z11.075
G01 X51.082 Y16.610 Z11.110
G01 X51.515 Y16.610 Z11.191
G01 X52.121 Y16.610 Z11.335
G01 X52.554 Y16.610 Z11.452
G01 X52.900 Y16.610 Z11.495
G01 X53.247 Y16.610 Z11.490
G01 X53.680 Y16.610 Z11.543
G01 X54.026 Y16.610 Z11.565
G01 X54.372 Y16.610 Z11.670
G01 X54.719 Y16.610 Z11.708
G01 X55.065 Y16.610 Z11.696
G01 X55.411 Y16.610 Z11.743
G01 X55.844 Y16.610 Z11.742
G01 X56.277 Y16.610 Z11.824
G01 X56.450 Y16.610 Z11.835
G01 X56.797 Y16.610 Z11.918
G01 X57.143 Y16.610 Z11.937
G01 X57.749 Y16.610 Z11.864
G01 X57.922 Y16.610 Z11.881
G01 X58.355 Y16.610 Z11.949
G01 X58.701 Y16.610 Z11.947
G01 X59.048 Y16.610 Z11.882
G01 X59.134 Y16.610 Z11.855
G01 X59.567 Y16.610 Z11.870
G01 X59.913 Y16.610 Z11.821
G01 X60.173 Y16.610 Z11.742
G01 X60.693 Y16.610 Z11.759
G01 X61.126 Y16.610 Z11.703
G01 X61.472 Y16.610 Z11.701
G01 X61.818 Y16.610 Z11.791
G01 X62.338 Y16.610 Z11.857
G01 X62.597 Y16.610 Z11.871
G01 X63.030 Y16.610 Z11.973
G01 X63.290 Y16.610 Z12.019
G01 X63.723 Y16.610 Z12.183
G01 X64.069 Y16.610 Z12.254
G01 X64.675 Y16.610 Z12.273
G01 X65.108 Y16.610 Z12.379
G01 X65.541 Y16.610 Z12.416
G01 X66.147 Y16.610 Z12.413
G01 X66.840 Y16.610 Z12.277
G01 X67.359 Y16.610 Z12.248
G01 X67.706 Y16.610 Z12.183
G01 X68.745 Y16.610 Z11.820
G01 X69.177 Y16.610 Z11.660
G01 X69.437 Y16.610 Z11.609
G01 X69.784 Y16.610 Z11.477
G01 X70.130 Y16.610 Z11.271
G01 X70.563 Y16.610 Z11.091
G01 X70.736 Y16.610 Z10.991
G01 X71.342 Y16.610 Z11.128
G01 X71.602 Y16.610 Z11.164
G01 X73.160 Y16.610 Z15.445
G01 X73.333 Y16.610 Z15.786
G01 X73.506 Y16.610 Z16.036
G01 X73.766 Y16.610 Z16.281
G01 X74.113 Y16.610 Z16.491
G01 X74.459 Y16.610 Z16.617
G01 X74.805 Y16.610 Z16.679
G01 X78.182 Y16.610 Z16.690
G01 X84.156 Y16.610 Z16.686
G01 X84.502 Y16.610 Z16.636
G01 X84.502 Y16.864 Z16.636
G01 X84.156 Y16.864 Z16.686
G01 X74.892 Y16.864 Z16.686
G01 X74.545 Y16.864 Z16.638
G01 X74.199 Y16.864 Z16.530
G01 X73.853 Y16.864 Z16.341
G01 X73.593 Y16.864 Z16.130
G01 X73.420 Y16.864 Z15.924
G01 X73.247 Y16.864 Z15.625
G01 X73.074 Y16.864 Z15.216
G01 X71.602 Y16.864 Z11.147
G01 X70.909 Y16.864 Z11.006
G01 X70.823 Y16.864 Z10.983
G01 X70.476 Y16.864 Z11.167
G01 X70.130 Y16.864 Z11.282
G01 X69.784 Y16.864 Z11.484
G01 X69.091 Y16.864 Z11.745
G01 X68.139 Y16.864 Z12.047
G01 X67.532 Y16.864 Z12.218
G01 X67.186 Y16.864 Z12.255
G01 X67.013 Y16.864 Z12.271
G01 X66.667 Y16.864 Z12.353
G01 X65.974 Y16.864 Z12.422
G01 X65.628 Y16.864 Z12.405
G01 X65.108 Y16.864 Z12.344
G01 X64.848 Y16.864 Z12.289
G01 X64.502 Y16.864 Z12.290
G01 X64.069 Y16.864 Z12.217
G01 X63.723 Y16.864 Z12.134
G01 X63.290 Y16.864 Z12.035
G01 X62.944 Y16.864 Z11.895
G01 X62.684 Y16.864 Z11.861
G01 X62.251 Y16.864 Z11.861
G01 X61.905 Y16.864 Z11.803
G01 X61.645 Y16.864 Z11.729
G01 X61.299 Y16.864 Z11.752
G01 X61.126 Y16.864 Z11.743
G01 X60.693 Y16.864 Z11.814
G01 X60.346 Y16.864 Z11.813
G01 X60.173 Y16.864 Z11.793
G01 X59.740 Y16.864 Z11.890
G01 X59.394 Y16.864 Z11.909
G01 X59.221 Y16.864 Z11.890
G01 X58.788 Y16.864 Z11.971
G01 X58.442 Y16.864 Z11.973
G01 X58.095 Y16.864 Z11.915
G01 X57.922 Y16.864 Z11.874
G01 X57.403 Y16.864 Z11.910
G01 X56.970 Y16.864 Z11.923
G01 X56.623 Y16.864 Z11.877
G01 X56.450 Y16.864 Z11.836
G01 X56.104 Y16.864 Z11.803
G01 X55.758 Y16.864 Z11.808
G01 X55.065 Y16.864 Z11.720
G01 X54.545 Y16.864 Z11.702
G01 X54.199 Y16.864 Z11.624
G01 X54.026 Y16.864 Z11.561
G01 X53.506 Y16.864 Z11.549
G01 X53.247 Y16.864 Z11.511
G01 X52.900 Y16.864 Z11.519
G01 X52.554 Y16.864 Z11.470
G01 X51.861 Y16.864 Z11.258
G01 X51.342 Y16.864 Z11.216
G01 X50.563 Y16.864 Z11.047
G01 X49.870 Y16.864 Z10.942
G01 X49.264 Y16.864 Z10.798
G01 X48.658 Y16.864 Z10.776
G01 X48.139 Y16.864 Z10.678
G01 X47.706 Y16.864 Z10.633
G01 X47.619 Y16.864 Z10.618
G01 X47.100 Y16.864 Z10.695
G01 X46.667 Y16.864 Z10.695
G01 X45.801 Y16.864 Z10.684
G01 X45.455 Y16.864 Z10.625
G01 X45.108 Y16.864 Z10.620
G01 X43.983 Y16.864 Z10.527
G01 X43.636 Y16.864 Z10.463
G01 X43.203 Y16.864 Z10.458
G01 X42.684 Y16.864 Z10.351
G01 X42.338 Y16.864 Z10.340
G01 X41.991 Y16.864 Z10.274
G01 X41.732 Y16.864 Z10.190
G01 X41.385 Y16.864 Z10.224
G01 X41.039 Y16.864 Z10.205
G01 X40.346 Y16.864 Z10.098
G01 X40.173 Y16.864 Z10.051
G01 X39.481 Y16.864 Z10.089
G01 X39.134 Y16.864 Z10.049
G01 X38.615 Y16.864 Z9.967
G01 X37.835 Y16.864 Z10.010
G01 X37.749 Y16.864 Z10.002
G01 X37.662 Y16.864 Z10.069
G01 X37.403 Y16.864 Z10.421
G01 X37.056 Y16.864 Z10.790
G01 X36.710 Y16.864 Z11.072
G01 X36.277 Y16.864 Z11.335
G01 X35.758 Y16.864 Z11.568
G01 X35.325 Y16.864 Z11.682
G01 X35.065 Y16.864 Z11.712
G01 X34.978 Y16.864 Z11.741
G01 X34.892 Y16.864 Z11.836
G01 X34.719 Y16.864 Z11.954
G01 X34.545 Y16.864 Z12.968
G01 X34.459 Y16.864 Z13.165
G01 X34.372 Y16.864 Z13.261
G01 X34.199 Y16.864 Z13.360
G01 X33.680 Y16.864 Z13.536
G01 X32.987 Y16.864 Z13.669
G01 X31.861 Y16.864 Z13.798
G01 X30.130 Y16.864 Z13.911
G01 X27.965 Y16.864 Z13.965
G01 X26.234 Y16.864 Z13.943
G01 X24.675 Y16.864 Z13.848
G01 X23.290 Y16.864 Z13.695
G01 X22.078 Y16.864 Z13.496
G01 X21.039 Y16.864 Z13.258
G01 X20.173 Y16.864 Z12.993
G01 X19.481 Y16.864 Z12.711
G01 X18.874 Y16.864 Z12.384
G01 X18.615 Y16.864 Z12.208
G01 X18.528 Y16.864 Z12.173
G01 X18.182 Y16.864 Z12.215
G01 X17.922 Y16.864 Z12.309
G01 X17.835 Y16.864 Z12.448
G01 X16.710 Y16.864 Z15.538
G01 X16.623 Y16.864 Z15.719
G01 X16.450 Y16.864 Z15.969
G01 X16.190 Y16.864 Z16.237
G01 X15.931 Y16.864 Z16.420
G01 X15.584 Y16.864 Z16.576
G01 X15.152 Y16.864 Z16.673
G01 X14.459 Y16.864 Z16.690
G01 X5.714 Y16.864 Z16.680
G01 X5.628 Y16.864 Z16.673
G01 X5.628 Y17.118 Z16.673
G01 X6.320 Y17.118 Z16.690
G01 X15.065 Y17.118 Z16.680
G01 X15.411 Y17.118 Z16.625
G01 X15.671 Y17.118 Z16.543
G01 X16.017 Y17.118 Z16.367
G01 X16.277 Y17.118 Z16.156
G01 X16.537 Y17.118 Z15.856
G01 X16.623 Y17.118 Z15.718
G01 X16.797 Y17.118 Z15.322
G01 X17.922 Y17.118 Z12.236
G01 X18.182 Y17.118 Z12.150
G01 X18.268 Y17.118 Z12.144
G01 X18.355 Y17.118 Z12.160
G01 X18.874 Y17.118 Z12.501
G01 X19.481 Y17.118 Z12.804
G01 X20.260 Y17.118 Z13.098
G01 X21.212 Y17.118 Z13.370
G01 X22.424 Y17.118 Z13.624
G01 X23.810 Y17.118 Z13.828
G01 X25.368 Y17.118 Z13.977
G01 X26.926 Y17.118 Z14.052
G01 X29.437 Y17.118 Z14.075
G01 X32.468 Y17.118 Z14.010
G01 X33.680 Y17.118 Z13.939
G01 X34.372 Y17.118 Z13.850
G01 X34.978 Y17.118 Z13.710
G01 X35.498 Y17.118 Z13.487
G01 X35.671 Y17.118 Z13.372
G01 X35.758 Y17.118 Z13.269
G01 X35.844 Y17.118 Z12.627
G01 X35.931 Y17.118 Z11.538
G01 X36.537 Y17.118 Z11.225
G01 X36.883 Y17.118 Z10.994
G01 X37.316 Y17.118 Z10.599
G01 X37.662 Y17.118 Z10.216
G01 X37.835 Y17.118 Z10.005
G01 X38.182 Y17.118 Z9.979
G01 X38.355 Y17.118 Z9.960
G01 X39.481 Y17.118 Z10.056
G01 X39.654 Y17.118 Z10.057
G01 X40.000 Y17.118 Z10.100
G01 X40.346 Y17.118 Z10.120
G01 X41.212 Y17.118 Z10.231
G01 X41.645 Y17.118 Z10.225
G01 X41.905 Y17.118 Z10.307
G01 X42.338 Y17.118 Z10.370
G01 X42.771 Y17.118 Z10.370
G01 X43.290 Y17.118 Z10.469
G01 X43.550 Y17.118 Z10.500
G01 X43.983 Y17.118 Z10.590
G01 X44.329 Y17.118 Z10.607
G01 X44.589 Y17.118 Z10.595
G01 X45.108 Y17.118 Z10.671
G01 X45.541 Y17.118 Z10.672
G01 X45.887 Y17.118 Z10.721
G01 X46.234 Y17.118 Z10.713
G01 X46.580 Y17.118 Z10.684
G01 X47.013 Y17.118 Z10.723
G01 X47.446 Y17.118 Z10.687
G01 X47.706 Y17.118 Z10.680
G01 X48.139 Y17.118 Z10.721
G01 X48.398 Y17.118 Z10.728
G01 X48.831 Y17.118 Z10.785
G01 X49.351 Y17.118 Z10.859
G01 X49.697 Y17.118 Z10.865
G01 X50.216 Y17.118 Z10.975
G01 X50.563 Y17.118 Z11.030
G01 X51.255 Y17.118 Z11.217
G01 X51.861 Y17.118 Z11.303
G01 X52.121 Y17.118 Z11.319
G01 X52.554 Y17.118 Z11.455
G01 X52.900 Y17.118 Z11.512
G01 X53.160 Y17.118 Z11.519
G01 X53.506 Y17.118 Z11.596
G01 X53.853 Y17.118 Z11.613
G01 X54.199 Y17.118 Z11.592
G01 X54.545 Y17.118 Z11.678
G01 X55.152 Y17.118 Z11.731
G01 X55.584 Y17.118 Z11.833
G01 X56.017 Y17.118 Z11.861
G01 X56.450 Y17.118 Z11.837
G01 X56.797 Y17.118 Z11.897
G01 X57.143 Y17.118 
G01 X58.182 Y17.118 Z11.945
G01 X58.615 Y17.118 Z11.992
G01 X58.961 Y17.118 Z11.963
G01 X59.221 Y17.118 Z11.902
G01 X59.567 Y17.118 Z11.917
G01 X60.000 Y17.118 Z11.872
G01 X60.173 Y17.118 Z11.838
G01 X60.519 Y17.118 Z11.861
G01 X60.866 Y17.118 Z11.823
G01 X61.126 Y17.118 Z11.760
G01 X61.558 Y17.118 Z11.776
G01 X61.732 Y17.118 Z11.756
G01 X62.251 Y17.118 Z11.842
G01 X62.684 Y17.118 Z11.844
G01 X63.030 Y17.118 Z11.907
G01 X63.463 Y17.118 Z12.075
G01 X63.810 Y17.118 Z12.143
G01 X63.983 Y17.118 Z12.174
G01 X64.329 Y17.118 Z12.262
G01 X65.108 Y17.118 Z12.336
G01 X65.368 Y17.118 Z12.330
G01 X65.801 Y17.118 Z12.394
G01 X66.234 Y17.118 Z12.387
G01 X66.580 Y17.118 Z12.386
G01 X66.926 Y17.118 Z12.325
G01 X67.186 Y17.118 Z12.250
G01 X67.532 Y17.118 Z12.211
G01 X67.879 Y17.118 Z12.116
G01 X68.139 Y17.118 Z12.041
G01 X68.571 Y17.118 Z11.967
G01 X69.091 Y17.118 Z11.788
G01 X69.524 Y17.118 Z11.593
G01 X70.130 Y17.118 Z11.281
G01 X70.476 Y17.118 Z11.167
G01 X70.823 Y17.118 Z10.981
G01 X70.909 Y17.118 Z10.961
G01 X71.602 Y17.118 Z11.143
G01 X73.160 Y17.118 Z15.443
G01 X73.333 Y17.118 Z15.785
G01 X73.506 Y17.118 Z16.035
G01 X73.766 Y17.118 Z16.280
G01 X74.113 Y17.118 Z16.490
G01 X74.459 Y17.118 Z16.616
G01 X74.805 Y17.118 Z16.679
G01 X77.316 Y17.118 Z16.690
G01 X84.156 Y17.118 Z16.685
G01 X84.502 Y17.118 Z16.636
G01 X84.502 Y17.372 Z16.636
G01 X84.156 Y17.372 Z16.685
G01 X74.892 Y17.372 Z16.686
G01 X74.545 Y17.372 Z16.638
G01 X74.199 Y17.372 Z16.529
G01 X73.853 Y17.372 Z16.340
G01 X73.593 Y17.372 Z16.129
G01 X73.420 Y17.372 Z15.922
G01 X73.247 Y17.372 Z15.622
G01 X73.074 Y17.372 Z15.213
G01 X71.602 Y17.372 Z11.147
G01 X70.909 Y17.372 Z10.962
G01 X70.823 Y17.372 Z10.967
G01 X70.563 Y17.372 Z11.122
G01 X70.043 Y17.372 Z11.328
G01 X69.784 Y17.372 Z11.462
G01 X69.177 Y17.372 Z11.785
G01 X68.658 Y17.372 Z11.982
G01 X68.312 Y17.372 Z12.055
G01 X67.965 Y17.372 Z12.082
G01 X67.446 Y17.372 Z12.240
G01 X67.013 Y17.372 Z12.296
G01 X66.667 Y17.372 Z12.374
G01 X66.320 Y17.372 Z12.392
G01 X65.541 Y17.372 Z12.308
G01 X65.108 Y17.372 Z12.331
G01 X64.675 Y17.372 Z12.290
G01 X64.069 Y17.372 Z12.153
G01 X63.896 Y17.372 Z12.113
G01 X63.550 Y17.372 Z12.054
G01 X63.203 Y17.372 Z11.948
G01 X62.771 Y17.372 Z11.862
G01 X62.597 Y17.372 Z11.810
G01 X62.078 Y17.372 Z11.785
G01 X61.818 Y17.372 Z11.760
G01 X61.385 Y17.372 Z11.780
G01 X61.126 Y17.372 Z11.755
G01 X60.779 Y17.372 Z11.847
G01 X60.346 Y17.372 Z11.871
G01 X60.173 Y17.372 Z11.875
G01 X59.827 Y17.372 Z11.932
G01 X59.221 Y17.372 Z11.963
G01 X59.048 Y17.372 Z11.945
G01 X58.268 Y17.372 Z12.017
G01 X57.316 Y17.372 Z11.917
G01 X56.970 Y17.372 Z11.947
G01 X56.450 Y17.372 Z11.901
G01 X56.104 Y17.372 Z11.931
G01 X55.758 Y17.372 Z11.895
G01 X55.325 Y17.372 Z11.803
G01 X55.152 Y17.372 Z11.746
G01 X54.719 Y17.372 Z11.761
G01 X54.372 Y17.372 Z11.710
G01 X54.113 Y17.372 Z11.625
G01 X53.766 Y17.372 Z11.653
G01 X53.420 Y17.372 Z11.625
G01 X53.074 Y17.372 Z11.526
G01 X52.727 Y17.372 Z11.487
G01 X52.294 Y17.372 Z11.366
G01 X51.775 Y17.372 Z11.330
G01 X51.342 Y17.372 Z11.248
G01 X50.476 Y17.372 Z11.012
G01 X50.303 Y17.372 Z10.954
G01 X49.957 Y17.372 Z10.936
G01 X49.610 Y17.372 Z10.886
G01 X49.177 Y17.372 Z10.859
G01 X48.658 Y17.372 Z10.744
G01 X48.485 Y17.372 Z10.730
G01 X48.139 Y17.372 Z10.753
G01 X47.446 Y17.372 Z10.710
G01 X46.753 Y17.372 Z10.716
G01 X46.320 Y17.372 Z10.749
G01 X45.801 Y17.372 Z10.724
G01 X45.368 Y17.372 Z10.735
G01 X44.675 Y17.372 Z10.644
G01 X43.983 Y17.372 Z10.629
G01 X43.550 Y17.372 Z10.538
G01 X42.944 Y17.372 Z10.401
G01 X42.597 Y17.372 Z10.371
G01 X42.251 Y17.372 Z10.382
G01 X41.905 Y17.372 Z10.334
G01 X41.558 Y17.372 Z10.235
G01 X40.952 Y17.372 Z10.191
G01 X40.346 Y17.372 Z10.136
G01 X39.913 Y17.372 Z10.126
G01 X39.481 Y17.372 Z10.069
G01 X38.874 Y17.372 Z10.013
G01 X38.442 Y17.372 Z10.013
G01 X38.182 Y17.372 Z9.987
G01 X37.922 Y17.372 Z10.031
G01 X37.576 Y17.372 Z10.461
G01 X37.229 Y17.372 Z10.762
G01 X36.970 Y17.372 Z10.960
G01 X36.883 Y17.372 Z11.832
G01 X36.797 Y17.372 Z13.322
G01 X36.710 Y17.372 Z13.435
G01 X36.277 Y17.372 Z13.730
G01 X35.671 Y17.372 Z13.967
G01 X34.978 Y17.372 Z14.121
G01 X34.113 Y17.372 Z14.208
G01 X32.900 Y17.372 Z14.230
G01 X28.052 Y17.372 Z14.164
G01 X25.974 Y17.372 Z14.088
G01 X24.329 Y17.372 Z13.949
G01 X22.771 Y17.372 Z13.739
G01 X21.472 Y17.372 Z13.489
G01 X20.433 Y17.372 Z13.217
G01 X19.654 Y17.372 Z12.951
G01 X18.961 Y17.372 Z12.643
G01 X18.442 Y17.372 Z12.341
G01 X18.095 Y17.372 Z12.098
G01 X18.009 Y17.372 Z12.120
G01 X17.922 Y17.372 Z12.204
G01 X16.710 Y17.372 Z15.536
G01 X16.623 Y17.372 Z15.717
G01 X16.450 Y17.372 Z15.967
G01 X16.190 Y17.372 Z16.237
G01 X15.931 Y17.372 Z16.419
G01 X15.584 Y17.372 Z16.575
G01 X15.152 Y17.372 Z16.673
G01 X14.545 Y17.372 Z16.690
G01 X5.714 Y17.372 Z16.680
G01 X5.628 Y17.372 Z16.673
G01 X5.628 Y17.626 Z16.673
G01 X6.320 Y17.626 Z16.690
G01 X14.978 Y17.626 Z16.686
G01 X15.325 Y17.626 Z16.644
G01 X15.671 Y17.626 Z16.542
G01 X16.017 Y17.626 Z16.367
G01 X16.277 Y17.626 Z16.155
G01 X16.537 Y17.626 Z15.854
G01 X16.623 Y17.626 Z15.716
G01 X16.797 Y17.626 Z15.319
G01 X17.922 Y17.626 Z12.202
G01 X18.009 Y17.626 Z12.137
G01 X18.442 Y17.626 Z12.437
G01 X19.048 Y17.626 Z12.760
G01 X19.740 Y17.626 Z13.045
G01 X20.606 Y17.626 Z13.322
G01 X21.732 Y17.626 Z13.594
G01 X23.117 Y17.626 Z13.845
G01 X24.675 Y17.626 Z14.043
G01 X26.234 Y17.626 Z14.167
G01 X30.130 Y17.626 Z14.312
G01 X33.766 Y17.626 Z14.446
G01 X34.805 Y17.626 Z14.416
G01 X35.671 Y17.626 Z14.305
G01 X36.364 Y17.626 Z14.147
G01 X36.883 Y17.626 Z13.971
G01 X37.143 Y17.626 Z13.824
G01 X37.489 Y17.626 Z13.537
G01 X37.749 Y17.626 Z13.129
G01 X37.835 Y17.626 Z12.853
G01 X37.922 Y17.626 Z10.179
G01 X38.009 Y17.626 Z10.049
G01 X38.528 Y17.626 Z10.045
G01 X39.134 Y17.626 Z10.007
G01 X40.087 Y17.626 Z10.140
G01 X40.952 Y17.626 Z10.150
G01 X41.385 Y17.626 Z10.225
G01 X41.558 Y17.626 Z10.236
G01 X41.991 Y17.626 Z10.351
G01 X42.338 Y17.626 Z10.372
G01 X42.597 Y17.626 Z10.358
G01 X43.117 Y17.626 Z10.465
G01 X43.203 Y17.626 Z10.472
G01 X43.550 Y17.626 Z10.578
G01 X44.242 Y17.626 Z10.666
G01 X44.848 Y17.626 Z10.705
G01 X45.022 Y17.626 Z10.709
G01 X45.455 Y17.626 Z10.776
G01 X46.147 Y17.626 Z10.772
G01 X46.667 Y17.626 Z10.755
G01 X47.013 Y17.626 Z10.691
G01 X47.273 Y17.626 Z10.709
G01 X47.619 Y17.626 Z10.758
G01 X47.965 Y17.626 Z10.771
G01 X48.398 Y17.626 Z10.775
G01 X48.745 Y17.626 Z10.739
G01 X49.177 Y17.626 Z10.848
G01 X49.610 Y17.626 Z10.890
G01 X50.043 Y17.626 Z10.979
G01 X50.303 Y17.626 Z10.995
G01 X50.823 Y17.626 Z11.165
G01 X51.342 Y17.626 Z11.246
G01 X51.775 Y17.626 Z11.346
G01 X53.074 Y17.626 Z11.525
G01 X53.333 Y17.626 Z11.607
G01 X53.680 Y17.626 Z11.651
G01 X54.026 Y17.626 Z11.658
G01 X54.113 Y17.626 Z11.670
G01 X54.372 Y17.626 Z11.752
G01 X54.719 Y17.626 Z11.803
G01 X55.065 Y17.626 Z11.784
G01 X55.238 Y17.626 Z11.772
G01 X55.758 Y17.626 Z11.920
G01 X56.104 Y17.626 Z11.958
G01 X56.450 Y17.626 Z11.939
G01 X57.056 Y17.626 Z11.944
G01 X57.229 Y17.626 Z11.925
G01 X57.662 Y17.626 Z11.974
G01 X58.182 Y17.626 Z12.042
G01 X58.528 Y17.626 Z12.025
G01 X58.961 Y17.626 Z11.961
G01 X59.307 Y17.626 Z11.992
G01 X59.654 Y17.626 Z11.960
G01 X59.827 Y17.626 Z11.942
G01 X60.173 Y17.626 Z11.913
G01 X60.433 Y17.626 Z11.871
G01 X60.779 Y17.626 Z11.836
G01 X61.126 Y17.626 Z11.754
G01 X61.905 Y17.626 Z11.755
G01 X62.511 Y17.626 Z11.786
G01 X62.944 Y17.626 Z11.910
G01 X63.636 Y17.626 Z12.002
G01 X63.896 Y17.626 Z12.050
G01 X64.242 Y17.626 Z12.181
G01 X64.675 Y17.626 Z12.266
G01 X65.108 Y17.626 Z12.304
G01 X65.541 Y17.626 Z12.282
G01 X65.887 Y17.626 Z12.357
G01 X66.407 Y17.626 Z12.381
G01 X66.753 Y17.626 Z12.343
G01 X66.926 Y17.626 Z12.308
G01 X67.273 Y17.626 Z12.301
G01 X67.706 Y17.626 Z12.218
G01 X68.139 Y17.626 Z12.083
G01 X68.571 Y17.626 Z12.018
G01 X69.004 Y17.626 Z11.871
G01 X69.610 Y17.626 Z11.637
G01 X70.476 Y17.626 Z11.171
G01 X70.823 Y17.626 Z10.950
G01 X71.602 Y17.626 Z11.137
G01 X73.160 Y17.626 Z15.440
G01 X73.333 Y17.626 Z15.784
G01 X73.506 Y17.626 Z16.034
G01 X73.766 Y17.626 Z16.279
G01 X74.113 Y17.626 Z16.490
G01 X74.459 Y17.626 Z16.616
G01 X74.805 Y17.626 Z16.679
G01 X76.710 Y17.626 Z16.690
G01 X84.156 Y17.626 Z16.685
G01 X84.502 Y17.626 Z16.636
G01 X84.502 Y17.880 Z16.636
G01 X84.156 Y17.880 Z16.685
G01 X74.892 Y17.880 Z16.686
G01 X74.545 Y17.880 Z16.638
G01 X74.199 Y17.880 Z16.529
G01 X73.853 Y17.880 Z16.339
G01 X73.593 Y17.880 Z16.128
G01 X73.420 Y17.880 Z15.922
G01 X73.247 Y17.880 Z15.620
G01 X73.074 Y17.880 Z15.210
G01 X71.602 Y17.880 Z11.135
G01 X71.515 Y17.880 Z11.095
G01 X70.909 Y17.880 Z10.974
G01 X70.823 Y17.880 Z10.951
G01 X70.390 Y17.880 Z11.265
G01 X69.697 Y17.880 Z11.637
G01 X69.351 Y17.880 Z11.767
G01 X69.004 Y17.880 Z11.852
G01 X68.658 Y17.880 Z11.985
G01 X68.225 Y17.880 Z12.088
G01 X67.532 Y17.880 Z12.271
G01 X67.186 Y17.880 Z12.309
G01 X66.926 Y17.880 Z12.305
G01 X66.494 Y17.880 Z12.371
G01 X65.974 Y17.880 Z12.368
G01 X65.628 Y17.880 Z12.311
G01 X65.195 Y17.880 Z12.298
G01 X64.675 Y17.880 Z12.232
G01 X64.329 Y17.880 Z12.189
G01 X63.810 Y17.880 Z12.061
G01 X63.550 Y17.880 Z11.979
G01 X63.030 Y17.880 Z11.933
G01 X62.597 Y17.880 Z11.820
G01 X62.165 Y17.880 Z11.806
G01 X61.991 Y17.880 Z11.777
G01 X61.558 Y17.880 Z11.815
G01 X61.212 Y17.880 Z11.798
G01 X60.779 Y17.880 Z11.837
G01 X60.000 Y17.880 Z11.990
G01 X59.221 Y17.880 Z11.990
G01 X58.961 Y17.880 Z11.962
G01 X58.355 Y17.880 Z12.040
G01 X58.009 Y17.880 Z12.021
G01 X57.922 Y17.880 Z12.009
G01 X57.576 Y17.880 Z12.025
G01 X57.229 Y17.880 Z11.968
G01 X57.056 Y17.880 Z11.918
G01 X56.537 Y17.880 Z11.950
G01 X56.104 Y17.880 Z11.970
G01 X55.758 Y17.880 Z11.928
G01 X55.325 Y17.880 Z11.813
G01 X55.065 Y17.880 Z11.785
G01 X54.719 Y17.880 Z11.804
G01 X54.372 Y17.880 Z11.760
G01 X54.026 Y17.880 Z11.676
G01 X53.420 Y17.880 Z11.587
G01 X53.160 Y17.880 Z11.520
G01 X52.727 Y17.880 Z11.515
G01 X52.121 Y17.880 Z11.424
G01 X51.429 Y17.880 Z11.245
G01 X50.996 Y17.880 Z11.215
G01 X50.649 Y17.880 Z11.135
G01 X50.390 Y17.880 Z11.058
G01 X49.697 Y17.880 Z10.915
G01 X49.524 Y17.880 Z10.862
G01 X49.091 Y17.880 Z10.823
G01 X48.831 Y17.880 Z10.766
G01 X48.658 Y17.880 Z10.780
G01 X48.225 Y17.880 Z10.810
G01 X47.446 Y17.880 Z10.739
G01 X47.273 Y17.880 Z10.728
G01 X47.013 Y17.880 Z10.752
G01 X46.580 Y17.880 Z10.795
G01 X46.147 Y17.880 Z10.776
G01 X45.541 Y17.880 Z10.790
G01 X44.935 Y17.880 Z10.786
G01 X44.329 Y17.880 Z10.690
G01 X44.156 Y17.880 Z10.668
G01 X43.723 Y17.880 Z10.667
G01 X43.377 Y17.880 Z10.598
G01 X43.030 Y17.880 Z10.463
G01 X42.771 Y17.880 Z10.421
G01 X41.905 Y17.880 Z10.349
G01 X41.558 Y17.880 Z10.264
G01 X41.472 Y17.880 Z10.235
G01 X41.126 Y17.880 Z10.205
G01 X40.866 Y17.880 Z10.146
G01 X40.433 Y17.880 Z10.187
G01 X40.087 Y17.880 Z10.157
G01 X39.481 Y17.880 Z10.037
G01 X39.307 Y17.880 Z10.001
G01 X38.874 Y17.880 Z10.031
G01 X38.788 Y17.880 Z11.661
G01 X38.701 Y17.880 Z11.808
G01 X38.615 Y17.880 Z12.205
G01 X38.528 Y17.880 Z12.985
G01 X38.442 Y17.880 Z13.309
G01 X38.355 Y17.880 Z13.480
G01 X38.268 Y17.880 Z13.608
G01 X38.095 Y17.880 Z13.753
G01 X37.835 Y17.880 Z13.940
G01 X37.316 Y17.880 Z14.189
G01 X36.710 Y17.880 Z14.381
G01 X35.931 Y17.880 Z14.526
G01 X34.892 Y17.880 Z14.617
G01 X33.939 Y17.880 Z14.628
G01 X32.468 Y17.880 Z14.550
G01 X30.390 Y17.880 Z14.420
G01 X25.887 Y17.880 Z14.203
G01 X24.329 Y17.880 Z14.058
G01 X22.771 Y17.880 Z13.836
G01 X21.385 Y17.880 Z13.562
G01 X20.346 Y17.880 Z13.293
G01 X19.481 Y17.880 Z13.001
G01 X18.788 Y17.880 Z12.700
G01 X18.268 Y17.880 Z12.409
G01 X18.009 Y17.880 Z12.233
G01 X17.922 Y17.880 Z12.200
G01 X16.710 Y17.880 Z15.535
G01 X16.623 Y17.880 Z15.716
G01 X16.450 Y17.880 Z15.966
G01 X16.190 Y17.880 Z16.236
G01 X15.931 Y17.880 Z16.419
G01 X15.584 Y17.880 Z16.575
G01 X15.152 Y17.880 Z16.673
G01 X14.545 Y17.880 Z16.690
G01 X5.714 Y17.880 Z16.680
G01 X5.628 Y17.880 Z16.673
G01 X5.628 Y18.134 Z16.673
G01 X6.320 Y18.134 Z16.690
G01 X14.978 Y18.134 Z16.687
G01 X15.325 Y18.134 Z16.644
G01 X15.671 Y18.134 Z16.542
G01 X16.017 Y18.134 Z16.366
G01 X16.277 Y18.134 Z16.155
G01 X16.537 Y18.134 Z15.853
G01 X16.623 Y18.134 Z15.715
G01 X16.797 Y18.134 Z15.317
G01 X17.835 Y18.134 Z12.439
G01 X17.922 Y18.134 Z12.250
G01 X18.442 Y18.134 Z12.576
G01 X19.134 Y18.134 Z12.909
G01 X19.913 Y18.134 Z13.199
G01 X20.866 Y18.134 Z13.475
G01 X22.078 Y18.134 Z13.749
G01 X23.463 Y18.134 Z13.989
G01 X25.022 Y18.134 Z14.181
G01 X26.840 Y18.134 Z14.314
G01 X31.255 Y18.134 Z14.567
G01 X33.680 Y18.134 Z14.765
G01 X34.719 Y18.134 Z14.787
G01 X35.844 Y18.134 Z14.743
G01 X36.623 Y18.134 Z14.643
G01 X37.316 Y18.134 Z14.484
G01 X37.922 Y18.134 Z14.270
G01 X38.442 Y18.134 Z14.011
G01 X38.874 Y18.134 Z13.709
G01 X39.048 Y18.134 Z13.520
G01 X39.134 Y18.134 Z13.423
G01 X39.221 Y18.134 Z13.287
G01 X39.307 Y18.134 Z11.829
G01 X39.394 Y18.134 Z11.463
G01 X39.481 Y18.134 Z10.061
G01 X40.173 Y18.134 Z10.179
G01 X40.519 Y18.134 Z10.197
G01 X40.779 Y18.134 Z10.178
G01 X41.212 Y18.134 Z10.270
G01 X41.645 Y18.134 Z10.291
G01 X42.078 Y18.134 Z10.372
G01 X42.511 Y18.134 Z10.433
G01 X42.944 Y18.134 Z10.531
G01 X43.203 Y18.134 Z10.570
G01 X43.550 Y18.134 Z10.667
G01 X43.896 Y18.134 Z10.706
G01 X44.242 Y18.134 Z10.695
G01 X44.848 Y18.134 Z10.827
G01 X45.281 Y18.134 Z10.854
G01 X45.628 Y18.134 Z10.818
G01 X45.801 Y18.134 Z10.785
G01 X46.147 Y18.134 Z10.778
G01 X46.580 Y18.134 Z10.816
G01 X46.926 Y18.134 Z10.794
G01 X47.186 Y18.134 Z10.778
G01 X47.532 Y18.134 Z10.763
G01 X47.706 Y18.134 Z10.749
G01 X48.225 Y18.134 Z10.807
G01 X48.571 Y18.134 Z10.801
G01 X48.745 Y18.134 Z10.777
G01 X49.264 Y18.134 Z10.835
G01 X49.524 Y18.134 Z10.845
G01 X50.130 Y18.134 Z11.052
G01 X50.563 Y18.134 Z11.123
G01 X51.082 Y18.134 Z11.227
G01 X51.429 Y18.134 Z11.242
G01 X51.948 Y18.134 Z11.395
G01 X52.468 Y18.134 Z11.501
G01 X52.900 Y18.134 Z11.534
G01 X53.160 Y18.134 Z11.524
G01 X53.506 Y18.134 Z11.616
G01 X54.026 Y18.134 Z11.689
G01 X54.719 Y18.134 Z11.777
G01 X54.978 Y18.134 Z11.814
G01 X55.325 Y18.134 Z11.872
G01 X55.584 Y18.134 Z11.880
G01 X55.931 Y18.134 Z11.958
G01 X56.364 Y18.134 Z11.966
G01 X56.537 Y18.134 Z11.966
G01 X56.970 Y18.134 Z11.989
G01 X57.229 Y18.134 Z11.987
G01 X57.576 Y18.134 Z12.043
G01 X57.922 Y18.134 Z12.034
G01 X58.095 Y18.134 Z12.029
G01 X58.528 Y18.134 Z12.053
G01 X59.221 Y18.134 Z12.008
G01 X60.000 Y18.134 Z12.007
G01 X60.433 Y18.134 Z11.948
G01 X60.779 Y18.134 Z11.911
G01 X61.299 Y18.134 Z11.823
G01 X61.645 Y18.134 Z11.842
G01 X61.991 Y18.134 Z11.797
G01 X62.338 Y18.134 Z11.844
G01 X62.684 Y18.134 Z11.837
G01 X63.117 Y18.134 Z11.932
G01 X63.463 Y18.134 Z11.982
G01 X64.069 Y18.134 Z12.135
G01 X64.416 Y18.134 Z12.167
G01 X64.589 Y18.134 Z12.169
G01 X65.022 Y18.134 Z12.285
G01 X65.455 Y18.134 Z12.329
G01 X65.801 Y18.134 Z12.326
G01 X66.234 Y18.134 Z12.362
G01 X66.667 Y18.134 Z12.329
G01 X66.926 Y18.134 Z12.278
G01 X67.359 Y18.134 Z12.279
G01 X67.965 Y18.134 Z12.191
G01 X68.312 Y18.134 Z12.088
G01 X68.485 Y18.134 Z12.031
G01 X68.918 Y18.134 Z11.917
G01 X69.177 Y18.134 Z11.799
G01 X69.610 Y18.134 Z11.682
G01 X69.957 Y18.134 Z11.524
G01 X70.390 Y18.134 Z11.279
G01 X70.823 Y18.134 Z10.961
G01 X71.342 Y18.134 Z11.056
G01 X71.515 Y18.134 Z11.074
G01 X71.602 Y18.134 Z11.133
G01 X73.160 Y18.134 Z15.439
G01 X73.333 Y18.134 Z15.784
G01 X73.506 Y18.134 Z16.034
G01 X73.766 Y18.134 Z16.279
G01 X74.113 Y18.134 Z16.490
G01 X74.459 Y18.134 Z16.616
G01 X74.805 Y18.134 Z16.679
G01 X76.883 Y18.134 Z16.690
G01 X84.156 Y18.134 Z16.685
G01 X84.502 Y18.134 Z16.636
G01 X84.502 Y18.388 Z16.636
G01 X84.156 Y18.388 Z16.685
G01 X74.892 Y18.388 Z16.686
G01 X74.545 Y18.388 Z16.638
G01 X74.199 Y18.388 Z16.529
G01 X73.853 Y18.388 Z16.339
G01 X73.593 Y18.388 Z16.128
G01 X73.420 Y18.388 Z15.921
G01 X73.247 Y18.388 Z15.619
G01 X73.074 Y18.388 Z15.208
G01 X71.602 Y18.388 Z11.132
G01 X71.429 Y18.388 Z11.084
G01 X70.823 Y18.388 Z10.972
G01 X70.563 Y18.388 Z11.134
G01 X70.216 Y18.388 Z11.375
G01 X69.784 Y18.388 Z11.592
G01 X69.264 Y18.388 Z11.828
G01 X68.918 Y18.388 Z11.983
G01 X68.571 Y18.388 Z12.071
G01 X68.312 Y18.388 Z12.105
G01 X67.965 Y18.388 Z12.216
G01 X67.619 Y18.388 Z12.266
G01 X67.100 Y18.388 Z12.262
G01 X66.667 Y18.388 Z12.344
G01 X66.234 Y18.388 Z12.353
G01 X65.887 Y18.388 Z12.309
G01 X65.368 Y18.388 Z12.313
G01 X64.935 Y18.388 Z12.252
G01 X64.589 Y18.388 Z12.141
G01 X64.156 Y18.388 Z12.128
G01 X63.636 Y18.388 Z12.028
G01 X63.030 Y18.388 Z11.875
G01 X62.857 Y18.388 Z11.836
G01 X62.511 Y18.388 Z11.866
G01 X62.165 Y18.388 Z11.838
G01 X61.991 Y18.388 Z11.805
G01 X61.385 Y18.388 Z11.875
G01 X60.866 Y18.388 Z11.933
G01 X60.519 Y18.388 Z11.980
G01 X60.087 Y18.388 Z11.985
G01 X59.740 Y18.388 Z12.002
G01 X59.567 Y18.388 Z12.006
G01 X59.134 Y18.388 Z12.057
G01 X58.615 Y18.388 Z12.078
G01 X58.009 Y18.388 Z12.040
G01 X57.662 Y18.388 Z12.055
G01 X57.229 Y18.388 Z12.028
G01 X56.797 Y18.388 Z12.048
G01 X56.450 Y18.388 Z12.002
G01 X56.190 Y18.388 Z11.943
G01 X55.844 Y18.388 Z11.911
G01 X55.758 Y18.388 Z11.893
G01 X55.411 Y18.388 Z11.906
G01 X55.065 Y18.388 Z11.864
G01 X54.632 Y18.388 Z11.798
G01 X54.286 Y18.388 Z11.748
G01 X54.026 Y18.388 Z11.683
G01 X53.593 Y18.388 Z11.671
G01 X53.247 Y18.388 Z11.595
G01 X53.074 Y18.388 Z11.535
G01 X52.468 Y18.388 Z11.492
G01 X51.861 Y18.388 Z11.405
G01 X51.082 Y18.388 Z11.205
G01 X50.390 Y18.388 Z11.123
G01 X49.957 Y18.388 Z11.010
G01 X49.697 Y18.388 Z10.906
G01 X49.177 Y18.388 Z10.851
G01 X48.745 Y18.388 Z10.802
G01 X48.312 Y18.388 Z10.813
G01 X47.965 Y18.388 Z10.769
G01 X47.792 Y18.388 Z10.748
G01 X47.446 Y18.388 Z10.800
G01 X46.840 Y18.388 Z10.809
G01 X46.494 Y18.388 Z10.820
G01 X46.061 Y18.388 Z10.762
G01 X45.974 Y18.388 Z10.767
G01 X45.628 Y18.388 Z10.855
G01 X45.281 Y18.388 Z10.886
G01 X44.935 Y18.388 Z10.865
G01 X44.416 Y18.388 Z10.780
G01 X43.896 Y18.388 Z10.708
G01 X43.463 Y18.388 Z10.645
G01 X43.290 Y18.388 Z10.605
G01 X42.944 Y18.388 Z10.587
G01 X42.597 Y18.388 Z10.511
G01 X42.338 Y18.388 Z10.414
G01 X41.732 Y18.388 Z10.323
G01 X41.645 Y18.388 Z10.304
G01 X41.212 Y18.388 Z10.287
G01 X40.606 Y18.388 Z10.181
G01 X40.173 Y18.388 Z10.156
G01 X40.000 Y18.388 Z10.131
G01 X39.913 Y18.388 Z10.584
G01 X39.827 Y18.388 Z12.289
G01 X39.740 Y18.388 Z13.256
G01 X39.654 Y18.388 Z13.436
G01 X39.481 Y18.388 Z13.659
G01 X39.134 Y18.388 Z13.945
G01 X38.788 Y18.388 Z14.160
G01 X38.268 Y18.388 Z14.405
G01 X37.662 Y18.388 Z14.613
G01 X36.970 Y18.388 Z14.776
G01 X36.190 Y18.388 Z14.883
G01 X35.238 Y18.388 Z14.927
G01 X33.853 Y18.388 Z14.895
G01 X32.294 Y18.388 Z14.762
G01 X30.390 Y18.388 Z14.585
G01 X25.455 Y18.388 Z14.266
G01 X23.983 Y18.388 Z14.104
G01 X22.597 Y18.388 Z13.886
G01 X21.212 Y18.388 Z13.595
G01 X20.087 Y18.388 Z13.289
G01 X19.221 Y18.388 Z12.983
G01 X18.528 Y18.388 Z12.670
G01 X18.009 Y18.388 Z12.371
G01 X17.922 Y18.388 Z12.313
G01 X17.835 Y18.388 Z12.437
G01 X16.710 Y18.388 Z15.534
G01 X16.623 Y18.388 Z15.715
G01 X16.450 Y18.388 Z15.965
G01 X16.190 Y18.388 Z16.236
G01 X15.931 Y18.388 Z16.419
G01 X15.584 Y18.388 Z16.575
G01 X15.238 Y18.388 Z16.661
G01 X14.805 Y18.388 Z16.690
G01 X5.714 Y18.388 Z16.680
G01 X5.628 Y18.388 Z16.673
G01 X5.628 Y18.642 Z16.673
G01 X6.320 Y18.642 Z16.690
G01 X15.065 Y18.642 Z16.680
G01 X15.411 Y18.642 Z16.624
G01 X15.671 Y18.642 Z16.542
G01 X16.017 Y18.642 Z16.366
G01 X16.277 Y18.642 Z16.155
G01 X16.537 Y18.642 Z15.852
G01 X16.623 Y18.642 Z15.715
G01 X16.797 Y18.642 Z15.315
G01 X17.835 Y18.642 Z12.436
G01 X17.922 Y18.642 Z12.360
G01 X18.528 Y18.642 Z12.706
G01 X19.307 Y18.642 Z13.047
G01 X20.173 Y18.642 Z13.344
G01 X21.385 Y18.642 Z13.666
G01 X22.771 Y18.642 Z13.952
G01 X24.242 Y18.642 Z14.179
G01 X25.714 Y18.642 Z14.330
G01 X30.736 Y18.642 Z14.686
G01 X33.506 Y18.642 Z14.974
G01 X34.978 Y18.642 Z15.048
G01 X35.844 Y18.642 Z15.044
G01 X36.710 Y18.642 Z14.973
G01 X37.489 Y18.642 Z14.839
G01 X38.182 Y18.642 Z14.652
G01 X38.788 Y18.642 Z14.424
G01 X39.221 Y18.642 Z14.199
G01 X39.567 Y18.642 Z13.974
G01 X39.913 Y18.642 Z13.665
G01 X40.087 Y18.642 Z13.443
G01 X40.173 Y18.642 Z13.286
G01 X40.346 Y18.642 Z12.832
G01 X40.433 Y18.642 Z10.140
G01 X41.039 Y18.642 Z10.253
G01 X41.558 Y18.642 Z10.299
G01 X42.165 Y18.642 Z10.459
G01 X42.424 Y18.642 Z10.488
G01 X42.857 Y18.642 Z10.604
G01 X43.290 Y18.642 Z10.641
G01 X43.550 Y18.642 Z10.632
G01 X43.723 Y18.642 Z10.672
G01 X44.156 Y18.642 Z10.792
G01 X44.675 Y18.642 Z10.861
G01 X44.935 Y18.642 Z10.883
G01 X45.281 Y18.642 Z10.905
G01 X45.628 Y18.642 Z10.871
G01 X45.801 Y18.642 Z10.842
G01 X46.147 Y18.642 Z10.838
G01 X46.320 Y18.642 Z10.820
G01 X46.753 Y18.642 Z10.834
G01 X47.532 Y18.642 Z10.793
G01 X47.792 Y18.642 Z10.755
G01 X48.225 Y18.642 Z10.824
G01 X48.658 Y18.642 Z10.824
G01 X48.918 Y18.642 Z10.819
G01 X49.351 Y18.642 Z10.923
G01 X49.870 Y18.642 Z10.963
G01 X50.390 Y18.642 Z11.121
G01 X50.736 Y18.642 Z11.173
G01 X50.996 Y18.642 Z11.203
G01 X51.515 Y18.642 Z11.366
G01 X52.035 Y18.642 Z11.434
G01 X52.381 Y18.642 Z11.463
G01 X52.727 Y18.642 Z11.546
G01 X53.074 Y18.642 Z11.569
G01 X53.506 Y18.642 Z11.679
G01 X53.939 Y18.642 Z11.705
G01 X54.113 Y18.642 Z11.716
G01 X54.459 Y18.642 Z11.807
G01 X55.152 Y18.642 Z11.892
G01 X55.671 Y18.642 Z11.905
G01 X56.017 Y18.642 Z11.927
G01 X56.104 Y18.642 Z11.925
G01 X56.623 Y18.642 Z12.052
G01 X56.970 Y18.642 Z12.074
G01 X57.229 Y18.642 Z12.077
G01 X57.576 Y18.642 Z12.099
G01 X58.009 Y18.642 Z12.060
G01 X58.182 Y18.642 Z12.044
G01 X58.701 Y18.642 Z12.097
G01 X59.307 Y18.642 Z12.066
G01 X59.827 Y18.642 Z11.975
G01 X60.087 Y18.642 Z11.979
G01 X60.433 Y18.642 Z11.989
G01 X61.039 Y18.642 Z11.947
G01 X61.472 Y18.642 Z11.909
G01 X61.991 Y18.642 Z11.810
G01 X62.338 Y18.642 Z11.863
G01 X62.771 Y18.642 Z11.862
G01 X63.117 Y18.642 Z11.852
G01 X63.810 Y18.642 Z12.046
G01 X64.242 Y18.642 Z12.099
G01 X64.589 Y18.642 Z12.117
G01 X64.848 Y18.642 Z12.175
G01 X65.195 Y18.642 Z12.251
G01 X66.061 Y18.642 Z12.306
G01 X66.580 Y18.642 Z12.343
G01 X67.013 Y18.642 Z12.300
G01 X67.186 Y18.642 Z12.267
G01 X67.619 Y18.642 Z12.268
G01 X67.965 Y18.642 Z12.212
G01 X68.225 Y18.642 Z12.132
G01 X68.571 Y18.642 Z12.104
G01 X68.918 Y18.642 Z12.017
G01 X69.351 Y18.642 Z11.834
G01 X70.130 Y18.642 Z11.458
G01 X70.476 Y18.642 Z11.247
G01 X70.736 Y18.642 Z11.047
G01 X70.909 Y18.642 Z10.970
G01 X71.515 Y18.642 Z11.111
G01 X71.602 Y18.642 Z11.130
G01 X73.160 Y18.642 Z15.438
G01 X73.333 Y18.642 Z15.784
G01 X73.506 Y18.642 Z16.033
G01 X73.766 Y18.642 Z16.278
G01 X74.113 Y18.642 Z16.490
G01 X74.459 Y18.642 Z16.616
G01 X74.805 Y18.642 Z16.679
G01 X77.143 Y18.642 Z16.690
G01 X84.156 Y18.642 Z16.686
G01 X84.502 Y18.642 Z16.636
G01 X84.502 Y18.896 Z16.637
G01 X84.156 Y18.896 Z16.686
G01 X74.892 Y18.896 Z16.686
G01 X74.545 Y18.896 Z16.638
G01 X74.199 Y18.896 Z16.529
G01 X73.853 Y18.896 Z16.339
G01 X73.593 Y18.896 Z16.128
G01 X73.420 Y18.896 Z15.921
G01 X73.247 Y18.896 Z15.618
G01 X73.074 Y18.896 Z15.207
G01 X71.602 Y18.896 Z11.129
G01 X70.909 Y18.896 Z10.961
G01 X70.390 Y18.896 Z11.321
G01 X69.697 Y18.896 Z11.705
G01 X69.004 Y18.896 Z12.005
G01 X68.658 Y18.896 Z12.094
G01 X68.225 Y18.896 Z12.132
G01 X68.139 Y18.896 Z12.134
G01 X67.706 Y18.896 Z12.244
G01 X67.100 Y18.896 Z12.294
G01 X66.753 Y18.896 Z12.328
G01 X66.407 Y18.896 Z12.310
G01 X66.147 Y18.896 Z12.279
G01 X65.801 Y18.896 Z12.288
G01 X65.281 Y18.896 Z12.224
G01 X65.022 Y18.896 Z12.163
G01 X64.675 Y18.896 Z12.135
G01 X64.329 Y18.896 Z12.057
G01 X63.983 Y18.896 Z12.041
G01 X63.636 Y18.896 Z11.967
G01 X63.377 Y18.896 Z11.876
G01 X62.857 Y18.896 Z11.861
G01 X62.165 Y18.896 Z11.853
G01 X61.732 Y18.896 Z11.920
G01 X61.299 Y18.896 Z11.947
G01 X60.779 Y18.896 Z11.969
G01 X60.260 Y18.896 Z11.978
G01 X59.827 Y18.896 Z12.011
G01 X59.567 Y18.896 Z12.036
G01 X58.961 Y18.896 Z12.119
G01 X58.615 Y18.896 Z12.115
G01 X58.268 Y18.896 Z12.072
G01 X57.749 Y18.896 Z12.123
G01 X57.403 Y18.896 Z12.121
G01 X57.056 Y18.896 Z12.076
G01 X56.623 Y18.896 Z12.042
G01 X56.277 Y18.896 Z11.961
G01 X55.758 Y18.896 Z11.955
G01 X55.411 Y18.896 Z11.918
G01 X54.978 Y18.896 Z11.894
G01 X54.545 Y18.896 Z11.840
G01 X54.113 Y18.896 Z11.717
G01 X53.593 Y18.896 Z11.705
G01 X53.160 Y18.896 Z11.622
G01 X52.987 Y18.896 Z11.574
G01 X52.641 Y18.896 Z11.533
G01 X52.294 Y18.896 Z11.451
G01 X51.861 Y18.896 Z11.451
G01 X51.515 Y18.896 Z11.387
G01 X51.169 Y18.896 Z11.284
G01 X50.823 Y18.896 Z11.227
G01 X50.303 Y18.896 Z11.080
G01 X50.043 Y18.896 Z11.029
G01 X49.264 Y18.896 Z10.924
G01 X48.918 Y18.896 Z10.837
G01 X48.571 Y18.896 Z10.827
G01 X48.139 Y18.896 Z10.811
G01 X47.965 Y18.896 Z10.789
G01 X47.446 Y18.896 Z10.847
G01 X47.013 Y18.896 Z10.840
G01 X46.580 Y18.896 Z10.838
G01 X46.061 Y18.896 Z10.892
G01 X45.628 Y18.896 Z10.873
G01 X45.281 Y18.896 Z10.906
G01 X44.589 Y18.896 Z10.886
G01 X44.069 Y18.896 Z10.805
G01 X43.723 Y18.896 Z10.715
G01 X43.377 Y18.896 Z10.649
G01 X43.030 Y18.896 Z10.639
G01 X42.511 Y18.896 Z10.523
G01 X42.165 Y18.896 Z10.497
G01 X41.818 Y18.896 Z10.414
G01 X41.558 Y18.896 Z10.297
G01 X40.952 Y18.896 Z10.232
G01 X40.779 Y18.896 Z10.199
G01 X40.693 Y18.896 Z12.839
G01 X40.606 Y18.896 Z13.166
G01 X40.433 Y18.896 Z13.457
G01 X40.173 Y18.896 Z13.768
G01 X39.827 Y18.896 Z14.068
G01 X39.394 Y18.896 Z14.344
G01 X38.874 Y18.896 Z14.589
G01 X38.268 Y18.896 Z14.793
G01 X37.403 Y18.896 Z14.997
G01 X36.623 Y18.896 Z15.105
G01 X35.758 Y18.896 Z15.159
G01 X34.805 Y18.896 Z15.146
G01 X33.160 Y18.896 Z15.030
G01 X30.216 Y18.896 Z14.703
G01 X25.108 Y18.896 Z14.315
G01 X23.723 Y18.896 Z14.141
G01 X22.338 Y18.896 Z13.900
G01 X21.039 Y18.896 Z13.604
G01 X20.000 Y18.896 Z13.311
G01 X19.134 Y18.896 Z13.000
G01 X18.442 Y18.896 Z12.686
G01 X17.922 Y18.896 Z12.394
G01 X17.835 Y18.896 Z12.434
G01 X16.710 Y18.896 Z15.534
G01 X16.623 Y18.896 Z15.714
G01 X16.450 Y18.896 Z15.964
G01 X16.190 Y18.896 Z16.236
G01 X15.931 Y18.896 Z16.419
G01 X15.584 Y18.896 Z16.575
G01 X15.238 Y18.896 Z16.661
G01 X14.805 Y18.896 Z16.690
G01 X5.714 Y18.896 Z16.680
G01 X5.628 Y18.896 Z16.673
G01 X5.628 Y19.150 Z16.673
G01 X6.320 Y19.150 Z16.690
G01 X15.065 Y19.150 Z16.680
G01 X15.411 Y19.150 Z16.624
G01 X15.671 Y19.150 Z16.542
G01 X16.017 Y19.150 Z16.366
G01 X16.277 Y19.150 Z16.155
G01 X16.537 Y19.150 Z15.852
G01 X16.623 Y19.150 Z15.714
G01 X16.797 Y19.150 Z15.314
G01 X17.835 Y19.150 Z12.433
G01 X17.922 Y19.150 Z12.414
G01 X18.528 Y19.150 Z12.746
G01 X19.307 Y19.150 Z13.082
G01 X20.173 Y19.150 Z13.381
G01 X21.385 Y19.150 Z13.711
G01 X22.771 Y19.150 Z14.010
G01 X24.156 Y19.150 Z14.235
G01 X25.541 Y19.150 Z14.388
G01 X30.390 Y19.150 Z14.775
G01 X33.506 Y19.150 Z15.138
G01 X35.065 Y19.150 Z15.246
G01 X36.017 Y19.150 Z15.245
G01 X36.970 Y19.150 Z15.170
G01 X37.749 Y19.150 Z15.044
G01 X38.615 Y19.150 Z14.831
G01 X39.221 Y19.150 Z14.612
G01 X39.740 Y19.150 Z14.349
G01 X40.173 Y19.150 Z14.050
G01 X40.433 Y19.150 Z13.814
G01 X40.606 Y19.150 Z13.624
G01 X40.779 Y19.150 Z13.378
G01 X40.952 Y19.150 Z12.997
G01 X41.039 Y19.150 Z12.650
G01 X41.126 Y19.150 Z10.269
G01 X41.472 Y19.150 Z10.305
G01 X41.905 Y19.150 Z10.461
G01 X42.251 Y19.150 Z10.524
G01 X42.597 Y19.150 Z10.529
G01 X43.117 Y19.150 Z10.628
G01 X43.636 Y19.150 Z10.775
G01 X44.242 Y19.150 Z10.842
G01 X44.675 Y19.150 Z10.902
G01 X45.108 Y19.150 Z10.898
G01 X45.455 Y19.150 Z10.874
G01 X46.147 Y19.150 Z10.922
G01 X46.667 Y19.150 Z10.893
G01 X46.926 Y19.150 Z10.839
G01 X47.186 Y19.150 Z10.848
G01 X47.619 Y19.150 Z10.864
G01 X48.052 Y19.150 Z10.805
G01 X48.658 Y19.150 Z10.788
G01 X48.918 Y19.150 Z10.849
G01 X49.264 Y19.150 Z10.939
G01 X49.610 Y19.150 Z10.985
G01 X50.043 Y19.150 Z11.068
G01 X50.390 Y19.150 Z11.091
G01 X50.736 Y19.150 Z11.229
G01 X51.082 Y19.150 Z11.304
G01 X51.255 Y19.150 Z11.331
G01 X51.688 Y19.150 Z11.461
G01 X52.121 Y19.150 Z11.508
G01 X52.468 Y19.150 Z11.504
G01 X52.814 Y19.150 Z11.581
G01 X53.074 Y19.150 Z11.625
G01 X53.506 Y19.150 Z11.717
G01 X54.026 Y19.150 Z11.774
G01 X54.286 Y19.150 Z11.786
G01 X54.632 Y19.150 Z11.876
G01 X55.152 Y19.150 Z11.952
G01 X55.498 Y19.150 Z11.950
G01 X55.844 Y19.150 Z12.005
G01 X56.364 Y19.150 Z12.001
G01 X56.797 Y19.150 Z12.073
G01 X57.143 Y19.150 Z12.073
G01 X57.662 Y19.150 Z12.132
G01 X58.182 Y19.150 Z12.141
G01 X58.528 Y19.150 Z12.125
G01 X58.874 Y19.150 Z12.149
G01 X59.221 Y19.150 Z12.116
G01 X59.481 Y19.150 Z12.058
G01 X59.913 Y19.150 Z12.075
G01 X60.260 Y19.150 Z12.034
G01 X60.519 Y19.150 Z11.980
G01 X61.212 Y19.150 Z11.951
G01 X61.472 Y19.150 Z11.947
G01 X61.818 Y19.150 Z11.948
G01 X62.338 Y19.150 Z11.882
G01 X62.771 Y19.150 Z11.837
G01 X63.203 Y19.150 Z11.880
G01 X63.723 Y19.150 Z11.948
G01 X64.069 Y19.150 Z12.014
G01 X64.502 Y19.150 Z12.080
G01 X64.848 Y19.150 Z12.140
G01 X65.022 Y19.150 Z12.158
G01 X65.368 Y19.150 Z12.246
G01 X65.714 Y19.150 Z12.269
G01 X66.234 Y19.150 Z12.255
G01 X66.667 Y19.150 Z12.309
G01 X67.013 Y19.150 Z12.295
G01 X67.619 Y19.150 Z12.222
G01 X68.139 Y19.150 Z12.107
G01 X68.658 Y19.150 Z12.078
G01 X69.004 Y19.150 Z11.995
G01 X69.697 Y19.150 Z11.705
G01 X70.216 Y19.150 Z11.422
G01 X70.563 Y19.150 Z11.263
G01 X70.823 Y19.150 Z11.099
G01 X70.996 Y19.150 Z10.968
G01 X71.602 Y19.150 Z11.140
G01 X73.160 Y19.150 Z15.437
G01 X73.333 Y19.150 Z15.783
G01 X73.506 Y19.150 Z16.033
G01 X73.766 Y19.150 Z16.278
G01 X74.113 Y19.150 Z16.490
G01 X74.459 Y19.150 Z16.616
G01 X74.805 Y19.150 Z16.679
G01 X77.316 Y19.150 Z16.690
G01 X84.156 Y19.150 Z16.686
G01 X84.502 Y19.150 Z16.637
G01 X84.502 Y19.404 Z16.637
G01 X84.156 Y19.404 Z16.686
G01 X74.892 Y19.404 Z16.686
G01 X74.545 Y19.404 Z16.638
G01 X74.199 Y19.404 Z16.528
G01 X73.853 Y19.404 Z16.338
G01 X73.593 Y19.404 Z16.127
G01 X73.420 Y19.404 Z15.921
G01 X73.247 Y19.404 Z15.617
G01 X73.074 Y19.404 Z15.205
G01 X71.602 Y19.404 Z11.152
G01 X71.082 Y19.404 Z11.005
G01 X70.996 Y19.404 Z11.008
G01 X70.649 Y19.404 Z11.247
G01 X70.216 Y19.404 Z11.436
G01 X70.043 Y19.404 Z11.508
G01 X69.697 Y19.404 Z11.721
G01 X69.351 Y19.404 Z11.875
G01 X68.745 Y19.404 Z12.018
G01 X68.571 Y19.404 Z12.045
G01 X68.225 Y19.404 Z12.140
G01 X67.879 Y19.404 Z12.178
G01 X67.619 Y19.404 Z12.192
G01 X66.753 Y19.404 Z12.296
G01 X66.320 Y19.404 Z12.278
G01 X65.974 Y19.404 Z12.211
G01 X65.628 Y19.404 Z12.239
G01 X65.281 Y19.404 Z12.202
G01 X65.022 Y19.404 Z12.136
G01 X64.675 Y19.404 Z12.118
G01 X64.069 Y19.404 Z12.016
G01 X63.810 Y19.404 Z11.943
G01 X63.377 Y19.404 Z11.889
G01 X62.771 Y19.404 Z11.807
G01 X61.991 Y19.404 Z11.947
G01 X61.472 Y19.404 Z11.965
G01 X61.039 Y19.404 Z11.947
G01 X60.693 Y19.404 Z11.984
G01 X60.260 Y19.404 Z12.102
G01 X59.913 Y19.404 Z12.138
G01 X59.567 Y19.404 Z12.121
G01 X59.394 Y19.404 Z12.092
G01 X58.874 Y19.404 Z12.153
G01 X58.615 Y19.404 Z12.149
G01 X58.268 Y19.404 Z12.188
G01 X57.922 Y19.404 Z12.172
G01 X57.316 Y19.404 Z12.063
G01 X56.797 Y19.404 Z12.086
G01 X56.364 Y19.404 Z12.033
G01 X56.017 Y19.404 Z12.047
G01 X55.584 Y19.404 Z11.989
G01 X55.411 Y19.404 Z11.961
G01 X54.978 Y19.404 Z11.946
G01 X54.459 Y19.404 Z11.848
G01 X54.372 Y19.404 Z11.821
G01 X53.853 Y19.404 Z11.785
G01 X53.160 Y19.404 Z11.660
G01 X52.814 Y19.404 Z11.658
G01 X52.468 Y19.404 Z11.584
G01 X52.294 Y19.404 Z11.530
G01 X51.861 Y19.404 Z11.507
G01 X51.515 Y19.404 Z11.432
G01 X51.169 Y19.404 Z11.305
G01 X50.823 Y19.404 Z11.245
G01 X50.390 Y19.404 Z11.099
G01 X49.870 Y19.404 Z11.049
G01 X49.091 Y19.404 Z10.925
G01 X48.831 Y19.404 Z10.843
G01 X47.965 Y19.404 Z10.824
G01 X47.619 Y19.404 Z10.867
G01 X47.186 Y19.404 Z10.850
G01 X46.667 Y19.404 Z10.942
G01 X46.234 Y19.404 Z10.953
G01 X45.887 Y19.404 Z10.946
G01 X45.541 Y19.404 Z10.945
G01 X45.195 Y19.404 Z10.884
G01 X44.675 Y19.404 Z10.924
G01 X44.156 Y19.404 Z10.888
G01 X43.550 Y19.404 Z10.794
G01 X42.944 Y19.404 Z10.605
G01 X42.511 Y19.404 Z10.537
G01 X42.078 Y19.404 Z10.499
G01 X41.558 Y19.404 Z10.369
G01 X41.385 Y19.404 Z10.331
G01 X41.299 Y19.404 Z10.663
G01 X41.212 Y19.404 Z12.856
G01 X41.126 Y19.404 Z13.168
G01 X40.952 Y19.404 Z13.491
G01 X40.693 Y19.404 Z13.813
G01 X40.346 Y19.404 Z14.128
G01 X39.913 Y19.404 Z14.425
G01 X39.394 Y19.404 Z14.685
G01 X38.874 Y19.404 Z14.870
G01 X38.095 Y19.404 Z15.069
G01 X37.229 Y19.404 Z15.224
G01 X36.277 Y19.404 Z15.313
G01 X35.325 Y19.404 Z15.331
G01 X34.286 Y19.404 Z15.276
G01 X32.554 Y19.404 Z15.098
G01 X30.303 Y19.404 Z14.815
G01 X26.926 Y19.404 Z14.531
G01 X24.762 Y19.404 Z14.339
G01 X23.377 Y19.404 Z14.142
G01 X21.991 Y19.404 Z13.870
G01 X20.606 Y19.404 Z13.518
G01 X19.567 Y19.404 Z13.185
