%
( heartTray ) ( File created: Monday December 09 2024 - 06:52 PM)
( for LinuxCNC )
( Material Size) ( X= 1200.000, Y= 180.000, Z= 19.000)
G90 (Incremental distance mode)
G17 G21 (Active Plane: XY)(Metric Mode)
G40 G49 G80(Tool Diameter, Length compensation & canned cycles OFF)
G64 P0.05 Q0.05(Path Blending)
T6 M06 (TOOL USE End Mill 1.1 mm)
G90 (absolute distance mode)
G54 (Coordinate System)
S19000M3
G00 Z39.320
G4 P6
( Profile 1 )
G00 X34.112 Y59.159 Z24.080 F8000.0
G01 Z15.000 F1200.0 M3
G01 X35.143 Y58.559  F4000.0
G01 X36.204 Y58.008 
G01 X37.293 Y57.508 
G01 X38.411 Y57.058 
G01 X38.974 Y56.855 
G01 X39.546 Y56.665 
G01 X40.125 Y56.488 
G01 X40.708 Y56.324 
G01 X41.297 Y56.175 
G01 X41.891 Y56.041 
G01 X42.490 Y55.920 
G01 X43.093 Y55.814 
G01 X43.701 Y55.723 
G01 X44.313 Y55.647 
G01 X44.929 Y55.586 
G01 X45.549 Y55.540 
G01 X46.172 Y55.510 
G01 X46.799 Y55.495 
G01 X47.429 Y55.496 
G01 X48.062 Y55.513 
G01 X48.698 Y55.546 
G01 X49.340 Y55.596 
G01 X49.416 Y55.603 
G01 X50.055 Y55.671 
G01 X50.686 Y55.754 
G01 X51.311 Y55.853 
G01 X51.931 Y55.966 
G01 X52.544 Y56.095 
G01 X53.151 Y56.239 
G01 X53.752 Y56.396 
G01 X54.346 Y56.569 
G01 X54.934 Y56.755 
G01 X55.515 Y56.955 
G01 X56.089 Y57.169 
G01 X56.655 Y57.397 
G01 X57.214 Y57.638 
G01 X57.766 Y57.891 
G01 X58.310 Y58.158 
G01 X58.843 Y58.436 
G01 X59.894 Y59.033 
G01 X60.908 Y59.677 
G01 X61.887 Y60.367 
G01 X62.830 Y61.102 
G01 X63.734 Y61.879 
G01 X64.600 Y62.699 
G01 X65.425 Y63.557 
G01 X66.207 Y64.454 
G01 X66.946 Y65.387 
G01 X67.641 Y66.354 
G01 X68.288 Y67.354 
G01 X68.888 Y68.386 
G01 X69.439 Y69.447 
G01 X69.939 Y70.535 
G01 X70.389 Y71.653 
G01 X70.592 Y72.216 
G01 X70.783 Y72.789 
G01 X70.960 Y73.367 
G01 X71.123 Y73.950 
G01 X71.272 Y74.539 
G01 X71.407 Y75.133 
G01 X71.527 Y75.732 
G01 X71.633 Y76.335 
G01 X71.724 Y76.943 
G01 X71.800 Y77.555 
G01 X71.862 Y78.171 
G01 X71.907 Y78.791 
G01 X71.938 Y79.415 
G01 X71.953 Y80.042 
G01 X71.952 Y80.672 
G01 X71.935 Y81.305 
G01 X71.901 Y81.941 
G01 X71.852 Y82.582 
G01 X71.845 Y82.658 
G01 X71.777 Y83.298 
G01 X71.693 Y83.929 
G01 X71.595 Y84.554 
G01 X71.481 Y85.173 
G01 X71.352 Y85.786 
G01 X71.209 Y86.394 
G01 X71.051 Y86.994 
G01 X70.879 Y87.589 
G01 X70.692 Y88.176 
G01 X70.492 Y88.757 
G01 X70.278 Y89.331 
G01 X70.050 Y89.897 
G01 X69.810 Y90.457 
G01 X69.556 Y91.008 
G01 X69.289 Y91.552 
G01 X69.012 Y92.085 
G01 X68.414 Y93.136 
G01 X67.771 Y94.150 
G01 X67.080 Y95.129 
G01 X66.346 Y96.072 
G01 X65.568 Y96.977 
G01 X64.749 Y97.842 
G01 X63.890 Y98.667 
G01 X62.994 Y99.450 
G01 X62.061 Y100.189 
G01 X61.093 Y100.883 
G01 X60.093 Y101.531 
G01 X59.062 Y102.131 
G01 X58.001 Y102.682 
G01 X56.912 Y103.182 
G01 X55.795 Y103.631 
G01 X55.231 Y103.834 
G01 X54.659 Y104.025 
G01 X54.080 Y104.202 
G01 X53.497 Y104.365 
G01 X52.908 Y104.514 
G01 X52.314 Y104.649 
G01 X51.715 Y104.770 
G01 X51.112 Y104.875 
G01 X50.504 Y104.967 
G01 X49.892 Y105.043 
G01 X49.276 Y105.104 
G01 X48.656 Y105.150 
G01 X48.033 Y105.180 
G01 X47.406 Y105.195 
G01 X46.776 Y105.194 
G01 X46.143 Y105.177 
G01 X45.507 Y105.144 
G01 X44.865 Y105.094 
G01 X44.789 Y105.087 
G01 X44.150 Y105.019 
G01 X43.519 Y104.936 
G01 X42.894 Y104.837 
G01 X42.274 Y104.723 
G01 X41.661 Y104.595 
G01 X41.054 Y104.451 
G01 X40.453 Y104.293 
G01 X39.859 Y104.121 
G01 X39.271 Y103.934 
G01 X38.690 Y103.734 
G01 X38.116 Y103.520 
G01 X37.550 Y103.293 
G01 X36.991 Y103.052 
G01 X36.439 Y102.798 
G01 X35.895 Y102.532 
G01 X35.362 Y102.254 
G01 X34.311 Y101.657 
G01 X33.297 Y101.013 
G01 X32.318 Y100.323 
G01 X31.375 Y99.588 
G01 X30.471 Y98.810 
G01 X29.605 Y97.991 
G01 X28.780 Y97.132 
G01 X27.998 Y96.236 
G01 X27.259 Y95.303 
G01 X26.564 Y94.336 
G01 X25.917 Y93.335 
G01 X25.317 Y92.304 
G01 X24.766 Y91.243 
G01 X24.266 Y90.155 
G01 X23.816 Y89.037 
G01 X23.613 Y88.473 
G01 X23.422 Y87.901 
G01 X23.245 Y87.323 
G01 X23.082 Y86.739 
G01 X22.933 Y86.150 
G01 X22.798 Y85.556 
G01 X22.678 Y84.958 
G01 X22.572 Y84.354 
G01 X22.481 Y83.746 
G01 X22.405 Y83.134 
G01 X22.343 Y82.518 
G01 X22.298 Y81.898 
G01 X22.267 Y81.275 
G01 X22.252 Y80.648 
G01 X22.253 Y80.018 
G01 X22.271 Y79.385 
G01 X22.304 Y78.749 
G01 X22.353 Y78.107 
G01 X22.360 Y78.031 
G01 X22.428 Y77.392 
G01 X22.512 Y76.761 
G01 X22.610 Y76.136 
G01 X22.724 Y75.517 
G01 X22.853 Y74.903 
G01 X22.996 Y74.296 
G01 X23.154 Y73.695 
G01 X23.326 Y73.101 
G01 X23.513 Y72.513 
G01 X23.713 Y71.932 
G01 X23.927 Y71.359 
G01 X24.155 Y70.792 
G01 X24.395 Y70.233 
G01 X24.649 Y69.681 
G01 X24.916 Y69.137 
G01 X25.194 Y68.604 
G01 X25.791 Y67.554 
G01 X26.435 Y66.539 
G01 X27.125 Y65.560 
G01 X27.859 Y64.618 
G01 X28.637 Y63.713 
G01 X29.456 Y62.847 
G01 X30.315 Y62.023 
G01 X31.212 Y61.240 
G01 X32.144 Y60.501 
G01 X33.112 Y59.807 
G01 X34.112 Y59.159 
G00 Z24.080
G00 X27.785 Y49.561  F8000.0
G01 Z15.000 F1200.0 M3
G01 X27.053 Y50.059  F4000.0
G01 X26.342 Y50.568 
G01 X25.654 Y51.087 
G01 X24.987 Y51.615 
G01 X24.342 Y52.151 
G01 X23.719 Y52.693 
G01 X23.116 Y53.241 
G01 X22.534 Y53.793 
G01 X21.972 Y54.349 
G01 X21.431 Y54.907 
G01 X20.910 Y55.466 
G01 X19.927 Y56.583 
G01 X19.021 Y57.692 
G01 X18.191 Y58.783 
G01 X17.434 Y59.848 
G01 X16.749 Y60.878 
G01 X16.133 Y61.864 
G01 X15.585 Y62.798 
G01 X15.103 Y63.670 
G01 X14.685 Y64.472 
G01 X14.328 Y65.195 
G01 X14.032 Y65.830 
G01 X13.612 Y66.801 
G01 X13.408 Y67.314 
G01 X13.087 Y68.189 
G01 X12.792 Y69.060 
G01 X12.521 Y69.928 
G01 X12.276 Y70.793 
G01 X12.055 Y71.654 
G01 X11.857 Y72.511 
G01 X11.683 Y73.363 
G01 X11.531 Y74.211 
G01 X11.401 Y75.055 
G01 X11.293 Y75.893 
G01 X11.206 Y76.727 
G01 X11.140 Y77.555 
G01 X11.094 Y78.377 
G01 X11.067 Y79.194 
G01 X11.059 Y80.004 
G01 X11.069 Y80.809 
G01 X11.098 Y81.606 
G01 X11.143 Y82.398 
G01 X11.206 Y83.182 
G01 X11.285 Y83.959 
G01 X11.380 Y84.728 
G01 X11.490 Y85.490 
G01 X11.615 Y86.244 
G01 X11.754 Y86.990 
G01 X12.072 Y88.456 
G01 X12.441 Y89.888 
G01 X12.857 Y91.282 
G01 X13.315 Y92.638 
G01 X13.810 Y93.953 
G01 X14.340 Y95.226 
G01 X14.899 Y96.455 
G01 X15.483 Y97.638 
G01 X16.089 Y98.773 
G01 X16.711 Y99.858 
G01 X17.347 Y100.892 
G01 X17.991 Y101.873 
G01 X18.639 Y102.799 
G01 X19.287 Y103.668 
G01 X19.931 Y104.478 
G01 X20.567 Y105.228 
G01 X21.191 Y105.915 
G01 X21.798 Y106.539 
G01 X22.385 Y107.097 
G01 X22.946 Y107.587 
G01 X23.657 Y108.163 
G01 X24.383 Y108.720 
G01 X25.124 Y109.259 
G01 X25.878 Y109.781 
G01 X26.647 Y110.284 
G01 X27.428 Y110.770 
G01 X28.222 Y111.238 
G01 X29.027 Y111.689 
G01 X29.844 Y112.123 
G01 X30.671 Y112.541 
G01 X31.508 Y112.941 
G01 X32.355 Y113.325 
G01 X33.211 Y113.692 
G01 X34.074 Y114.043 
G01 X34.946 Y114.378 
G01 X35.824 Y114.697 
G01 X36.709 Y115.001 
G01 X37.600 Y115.288 
G01 X38.496 Y115.561 
G01 X39.397 Y115.818 
G01 X40.302 Y116.060 
G01 X41.210 Y116.288 
G01 X43.036 Y116.699 
G01 X44.868 Y117.052 
G01 X46.703 Y117.350 
G01 X48.535 Y117.593 
G01 X50.361 Y117.783 
G01 X51.331 Y117.850 
G01 X52.307 Y117.877 
G01 X53.286 Y117.864 
G01 X54.267 Y117.814 
G01 X55.251 Y117.726 
G01 X56.234 Y117.602 
G01 X57.217 Y117.443 
G01 X58.198 Y117.249 
G01 X59.177 Y117.022 
G01 X60.152 Y116.762 
G01 X61.122 Y116.470 
G01 X62.086 Y116.148 
G01 X63.044 Y115.795 
G01 X63.993 Y115.414 
G01 X64.934 Y115.005 
G01 X65.864 Y114.568 
G01 X66.783 Y114.105 
G01 X67.690 Y113.617 
G01 X68.584 Y113.104 
G01 X69.464 Y112.568 
G01 X70.329 Y112.009 
G01 X71.177 Y111.429 
G01 X72.007 Y110.827 
G01 X72.820 Y110.206 
G01 X73.613 Y109.566 
G01 X74.385 Y108.908 
G01 X75.135 Y108.232 
G01 X75.864 Y107.541 
G01 X76.568 Y106.834 
G01 X77.248 Y106.113 
G01 X77.901 Y105.378 
G01 X78.529 Y104.630 
G01 X78.963 Y104.034 
G01 X78.965 Y104.031 
G01 X79.832 Y102.844 
G01 X79.835 Y102.841 
G01 X80.424 Y102.064 
G01 X80.426 Y102.061 
G01 X81.119 Y101.180 
G01 X81.122 Y101.176 
G01 X81.916 Y100.204 
G01 X81.919 Y100.201 
G01 X82.813 Y99.152 
G01 X82.817 Y99.148 
G01 X83.809 Y98.038 
G01 X83.813 Y98.034 
G01 X84.902 Y96.875 
G01 X84.907 Y96.871 
G01 X86.091 Y95.678 
G01 X86.096 Y95.673 
G01 X87.375 Y94.460 
G01 X87.379 Y94.457 
G01 X88.052 Y93.848 
G01 X88.055 Y93.846 
G01 X88.751 Y93.238 
G01 X88.754 Y93.235 
G01 X89.474 Y92.628 
G01 X89.477 Y92.625 
G01 X90.217 Y92.023 
G01 X90.221 Y92.021 
G01 X90.985 Y91.423 
G01 X90.989 Y91.421 
G01 X91.774 Y90.831 
G01 X91.778 Y90.829 
G01 X92.585 Y90.249 
G01 X92.589 Y90.246 
G01 X93.418 Y89.677 
G01 X93.422 Y89.674 
G01 X94.272 Y89.118 
G01 X94.277 Y89.115 
G01 X95.148 Y88.573 
G01 X95.153 Y88.570 
G01 X96.045 Y88.044 
G01 X96.050 Y88.041 
G01 X96.963 Y87.534 
G01 X96.968 Y87.531 
G01 X97.902 Y87.043 
G01 X97.908 Y87.041 
G01 X98.862 Y86.574 
G01 X98.867 Y86.572 
G01 X99.842 Y86.129 
G01 X99.848 Y86.126 
G01 X100.842 Y85.708 
G01 X100.849 Y85.706 
G01 X101.862 Y85.315 
G01 X101.869 Y85.312 
G01 X102.902 Y84.950 
G01 X102.909 Y84.947 
G01 X103.962 Y84.615 
G01 X103.969 Y84.613 
G01 X105.041 Y84.313 
G01 X105.049 Y84.311 
G01 X106.140 Y84.045 
G01 X106.147 Y84.043 
G01 X107.257 Y83.812 
G01 X107.265 Y83.810 
G01 X108.394 Y83.617 
G01 X108.402 Y83.615 
G01 X109.549 Y83.461 
G01 X109.558 Y83.460 
G01 X110.723 Y83.346 
G01 X110.732 Y83.345 
G01 X111.915 Y83.274 
G01 X111.924 Y83.274 
G01 X113.125 Y83.247 
G01 X113.134 Y83.247 
G01 X114.354 Y83.266 
G01 X114.362 Y83.266 
G01 X115.600 Y83.333 
G01 X115.608 Y83.333 
G01 X116.864 Y83.450 
G01 X116.873 Y83.451 
G01 X118.145 Y83.618 
G01 X118.154 Y83.620 
G01 X119.443 Y83.841 
G01 X119.452 Y83.842 
G01 X120.759 Y84.118 
G01 X120.767 Y84.120 
G01 X122.091 Y84.452 
G01 X122.099 Y84.455 
G01 X123.440 Y84.846 
G01 X123.448 Y84.848 
G01 X124.806 Y85.299 
G01 X124.814 Y85.302 
G01 X126.188 Y85.816 
G01 X126.195 Y85.819 
G01 X127.585 Y86.396 
G01 X127.593 Y86.399 
G01 X128.999 Y87.042 
G01 X129.006 Y87.045 
G01 X130.429 Y87.756 
G01 X130.435 Y87.759 
G01 X131.179 Y88.158 
G01 X131.184 Y88.160 
G01 X131.918 Y88.577 
G01 X131.922 Y88.580 
G01 X132.648 Y89.015 
G01 X132.652 Y89.017 
G01 X133.367 Y89.468 
G01 X133.372 Y89.471 
G01 X134.077 Y89.938 
G01 X134.081 Y89.941 
G01 X134.778 Y90.425 
G01 X134.782 Y90.427 
G01 X135.469 Y90.926 
G01 X135.472 Y90.929 
G01 X136.149 Y91.441 
G01 X136.153 Y91.444 
G01 X136.821 Y91.972 
G01 X136.825 Y91.975 
G01 X137.484 Y92.516 
G01 X137.487 Y92.519 
G01 X138.137 Y93.073 
G01 X138.140 Y93.076 
G01 X138.780 Y93.642 
G01 X138.784 Y93.646 
G01 X140.040 Y94.817 
G01 X140.045 Y94.823 
G01 X141.263 Y96.037 
G01 X141.268 Y96.042 
G01 X142.451 Y97.296 
G01 X142.455 Y97.301 
G01 X143.603 Y98.591 
G01 X143.607 Y98.596 
G01 X144.720 Y99.918 
G01 X144.724 Y99.923 
G01 X145.802 Y101.272 
G01 X145.806 Y101.276 
G01 X146.850 Y102.648 
G01 X146.854 Y102.653 
G01 X147.865 Y104.043 
G01 X147.867 Y104.047 
G01 X148.846 Y105.454 
G01 X148.848 Y105.457 
G01 X149.795 Y106.876 
G01 X149.796 Y106.876 
G01 X151.371 Y109.260 
G01 X152.909 Y111.539 
G01 X154.409 Y113.714 
G01 X155.869 Y115.781 
G01 X157.289 Y117.740 
G01 X158.668 Y119.590 
G01 X160.006 Y121.330 
G01 X161.302 Y122.958 
G01 X162.554 Y124.473 
G01 X163.763 Y125.874 
G01 X164.928 Y127.160 
G01 X166.047 Y128.331 
G01 X167.121 Y129.383 
G01 X168.148 Y130.317 
G01 X168.644 Y130.740 
G01 X169.129 Y131.132 
G01 X169.601 Y131.494 
G01 X170.061 Y131.825 
G01 X170.841 Y132.350 
G01 X171.645 Y132.849 
G01 X172.471 Y133.315 
G01 X173.318 Y133.743 
G01 X174.183 Y134.126 
G01 X175.066 Y134.457 
G01 X175.515 Y134.601 
G01 X175.967 Y134.729 
G01 X176.422 Y134.841 
G01 X176.882 Y134.937 
G01 X177.895 Y135.083 
G01 X179.807 Y135.311 
G01 X186.337 Y136.015 
G01 X196.471 Y137.053 
G01 X208.929 Y138.299 
G02 X209.369 Y137.359 I0.055 J-0.547
G01 X209.053 Y137.049  
G01 X209.046 Y137.041 
G01 X208.691 Y136.659 
G01 X208.685 Y136.652 
G01 X208.333 Y136.243 
G01 X208.327 Y136.236 
G01 X207.991 Y135.815 
G01 X207.986 Y135.807 
G01 X207.678 Y135.388 
G01 X207.672 Y135.380 
G01 X207.405 Y134.979 
G01 X207.397 Y134.967 
G01 X207.182 Y134.599 
G01 X207.175 Y134.586 
G01 X206.893 Y134.023 
G01 X206.887 Y134.011 
G01 X206.639 Y133.436 
G01 X206.634 Y133.424 
G01 X206.419 Y132.840 
G01 X206.415 Y132.828 
G01 X206.236 Y132.238 
G01 X206.232 Y132.225 
G01 X206.089 Y131.631 
G01 X206.086 Y131.618 
G01 X205.978 Y131.022 
G01 X205.976 Y131.009 
G01 X205.905 Y130.413 
G01 X205.903 Y130.398 
G01 X205.869 Y129.807 
G01 X205.869 Y129.788 
G01 X205.882 Y129.162 
G01 X205.883 Y129.149 
G01 X205.943 Y128.397 
G01 X205.943 Y128.391 
G01 X206.038 Y127.639 
G01 X206.040 Y127.626 
G01 X206.157 Y126.998 
G01 X206.161 Y126.980 
G01 X206.321 Y126.375 
G01 X206.326 Y126.361 
G01 X206.525 Y125.768 
G01 X206.530 Y125.754 
G01 X206.765 Y125.175 
G01 X206.771 Y125.162 
G01 X207.041 Y124.598 
G01 X207.047 Y124.586 
G01 X207.351 Y124.039 
G01 X207.358 Y124.027 
G01 X207.694 Y123.500 
G01 X207.702 Y123.489 
G01 X208.069 Y122.982 
G01 X208.077 Y122.972 
G01 X208.473 Y122.487 
G01 X208.482 Y122.477 
G01 X208.907 Y122.017 
G01 X208.916 Y122.007 
G01 X209.367 Y121.572 
G01 X209.377 Y121.563 
G01 X209.854 Y121.155 
G01 X209.865 Y121.147 
G01 X210.365 Y120.768 
G01 X210.376 Y120.760 
G01 X210.899 Y120.411 
G01 X210.911 Y120.403 
G01 X211.454 Y120.087 
G01 X211.467 Y120.080 
G01 X212.030 Y119.796 
G01 X212.044 Y119.790 
G01 X212.627 Y119.541 
G01 X212.638 Y119.537 
G01 X213.075 Y119.375 
G01 X213.084 Y119.372 
G01 X213.513 Y119.233 
G01 X213.523 Y119.230 
G01 X213.948 Y119.112 
G01 X213.958 Y119.110 
G01 X214.383 Y119.013 
G01 X214.394 Y119.011 
G01 X214.824 Y118.933 
G01 X214.834 Y118.931 
G01 X215.274 Y118.872 
G01 X215.284 Y118.871 
G01 X215.740 Y118.830 
G01 X215.749 Y118.829 
G01 X216.222 Y118.805 
G01 X216.233 Y118.805 
G01 X216.872 Y118.804 
G01 X216.886 Y118.804 
G01 X217.540 Y118.844 
G01 X217.543 Y118.844 
G01 X217.546 Y118.844 
G01 X218.211 Y118.924 
G01 X218.223 Y118.925 
G01 X218.890 Y119.043 
G01 X218.903 Y119.045 
G01 X219.571 Y119.201 
G01 X219.583 Y119.204 
G01 X220.250 Y119.396 
G01 X220.261 Y119.400 
G01 X220.921 Y119.629 
G01 X220.932 Y119.633 
G01 X221.583 Y119.898 
G01 X221.592 Y119.902 
G01 X222.081 Y120.127 
G01 X222.088 Y120.131 
G01 X222.576 Y120.377 
G01 X222.584 Y120.381 
G01 X223.072 Y120.649 
G01 X223.079 Y120.653 
G01 X223.567 Y120.945 
G01 X223.574 Y120.949 
G01 X224.064 Y121.264 
G01 X224.070 Y121.268 
G01 X224.564 Y121.609 
G01 X224.570 Y121.613 
G01 X225.069 Y121.979 
G01 X225.074 Y121.983 
G01 X225.578 Y122.377 
G01 X225.583 Y122.381 
G01 X226.094 Y122.802 
G01 X226.098 Y122.806 
G01 X226.618 Y123.257 
G01 X226.622 Y123.260 
G01 X227.150 Y123.741 
G01 X227.153 Y123.744 
G01 X227.691 Y124.254 
G01 X227.696 Y124.259 
G01 X228.810 Y125.380 
G01 X228.815 Y125.386 
G01 X229.984 Y126.642 
G01 X229.987 Y126.645 
G01 X230.669 Y127.399 
G01 X230.676 Y127.407 
G01 X231.677 Y128.618 
G01 X231.678 Y128.619 
G01 X232.608 Y129.763 
G01 X232.610 Y129.765 
G01 X233.437 Y130.810 
G01 X233.439 Y130.812 
G01 X234.192 Y131.786 
G01 X234.195 Y131.789 
G01 X235.064 Y132.953 
G01 X235.067 Y132.958 
G01 X236.233 Y134.607 
G01 X238.657 Y138.042 
G01 X239.909 Y139.818 
G01 X240.836 Y141.144 
G01 X240.874 Y141.213 
G02 X241.302 Y141.495 I0.482 J-0.266
G01 X249.396 Y142.281  
G01 X257.433 Y143.042 
G01 X265.143 Y143.751 
G01 X272.525 Y144.405 
G01 X279.580 Y145.004 
G01 X286.305 Y145.545 
G01 X292.702 Y146.028 
G01 X298.769 Y146.449 
G01 X304.507 Y146.809 
G01 X309.913 Y147.104 
G01 X314.989 Y147.334 
G01 X319.733 Y147.496 
G01 X321.981 Y147.552 
G01 X324.146 Y147.590 
G01 X326.228 Y147.610 
G01 X328.226 Y147.613 
G01 X330.141 Y147.598 
G01 X331.973 Y147.564 
G01 X333.722 Y147.512 
G01 X335.387 Y147.441 
G01 X337.898 Y147.307 
G01 X340.317 Y147.159 
G01 X342.640 Y146.994 
G01 X344.866 Y146.812 
G01 X346.993 Y146.612 
G01 X349.019 Y146.393 
G01 X350.942 Y146.154 
G01 X352.760 Y145.894 
G01 X354.471 Y145.613 
G01 X356.074 Y145.308 
G01 X357.566 Y144.980 
G01 X358.945 Y144.627 
G01 X360.210 Y144.248 
G01 X360.799 Y144.049 
G01 X361.359 Y143.843 
G01 X361.889 Y143.629 
G01 X362.390 Y143.409 
G01 X362.860 Y143.181 
G01 X363.301 Y142.946 
G01 X363.494 Y142.828 
G01 X363.676 Y142.698 
G01 X363.845 Y142.556 
G01 X364.004 Y142.403 
G01 X364.288 Y142.069 
G01 X364.531 Y141.698 
G01 X364.738 Y141.296 
G01 X364.912 Y140.866 
G01 X365.056 Y140.415 
G01 X365.174 Y139.945 
G01 X365.271 Y139.461 
G01 X365.348 Y138.967 
G01 X365.462 Y137.969 
G01 X365.543 Y136.988 
G01 X365.621 Y136.050 
G01 X365.622 Y136.049 
G01 X367.985 Y110.974 
G01 X370.023 Y89.052 
G01 X371.738 Y70.282 
G01 X373.131 Y54.667 
G01 X374.202 Y42.206 
G01 X374.617 Y37.160 
G01 X374.953 Y32.902 
G01 X375.209 Y29.434 
G01 X375.386 Y26.755 
G01 X375.483 Y24.865 
G01 X375.502 Y24.216 
G01 X375.501 Y23.763 
G01 X375.477 Y23.459 
G01 X375.423 Y23.168 
G01 X375.341 Y22.891 
G01 X375.233 Y22.626 
G01 X375.099 Y22.374 
G01 X374.942 Y22.134 
G01 X374.762 Y21.906 
G01 X374.561 Y21.690 
G01 X374.341 Y21.484 
G01 X374.102 Y21.290 
G01 X373.847 Y21.106 
G01 X373.575 Y20.931 
G01 X372.992 Y20.611 
G01 X372.362 Y20.325 
G01 X371.696 Y20.071 
G01 X371.004 Y19.845 
G01 X370.298 Y19.645 
G01 X369.586 Y19.467 
G01 X368.191 Y19.167 
G01 X366.903 Y18.922 
G01 X365.153 Y18.614 
G01 X363.311 Y18.333 
G01 X361.377 Y18.075 
G01 X359.352 Y17.840 
G01 X357.236 Y17.627 
G01 X355.028 Y17.435 
G01 X352.729 Y17.261 
G01 X350.340 Y17.106 
G01 X347.859 Y16.968 
G01 X345.288 Y16.846 
G01 X342.626 Y16.738 
G01 X339.875 Y16.643 
G01 X334.101 Y16.489 
G01 X327.968 Y16.374 
G01 X321.477 Y16.288 
G01 X314.629 Y16.222 
G01 X299.861 Y16.109 
G01 X283.696 Y15.961 
G01 X283.695 Y15.961 
G01 X275.087 Y15.849 
G01 X257.117 Y15.549 
G01 X248.110 Y15.444 
G01 X243.606 Y15.413 
G01 X239.102 Y15.398 
G01 X234.597 Y15.399 
G01 X230.093 Y15.420 
G01 X225.590 Y15.461 
G01 X221.086 Y15.523 
G01 X216.584 Y15.608 
G01 X212.082 Y15.718 
G01 X207.581 Y15.854 
G01 X203.082 Y16.018 
G01 X198.583 Y16.210 
G01 X194.086 Y16.432 
G01 X188.028 Y16.738 
G01 X188.027 Y16.738 
G01 X182.341 Y16.998 
G01 X182.340 Y16.998 
G01 X177.021 Y17.214 
G01 X177.020 Y17.214 
G01 X172.067 Y17.392 
G01 X172.066 Y17.392 
G01 X167.486 Y17.535 
G01 X167.484 Y17.535 
G01 X163.273 Y17.647 
G01 X163.272 Y17.647 
G01 X159.429 Y17.733 
G01 X159.428 Y17.733 
G01 X155.955 Y17.797 
G01 X155.953 Y17.797 
G01 X150.114 Y17.873 
G01 X150.113 Y17.873 
G01 X145.753 Y17.908 
G01 X142.874 Y17.934 
G01 X141.989 Y17.954 
G01 X141.474 Y17.984 
G01 X140.720 Y18.079 
G01 X139.987 Y18.196 
G01 X139.273 Y18.334 
G01 X138.580 Y18.490 
G01 X137.906 Y18.664 
G01 X137.251 Y18.855 
G01 X136.615 Y19.061 
G01 X135.999 Y19.281 
G01 X135.401 Y19.515 
G01 X134.822 Y19.760 
G01 X134.262 Y20.017 
G01 X133.720 Y20.283 
G01 X133.196 Y20.557 
G01 X132.689 Y20.839 
G01 X131.730 Y21.419 
G01 X130.840 Y22.014 
G01 X130.019 Y22.614 
G01 X129.263 Y23.211 
G01 X128.573 Y23.794 
G01 X127.946 Y24.354 
G01 X127.382 Y24.883 
G01 X126.433 Y25.805 
G01 X124.978 Y27.258 
G01 X123.531 Y28.744 
G01 X120.642 Y31.771 
G01 X120.641 Y31.772 
G01 X117.725 Y34.789 
G01 X117.722 Y34.792 
G01 X116.241 Y36.268 
G01 X116.238 Y36.271 
G01 X114.733 Y37.711 
G01 X114.729 Y37.715 
G01 X113.196 Y39.106 
G01 X113.191 Y39.110 
G01 X112.414 Y39.783 
G01 X112.411 Y39.785 
G01 X111.623 Y40.442 
G01 X111.620 Y40.445 
G01 X110.823 Y41.085 
G01 X110.819 Y41.088 
G01 X110.011 Y41.708 
G01 X110.007 Y41.711 
G01 X109.189 Y42.310 
G01 X109.184 Y42.313 
G01 X108.354 Y42.890 
G01 X108.349 Y42.893 
G01 X107.507 Y43.447 
G01 X107.501 Y43.450 
G01 X106.646 Y43.978 
G01 X106.640 Y43.982 
G01 X105.771 Y44.484 
G01 X105.764 Y44.487 
G01 X104.881 Y44.961 
G01 X104.874 Y44.965 
G01 X103.976 Y45.410 
G01 X103.969 Y45.413 
G01 X103.054 Y45.828 
G01 X103.047 Y45.831 
G01 X102.116 Y46.213 
G01 X102.108 Y46.216 
G01 X101.160 Y46.566 
G01 X101.153 Y46.568 
G01 X100.308 Y46.850 
G01 X100.302 Y46.852 
G01 X99.449 Y47.114 
G01 X99.443 Y47.116 
G01 X98.583 Y47.358 
G01 X98.578 Y47.360 
G01 X97.712 Y47.583 
G01 X97.707 Y47.584 
G01 X96.835 Y47.789 
G01 X96.830 Y47.790 
G01 X95.953 Y47.975 
G01 X95.948 Y47.976 
G01 X95.066 Y48.144 
G01 X95.061 Y48.145 
G01 X94.174 Y48.295 
G01 X94.169 Y48.296 
G01 X93.279 Y48.428 
G01 X93.274 Y48.428 
G01 X92.379 Y48.544 
G01 X92.375 Y48.544 
G01 X91.476 Y48.643 
G01 X91.472 Y48.643 
G01 X90.570 Y48.725 
G01 X90.566 Y48.726 
G01 X89.661 Y48.792 
G01 X89.657 Y48.792 
G01 X88.752 Y48.842 
G01 X88.748 Y48.842 
G01 X87.839 Y48.877 
G01 X87.836 Y48.877 
G01 X86.926 Y48.897 
G01 X86.920 Y48.897 
G01 X85.097 Y48.894 
G01 X85.090 Y48.894 
G01 X83.265 Y48.835 
G01 X83.258 Y48.835 
G01 X81.436 Y48.724 
G01 X81.430 Y48.723 
G01 X79.610 Y48.562 
G01 X79.605 Y48.562 
G01 X77.795 Y48.354 
G01 X77.790 Y48.353 
G01 X75.990 Y48.102 
G01 X75.985 Y48.101 
G01 X74.200 Y47.809 
G01 X74.195 Y47.808 
G01 X72.427 Y47.477 
G01 X72.422 Y47.476 
G01 X69.800 Y46.934 
G01 X69.797 Y46.934 
G01 X67.184 Y46.365 
G01 X64.547 Y45.787 
G01 X61.917 Y45.233 
G01 X59.281 Y44.722 
G01 X57.959 Y44.492 
G01 X56.636 Y44.282 
G01 X55.309 Y44.095 
G01 X53.980 Y43.935 
G01 X52.647 Y43.804 
G01 X51.310 Y43.705 
G01 X50.001 Y43.644 
G01 X48.719 Y43.619 
G01 X47.465 Y43.630 
G01 X46.239 Y43.674 
G01 X45.039 Y43.752 
G01 X43.866 Y43.862 
G01 X42.720 Y44.002 
G01 X41.599 Y44.173 
G01 X40.505 Y44.372 
G01 X39.437 Y44.599 
G01 X38.394 Y44.853 
G01 X37.376 Y45.131 
G01 X36.384 Y45.435 
G01 X35.416 Y45.761 
G01 X34.473 Y46.109 
G01 X33.554 Y46.479 
G01 X32.660 Y46.868 
G01 X31.789 Y47.277 
G01 X30.942 Y47.703 
G01 X30.118 Y48.145 
G01 X29.317 Y48.603 
G01 X28.540 Y49.076 
G01 X27.785 Y49.561 
G00 Z24.080
G00 X639.069 Y76.198  F8000.0
G01 Z15.000 F1200.0 M3
G01 X639.097 Y75.587  F4000.0
G01 X639.140 Y74.974 
G01 X639.198 Y74.360 
G01 X639.272 Y73.745 
G01 X639.362 Y73.130 
G01 X639.468 Y72.514 
G01 X639.590 Y71.898 
G01 X639.728 Y71.281 
G01 X639.882 Y70.664 
G01 X639.966 Y70.356 
G01 X640.144 Y69.743 
G01 X640.336 Y69.140 
G01 X640.542 Y68.545 
G01 X640.762 Y67.958 
G01 X640.995 Y67.380 
G01 X641.242 Y66.810 
G01 X641.501 Y66.249 
G01 X641.773 Y65.697 
G01 X642.058 Y65.154 
G01 X642.356 Y64.620 
G01 X642.665 Y64.096 
G01 X642.986 Y63.580 
G01 X643.319 Y63.074 
G01 X643.662 Y62.581 
G01 X644.386 Y61.615 
G01 X645.150 Y60.692 
G01 X645.956 Y59.810 
G01 X646.801 Y58.970 
G01 X647.683 Y58.174 
G01 X648.600 Y57.421 
G01 X649.551 Y56.715 
G01 X650.534 Y56.054 
G01 X651.546 Y55.441 
G01 X652.586 Y54.877 
G01 X653.652 Y54.362 
G01 X654.742 Y53.898 
G01 X655.854 Y53.486 
G01 X656.986 Y53.127 
G01 X658.136 Y52.822 
G01 X659.304 Y52.571 
G01 X660.489 Y52.376 
G01 X661.081 Y52.301 
G01 X661.680 Y52.239 
G01 X662.281 Y52.192 
G01 X662.885 Y52.160 
G01 X663.491 Y52.143 
G01 X664.099 Y52.140 
G01 X664.709 Y52.153 
G01 X665.321 Y52.180 
G01 X665.934 Y52.223 
G01 X666.548 Y52.282 
G01 X667.163 Y52.356 
G01 X667.778 Y52.446 
G01 X668.394 Y52.552 
G01 X669.010 Y52.673 
G01 X669.626 Y52.811 
G01 X670.244 Y52.966 
G01 X670.552 Y53.049 
G01 X671.165 Y53.227 
G01 X671.768 Y53.420 
G01 X672.363 Y53.626 
G01 X672.950 Y53.845 
G01 X673.528 Y54.079 
G01 X674.097 Y54.325 
G01 X674.658 Y54.585 
G01 X675.210 Y54.857 
G01 X675.753 Y55.142 
G01 X676.287 Y55.439 
G01 X676.812 Y55.749 
G01 X677.328 Y56.070 
G01 X677.833 Y56.403 
G01 X678.327 Y56.745 
G01 X679.293 Y57.469 
G01 X680.216 Y58.234 
G01 X681.098 Y59.040 
G01 X681.938 Y59.885 
G01 X682.734 Y60.767 
G01 X683.486 Y61.684 
G01 X684.193 Y62.635 
G01 X684.854 Y63.617 
G01 X685.466 Y64.629 
G01 X686.031 Y65.669 
G01 X686.545 Y66.735 
G01 X687.009 Y67.825 
G01 X687.422 Y68.937 
G01 X687.781 Y70.069 
G01 X688.086 Y71.220 
G01 X688.337 Y72.387 
G01 X688.532 Y73.572 
G01 X688.607 Y74.165 
G01 X688.668 Y74.763 
G01 X688.715 Y75.365 
G01 X688.748 Y75.969 
G01 X688.765 Y76.575 
G01 X688.768 Y77.183 
G01 X688.755 Y77.793 
G01 X688.727 Y78.405 
G01 X688.684 Y79.017 
G01 X688.626 Y79.631 
G01 X688.552 Y80.246 
G01 X688.462 Y80.862 
G01 X688.356 Y81.478 
G01 X688.234 Y82.094 
G01 X688.096 Y82.710 
G01 X687.942 Y83.327 
G01 X687.859 Y83.635 
G01 X687.680 Y84.248 
G01 X687.488 Y84.852 
G01 X687.282 Y85.447 
G01 X687.062 Y86.033 
G01 X686.829 Y86.612 
G01 X686.583 Y87.181 
G01 X686.323 Y87.742 
G01 X686.051 Y88.294 
G01 X685.766 Y88.837 
G01 X685.468 Y89.371 
G01 X685.159 Y89.896 
G01 X684.838 Y90.411 
G01 X684.505 Y90.917 
G01 X684.162 Y91.411 
G01 X683.438 Y92.376 
G01 X682.674 Y93.299 
G01 X681.868 Y94.181 
G01 X681.023 Y95.021 
G01 X680.141 Y95.818 
G01 X679.224 Y96.570 
G01 X678.273 Y97.277 
G01 X677.290 Y97.937 
G01 X676.278 Y98.550 
G01 X675.238 Y99.114 
G01 X674.172 Y99.629 
G01 X673.083 Y100.093 
G01 X671.971 Y100.505 
G01 X670.838 Y100.864 
G01 X669.688 Y101.170 
G01 X668.521 Y101.420 
G01 X667.336 Y101.615 
G01 X666.743 Y101.691 
G01 X666.144 Y101.752 
G01 X665.543 Y101.799 
G01 X664.939 Y101.831 
G01 X664.333 Y101.849 
G01 X663.725 Y101.851 
G01 X663.115 Y101.839 
G01 X662.503 Y101.811 
G01 X661.890 Y101.768 
G01 X661.276 Y101.709 
G01 X660.661 Y101.635 
G01 X660.046 Y101.545 
G01 X659.430 Y101.440 
G01 X658.814 Y101.318 
G01 X658.198 Y101.180 
G01 X657.580 Y101.025 
G01 X657.272 Y100.942 
G01 X656.659 Y100.764 
G01 X656.056 Y100.572 
G01 X655.461 Y100.366 
G01 X654.874 Y100.146 
G01 X654.296 Y99.913 
G01 X653.727 Y99.666 
G01 X653.166 Y99.407 
G01 X652.614 Y99.134 
G01 X652.071 Y98.849 
G01 X651.537 Y98.552 
G01 X651.012 Y98.243 
G01 X650.497 Y97.921 
G01 X649.991 Y97.588 
G01 X649.497 Y97.246 
G01 X648.531 Y96.522 
G01 X647.608 Y95.757 
G01 X646.726 Y94.952 
G01 X645.887 Y94.107 
G01 X645.090 Y93.225 
G01 X644.338 Y92.307 
G01 X643.631 Y91.356 
G01 X642.971 Y90.374 
G01 X642.358 Y89.362 
G01 X641.793 Y88.322 
G01 X641.279 Y87.256 
G01 X640.815 Y86.166 
G01 X640.403 Y85.054 
G01 X640.043 Y83.922 
G01 X639.738 Y82.771 
G01 X639.487 Y81.604 
G01 X639.293 Y80.419 
G01 X639.217 Y79.827 
G01 X639.156 Y79.228 
G01 X639.109 Y78.627 
G01 X639.076 Y78.023 
G01 X639.059 Y77.417 
G01 X639.056 Y76.808 
G01 X639.069 Y76.198 
G00 Z24.080
G00 X627.031 Y58.815  F8000.0
G01 Z15.000 F1200.0 M3
G01 X625.660 Y59.775  F4000.0
G01 X625.658 Y59.776 
G01 X624.276 Y60.726 
G01 X624.273 Y60.727 
G01 X622.877 Y61.662 
G01 X622.874 Y61.664 
G01 X621.464 Y62.575 
G01 X621.460 Y62.578 
G01 X620.035 Y63.460 
G01 X620.030 Y63.462 
G01 X618.589 Y64.307 
G01 X618.584 Y64.310 
G01 X617.126 Y65.112 
G01 X617.119 Y65.115 
G01 X615.644 Y65.866 
G01 X615.638 Y65.869 
G01 X614.895 Y66.223 
G01 X614.891 Y66.224 
G01 X614.142 Y66.563 
G01 X614.138 Y66.565 
G01 X613.384 Y66.888 
G01 X613.380 Y66.890 
G01 X612.621 Y67.196 
G01 X612.616 Y67.198 
G01 X611.852 Y67.487 
G01 X611.847 Y67.489 
G01 X611.078 Y67.759 
G01 X611.073 Y67.760 
G01 X610.299 Y68.011 
G01 X610.293 Y68.013 
G01 X609.514 Y68.243 
G01 X609.508 Y68.244 
G01 X608.722 Y68.454 
G01 X608.716 Y68.455 
G01 X607.925 Y68.643 
G01 X607.919 Y68.644 
G01 X607.122 Y68.809 
G01 X607.115 Y68.810 
G01 X606.313 Y68.951 
G01 X606.306 Y68.952 
G01 X605.693 Y69.039 
G01 X605.684 Y69.040 
G01 X605.068 Y69.104 
G01 X605.060 Y69.105 
G01 X604.441 Y69.147 
G01 X604.432 Y69.147 
G01 X603.811 Y69.165 
G01 X603.802 Y69.165 
G01 X603.183 Y69.158 
G01 X603.173 Y69.157 
G01 X602.555 Y69.124 
G01 X602.545 Y69.123 
G01 X601.931 Y69.064 
G01 X601.921 Y69.062 
G01 X601.315 Y68.975 
G01 X601.300 Y68.973 
G01 X600.313 Y68.765 
G01 X600.307 Y68.764 
G01 X598.438 Y68.322 
G01 X598.436 Y68.321 
G01 X592.064 Y66.738 
G01 X592.062 Y66.738 
G01 X582.191 Y64.229 
G01 X582.190 Y64.229 
G01 X570.325 Y61.183 
G02 X569.736 Y62.029 I-0.137 J0.533
G01 X570.127 Y62.594  
G01 X570.134 Y62.605 
G01 X570.544 Y63.280 
G01 X570.550 Y63.291 
G01 X570.721 Y63.608 
G01 X570.726 Y63.617 
G01 X570.868 Y63.911 
G01 X570.874 Y63.924 
G01 X571.163 Y64.626 
G01 X571.169 Y64.641 
G01 X571.406 Y65.353 
G01 X571.411 Y65.368 
G01 X571.596 Y66.089 
G01 X571.600 Y66.105 
G01 X571.733 Y66.832 
G01 X571.736 Y66.848 
G01 X571.817 Y67.579 
G01 X571.818 Y67.596 
G01 X571.847 Y68.328 
G01 X571.847 Y68.345 
G01 X571.823 Y69.077 
G01 X571.822 Y69.094 
G01 X571.744 Y69.824 
G01 X571.742 Y69.839 
G01 X571.681 Y70.193 
G01 X571.679 Y70.203 
G01 X571.590 Y70.605 
G01 X571.587 Y70.616 
G01 X571.347 Y71.499 
G01 X571.344 Y71.509 
G01 X571.060 Y72.360 
G01 X571.055 Y72.371 
G01 X570.913 Y72.733 
G01 X570.909 Y72.744 
G01 X570.773 Y73.043 
G01 X570.766 Y73.057 
G01 X570.460 Y73.628 
G01 X570.453 Y73.640 
G01 X570.115 Y74.188 
G01 X570.107 Y74.200 
G01 X569.740 Y74.723 
G01 X569.731 Y74.734 
G01 X569.335 Y75.231 
G01 X569.326 Y75.242 
G01 X568.902 Y75.713 
G01 X568.892 Y75.723 
G01 X568.443 Y76.166 
G01 X568.433 Y76.175 
G01 X567.959 Y76.590 
G01 X567.948 Y76.599 
G01 X567.451 Y76.984 
G01 X567.439 Y76.992 
G01 X566.921 Y77.346 
G01 X566.909 Y77.353 
G01 X566.370 Y77.676 
G01 X566.358 Y77.683 
G01 X565.799 Y77.973 
G01 X565.787 Y77.979 
G01 X565.211 Y78.235 
G01 X565.198 Y78.240 
G01 X564.606 Y78.462 
G01 X564.593 Y78.466 
G01 X563.986 Y78.652 
G01 X563.972 Y78.656 
G01 X563.352 Y78.806 
G01 X563.338 Y78.809 
G01 X562.704 Y78.920 
G01 X562.693 Y78.922 
G01 X562.321 Y78.969 
G01 X562.312 Y78.970 
G01 X561.938 Y79.002 
G01 X561.925 Y79.002 
G01 X561.158 Y79.024 
G01 X561.141 Y79.024 
G01 X560.367 Y78.989 
G01 X560.350 Y78.988 
G01 X559.573 Y78.898 
G01 X559.557 Y78.895 
G01 X558.781 Y78.751 
G01 X558.765 Y78.747 
G01 X557.993 Y78.547 
G01 X557.984 Y78.544 
G01 X557.228 Y78.292 
G01 X557.213 Y78.286 
G01 X556.476 Y77.981 
G01 X556.464 Y77.976 
G01 X555.937 Y77.722 
G01 X555.928 Y77.717 
G01 X555.408 Y77.439 
G01 X555.400 Y77.434 
G01 X554.888 Y77.131 
G01 X554.879 Y77.126 
G01 X554.374 Y76.797 
G01 X554.366 Y76.792 
G01 X553.867 Y76.437 
G01 X553.860 Y76.432 
G01 X553.366 Y76.050 
G01 X553.359 Y76.044 
G01 X552.869 Y75.635 
G01 X552.863 Y75.629 
G01 X552.377 Y75.190 
G01 X552.371 Y75.185 
G01 X551.887 Y74.716 
G01 X551.881 Y74.711 
G01 X551.399 Y74.211 
G01 X551.394 Y74.206 
G01 X550.913 Y73.675 
G01 X550.908 Y73.670 
G01 X550.426 Y73.106 
G01 X550.422 Y73.101 
G01 X549.940 Y72.505 
G01 X549.936 Y72.500 
G01 X549.451 Y71.869 
G01 X549.448 Y71.865 
G01 X548.962 Y71.199 
G01 X548.959 Y71.195 
G01 X548.467 Y70.492 
G01 X548.466 Y70.490 
G01 X547.996 Y69.803 
G01 X547.993 Y69.799 
G01 X547.603 Y69.200 
G01 X547.601 Y69.197 
G01 X546.471 Y67.410 
G01 X546.465 Y67.400 
G01 X544.624 Y64.120 
G01 X544.620 Y64.113 
G01 X544.025 Y62.963 
G01 X544.024 Y62.961 
G01 X543.044 Y61.024 
G01 X543.042 Y61.021 
G01 X542.660 Y60.238 
G01 X542.660 Y60.237 
G01 X539.368 Y53.397 
G02 X539.010 Y53.104 I-0.496 J0.239
G01 X538.835 Y53.058  
G01 X529.709 Y50.689 
G01 X520.955 Y48.393 
G01 X520.954 Y48.393 
G01 X512.560 Y46.163 
G01 X512.559 Y46.163 
G01 X504.529 Y43.997 
G01 X504.528 Y43.996 
G01 X496.868 Y41.889 
G01 X496.867 Y41.889 
G01 X489.577 Y39.836 
G01 X489.575 Y39.836 
G01 X482.659 Y37.835 
G01 X482.658 Y37.834 
G01 X479.341 Y36.852 
G01 X479.340 Y36.851 
G01 X476.119 Y35.880 
G01 X476.118 Y35.880 
G01 X472.991 Y34.920 
G01 X472.990 Y34.919 
G01 X469.958 Y33.969 
G01 X469.957 Y33.969 
G01 X467.021 Y33.028 
G01 X467.019 Y33.028 
G01 X464.179 Y32.097 
G01 X464.178 Y32.096 
G01 X461.437 Y31.175 
G01 X461.435 Y31.174 
G01 X458.789 Y30.261 
G01 X458.787 Y30.260 
G01 X456.239 Y29.354 
G01 X456.237 Y29.354 
G01 X453.788 Y28.456 
G01 X453.785 Y28.455 
G01 X451.433 Y27.564 
G01 X451.430 Y27.563 
G01 X449.177 Y26.678 
G01 X449.174 Y26.677 
G01 X447.021 Y25.799 
G01 X447.018 Y25.798 
G01 X444.964 Y24.925 
G01 X444.961 Y24.924 
G01 X443.007 Y24.056 
G01 X443.003 Y24.054 
G01 X441.149 Y23.191 
G01 X441.145 Y23.189 
G01 X439.392 Y22.331 
G01 X439.388 Y22.329 
G01 X437.736 Y21.474 
G01 X437.731 Y21.471 
G01 X435.841 Y20.428 
G01 X435.837 Y20.426 
G01 X434.895 Y19.904 
G01 X433.939 Y19.398 
G01 X432.868 Y18.844 
G01 X432.145 Y18.484 
G01 X431.322 Y18.097 
G01 X430.417 Y17.704 
G01 X429.449 Y17.326 
G01 X428.436 Y16.983 
G01 X427.918 Y16.832 
G01 X427.396 Y16.697 
G01 X426.871 Y16.582 
G01 X426.347 Y16.488 
G01 X425.824 Y16.420 
G01 X425.307 Y16.379 
G01 X424.796 Y16.368 
G01 X424.295 Y16.389 
G01 X423.805 Y16.446 
G01 X423.328 Y16.541 
G01 X422.868 Y16.676 
G01 X422.427 Y16.855 
G01 X422.006 Y17.080 
G01 X421.608 Y17.354 
G01 X421.237 Y17.679 
G01 X420.893 Y18.058 
G01 X420.580 Y18.493 
G01 X420.301 Y18.986 
G01 X419.695 Y20.258 
G01 X419.140 Y21.544 
G01 X418.630 Y22.844 
G01 X418.162 Y24.157 
G01 X417.730 Y25.480 
G01 X417.329 Y26.814 
G01 X416.953 Y28.156 
G01 X416.599 Y29.505 
G01 X415.932 Y32.220 
G01 X415.289 Y34.948 
G01 X415.288 Y34.949 
G01 X414.628 Y37.679 
G01 X414.628 Y37.682 
G01 X414.279 Y39.043 
G01 X414.278 Y39.047 
G01 X413.910 Y40.405 
G01 X413.910 Y40.406 
G01 X411.363 Y49.462 
G01 X408.795 Y58.511 
G01 X403.649 Y76.601 
G01 X401.095 Y85.653 
G01 X398.570 Y94.713 
G01 X396.087 Y103.784 
G01 X394.866 Y108.326 
G01 X393.661 Y112.866 
G01 X390.954 Y123.031 
G01 X388.955 Y130.454 
G01 X388.239 Y133.146 
G01 X387.724 Y135.158 
G01 X387.417 Y136.491 
G01 X387.343 Y136.906 
G01 X387.325 Y137.153 
G01 X387.374 Y137.581 
G01 X387.462 Y137.988 
G01 X387.587 Y138.376 
G01 X387.747 Y138.745 
G01 X387.941 Y139.098 
G01 X388.166 Y139.433 
G01 X388.422 Y139.751 
G01 X388.705 Y140.053 
G01 X389.015 Y140.341 
G01 X389.349 Y140.613 
G01 X389.706 Y140.872 
G01 X390.083 Y141.117 
G01 X390.480 Y141.349 
G01 X390.894 Y141.569 
G01 X391.324 Y141.778 
G01 X391.768 Y141.976 
G01 X392.689 Y142.341 
G01 X393.645 Y142.671 
G01 X394.621 Y142.970 
G01 X395.604 Y143.242 
G01 X397.532 Y143.728 
G01 X399.324 Y144.169 
G01 X400.614 Y144.490 
G01 X401.916 Y144.795 
G01 X403.220 Y145.084 
G01 X404.528 Y145.356 
G01 X407.154 Y145.853 
G01 X409.790 Y146.294 
G01 X412.436 Y146.683 
G01 X415.091 Y147.025 
G01 X417.753 Y147.326 
G01 X420.421 Y147.591 
G01 X423.094 Y147.825 
G01 X425.771 Y148.034 
G01 X431.129 Y148.396 
G01 X436.497 Y148.721 
G01 X441.830 Y149.048 
G01 X441.832 Y149.049 
G01 X447.973 Y149.464 
G01 X454.108 Y149.902 
G01 X460.247 Y150.337 
G01 X466.387 Y150.744 
G01 X469.458 Y150.930 
G01 X472.529 Y151.099 
G01 X475.601 Y151.249 
G01 X478.674 Y151.376 
G01 X481.747 Y151.478 
G01 X484.820 Y151.551 
G01 X487.895 Y151.591 
G01 X490.970 Y151.597 
G01 X495.692 Y151.592 
G01 X500.417 Y151.600 
G01 X505.144 Y151.596 
G01 X509.870 Y151.557 
G01 X512.232 Y151.515 
G01 X514.593 Y151.455 
G01 X516.952 Y151.374 
G01 X519.310 Y151.269 
G01 X521.666 Y151.135 
G01 X524.019 Y150.971 
G01 X526.371 Y150.773 
G01 X528.719 Y150.538 
G01 X535.363 Y149.838 
G01 X537.029 Y149.650 
G01 X538.693 Y149.448 
G01 X540.353 Y149.228 
G01 X542.009 Y148.986 
G01 X543.658 Y148.717 
G01 X545.299 Y148.416 
G01 X546.931 Y148.080 
G01 X548.551 Y147.705 
G01 X550.158 Y147.284 
G01 X551.750 Y146.816 
G01 X553.325 Y146.294 
G01 X554.107 Y146.012 
G01 X554.883 Y145.715 
G01 X556.035 Y145.253 
G01 X557.180 Y144.777 
G01 X559.450 Y143.781 
G01 X561.696 Y142.735 
G01 X563.922 Y141.643 
G01 X566.128 Y140.510 
G01 X568.318 Y139.341 
G01 X570.494 Y138.143 
G01 X572.658 Y136.919 
G01 X576.959 Y134.418 
G01 X581.232 Y131.885 
G01 X585.522 Y129.347 
G01 X585.524 Y129.346 
G01 X587.669 Y128.096 
G01 X587.670 Y128.095 
G01 X589.823 Y126.861 
G01 X591.428 Y125.925 
G01 X592.947 Y124.992 
G01 X594.384 Y124.066 
G01 X595.740 Y123.152 
G01 X597.019 Y122.252 
G01 X598.224 Y121.373 
G01 X599.356 Y120.517 
G01 X600.419 Y119.689 
G01 X602.349 Y118.136 
G01 X604.034 Y116.747 
G01 X604.035 Y116.746 
G01 X605.495 Y115.557 
G01 X605.499 Y115.554 
G01 X606.150 Y115.046 
G01 X606.155 Y115.042 
G01 X606.759 Y114.597 
G01 X606.762 Y114.594 
G01 X608.373 Y113.450 
G01 X608.376 Y113.448 
G01 X609.339 Y112.790 
G01 X609.344 Y112.787 
G01 X610.409 Y112.097 
G01 X610.415 Y112.093 
G01 X611.583 Y111.386 
G01 X611.588 Y111.383 
G01 X612.207 Y111.031 
G01 X612.211 Y111.028 
G01 X612.856 Y110.679 
G01 X612.860 Y110.676 
G01 X613.529 Y110.331 
G01 X613.534 Y110.329 
G01 X614.227 Y109.992 
G01 X614.232 Y109.989 
G01 X614.950 Y109.661 
G01 X614.955 Y109.659 
G01 X615.696 Y109.343 
G01 X615.702 Y109.340 
G01 X616.466 Y109.038 
G01 X616.472 Y109.036 
G01 X617.260 Y108.750 
G01 X617.266 Y108.748 
G01 X618.076 Y108.481 
G01 X618.083 Y108.479 
G01 X618.916 Y108.233 
G01 X618.924 Y108.231 
G01 X619.779 Y108.007 
G01 X619.787 Y108.005 
G01 X620.665 Y107.807 
G01 X620.673 Y107.806 
G01 X621.574 Y107.635 
G01 X621.582 Y107.633 
G01 X622.504 Y107.492 
G01 X622.513 Y107.491 
G01 X623.457 Y107.382 
G01 X623.466 Y107.381 
G01 X624.432 Y107.306 
G01 X624.441 Y107.305 
G01 X625.428 Y107.267 
G01 X625.437 Y107.266 
G01 X626.446 Y107.266 
G01 X626.455 Y107.266 
G01 X627.484 Y107.307 
G01 X627.494 Y107.307 
G01 X628.545 Y107.391 
G01 X628.554 Y107.392 
G01 X629.625 Y107.521 
G01 X629.635 Y107.522 
G01 X630.728 Y107.699 
G01 X630.736 Y107.700 
G01 X632.615 Y108.072 
G01 X632.621 Y108.073 
G01 X634.495 Y108.495 
G01 X634.500 Y108.496 
G01 X636.369 Y108.959 
G01 X636.373 Y108.960 
G01 X638.239 Y109.455 
G01 X638.240 Y109.455 
G01 X641.972 Y110.498 
G01 X645.699 Y111.547 
G01 X647.566 Y112.048 
G01 X649.436 Y112.522 
G01 X651.311 Y112.958 
G01 X653.192 Y113.346 
G01 X654.135 Y113.519 
G01 X655.080 Y113.676 
G01 X656.028 Y113.817 
G01 X656.977 Y113.939 
G01 X657.929 Y114.042 
G01 X658.884 Y114.125 
G01 X659.842 Y114.185 
G01 X660.802 Y114.223 
G01 X661.901 Y114.246 
G01 X663.139 Y114.250 
G01 X664.505 Y114.223 
G01 X665.989 Y114.151 
G01 X667.581 Y114.023 
G01 X668.415 Y113.933 
G01 X669.271 Y113.824 
G01 X670.149 Y113.694 
G01 X671.047 Y113.542 
G01 X671.965 Y113.365 
G01 X672.901 Y113.163 
G01 X673.854 Y112.934 
G01 X674.821 Y112.676 
G01 X675.803 Y112.387 
G01 X676.798 Y112.066 
G01 X677.804 Y111.711 
G01 X678.820 Y111.321 
G01 X679.846 Y110.894 
G01 X680.879 Y110.428 
G01 X681.918 Y109.922 
G01 X682.963 Y109.373 
G01 X684.011 Y108.782 
G01 X685.062 Y108.145 
G01 X686.114 Y107.462 
G01 X687.166 Y106.730 
G01 X688.216 Y105.948 
G01 X689.264 Y105.115 
G01 X689.918 Y104.563 
G01 X690.559 Y103.991 
G01 X691.189 Y103.401 
G01 X691.806 Y102.792 
G01 X692.409 Y102.166 
G01 X692.999 Y101.522 
G01 X693.575 Y100.863 
G01 X694.137 Y100.188 
G01 X694.684 Y99.498 
G01 X695.215 Y98.794 
G01 X695.730 Y98.076 
G01 X696.230 Y97.345 
G01 X696.712 Y96.602 
G01 X697.178 Y95.847 
G01 X697.626 Y95.082 
G01 X698.056 Y94.306 
G01 X698.467 Y93.520 
G01 X698.860 Y92.726 
G01 X699.234 Y91.923 
G01 X699.587 Y91.112 
G01 X699.921 Y90.294 
G01 X700.234 Y89.470 
G01 X700.526 Y88.641 
G01 X700.796 Y87.806 
G01 X701.044 Y86.967 
G01 X701.271 Y86.124 
G01 X701.474 Y85.278 
G01 X701.654 Y84.430 
G01 X701.810 Y83.580 
G01 X701.942 Y82.729 
G01 X702.050 Y81.878 
G01 X702.132 Y81.027 
G01 X702.204 Y79.938 
G01 X702.241 Y78.843 
G01 X702.244 Y77.745 
G01 X702.213 Y76.643 
G01 X702.149 Y75.539 
G01 X702.052 Y74.435 
G01 X701.922 Y73.331 
G01 X701.760 Y72.228 
G01 X701.566 Y71.128 
G01 X701.341 Y70.031 
G01 X701.085 Y68.940 
G01 X700.798 Y67.854 
G01 X700.481 Y66.775 
G01 X700.134 Y65.705 
G01 X699.758 Y64.644 
G01 X699.353 Y63.594 
G01 X698.919 Y62.555 
G01 X698.458 Y61.530 
G01 X697.968 Y60.518 
G01 X697.451 Y59.521 
G01 X696.908 Y58.540 
G01 X696.337 Y57.577 
G01 X695.741 Y56.632 
G01 X695.119 Y55.707 
G01 X694.471 Y54.803 
G01 X693.799 Y53.921 
G01 X693.102 Y53.061 
G01 X692.381 Y52.226 
G01 X691.636 Y51.417 
G01 X690.868 Y50.633 
G01 X690.077 Y49.878 
G01 X689.263 Y49.151 
G01 X688.361 Y48.394 
G01 X687.441 Y47.668 
G01 X686.504 Y46.974 
G01 X685.549 Y46.313 
G01 X684.577 Y45.685 
G01 X683.587 Y45.093 
G01 X682.580 Y44.535 
G01 X681.556 Y44.015 
G01 X680.515 Y43.533 
G01 X679.456 Y43.089 
G01 X678.380 Y42.685 
G01 X677.288 Y42.322 
G01 X676.178 Y42.001 
G01 X675.051 Y41.722 
G01 X673.907 Y41.488 
G01 X672.747 Y41.298 
G01 X671.714 Y41.162 
G01 X670.694 Y41.051 
G01 X669.686 Y40.963 
G01 X668.690 Y40.899 
G01 X667.706 Y40.857 
G01 X666.733 Y40.836 
G01 X665.773 Y40.838 
G01 X664.824 Y40.860 
G01 X663.887 Y40.902 
G01 X662.962 Y40.964 
G01 X662.048 Y41.045 
G01 X661.146 Y41.144 
G01 X660.256 Y41.261 
G01 X659.378 Y41.395 
G01 X658.511 Y41.546 
G01 X657.656 Y41.713 
G01 X656.812 Y41.895 
G01 X655.981 Y42.092 
G01 X655.160 Y42.303 
G01 X654.351 Y42.528 
G01 X653.554 Y42.766 
G01 X652.767 Y43.016 
G01 X651.230 Y43.552 
G01 X649.738 Y44.131 
G01 X648.291 Y44.747 
G01 X646.889 Y45.396 
G01 X645.532 Y46.074 
G01 X644.219 Y46.775 
G01 X642.951 Y47.496 
G01 X641.728 Y48.230 
G01 X640.548 Y48.974 
G01 X639.412 Y49.722 
G01 X638.319 Y50.470 
G01 X637.270 Y51.213 
G01 X636.264 Y51.946 
G01 X634.381 Y53.365 
G01 X632.665 Y54.690 
G01 X631.123 Y55.876 
G01 X631.120 Y55.878 
G01 X630.413 Y56.408 
G01 X630.410 Y56.410 
G01 X629.744 Y56.893 
G01 X629.742 Y56.894 
G01 X627.032 Y58.814 
G01 X627.031 Y58.815 
G00 Z24.080
G00 X742.396 Y87.739  F8000.0
G01 Z15.000 F1200.0 M3
G01 X742.545 Y87.150  F4000.0
G01 X742.708 Y86.567 
G01 X742.884 Y85.992 
G01 X743.280 Y84.850 
G01 X743.729 Y83.735 
G01 X744.229 Y82.646 
G01 X744.780 Y81.586 
G01 X745.380 Y80.554 
G01 X746.028 Y79.554 
G01 X746.722 Y78.587 
G01 X747.461 Y77.654 
G01 X748.244 Y76.757 
G01 X749.068 Y75.898 
G01 X749.934 Y75.079 
G01 X750.839 Y74.302 
G01 X751.781 Y73.567 
G01 X752.760 Y72.877 
G01 X753.777 Y72.231 
G01 X754.294 Y71.929 
G01 X754.822 Y71.637 
G01 X755.358 Y71.358 
G01 X755.902 Y71.091 
G01 X756.454 Y70.838 
G01 X757.013 Y70.597 
G01 X757.580 Y70.369 
G01 X758.153 Y70.155 
G01 X758.734 Y69.955 
G01 X759.322 Y69.769 
G01 X759.916 Y69.596 
G01 X760.517 Y69.438 
G01 X761.124 Y69.295 
G01 X761.737 Y69.166 
G01 X762.357 Y69.052 
G01 X762.982 Y68.954 
G01 X763.613 Y68.871 
G01 X764.252 Y68.803 
G01 X764.328 Y68.796 
G01 X764.970 Y68.746 
G01 X765.606 Y68.713 
G01 X766.239 Y68.696 
G01 X766.869 Y68.695 
G01 X767.496 Y68.709 
G01 X768.119 Y68.740 
G01 X768.739 Y68.786 
G01 X769.355 Y68.847 
G01 X769.967 Y68.923 
G01 X770.575 Y69.014 
G01 X771.178 Y69.120 
G01 X771.777 Y69.240 
G01 X772.371 Y69.375 
G01 X772.960 Y69.524 
G01 X773.544 Y69.687 
G01 X774.118 Y69.863 
G01 X775.261 Y70.259 
G01 X776.375 Y70.708 
G01 X777.464 Y71.208 
G01 X778.525 Y71.759 
G01 X779.556 Y72.359 
G01 X780.556 Y73.007 
G01 X781.524 Y73.701 
G01 X782.457 Y74.440 
G01 X783.353 Y75.223 
G01 X784.212 Y76.047 
G01 X785.031 Y76.913 
G01 X785.809 Y77.818 
G01 X786.544 Y78.760 
G01 X787.234 Y79.739 
G01 X787.879 Y80.756 
G01 X788.181 Y81.273 
G01 X788.473 Y81.801 
G01 X788.752 Y82.337 
G01 X789.019 Y82.881 
G01 X789.273 Y83.433 
G01 X789.513 Y83.992 
G01 X789.741 Y84.559 
G01 X789.955 Y85.132 
G01 X790.155 Y85.713 
G01 X790.342 Y86.301 
G01 X790.514 Y86.895 
G01 X790.672 Y87.496 
G01 X790.815 Y88.103 
G01 X790.944 Y88.716 
G01 X791.058 Y89.336 
G01 X791.156 Y89.961 
G01 X791.240 Y90.592 
G01 X791.308 Y91.231 
G01 X791.315 Y91.307 
G01 X791.364 Y91.949 
G01 X791.398 Y92.585 
G01 X791.415 Y93.218 
G01 X791.416 Y93.848 
G01 X791.401 Y94.475 
G01 X791.371 Y95.098 
G01 X791.325 Y95.718 
G01 X791.264 Y96.334 
G01 X791.187 Y96.946 
G01 X791.096 Y97.554 
G01 X790.990 Y98.158 
G01 X790.870 Y98.756 
G01 X790.735 Y99.350 
G01 X790.586 Y99.939 
G01 X790.423 Y100.523 
G01 X790.247 Y101.098 
G01 X789.851 Y102.240 
G01 X789.403 Y103.354 
G01 X788.902 Y104.443 
G01 X788.351 Y105.504 
G01 X787.751 Y106.535 
G01 X787.104 Y107.535 
G01 X786.409 Y108.503 
G01 X785.670 Y109.436 
G01 X784.888 Y110.332 
G01 X784.063 Y111.191 
G01 X783.197 Y112.010 
G01 X782.293 Y112.788 
G01 X781.350 Y113.523 
G01 X780.371 Y114.213 
G01 X779.354 Y114.858 
G01 X778.837 Y115.160 
G01 X778.309 Y115.452 
G01 X777.773 Y115.731 
G01 X777.229 Y115.998 
G01 X776.677 Y116.252 
G01 X776.118 Y116.493 
G01 X775.552 Y116.720 
G01 X774.978 Y116.934 
G01 X774.397 Y117.134 
G01 X773.810 Y117.321 
G01 X773.215 Y117.493 
G01 X772.614 Y117.651 
G01 X772.007 Y117.794 
G01 X771.394 Y117.923 
G01 X770.775 Y118.037 
G01 X770.149 Y118.136 
G01 X769.519 Y118.219 
G01 X768.879 Y118.287 
G01 X768.803 Y118.294 
G01 X768.161 Y118.344 
G01 X767.526 Y118.377 
G01 X766.892 Y118.394 
G01 X766.262 Y118.395 
G01 X765.635 Y118.380 
G01 X765.012 Y118.350 
G01 X764.392 Y118.304 
G01 X763.776 Y118.243 
G01 X763.164 Y118.166 
G01 X762.556 Y118.075 
G01 X761.953 Y117.969 
G01 X761.354 Y117.849 
G01 X760.760 Y117.714 
G01 X760.171 Y117.565 
G01 X759.588 Y117.402 
G01 X759.013 Y117.226 
G01 X757.871 Y116.830 
G01 X756.756 Y116.382 
G01 X755.667 Y115.881 
G01 X754.607 Y115.331 
G01 X753.575 Y114.731 
G01 X752.575 Y114.083 
G01 X751.607 Y113.389 
G01 X750.675 Y112.649 
G01 X749.778 Y111.867 
G01 X748.919 Y111.042 
G01 X748.100 Y110.177 
G01 X747.322 Y109.272 
G01 X746.588 Y108.329 
G01 X745.898 Y107.350 
G01 X745.252 Y106.333 
G01 X744.950 Y105.816 
G01 X744.658 Y105.288 
G01 X744.379 Y104.752 
G01 X744.112 Y104.208 
G01 X743.858 Y103.657 
G01 X743.618 Y103.097 
G01 X743.390 Y102.531 
G01 X743.176 Y101.957 
G01 X742.976 Y101.376 
G01 X742.790 Y100.789 
G01 X742.617 Y100.194 
G01 X742.459 Y99.594 
G01 X742.316 Y98.986 
G01 X742.187 Y98.373 
G01 X742.073 Y97.754 
G01 X741.975 Y97.128 
G01 X741.891 Y96.498 
G01 X741.824 Y95.858 
G01 X741.817 Y95.782 
G01 X741.767 Y95.141 
G01 X741.734 Y94.505 
G01 X741.717 Y93.872 
G01 X741.716 Y93.241 
G01 X741.730 Y92.615 
G01 X741.761 Y91.991 
G01 X741.807 Y91.371 
G01 X741.868 Y90.755 
G01 X741.944 Y90.143 
G01 X742.035 Y89.535 
G01 X742.141 Y88.932 
G01 X742.261 Y88.333 
G01 X742.396 Y87.739 
G00 Z24.080
G00 X731.535 Y85.433  F8000.0
G01 Z15.000 F1200.0 M3
G01 X731.217 Y86.900  F4000.0
G01 X731.078 Y87.646 
G01 X730.953 Y88.400 
G01 X730.843 Y89.161 
G01 X730.748 Y89.931 
G01 X730.669 Y90.708 
G01 X730.606 Y91.492 
G01 X730.561 Y92.283 
G01 X730.532 Y93.081 
G01 X730.522 Y93.885 
G01 X730.530 Y94.696 
G01 X730.557 Y95.512 
G01 X730.603 Y96.335 
G01 X730.670 Y97.163 
G01 X730.757 Y97.996 
G01 X730.865 Y98.835 
G01 X730.994 Y99.678 
G01 X731.146 Y100.526 
G01 X731.320 Y101.379 
G01 X731.518 Y102.236 
G01 X731.739 Y103.097 
G01 X731.985 Y103.961 
G01 X732.255 Y104.829 
G01 X732.550 Y105.701 
G01 X732.871 Y106.575 
G01 X733.075 Y107.089 
G01 X733.495 Y108.060 
G01 X733.791 Y108.695 
G01 X734.148 Y109.417 
G01 X734.566 Y110.219 
G01 X735.048 Y111.091 
G01 X735.596 Y112.025 
G01 X736.212 Y113.011 
G01 X736.897 Y114.041 
G01 X737.654 Y115.106 
G01 X738.484 Y116.198 
G01 X739.390 Y117.306 
G01 X740.373 Y118.424 
G01 X740.894 Y118.983 
G01 X741.435 Y119.541 
G01 X741.997 Y120.096 
G01 X742.579 Y120.649 
G01 X743.182 Y121.197 
G01 X743.805 Y121.739 
G01 X744.451 Y122.275 
G01 X745.117 Y122.802 
G01 X745.805 Y123.321 
G01 X746.516 Y123.830 
G01 X747.248 Y124.328 
G01 X748.003 Y124.814 
G01 X748.781 Y125.286 
G01 X749.581 Y125.744 
G01 X750.405 Y126.187 
G01 X751.252 Y126.613 
G01 X752.123 Y127.021 
G01 X753.017 Y127.410 
G01 X753.936 Y127.780 
G01 X754.879 Y128.129 
G01 X755.847 Y128.455 
G01 X756.839 Y128.758 
G01 X757.857 Y129.037 
G01 X758.900 Y129.290 
G01 X759.968 Y129.517 
G01 X761.063 Y129.717 
G01 X762.183 Y129.887 
G01 X763.329 Y130.028 
G01 X764.502 Y130.138 
G01 X765.702 Y130.215 
G01 X766.929 Y130.260 
G01 X768.182 Y130.270 
G01 X769.464 Y130.245 
G01 X770.773 Y130.184 
G01 X772.110 Y130.086 
G01 X773.443 Y129.955 
G01 X774.772 Y129.795 
G01 X776.099 Y129.608 
G01 X777.423 Y129.398 
G01 X778.744 Y129.167 
G01 X781.380 Y128.657 
G01 X784.010 Y128.102 
G01 X786.647 Y127.524 
G01 X789.260 Y126.956 
G01 X789.263 Y126.955 
G01 X791.885 Y126.413 
G01 X791.890 Y126.412 
G01 X793.658 Y126.082 
G01 X793.663 Y126.081 
G01 X795.448 Y125.789 
G01 X795.454 Y125.788 
G01 X797.253 Y125.536 
G01 X797.258 Y125.536 
G01 X799.069 Y125.328 
G01 X799.073 Y125.327 
G01 X800.893 Y125.166 
G01 X800.899 Y125.166 
G01 X802.721 Y125.055 
G01 X802.728 Y125.054 
G01 X804.553 Y124.995 
G01 X804.560 Y124.995 
G01 X806.383 Y124.992 
G01 X806.389 Y124.992 
G01 X807.299 Y125.012 
G01 X807.302 Y125.012 
G01 X808.211 Y125.047 
G01 X808.215 Y125.047 
G01 X809.120 Y125.098 
G01 X809.125 Y125.098 
G01 X810.029 Y125.164 
G01 X810.033 Y125.164 
G01 X810.935 Y125.246 
G01 X810.939 Y125.247 
G01 X811.838 Y125.345 
G01 X811.842 Y125.346 
G01 X812.737 Y125.461 
G01 X812.742 Y125.462 
G01 X813.632 Y125.594 
G01 X813.637 Y125.595 
G01 X814.524 Y125.745 
G01 X814.529 Y125.745 
G01 X815.412 Y125.913 
G01 X815.416 Y125.914 
G01 X816.293 Y126.100 
G01 X816.298 Y126.101 
G01 X817.170 Y126.305 
G01 X817.175 Y126.307 
G01 X818.041 Y126.530 
G01 X818.046 Y126.531 
G01 X818.907 Y126.774 
G01 X818.912 Y126.776 
G01 X819.765 Y127.038 
G01 X819.771 Y127.040 
G01 X820.616 Y127.321 
G01 X820.623 Y127.324 
G01 X821.571 Y127.673 
G01 X821.579 Y127.676 
G01 X822.510 Y128.059 
G01 X822.518 Y128.062 
G01 X823.432 Y128.476 
G01 X823.439 Y128.480 
G01 X824.338 Y128.925 
G01 X824.344 Y128.928 
G01 X825.227 Y129.402 
G01 X825.234 Y129.406 
G01 X826.103 Y129.908 
G01 X826.109 Y129.911 
G01 X826.964 Y130.439 
G01 X826.970 Y130.443 
G01 X827.812 Y130.996 
G01 X827.817 Y131.000 
G01 X828.647 Y131.577 
G01 X828.652 Y131.580 
G01 X829.470 Y132.179 
G01 X829.474 Y132.182 
G01 X830.282 Y132.802 
G01 X830.286 Y132.805 
G01 X831.083 Y133.444 
G01 X831.087 Y133.447 
G01 X831.874 Y134.104 
G01 X831.877 Y134.107 
G01 X832.655 Y134.780 
G01 X832.659 Y134.783 
G01 X834.192 Y136.175 
G01 X834.196 Y136.179 
G01 X835.701 Y137.618 
G01 X835.705 Y137.622 
G01 X837.185 Y139.097 
G01 X837.188 Y139.100 
G01 X840.104 Y142.118 
G01 X840.105 Y142.119 
G01 X842.995 Y145.145 
G01 X844.441 Y146.632 
G01 X845.896 Y148.084 
G01 X846.845 Y149.007 
G01 X847.410 Y149.535 
G01 X848.036 Y150.096 
G01 X848.726 Y150.679 
G01 X849.482 Y151.275 
G01 X850.303 Y151.876 
G01 X851.193 Y152.471 
G01 X852.152 Y153.051 
G01 X852.659 Y153.333 
G01 X853.183 Y153.607 
G01 X853.725 Y153.873 
G01 X854.285 Y154.129 
G01 X854.864 Y154.375 
G01 X855.462 Y154.608 
G01 X856.079 Y154.829 
G01 X856.714 Y155.035 
G01 X857.369 Y155.226 
G01 X858.043 Y155.400 
G01 X858.737 Y155.556 
G01 X859.450 Y155.693 
G01 X860.183 Y155.810 
G01 X860.938 Y155.906 
G01 X861.452 Y155.936 
G01 X862.337 Y155.956 
G01 X865.216 Y155.982 
G01 X869.576 Y156.017 
G01 X869.578 Y156.017 
G01 X875.417 Y156.093 
G01 X875.418 Y156.093 
G01 X878.891 Y156.156 
G01 X878.892 Y156.156 
G01 X882.735 Y156.242 
G01 X882.736 Y156.242 
G01 X886.948 Y156.355 
G01 X886.949 Y156.355 
G01 X891.529 Y156.498 
G01 X891.530 Y156.498 
G01 X896.483 Y156.675 
G01 X896.484 Y156.676 
G01 X901.803 Y156.892 
G01 X901.804 Y156.892 
G01 X907.490 Y157.151 
G01 X907.492 Y157.151 
G01 X913.549 Y157.457 
G01 X918.046 Y157.680 
G01 X922.545 Y157.872 
G01 X927.044 Y158.035 
G01 X931.545 Y158.171 
G01 X936.047 Y158.281 
G01 X940.549 Y158.367 
G01 X945.053 Y158.429 
G01 X949.556 Y158.470 
G01 X954.060 Y158.490 
G01 X958.565 Y158.492 
G01 X963.069 Y158.476 
G01 X967.573 Y158.445 
G01 X976.580 Y158.341 
G01 X994.550 Y158.040 
G01 X1003.158 Y157.929 
G01 X1003.159 Y157.929 
G01 X1019.324 Y157.780 
G01 X1034.092 Y157.668 
G01 X1040.940 Y157.602 
G01 X1047.431 Y157.516 
G01 X1053.564 Y157.400 
G01 X1059.338 Y157.246 
G01 X1062.090 Y157.152 
G01 X1064.751 Y157.044 
G01 X1067.322 Y156.921 
G01 X1069.803 Y156.783 
G01 X1072.192 Y156.628 
G01 X1074.491 Y156.455 
G01 X1076.699 Y156.262 
G01 X1078.815 Y156.049 
G01 X1080.840 Y155.815 
G01 X1082.774 Y155.557 
G01 X1084.616 Y155.275 
G01 X1086.366 Y154.968 
G01 X1087.654 Y154.722 
G01 X1089.049 Y154.422 
G01 X1089.761 Y154.245 
G01 X1090.468 Y154.044 
G01 X1091.159 Y153.819 
G01 X1091.825 Y153.565 
G01 X1092.455 Y153.279 
G01 X1093.038 Y152.958 
G01 X1093.310 Y152.784 
G01 X1093.565 Y152.600 
G01 X1093.804 Y152.405 
G01 X1094.024 Y152.200 
G01 X1094.225 Y151.984 
G01 X1094.405 Y151.756 
G01 X1094.562 Y151.516 
G01 X1094.696 Y151.263 
G01 X1094.804 Y150.999 
G01 X1094.886 Y150.721 
G01 X1094.940 Y150.430 
G01 X1094.964 Y150.127 
G01 X1094.965 Y149.674 
G01 X1094.946 Y149.024 
G01 X1094.849 Y147.135 
G01 X1094.672 Y144.456 
G01 X1094.416 Y140.987 
G01 X1094.081 Y136.730 
G01 X1093.665 Y131.683 
G01 X1092.594 Y119.223 
G01 X1091.201 Y103.607 
G01 X1089.487 Y84.838 
G01 X1087.448 Y62.915 
G01 X1085.085 Y37.841 
G01 X1085.084 Y37.840 
G01 X1085.006 Y36.901 
G01 X1084.925 Y35.920 
G01 X1084.811 Y34.923 
G01 X1084.734 Y34.429 
G01 X1084.637 Y33.945 
G01 X1084.519 Y33.475 
G01 X1084.375 Y33.023 
G01 X1084.201 Y32.594 
G01 X1083.994 Y32.192 
G01 X1083.751 Y31.821 
G01 X1083.467 Y31.487 
G01 X1083.308 Y31.334 
G01 X1083.139 Y31.192 
G01 X1082.957 Y31.061 
G01 X1082.764 Y30.943 
G01 X1082.323 Y30.708 
G01 X1081.853 Y30.480 
G01 X1081.352 Y30.260 
G01 X1080.822 Y30.047 
G01 X1080.262 Y29.841 
G01 X1079.673 Y29.641 
G01 X1078.408 Y29.262 
G01 X1077.029 Y28.909 
G01 X1075.537 Y28.581 
G01 X1073.934 Y28.277 
G01 X1072.223 Y27.995 
G01 X1070.405 Y27.735 
G01 X1068.482 Y27.496 
G01 X1066.456 Y27.278 
G01 X1064.329 Y27.078 
G01 X1062.103 Y26.896 
G01 X1059.780 Y26.731 
G01 X1057.361 Y26.582 
G01 X1054.850 Y26.449 
G01 X1053.185 Y26.378 
G01 X1051.436 Y26.326 
G01 X1049.604 Y26.292 
G01 X1047.689 Y26.277 
G01 X1045.691 Y26.279 
G01 X1043.609 Y26.300 
G01 X1041.444 Y26.338 
G01 X1039.197 Y26.393 
G01 X1034.452 Y26.556 
G01 X1029.377 Y26.786 
G01 X1023.970 Y27.081 
G01 X1018.232 Y27.440 
G01 X1012.165 Y27.862 
G01 X1005.768 Y28.344 
G01 X999.043 Y28.886 
G01 X991.988 Y29.484 
G01 X984.606 Y30.139 
G01 X976.896 Y30.848 
G01 X968.859 Y31.609 
G01 X960.765 Y32.395 
G02 X960.337 Y32.677 I0.053 J0.547
G01 X960.299 Y32.745  
G01 X959.372 Y34.071 
G01 X958.120 Y35.848 
G01 X955.696 Y39.282 
G01 X954.531 Y40.931 
G01 X954.527 Y40.936 
G01 X953.658 Y42.100 
G01 X953.655 Y42.104 
G01 X952.902 Y43.077 
G01 X952.900 Y43.080 
G01 X952.073 Y44.124 
G01 X952.071 Y44.127 
G01 X951.141 Y45.270 
G01 X951.140 Y45.272 
G01 X950.139 Y46.482 
G01 X950.132 Y46.490 
G01 X949.450 Y47.245 
G01 X949.447 Y47.247 
G01 X948.278 Y48.504 
G01 X948.273 Y48.509 
G01 X947.159 Y49.630 
G01 X947.154 Y49.635 
G01 X946.616 Y50.145 
G01 X946.613 Y50.149 
G01 X946.085 Y50.629 
G01 X946.081 Y50.633 
G01 X945.561 Y51.084 
G01 X945.557 Y51.088 
G01 X945.046 Y51.509 
G01 X945.041 Y51.513 
G01 X944.537 Y51.906 
G01 X944.532 Y51.910 
G01 X944.033 Y52.277 
G01 X944.027 Y52.281 
G01 X943.533 Y52.621 
G01 X943.527 Y52.626 
G01 X943.037 Y52.941 
G01 X943.030 Y52.945 
G01 X942.542 Y53.236 
G01 X942.535 Y53.240 
G01 X942.047 Y53.509 
G01 X942.039 Y53.512 
G01 X941.552 Y53.759 
G01 X941.544 Y53.762 
G01 X941.055 Y53.987 
G01 X941.046 Y53.992 
G01 X940.395 Y54.256 
G01 X940.384 Y54.261 
G01 X939.724 Y54.489 
G01 X939.713 Y54.493 
G01 X939.046 Y54.686 
G01 X939.034 Y54.689 
G01 X938.366 Y54.844 
G01 X938.353 Y54.847 
G01 X937.687 Y54.964 
G01 X937.674 Y54.966 
G01 X937.009 Y55.045 
G01 X937.007 Y55.045 
G01 X937.003 Y55.046 
G01 X936.349 Y55.085 
G01 X936.335 Y55.086 
G01 X935.696 Y55.085 
G01 X935.685 Y55.085 
G01 X935.212 Y55.060 
G01 X935.203 Y55.060 
G01 X934.747 Y55.018 
G01 X934.737 Y55.017 
G01 X934.297 Y54.958 
G01 X934.287 Y54.956 
G01 X933.857 Y54.879 
G01 X933.846 Y54.877 
G01 X933.421 Y54.780 
G01 X933.411 Y54.777 
G01 X932.986 Y54.659 
G01 X932.977 Y54.657 
G01 X932.547 Y54.517 
G01 X932.538 Y54.514 
G01 X932.101 Y54.353 
G01 X932.090 Y54.348 
G01 X931.507 Y54.099 
G01 X931.493 Y54.093 
G01 X930.930 Y53.810 
G01 X930.917 Y53.803 
G01 X930.374 Y53.486 
G01 X930.362 Y53.479 
G01 X929.839 Y53.130 
G01 X929.828 Y53.122 
G01 X929.328 Y52.743 
G01 X929.317 Y52.734 
G01 X928.841 Y52.327 
G01 X928.830 Y52.317 
G01 X928.379 Y51.883 
G01 X928.370 Y51.873 
G01 X927.945 Y51.413 
G01 X927.936 Y51.402 
G01 X927.540 Y50.918 
G01 X927.532 Y50.907 
G01 X927.165 Y50.401 
G01 X927.157 Y50.389 
G01 X926.821 Y49.862 
G01 X926.814 Y49.850 
G01 X926.510 Y49.304 
G01 X926.504 Y49.291 
G01 X926.234 Y48.728 
G01 X926.228 Y48.715 
G01 X925.993 Y48.135 
G01 X925.988 Y48.122 
G01 X925.789 Y47.528 
G01 X925.785 Y47.514 
G01 X925.624 Y46.909 
G01 X925.620 Y46.892 
G01 X925.503 Y46.264 
G01 X925.501 Y46.250 
G01 X925.406 Y45.499 
G01 X925.406 Y45.492 
G01 X925.346 Y44.741 
G01 X925.345 Y44.727 
G01 X925.332 Y44.101 
G01 X925.332 Y44.083 
G01 X925.366 Y43.491 
G01 X925.368 Y43.477 
G01 X925.439 Y42.881 
G01 X925.441 Y42.867 
G01 X925.549 Y42.271 
G01 X925.552 Y42.258 
G01 X925.695 Y41.664 
G01 X925.699 Y41.651 
G01 X925.878 Y41.062 
G01 X925.882 Y41.049 
G01 X926.097 Y40.466 
G01 X926.102 Y40.454 
G01 X926.350 Y39.879 
G01 X926.356 Y39.867 
G01 X926.638 Y39.304 
G01 X926.645 Y39.290 
G01 X926.860 Y38.922 
G01 X926.868 Y38.911 
G01 X927.135 Y38.510 
G01 X927.141 Y38.501 
G01 X927.449 Y38.082 
G01 X927.455 Y38.075 
G01 X927.791 Y37.653 
G01 X927.796 Y37.647 
G01 X928.148 Y37.237 
G01 X928.154 Y37.231 
G01 X928.509 Y36.848 
G01 X928.516 Y36.841 
G01 X928.832 Y36.530 
G02 X928.392 Y35.591 I-0.386 J-0.392
G01 X915.934 Y36.837  
G01 X905.800 Y37.874 
G01 X899.271 Y38.579 
G01 X897.358 Y38.807 
G01 X896.345 Y38.953 
G01 X895.886 Y39.048 
G01 X895.430 Y39.160 
G01 X894.978 Y39.289 
G01 X894.529 Y39.433 
G01 X893.646 Y39.764 
G01 X892.781 Y40.146 
G01 X891.934 Y40.574 
G01 X891.108 Y41.041 
G01 X890.305 Y41.540 
G01 X889.524 Y42.064 
G01 X889.064 Y42.396 
G01 X888.592 Y42.758 
G01 X888.107 Y43.150 
G01 X887.611 Y43.572 
G01 X886.584 Y44.506 
G01 X885.510 Y45.559 
G01 X884.391 Y46.729 
G01 X883.226 Y48.015 
G01 X882.017 Y49.417 
G01 X880.765 Y50.932 
G01 X879.469 Y52.560 
G01 X878.132 Y54.299 
G01 X876.752 Y56.149 
G01 X875.332 Y58.109 
G01 X873.872 Y60.176 
G01 X872.372 Y62.350 
G01 X870.834 Y64.630 
G01 X869.259 Y67.013 
G01 X869.258 Y67.014 
G01 X868.312 Y68.432 
G01 X868.309 Y68.436 
G01 X867.330 Y69.842 
G01 X867.328 Y69.846 
G01 X866.317 Y71.237 
G01 X866.314 Y71.241 
G01 X865.269 Y72.613 
G01 X865.266 Y72.618 
G01 X864.187 Y73.967 
G01 X864.183 Y73.971 
G01 X863.070 Y75.293 
G01 X863.066 Y75.298 
G01 X861.918 Y76.588 
G01 X861.914 Y76.593 
G01 X860.731 Y77.848 
G01 X860.726 Y77.853 
G01 X859.508 Y79.067 
G01 X859.503 Y79.072 
G01 X858.247 Y80.243 
G01 X858.243 Y80.247 
G01 X857.603 Y80.814 
G01 X857.600 Y80.816 
G01 X856.950 Y81.371 
G01 X856.947 Y81.373 
G01 X856.288 Y81.915 
G01 X856.284 Y81.917 
G01 X855.616 Y82.445 
G01 X855.612 Y82.448 
G01 X854.935 Y82.961 
G01 X854.932 Y82.964 
G01 X854.245 Y83.462 
G01 X854.241 Y83.465 
G01 X853.544 Y83.948 
G01 X853.540 Y83.951 
G01 X852.835 Y84.418 
G01 X852.830 Y84.421 
G01 X852.115 Y84.872 
G01 X852.111 Y84.875 
G01 X851.386 Y85.310 
G01 X851.381 Y85.312 
G01 X850.647 Y85.729 
G01 X850.642 Y85.732 
G01 X849.898 Y86.130 
G01 X849.892 Y86.134 
G01 X848.470 Y86.844 
G01 X848.462 Y86.848 
G01 X847.056 Y87.490 
G01 X847.049 Y87.494 
G01 X845.658 Y88.071 
G01 X845.651 Y88.074 
G01 X844.277 Y88.587 
G01 X844.269 Y88.590 
G01 X842.911 Y89.041 
G01 X842.903 Y89.044 
G01 X841.563 Y89.435 
G01 X841.554 Y89.437 
G01 X840.230 Y89.770 
G01 X840.222 Y89.772 
G01 X838.915 Y90.047 
G01 X838.906 Y90.049 
G01 X837.617 Y90.270 
G01 X837.608 Y90.271 
G01 X836.336 Y90.439 
G01 X836.327 Y90.440 
G01 X835.071 Y90.556 
G01 X835.063 Y90.557 
G01 X833.826 Y90.624 
G01 X833.817 Y90.624 
G01 X832.597 Y90.643 
G01 X832.588 Y90.643 
G01 X831.387 Y90.616 
G01 X831.378 Y90.615 
G01 X830.195 Y90.544 
G01 X830.186 Y90.543 
G01 X829.021 Y90.430 
G01 X829.012 Y90.429 
G01 X827.865 Y90.274 
G01 X827.857 Y90.273 
G01 X826.729 Y90.079 
G01 X826.720 Y90.078 
G01 X825.611 Y89.847 
G01 X825.603 Y89.845 
G01 X824.512 Y89.579 
G01 X824.504 Y89.577 
G01 X823.432 Y89.276 
G01 X823.425 Y89.274 
G01 X822.372 Y88.942 
G01 X822.365 Y88.940 
G01 X821.332 Y88.577 
G01 X821.325 Y88.575 
G01 X820.312 Y88.184 
G01 X820.305 Y88.181 
G01 X819.311 Y87.763 
G01 X819.305 Y87.761 
G01 X818.331 Y87.318 
G01 X818.325 Y87.315 
G01 X817.371 Y86.849 
G01 X817.365 Y86.846 
G01 X816.431 Y86.358 
G01 X816.426 Y86.355 
G01 X815.514 Y85.848 
G01 X815.508 Y85.845 
G01 X814.616 Y85.320 
G01 X814.611 Y85.317 
G01 X813.740 Y84.775 
G01 X813.735 Y84.772 
G01 X812.885 Y84.216 
G01 X812.881 Y84.213 
G01 X812.052 Y83.644 
G01 X812.048 Y83.641 
G01 X811.241 Y83.061 
G01 X811.237 Y83.058 
G01 X810.452 Y82.469 
G01 X810.448 Y82.466 
G01 X809.684 Y81.869 
G01 X809.680 Y81.866 
G01 X808.940 Y81.264 
G01 X808.937 Y81.262 
G01 X808.217 Y80.654 
G01 X808.214 Y80.652 
G01 X807.518 Y80.044 
G01 X807.515 Y80.041 
G01 X806.842 Y79.433 
G01 X806.838 Y79.429 
G01 X805.559 Y78.216 
G01 X805.554 Y78.212 
G01 X804.370 Y77.019 
G01 X804.365 Y77.014 
G01 X803.276 Y75.856 
G01 X803.272 Y75.851 
G01 X802.280 Y74.741 
G01 X802.276 Y74.737 
G01 X801.382 Y73.689 
G01 X801.379 Y73.685 
G01 X800.585 Y72.713 
G01 X800.582 Y72.710 
G01 X799.890 Y71.829 
G01 X799.887 Y71.825 
G01 X799.298 Y71.049 
G01 X799.295 Y71.045 
G01 X798.429 Y69.859 
G01 X798.426 Y69.856 
G01 X797.992 Y69.260 
G01 X797.364 Y68.512 
G01 X796.711 Y67.777 
G01 X796.031 Y67.056 
G01 X795.327 Y66.349 
G01 X794.599 Y65.657 
G01 X793.848 Y64.982 
G01 X793.076 Y64.324 
G01 X792.283 Y63.683 
G01 X791.471 Y63.062 
G01 X790.640 Y62.461 
G01 X789.792 Y61.880 
G01 X788.927 Y61.322 
G01 X788.047 Y60.785 
G01 X787.154 Y60.273 
G01 X786.246 Y59.785 
G01 X785.327 Y59.322 
G01 X784.397 Y58.885 
G01 X783.456 Y58.475 
G01 X782.507 Y58.094 
G01 X781.549 Y57.742 
G01 X780.585 Y57.419 
G01 X779.615 Y57.127 
G01 X778.640 Y56.867 
G01 X777.662 Y56.640 
G01 X776.680 Y56.446 
G01 X775.697 Y56.287 
G01 X774.714 Y56.163 
G01 X773.731 Y56.076 
G01 X772.749 Y56.025 
G01 X771.770 Y56.013 
G01 X770.794 Y56.040 
G01 X769.824 Y56.107 
G01 X767.998 Y56.296 
G01 X766.166 Y56.539 
G01 X764.331 Y56.837 
G01 X762.499 Y57.191 
G01 X760.674 Y57.602 
G01 X759.765 Y57.829 
G01 X758.860 Y58.071 
G01 X757.959 Y58.329 
G01 X757.063 Y58.601 
G01 X756.172 Y58.889 
G01 X755.287 Y59.192 
G01 X754.409 Y59.511 
G01 X753.537 Y59.847 
G01 X752.674 Y60.198 
G01 X751.818 Y60.565 
G01 X750.971 Y60.949 
G01 X750.134 Y61.349 
G01 X749.307 Y61.766 
G01 X748.490 Y62.200 
G01 X747.685 Y62.651 
G01 X746.891 Y63.120 
G01 X746.110 Y63.605 
G01 X745.341 Y64.109 
G01 X744.587 Y64.630 
G01 X743.846 Y65.169 
G01 X743.120 Y65.727 
G01 X742.409 Y66.303 
G01 X741.848 Y66.793 
G01 X741.261 Y67.350 
G01 X740.654 Y67.974 
G01 X740.031 Y68.662 
G01 X739.394 Y69.412 
G01 X738.750 Y70.222 
G01 X738.102 Y71.091 
G01 X737.454 Y72.017 
G01 X736.810 Y72.997 
G01 X736.175 Y74.031 
G01 X735.552 Y75.117 
G01 X734.946 Y76.252 
G01 X734.362 Y77.435 
G01 X733.803 Y78.663 
G01 X733.273 Y79.936 
G01 X732.778 Y81.251 
G01 X732.320 Y82.607 
G01 X731.904 Y84.002 
G01 X731.535 Y85.433 
G00 Z24.080
G00 Z39.320
M05
M1
( Profile 2 )
T21 M6( TOOL USE End Mill 6 mm  )
S18000 M03
( Profile 2 )
( Profile 2 )
G00 X35.395 Y61.247 Z24.080 F6000.0
G01 Z14.250 F750.0 M3
G01 X36.325 Y60.706  F3000.0
G01 X37.281 Y60.210 
G01 X38.262 Y59.759 
G01 X39.283 Y59.348 
G01 X39.777 Y59.170 
G01 X40.292 Y58.998 
G01 X40.813 Y58.839 
G01 X41.339 Y58.692 
G01 X41.869 Y58.558 
G01 X42.404 Y58.436 
G01 X42.943 Y58.328 
G01 X43.487 Y58.233 
G01 X44.034 Y58.151 
G01 X44.185 Y58.132 
G01 X44.585 Y58.082 
G01 X45.140 Y58.027 
G01 X45.699 Y57.986 
G01 X46.261 Y57.958 
G01 X46.826 Y57.945 
G01 X47.394 Y57.946 
G01 X47.966 Y57.961 
G01 X48.540 Y57.991 
G01 X49.133 Y58.037 
G01 X49.174 Y58.041 
G01 X49.766 Y58.104 
G01 X50.335 Y58.179 
G01 X50.899 Y58.268 
G01 X51.458 Y58.370 
G01 X52.011 Y58.486 
G01 X52.558 Y58.616 
G01 X53.099 Y58.758 
G01 X53.635 Y58.913 
G01 X54.061 Y59.049 
G01 X54.164 Y59.081 
G01 X54.687 Y59.262 
G01 X55.204 Y59.454 
G01 X55.714 Y59.659 
G01 X56.218 Y59.876 
G01 X56.715 Y60.105 
G01 X57.205 Y60.345 
G01 X57.671 Y60.588 
G01 X58.631 Y61.134 
G01 X59.545 Y61.714 
G01 X60.427 Y62.336 
G01 X61.277 Y62.998 
G01 X62.093 Y63.699 
G01 X62.873 Y64.438 
G01 X63.617 Y65.212 
G01 X64.323 Y66.021 
G01 X64.990 Y66.862 
G01 X65.616 Y67.735 
G01 X66.200 Y68.637 
G01 X66.741 Y69.567 
G01 X67.238 Y70.523 
G01 X67.689 Y71.504 
G01 X68.099 Y72.526 
G01 X68.277 Y73.019 
G01 X68.449 Y73.535 
G01 X68.608 Y74.055 
G01 X68.755 Y74.581 
G01 X68.889 Y75.111 
G01 X69.011 Y75.646 
G01 X69.119 Y76.185 
G01 X69.215 Y76.729 
G01 X69.297 Y77.276 
G01 X69.365 Y77.828 
G01 X69.421 Y78.383 
G01 X69.462 Y78.941 
G01 X69.489 Y79.503 
G01 X69.503 Y80.068 
G01 X69.502 Y80.637 
G01 X69.486 Y81.208 
G01 X69.456 Y81.782 
G01 X69.410 Y82.375 
G01 X69.406 Y82.417 
G01 X69.344 Y83.008 
G01 X69.268 Y83.577 
G01 X69.180 Y84.142 
G01 X69.077 Y84.700 
G01 X68.961 Y85.253 
G01 X68.832 Y85.800 
G01 X68.689 Y86.342 
G01 X68.534 Y86.877 
G01 X68.366 Y87.406 
G01 X68.186 Y87.930 
G01 X67.993 Y88.446 
G01 X67.788 Y88.957 
G01 X67.571 Y89.460 
G01 X67.343 Y89.957 
G01 X67.103 Y90.447 
G01 X66.859 Y90.914 
G01 X66.314 Y91.873 
G01 X65.734 Y92.787 
G01 X65.112 Y93.670 
G01 X64.449 Y94.519 
G01 X63.748 Y95.335 
G01 X63.010 Y96.116 
G01 X62.235 Y96.860 
G01 X61.426 Y97.565 
G01 X60.585 Y98.232 
G01 X59.712 Y98.858 
G01 X58.810 Y99.442 
G01 X57.880 Y99.983 
G01 X56.924 Y100.480 
G01 X55.943 Y100.931 
G01 X54.922 Y101.342 
G01 X54.428 Y101.519 
G01 X53.913 Y101.691 
G01 X53.392 Y101.851 
G01 X52.866 Y101.997 
G01 X52.336 Y102.132 
G01 X51.801 Y102.253 
G01 X51.262 Y102.362 
G01 X50.719 Y102.457 
G01 X50.171 Y102.539 
G01 X50.020 Y102.558 
G01 X49.620 Y102.608 
G01 X49.065 Y102.663 
G01 X48.506 Y102.704 
G01 X47.944 Y102.732 
G01 X47.379 Y102.745 
G01 X46.811 Y102.744 
G01 X46.239 Y102.729 
G01 X45.665 Y102.699 
G01 X45.072 Y102.653 
G01 X45.031 Y102.649 
G01 X44.439 Y102.586 
G01 X43.870 Y102.511 
G01 X43.306 Y102.422 
G01 X42.747 Y102.319 
G01 X42.194 Y102.203 
G01 X41.647 Y102.074 
G01 X41.106 Y101.932 
G01 X40.570 Y101.776 
G01 X40.144 Y101.641 
G01 X40.041 Y101.608 
G01 X39.518 Y101.428 
G01 X39.001 Y101.235 
G01 X38.491 Y101.030 
G01 X37.987 Y100.814 
G01 X37.490 Y100.585 
G01 X37.000 Y100.345 
G01 X36.534 Y100.102 
G01 X35.574 Y99.556 
G01 X34.660 Y98.976 
G01 X33.778 Y98.354 
G01 X32.928 Y97.692 
G01 X32.112 Y96.991 
G01 X31.332 Y96.252 
G01 X30.588 Y95.477 
G01 X29.882 Y94.669 
G01 X29.215 Y93.827 
G01 X28.589 Y92.955 
G01 X28.005 Y92.053 
G01 X27.464 Y91.123 
G01 X26.967 Y90.166 
G01 X26.517 Y89.185 
G01 X26.106 Y88.164 
G01 X25.928 Y87.671 
G01 X25.756 Y87.155 
G01 X25.597 Y86.634 
G01 X25.450 Y86.109 
G01 X25.316 Y85.578 
G01 X25.194 Y85.044 
G01 X25.086 Y84.504 
G01 X24.990 Y83.961 
G01 X24.908 Y83.413 
G01 X24.840 Y82.862 
G01 X24.785 Y82.307 
G01 X24.743 Y81.748 
G01 X24.716 Y81.186 
G01 X24.702 Y80.621 
G01 X24.703 Y80.053 
G01 X24.719 Y79.482 
G01 X24.749 Y78.908 
G01 X24.795 Y78.314 
G01 X24.799 Y78.273 
G01 X24.861 Y77.682 
G01 X24.937 Y77.112 
G01 X25.026 Y76.548 
G01 X25.128 Y75.990 
G01 X25.244 Y75.437 
G01 X25.373 Y74.889 
G01 X25.516 Y74.348 
G01 X25.671 Y73.812 
G01 X25.839 Y73.283 
G01 X26.019 Y72.760 
G01 X26.212 Y72.243 
G01 X26.417 Y71.733 
G01 X26.634 Y71.229 
G01 X26.862 Y70.733 
G01 X27.102 Y70.243 
G01 X27.346 Y69.776 
G01 X27.891 Y68.816 
G01 X28.471 Y67.902 
G01 X29.093 Y67.020 
G01 X29.756 Y66.170 
G01 X30.457 Y65.354 
G01 X31.195 Y64.574 
G01 X31.970 Y63.830 
G01 X32.779 Y63.124 
G01 X33.620 Y62.458 
G01 X34.493 Y61.831 
G01 X35.395 Y61.247 
G01 Z9.500 F750.0 M3
G01 X36.325 Y60.706  F3000.0
G01 X37.281 Y60.210 
G01 X38.262 Y59.759 
G01 X39.283 Y59.348 
G01 X39.777 Y59.170 
G01 X40.292 Y58.998 
G01 X40.813 Y58.839 
G01 X41.339 Y58.692 
G01 X41.869 Y58.558 
G01 X42.404 Y58.436 
G01 X42.943 Y58.328 
G01 X43.487 Y58.233 
G01 X44.034 Y58.151 
G01 X44.185 Y58.132 
G01 X44.585 Y58.082 
G01 X45.140 Y58.027 
G01 X45.699 Y57.986 
G01 X46.261 Y57.958 
G01 X46.826 Y57.945 
G01 X47.394 Y57.946 
G01 X47.966 Y57.961 
G01 X48.540 Y57.991 
G01 X49.133 Y58.037 
G01 X49.174 Y58.041 
G01 X49.766 Y58.104 
G01 X50.335 Y58.179 
G01 X50.899 Y58.268 
G01 X51.458 Y58.370 
G01 X52.011 Y58.486 
G01 X52.558 Y58.616 
G01 X53.099 Y58.758 
G01 X53.635 Y58.913 
G01 X54.061 Y59.049 
G01 X54.164 Y59.081 
G01 X54.687 Y59.262 
G01 X55.204 Y59.454 
G01 X55.714 Y59.659 
G01 X56.218 Y59.876 
G01 X56.715 Y60.105 
G01 X57.205 Y60.345 
G01 X57.671 Y60.588 
G01 X58.631 Y61.134 
G01 X59.545 Y61.714 
G01 X60.427 Y62.336 
G01 X61.277 Y62.998 
G01 X62.093 Y63.699 
G01 X62.873 Y64.438 
G01 X63.617 Y65.212 
G01 X64.323 Y66.021 
G01 X64.990 Y66.862 
G01 X65.616 Y67.735 
G01 X66.200 Y68.637 
G01 X66.741 Y69.567 
G01 X67.238 Y70.523 
G01 X67.689 Y71.504 
G01 X68.099 Y72.526 
G01 X68.277 Y73.019 
G01 X68.449 Y73.535 
G01 X68.608 Y74.055 
G01 X68.755 Y74.581 
G01 X68.889 Y75.111 
G01 X69.011 Y75.646 
G01 X69.119 Y76.185 
G01 X69.215 Y76.729 
G01 X69.297 Y77.276 
G01 X69.365 Y77.828 
G01 X69.421 Y78.383 
G01 X69.462 Y78.941 
G01 X69.489 Y79.503 
G01 X69.503 Y80.068 
G01 X69.502 Y80.637 
G01 X69.486 Y81.208 
G01 X69.456 Y81.782 
G01 X69.410 Y82.375 
G01 X69.406 Y82.417 
G01 X69.344 Y83.008 
G01 X69.268 Y83.577 
G01 X69.180 Y84.142 
G01 X69.077 Y84.700 
G01 X68.961 Y85.253 
G01 X68.832 Y85.800 
G01 X68.689 Y86.342 
G01 X68.534 Y86.877 
G01 X68.366 Y87.406 
G01 X68.186 Y87.930 
G01 X67.993 Y88.446 
G01 X67.788 Y88.957 
G01 X67.571 Y89.460 
G01 X67.343 Y89.957 
G01 X67.103 Y90.447 
G01 X66.859 Y90.914 
G01 X66.314 Y91.873 
G01 X65.734 Y92.787 
G01 X65.112 Y93.670 
G01 X64.449 Y94.519 
G01 X63.748 Y95.335 
G01 X63.010 Y96.116 
G01 X62.235 Y96.860 
G01 X61.426 Y97.565 
G01 X60.585 Y98.232 
G01 X59.712 Y98.858 
G01 X58.810 Y99.442 
G01 X57.880 Y99.983 
G01 X56.924 Y100.480 
G01 X55.943 Y100.931 
G01 X54.922 Y101.342 
G01 X54.428 Y101.519 
G01 X53.913 Y101.691 
G01 X53.392 Y101.851 
G01 X52.866 Y101.997 
G01 X52.336 Y102.132 
G01 X51.801 Y102.253 
G01 X51.262 Y102.362 
G01 X50.719 Y102.457 
G01 X50.171 Y102.539 
G01 X50.020 Y102.558 
G01 X49.620 Y102.608 
G01 X49.065 Y102.663 
G01 X48.506 Y102.704 
G01 X47.944 Y102.732 
G01 X47.379 Y102.745 
G01 X46.811 Y102.744 
G01 X46.239 Y102.729 
G01 X45.665 Y102.699 
G01 X45.072 Y102.653 
G01 X45.031 Y102.649 
G01 X44.439 Y102.586 
G01 X43.870 Y102.511 
G01 X43.306 Y102.422 
G01 X42.747 Y102.319 
G01 X42.194 Y102.203 
G01 X41.647 Y102.074 
G01 X41.106 Y101.932 
G01 X40.570 Y101.776 
G01 X40.144 Y101.641 
G01 X40.041 Y101.608 
G01 X39.518 Y101.428 
G01 X39.001 Y101.235 
G01 X38.491 Y101.030 
G01 X37.987 Y100.814 
G01 X37.490 Y100.585 
G01 X37.000 Y100.345 
G01 X36.534 Y100.102 
G01 X35.574 Y99.556 
G01 X34.660 Y98.976 
G01 X33.778 Y98.354 
G01 X32.928 Y97.692 
G01 X32.112 Y96.991 
G01 X31.332 Y96.252 
G01 X30.588 Y95.477 
G01 X29.882 Y94.669 
G01 X29.215 Y93.827 
G01 X28.589 Y92.955 
G01 X28.005 Y92.053 
G01 X27.464 Y91.123 
G01 X26.967 Y90.166 
G01 X26.517 Y89.185 
G01 X26.106 Y88.164 
G01 X25.928 Y87.671 
G01 X25.756 Y87.155 
G01 X25.597 Y86.634 
G01 X25.450 Y86.109 
G01 X25.316 Y85.578 
G01 X25.194 Y85.044 
G01 X25.086 Y84.504 
G01 X24.990 Y83.961 
G01 X24.908 Y83.413 
G01 X24.840 Y82.862 
G01 X24.785 Y82.307 
G01 X24.743 Y81.748 
G01 X24.716 Y81.186 
G01 X24.702 Y80.621 
G01 X24.703 Y80.053 
G01 X24.719 Y79.482 
G01 X24.749 Y78.908 
G01 X24.795 Y78.314 
G01 X24.799 Y78.273 
G01 X24.861 Y77.682 
G01 X24.937 Y77.112 
G01 X25.026 Y76.548 
G01 X25.128 Y75.990 
G01 X25.244 Y75.437 
G01 X25.373 Y74.889 
G01 X25.516 Y74.348 
G01 X25.671 Y73.812 
G01 X25.839 Y73.283 
G01 X26.019 Y72.760 
G01 X26.212 Y72.243 
G01 X26.417 Y71.733 
G01 X26.634 Y71.229 
G01 X26.862 Y70.733 
G01 X27.102 Y70.243 
G01 X27.346 Y69.776 
G01 X27.891 Y68.816 
G01 X28.471 Y67.902 
G01 X29.093 Y67.020 
G01 X29.756 Y66.170 
G01 X30.457 Y65.354 
G01 X31.195 Y64.574 
G01 X31.970 Y63.830 
G01 X32.779 Y63.124 
G01 X33.620 Y62.458 
G01 X34.493 Y61.831 
G01 X35.395 Y61.247 
G01 Z4.750 F750.0 M3
G01 X36.325 Y60.706  F3000.0
G01 X37.281 Y60.210 
G01 X38.262 Y59.759 
G01 X39.283 Y59.348 
G01 X39.777 Y59.170 
G01 X40.292 Y58.998 
G01 X40.813 Y58.839 
G01 X41.339 Y58.692 
G01 X41.869 Y58.558 
G01 X42.404 Y58.436 
G01 X42.943 Y58.328 
G01 X43.487 Y58.233 
G01 X44.034 Y58.151 
G01 X44.185 Y58.132 
G01 X44.585 Y58.082 
G01 X45.140 Y58.027 
G01 X45.699 Y57.986 
G01 X46.261 Y57.958 
G01 X46.826 Y57.945 
G01 X47.394 Y57.946 
G01 X47.966 Y57.961 
G01 X48.540 Y57.991 
G01 X49.133 Y58.037 
G01 X49.174 Y58.041 
G01 X49.766 Y58.104 
G01 X50.335 Y58.179 
G01 X50.899 Y58.268 
G01 X51.458 Y58.370 
G01 X52.011 Y58.486 
G01 X52.558 Y58.616 
G01 X53.099 Y58.758 
G01 X53.635 Y58.913 
G01 X54.061 Y59.049 
G01 X54.164 Y59.081 
G01 X54.687 Y59.262 
G01 X55.204 Y59.454 
G01 X55.714 Y59.659 
G01 X56.218 Y59.876 
G01 X56.715 Y60.105 
G01 X57.205 Y60.345 
G01 X57.671 Y60.588 
G01 X58.631 Y61.134 
G01 X59.545 Y61.714 
G01 X60.427 Y62.336 
G01 X61.277 Y62.998 
G01 X62.093 Y63.699 
G01 X62.873 Y64.438 
G01 X63.617 Y65.212 
G01 X64.323 Y66.021 
G01 X64.990 Y66.862 
G01 X65.616 Y67.735 
G01 X66.200 Y68.637 
G01 X66.741 Y69.567 
G01 X67.238 Y70.523 
G01 X67.689 Y71.504 
G01 X68.099 Y72.526 
G01 X68.277 Y73.019 
G01 X68.449 Y73.535 
G01 X68.608 Y74.055 
G01 X68.755 Y74.581 
G01 X68.889 Y75.111 
G01 X69.011 Y75.646 
G01 X69.119 Y76.185 
G01 X69.215 Y76.729 
G01 X69.297 Y77.276 
G01 X69.365 Y77.828 
G01 X69.421 Y78.383 
G01 X69.462 Y78.941 
G01 X69.489 Y79.503 
G01 X69.503 Y80.068 
G01 X69.502 Y80.637 
G01 X69.486 Y81.208 
G01 X69.456 Y81.782 
G01 X69.410 Y82.375 
G01 X69.406 Y82.417 
G01 X69.344 Y83.008 
G01 X69.268 Y83.577 
G01 X69.180 Y84.142 
G01 X69.077 Y84.700 
G01 X68.961 Y85.253 
G01 X68.832 Y85.800 
G01 X68.689 Y86.342 
G01 X68.534 Y86.877 
G01 X68.366 Y87.406 
G01 X68.186 Y87.930 
G01 X67.993 Y88.446 
G01 X67.788 Y88.957 
G01 X67.571 Y89.460 
G01 X67.343 Y89.957 
G01 X67.103 Y90.447 
G01 X66.859 Y90.914 
G01 X66.314 Y91.873 
G01 X65.734 Y92.787 
G01 X65.112 Y93.670 
G01 X64.449 Y94.519 
G01 X63.748 Y95.335 
G01 X63.010 Y96.116 
G01 X62.235 Y96.860 
G01 X61.426 Y97.565 
G01 X60.585 Y98.232 
G01 X59.712 Y98.858 
G01 X58.810 Y99.442 
G01 X57.880 Y99.983 
G01 X56.924 Y100.480 
G01 X55.943 Y100.931 
G01 X54.922 Y101.342 
G01 X54.428 Y101.519 
G01 X53.913 Y101.691 
G01 X53.392 Y101.851 
G01 X52.866 Y101.997 
G01 X52.336 Y102.132 
G01 X51.801 Y102.253 
G01 X51.262 Y102.362 
G01 X50.719 Y102.457 
G01 X50.171 Y102.539 
G01 X50.020 Y102.558 
G01 X49.620 Y102.608 
G01 X49.065 Y102.663 
G01 X48.506 Y102.704 
G01 X47.944 Y102.732 
G01 X47.379 Y102.745 
G01 X46.811 Y102.744 
G01 X46.239 Y102.729 
G01 X45.665 Y102.699 
G01 X45.072 Y102.653 
G01 X45.031 Y102.649 
G01 X44.439 Y102.586 
G01 X43.870 Y102.511 
G01 X43.306 Y102.422 
G01 X42.747 Y102.319 
G01 X42.194 Y102.203 
G01 X41.647 Y102.074 
G01 X41.106 Y101.932 
G01 X40.570 Y101.776 
G01 X40.144 Y101.641 
G01 X40.041 Y101.608 
G01 X39.518 Y101.428 
G01 X39.001 Y101.235 
G01 X38.491 Y101.030 
G01 X37.987 Y100.814 
G01 X37.490 Y100.585 
G01 X37.000 Y100.345 
G01 X36.534 Y100.102 
G01 X35.574 Y99.556 
G01 X34.660 Y98.976 
G01 X33.778 Y98.354 
G01 X32.928 Y97.692 
G01 X32.112 Y96.991 
G01 X31.332 Y96.252 
G01 X30.588 Y95.477 
G01 X29.882 Y94.669 
G01 X29.215 Y93.827 
G01 X28.589 Y92.955 
G01 X28.005 Y92.053 
G01 X27.464 Y91.123 
G01 X26.967 Y90.166 
G01 X26.517 Y89.185 
G01 X26.106 Y88.164 
G01 X25.928 Y87.671 
G01 X25.756 Y87.155 
G01 X25.597 Y86.634 
G01 X25.450 Y86.109 
G01 X25.316 Y85.578 
G01 X25.194 Y85.044 
G01 X25.086 Y84.504 
G01 X24.990 Y83.961 
G01 X24.908 Y83.413 
G01 X24.840 Y82.862 
G01 X24.785 Y82.307 
G01 X24.743 Y81.748 
G01 X24.716 Y81.186 
G01 X24.702 Y80.621 
G01 X24.703 Y80.053 
G01 X24.719 Y79.482 
G01 X24.749 Y78.908 
G01 X24.795 Y78.314 
G01 X24.799 Y78.273 
G01 X24.861 Y77.682 
G01 X24.937 Y77.112 
G01 X25.026 Y76.548 
G01 X25.128 Y75.990 
G01 X25.244 Y75.437 
G01 X25.373 Y74.889 
G01 X25.516 Y74.348 
G01 X25.671 Y73.812 
G01 X25.839 Y73.283 
G01 X26.019 Y72.760 
G01 X26.212 Y72.243 
G01 X26.417 Y71.733 
G01 X26.634 Y71.229 
G01 X26.862 Y70.733 
G01 X27.102 Y70.243 
G01 X27.346 Y69.776 
G01 X27.891 Y68.816 
G01 X28.471 Y67.902 
G01 X29.093 Y67.020 
G01 X29.756 Y66.170 
G01 X30.457 Y65.354 
G01 X31.195 Y64.574 
G01 X31.970 Y63.830 
G01 X32.779 Y63.124 
G01 X33.620 Y62.458 
G01 X34.493 Y61.831 
G01 X35.395 Y61.247 
G01 Z0.000 F750.0 M3
G01 X36.325 Y60.706  F3000.0
G01 X37.281 Y60.210 
G01 X38.262 Y59.759 
G01 X39.283 Y59.348 
G01 X39.777 Y59.170 
G01 X40.292 Y58.998 
G01 X40.813 Y58.839 
G01 X41.339 Y58.692 
G01 X41.869 Y58.558 
G01 X42.404 Y58.436 
G01 X42.943 Y58.328 
G01 X43.487 Y58.233 
G01 X44.034 Y58.151 
G01 X44.185 Y58.132 
G01 X44.185 Y58.132 Z2.000
G01 X44.585 Y58.082 
G01 X45.140 Y58.027 
G01 X45.699 Y57.986 
G01 X46.261 Y57.958 
G01 X46.826 Y57.945 
G01 X47.394 Y57.946 
G01 X47.966 Y57.961 
G01 X48.540 Y57.991 
G01 X49.133 Y58.037 
G01 X49.174 Y58.041 
G01 X49.766 Y58.104 
G01 X50.335 Y58.179 
G01 X50.899 Y58.268 
G01 X51.458 Y58.370 
G01 X52.011 Y58.486 
G01 X52.558 Y58.616 
G01 X53.099 Y58.758 
G01 X53.635 Y58.913 
G01 X54.061 Y59.049 
G01 Z0.000 F750.0 M3
G01 X54.164 Y59.081  F3000.0
G01 X54.687 Y59.262 
G01 X55.204 Y59.454 
G01 X55.714 Y59.659 
G01 X56.218 Y59.876 
G01 X56.715 Y60.105 
G01 X57.205 Y60.345 
G01 X57.671 Y60.588 
G01 X58.631 Y61.134 
G01 X59.545 Y61.714 
G01 X60.427 Y62.336 
G01 X61.277 Y62.998 
G01 X62.093 Y63.699 
G01 X62.873 Y64.438 
G01 X63.617 Y65.212 
G01 X64.323 Y66.021 
G01 X64.990 Y66.862 
G01 X65.616 Y67.735 
G01 X66.200 Y68.637 
G01 X66.741 Y69.567 
G01 X67.238 Y70.523 
G01 X67.689 Y71.504 
G01 X68.099 Y72.526 
G01 X68.277 Y73.019 
G01 X68.449 Y73.535 
G01 X68.608 Y74.055 
G01 X68.755 Y74.581 
G01 X68.889 Y75.111 
G01 X69.011 Y75.646 
G01 X69.119 Y76.185 
G01 X69.215 Y76.729 
G01 X69.297 Y77.276 
G01 X69.365 Y77.828 
G01 X69.421 Y78.383 
G01 X69.462 Y78.941 
G01 X69.489 Y79.503 
G01 X69.503 Y80.068 
G01 X69.502 Y80.637 
G01 X69.486 Y81.208 
G01 X69.456 Y81.782 
G01 X69.410 Y82.375 
G01 X69.406 Y82.417 
G01 X69.344 Y83.008 
G01 X69.268 Y83.577 
G01 X69.180 Y84.142 
G01 X69.077 Y84.700 
G01 X68.961 Y85.253 
G01 X68.832 Y85.800 
G01 X68.689 Y86.342 
G01 X68.534 Y86.877 
G01 X68.366 Y87.406 
G01 X68.186 Y87.930 
G01 X67.993 Y88.446 
G01 X67.788 Y88.957 
G01 X67.571 Y89.460 
G01 X67.343 Y89.957 
G01 X67.103 Y90.447 
G01 X66.859 Y90.914 
G01 X66.314 Y91.873 
G01 X65.734 Y92.787 
G01 X65.112 Y93.670 
G01 X64.449 Y94.519 
G01 X63.748 Y95.335 
G01 X63.010 Y96.116 
G01 X62.235 Y96.860 
G01 X61.426 Y97.565 
G01 X60.585 Y98.232 
G01 X59.712 Y98.858 
G01 X58.810 Y99.442 
G01 X57.880 Y99.983 
G01 X56.924 Y100.480 
G01 X55.943 Y100.931 
G01 X54.922 Y101.342 
G01 X54.428 Y101.519 
G01 X53.913 Y101.691 
G01 X53.392 Y101.851 
G01 X52.866 Y101.997 
G01 X52.336 Y102.132 
G01 X51.801 Y102.253 
G01 X51.262 Y102.362 
G01 X50.719 Y102.457 
G01 X50.171 Y102.539 
G01 X50.020 Y102.558 
G01 X50.020 Y102.558 Z2.000
G01 X49.620 Y102.608 
G01 X49.065 Y102.663 
G01 X48.506 Y102.704 
G01 X47.944 Y102.732 
G01 X47.379 Y102.745 
G01 X46.811 Y102.744 
G01 X46.239 Y102.729 
G01 X45.665 Y102.699 
G01 X45.072 Y102.653 
G01 X45.031 Y102.649 
G01 X44.439 Y102.586 
G01 X43.870 Y102.511 
G01 X43.306 Y102.422 
G01 X42.747 Y102.319 
G01 X42.194 Y102.203 
G01 X41.647 Y102.074 
G01 X41.106 Y101.932 
G01 X40.570 Y101.776 
G01 X40.144 Y101.641 
G01 Z0.000 F750.0 M3
G01 X40.041 Y101.608  F3000.0
G01 X39.518 Y101.428 
G01 X39.001 Y101.235 
G01 X38.491 Y101.030 
G01 X37.987 Y100.814 
G01 X37.490 Y100.585 
G01 X37.000 Y100.345 
G01 X36.534 Y100.102 
G01 X35.574 Y99.556 
G01 X34.660 Y98.976 
G01 X33.778 Y98.354 
G01 X32.928 Y97.692 
G01 X32.112 Y96.991 
G01 X31.332 Y96.252 
G01 X30.588 Y95.477 
G01 X29.882 Y94.669 
G01 X29.215 Y93.827 
G01 X28.589 Y92.955 
G01 X28.005 Y92.053 
G01 X27.464 Y91.123 
G01 X26.967 Y90.166 
G01 X26.517 Y89.185 
G01 X26.106 Y88.164 
G01 X25.928 Y87.671 
G01 X25.756 Y87.155 
G01 X25.597 Y86.634 
G01 X25.450 Y86.109 
G01 X25.316 Y85.578 
G01 X25.194 Y85.044 
G01 X25.086 Y84.504 
G01 X24.990 Y83.961 
G01 X24.908 Y83.413 
G01 X24.840 Y82.862 
G01 X24.785 Y82.307 
G01 X24.743 Y81.748 
G01 X24.716 Y81.186 
G01 X24.702 Y80.621 
G01 X24.703 Y80.053 
G01 X24.719 Y79.482 
G01 X24.749 Y78.908 
G01 X24.795 Y78.314 
G01 X24.799 Y78.273 
G01 X24.861 Y77.682 
G01 X24.937 Y77.112 
G01 X25.026 Y76.548 
G01 X25.128 Y75.990 
G01 X25.244 Y75.437 
G01 X25.373 Y74.889 
G01 X25.516 Y74.348 
G01 X25.671 Y73.812 
G01 X25.839 Y73.283 
G01 X26.019 Y72.760 
G01 X26.212 Y72.243 
G01 X26.417 Y71.733 
G01 X26.634 Y71.229 
G01 X26.862 Y70.733 
G01 X27.102 Y70.243 
G01 X27.346 Y69.776 
G01 X27.891 Y68.816 
G01 X28.471 Y67.902 
G01 X29.093 Y67.020 
G01 X29.756 Y66.170 
G01 X30.457 Y65.354 
G01 X31.195 Y64.574 
G01 X31.970 Y63.830 
G01 X32.779 Y63.124 
G01 X33.620 Y62.458 
G01 X34.493 Y61.831 
G01 X35.395 Y61.247 
G00 Z24.080
G00 X26.433 Y47.518  F6000.0
G01 Z14.250 F750.0 M3
G01 X25.650 Y48.050  F3000.0
G01 X24.891 Y48.594 
G01 X24.156 Y49.148 
G01 X23.444 Y49.712 
G01 X22.756 Y50.283 
G01 X22.091 Y50.862 
G01 X21.448 Y51.445 
G01 X20.829 Y52.034 
G01 X20.231 Y52.625 
G01 X19.656 Y53.218 
G01 X19.094 Y53.821 
G01 X18.058 Y54.998 
G01 X17.097 Y56.175 
G01 X16.217 Y57.331 
G01 X15.415 Y58.460 
G01 X14.689 Y59.551 
G01 X14.037 Y60.595 
G01 X13.456 Y61.585 
G01 X12.944 Y62.511 
G01 X12.500 Y63.364 
G01 X12.119 Y64.135 
G01 X11.797 Y64.825 
G01 X11.348 Y65.863 
G01 X11.119 Y66.441 
G01 X10.777 Y67.373 
G01 X10.462 Y68.303 
G01 X10.173 Y69.230 
G01 X9.911 Y70.153 
G01 X9.674 Y71.073 
G01 X9.463 Y71.990 
G01 X9.276 Y72.902 
G01 X9.114 Y73.809 
G01 X8.975 Y74.712 
G01 X8.860 Y75.610 
G01 X8.767 Y76.502 
G01 X8.696 Y77.388 
G01 X8.646 Y78.268 
G01 X8.617 Y79.141 
G01 X8.609 Y80.008 
G01 X8.620 Y80.868 
G01 X8.650 Y81.721 
G01 X8.699 Y82.566 
G01 X8.766 Y83.403 
G01 X8.850 Y84.232 
G01 X8.951 Y85.053 
G01 X9.068 Y85.865 
G01 X9.201 Y86.668 
G01 X9.352 Y87.475 
G01 X9.688 Y89.023 
G01 X10.080 Y90.544 
G01 X10.522 Y92.024 
G01 X11.007 Y93.462 
G01 X11.532 Y94.856 
G01 X12.093 Y96.204 
G01 X12.685 Y97.505 
G01 X13.304 Y98.757 
G01 X13.945 Y99.959 
G01 X14.605 Y101.109 
G01 X15.278 Y102.206 
G01 X15.963 Y103.248 
G01 X16.653 Y104.234 
G01 X17.346 Y105.163 
G01 X18.038 Y106.033 
G01 X18.725 Y106.844 
G01 X19.405 Y107.593 
G01 X20.076 Y108.282 
G01 X20.734 Y108.908 
G01 X21.369 Y109.462 
G01 X22.139 Y110.087 
G01 X22.916 Y110.682 
G01 X23.706 Y111.258 
G01 X24.511 Y111.814 
G01 X25.328 Y112.349 
G01 X26.158 Y112.865 
G01 X27.000 Y113.362 
G01 X27.854 Y113.840 
G01 X28.717 Y114.299 
G01 X29.591 Y114.740 
G01 X30.474 Y115.162 
G01 X31.366 Y115.566 
G01 X32.266 Y115.953 
G01 X33.173 Y116.321 
G01 X34.088 Y116.673 
G01 X35.008 Y117.007 
G01 X35.935 Y117.325 
G01 X36.867 Y117.626 
G01 X37.803 Y117.911 
G01 X38.744 Y118.180 
G01 X39.688 Y118.432 
G01 X40.644 Y118.672 
G01 X42.534 Y119.097 
G01 X44.440 Y119.465 
G01 X46.345 Y119.774 
G01 X48.247 Y120.026 
G01 X50.150 Y120.224 
G01 X51.213 Y120.297 
G01 X52.288 Y120.327 
G01 X53.364 Y120.314 
G01 X54.439 Y120.258 
G01 X55.512 Y120.163 
G01 X56.583 Y120.028 
G01 X57.651 Y119.855 
G01 X58.713 Y119.645 
G01 X59.770 Y119.400 
G01 X60.821 Y119.119 
G01 X61.864 Y118.806 
G01 X62.898 Y118.460 
G01 X63.924 Y118.082 
G01 X64.939 Y117.674 
G01 X65.943 Y117.237 
G01 X66.936 Y116.771 
G01 X67.915 Y116.278 
G01 X68.881 Y115.759 
G01 X69.832 Y115.213 
G01 X70.767 Y114.643 
G01 X71.686 Y114.049 
G01 X72.587 Y113.432 
G01 X73.470 Y112.793 
G01 X74.334 Y112.133 
G01 X75.177 Y111.452 
G01 X75.999 Y110.751 
G01 X76.799 Y110.032 
G01 X77.575 Y109.294 
G01 X78.328 Y108.539 
G01 X79.055 Y107.767 
G01 X79.756 Y106.980 
G01 X80.460 Y106.140 
G01 X80.940 Y105.481 
G01 X80.944 Y105.476 
G01 X81.799 Y104.306 
G01 X82.364 Y103.560 
G01 X83.032 Y102.710 
G01 X83.798 Y101.773 
G01 X84.661 Y100.762 
G01 X85.617 Y99.692 
G01 X86.666 Y98.576 
G01 X87.806 Y97.428 
G01 X89.042 Y96.256 
G01 X89.681 Y95.678 
G01 X90.348 Y95.096 
G01 X91.038 Y94.514 
G01 X91.746 Y93.938 
G01 X92.476 Y93.367 
G01 X93.226 Y92.805 
G01 X93.996 Y92.252 
G01 X94.784 Y91.710 
G01 X95.592 Y91.182 
G01 X96.419 Y90.668 
G01 X97.265 Y90.169 
G01 X98.128 Y89.690 
G01 X99.010 Y89.229 
G01 X99.909 Y88.789 
G01 X100.826 Y88.372 
G01 X101.761 Y87.979 
G01 X102.712 Y87.613 
G01 X103.680 Y87.273 
G01 X104.664 Y86.963 
G01 X105.666 Y86.682 
G01 X106.684 Y86.434 
G01 X107.718 Y86.218 
G01 X108.769 Y86.038 
G01 X109.837 Y85.894 
G01 X110.920 Y85.789 
G01 X112.020 Y85.722 
G01 X113.138 Y85.697 
G01 X114.273 Y85.715 
G01 X115.425 Y85.777 
G01 X116.595 Y85.885 
G01 X117.782 Y86.042 
G01 X118.987 Y86.248 
G01 X120.211 Y86.506 
G01 X121.454 Y86.818 
G01 X122.714 Y87.186 
G01 X123.995 Y87.612 
G01 X125.293 Y88.097 
G01 X126.610 Y88.644 
G01 X127.946 Y89.254 
G01 X129.306 Y89.933 
G01 X129.997 Y90.304 
G01 X130.685 Y90.695 
G01 X131.367 Y91.103 
G01 X132.040 Y91.528 
G01 X132.704 Y91.967 
G01 X133.362 Y92.424 
G01 X134.011 Y92.896 
G01 X134.652 Y93.381 
G01 X135.287 Y93.882 
G01 X135.913 Y94.396 
G01 X136.531 Y94.924 
G01 X137.134 Y95.457 
G01 X138.342 Y96.584 
G01 X139.509 Y97.747 
G01 X140.646 Y98.953 
G01 X141.752 Y100.197 
G01 X142.828 Y101.474 
G01 X143.872 Y102.781 
G01 X144.886 Y104.113 
G01 X145.869 Y105.465 
G01 X146.823 Y106.836 
G01 X147.755 Y108.232 
G01 X149.334 Y110.620 
G01 X150.885 Y112.920 
G01 X152.400 Y115.116 
G01 X153.877 Y117.207 
G01 X155.315 Y119.191 
G01 X156.715 Y121.069 
G01 X158.077 Y122.839 
G01 X159.399 Y124.501 
G01 X160.682 Y126.054 
G01 X161.927 Y127.497 
G01 X163.134 Y128.830 
G01 X164.304 Y130.053 
G01 X165.439 Y131.165 
G01 X166.529 Y132.157 
G01 X167.079 Y132.625 
G01 X167.612 Y133.056 
G01 X168.139 Y133.460 
G01 X168.661 Y133.837 
G01 X169.512 Y134.408 
G01 X170.396 Y134.957 
G01 X171.315 Y135.476 
G01 X172.269 Y135.958 
G01 X173.258 Y136.396 
G01 X174.262 Y136.771 
G01 X174.805 Y136.946 
G01 X175.339 Y137.098 
G01 X175.881 Y137.231 
G01 X176.458 Y137.351 
G01 X177.574 Y137.512 
G01 X179.531 Y137.745 
G01 X186.080 Y138.452 
G01 X196.224 Y139.490 
G01 X208.685 Y140.737 
G02 X211.087 Y135.612 I0.299 J-2.985
G01 X210.807 Y135.337  
G01 X210.515 Y135.023 
G01 X210.218 Y134.677 
G01 X209.935 Y134.322 
G01 X209.682 Y133.978 
G01 X209.479 Y133.673 
G01 X209.333 Y133.424 
G01 X209.111 Y132.981 
G01 X208.912 Y132.521 
G01 X208.741 Y132.055 
G01 X208.599 Y131.587 
G01 X208.485 Y131.118 
G01 X208.401 Y130.652 
G01 X208.345 Y130.189 
G01 X208.320 Y129.752 
G01 X208.330 Y129.279 
G01 X208.381 Y128.646 
G01 X208.461 Y128.009 
G01 X208.550 Y127.528 
G01 X208.671 Y127.073 
G01 X208.826 Y126.612 
G01 X209.009 Y126.159 
G01 X209.221 Y125.718 
G01 X209.460 Y125.288 
G01 X209.725 Y124.873 
G01 X210.014 Y124.473 
G01 X210.328 Y124.090 
G01 X210.664 Y123.725 
G01 X211.020 Y123.382 
G01 X211.397 Y123.059 
G01 X211.791 Y122.761 
G01 X212.202 Y122.486 
G01 X212.629 Y122.238 
G01 X213.070 Y122.016 
G01 X213.538 Y121.816 
G01 X213.882 Y121.689 
G01 X214.223 Y121.578 
G01 X214.553 Y121.487 
G01 X214.879 Y121.413 
G01 X215.209 Y121.353 
G01 X215.553 Y121.307 
G01 X215.918 Y121.274 
G01 X216.292 Y121.255 
G01 X216.806 Y121.254 
G01 X217.324 Y121.285 
G01 X217.859 Y121.349 
G01 X218.406 Y121.445 
G01 X218.959 Y121.574 
G01 X219.514 Y121.734 
G01 X220.063 Y121.924 
G01 X220.613 Y122.148 
G01 X221.020 Y122.336 
G01 X221.437 Y122.546 
G01 X221.857 Y122.777 
G01 X222.280 Y123.030 
G01 X222.709 Y123.306 
G01 X223.146 Y123.607 
G01 X223.592 Y123.934 
G01 X224.047 Y124.289 
G01 X224.513 Y124.674 
G01 X224.992 Y125.090 
G01 X225.483 Y125.537 
G01 X225.980 Y126.009 
G01 X227.046 Y127.081 
G01 X228.180 Y128.300 
G01 X228.819 Y129.006 
G01 X229.783 Y130.172 
G01 X230.698 Y131.297 
G01 X231.509 Y132.321 
G01 X232.243 Y133.271 
G01 X233.084 Y134.396 
G01 X234.232 Y136.021 
G01 X236.655 Y139.454 
G01 X237.904 Y141.226 
G01 X238.756 Y142.445 
G02 X241.066 Y143.933 I2.599 J-1.498
G01 X249.163 Y144.719  
G01 X257.206 Y145.481 
G01 X264.730 Y146.173 
G01 X264.923 Y146.191 
G01 X272.314 Y146.846 
G01 X274.691 Y147.048 
G01 X279.378 Y147.446 
G01 X286.115 Y147.988 
G01 X292.525 Y148.471 
G01 X298.608 Y148.894 
G01 X304.363 Y149.254 
G01 X309.791 Y149.551 
G01 X314.892 Y149.782 
G01 X319.661 Y149.945 
G01 X321.929 Y150.001 
G01 X324.112 Y150.040 
G01 X326.214 Y150.060 
G01 X328.234 Y150.063 
G01 X330.173 Y150.047 
G01 X332.032 Y150.013 
G01 X333.810 Y149.960 
G01 X335.504 Y149.888 
G01 X338.039 Y149.753 
G01 X340.479 Y149.603 
G01 X342.826 Y149.437 
G01 X345.080 Y149.253 
G01 X347.239 Y149.050 
G01 X349.301 Y148.827 
G01 X351.266 Y148.583 
G01 X353.132 Y148.316 
G01 X354.899 Y148.025 
G01 X356.565 Y147.709 
G01 X358.133 Y147.364 
G01 X359.600 Y146.988 
G01 X360.954 Y146.583 
G01 X361.616 Y146.359 
G01 X362.240 Y146.129 
G01 X362.840 Y145.888 
G01 X363.417 Y145.634 
G01 X363.971 Y145.366 
G01 X364.517 Y145.074 
G01 X364.850 Y144.871 
G01 X365.178 Y144.635 
G01 X365.483 Y144.381 
G01 X365.793 Y144.082 
G01 X366.253 Y143.539 
G01 X366.650 Y142.934 
G01 X366.967 Y142.317 
G01 X367.217 Y141.700 
G01 X367.413 Y141.087 
G01 X367.565 Y140.483 
G01 X367.683 Y139.890 
G01 X367.777 Y139.296 
G01 X367.900 Y138.209 
G01 X367.985 Y137.191 
G01 X368.062 Y136.266 
G01 X370.424 Y111.203 
G01 X372.463 Y89.277 
G01 X374.178 Y70.502 
G01 X375.571 Y54.880 
G01 X376.643 Y42.412 
G01 X377.060 Y37.356 
G01 X377.396 Y33.089 
G01 X377.653 Y29.605 
G01 X377.832 Y26.899 
G01 X377.931 Y24.964 
G01 X377.952 Y24.249 
G01 X377.951 Y23.662 
G01 X377.909 Y23.137 
G01 X377.809 Y22.598 
G01 X377.656 Y22.078 
G01 X377.454 Y21.586 
G01 X377.210 Y21.126 
G01 X376.932 Y20.701 
G01 X376.625 Y20.312 
G01 X376.297 Y19.958 
G01 X375.952 Y19.637 
G01 X375.594 Y19.345 
G01 X375.227 Y19.080 
G01 X374.829 Y18.825 
G01 X374.090 Y18.418 
G01 X373.306 Y18.063 
G01 X372.513 Y17.760 
G01 X371.718 Y17.501 
G01 X370.928 Y17.277 
G01 X370.140 Y17.080 
G01 X368.678 Y16.766 
G01 X367.344 Y16.512 
G01 X365.550 Y16.197 
G01 X363.658 Y15.907 
G01 X361.680 Y15.644 
G01 X359.616 Y15.404 
G01 X357.465 Y15.188 
G01 X355.227 Y14.993 
G01 X352.901 Y14.817 
G01 X350.487 Y14.661 
G01 X347.985 Y14.521 
G01 X345.396 Y14.398 
G01 X342.718 Y14.290 
G01 X339.949 Y14.194 
G01 X334.157 Y14.040 
G01 X328.007 Y13.924 
G01 X321.505 Y13.838 
G01 X314.650 Y13.772 
G01 X299.881 Y13.659 
G01 X283.723 Y13.511 
G01 X275.123 Y13.399 
G01 X257.152 Y13.099 
G01 X248.133 Y12.995 
G01 X243.618 Y12.963 
G01 X239.105 Y12.948 
G01 X234.591 Y12.949 
G01 X230.077 Y12.970 
G01 X225.562 Y13.011 
G01 X221.046 Y13.073 
G01 X216.531 Y13.159 
G01 X212.015 Y13.269 
G01 X207.500 Y13.405 
G01 X202.985 Y13.569 
G01 X198.470 Y13.762 
G01 X193.964 Y13.985 
G01 X187.909 Y14.291 
G01 X182.235 Y14.550 
G01 X176.927 Y14.766 
G01 X171.983 Y14.943 
G01 X167.413 Y15.086 
G01 X163.212 Y15.198 
G01 X159.378 Y15.284 
G01 X155.916 Y15.347 
G01 X150.089 Y15.423 
G01 X145.732 Y15.458 
G01 X142.835 Y15.484 
G01 X141.890 Y15.505 
G01 X141.248 Y15.543 
G01 X140.373 Y15.654 
G01 X139.562 Y15.783 
G01 X138.773 Y15.935 
G01 X138.004 Y16.108 
G01 X137.257 Y16.301 
G01 X136.530 Y16.513 
G01 X135.825 Y16.742 
G01 X135.140 Y16.986 
G01 X134.477 Y17.246 
G01 X133.835 Y17.518 
G01 X133.213 Y17.802 
G01 X132.612 Y18.097 
G01 X132.032 Y18.401 
G01 X131.459 Y18.719 
G01 X130.415 Y19.351 
G01 X129.436 Y20.005 
G01 X128.536 Y20.663 
G01 X127.713 Y21.313 
G01 X126.965 Y21.945 
G01 X126.292 Y22.547 
G01 X125.691 Y23.110 
G01 X124.714 Y24.060 
G01 X123.235 Y25.536 
G01 X121.768 Y27.044 
G01 X120.901 Y27.952 
G01 X118.874 Y30.075 
G01 X115.978 Y33.072 
G01 X114.528 Y34.516 
G01 X113.913 Y35.105 
G01 X113.061 Y35.920 
G01 X111.568 Y37.274 
G01 X110.826 Y37.917 
G01 X110.071 Y38.547 
G01 X109.308 Y39.158 
G01 X108.539 Y39.749 
G01 X107.764 Y40.316 
G01 X106.980 Y40.861 
G01 X106.187 Y41.382 
G01 X105.386 Y41.877 
G01 X104.575 Y42.345 
G01 X103.755 Y42.786 
G01 X102.923 Y43.197 
G01 X102.079 Y43.580 
G01 X101.223 Y43.932 
G01 X100.345 Y44.255 
G01 X99.558 Y44.517 
G01 X98.754 Y44.765 
G01 X97.942 Y44.994 
G01 X97.124 Y45.204 
G01 X96.299 Y45.398 
G01 X95.468 Y45.574 
G01 X94.631 Y45.733 
G01 X93.787 Y45.875 
G01 X92.941 Y46.001 
G01 X92.087 Y46.111 
G01 X91.230 Y46.205 
G01 X90.368 Y46.283 
G01 X89.502 Y46.347 
G01 X88.635 Y46.395 
G01 X87.764 Y46.428 
G01 X86.898 Y46.447 
G01 X85.135 Y46.444 
G01 X83.376 Y46.388 
G01 X81.616 Y46.280 
G01 X79.855 Y46.124 
G01 X78.102 Y45.923 
G01 X76.355 Y45.679 
G01 X74.621 Y45.395 
G01 X72.897 Y45.073 
G01 X70.307 Y44.537 
G01 X67.706 Y43.971 
G01 X65.062 Y43.392 
G01 X62.402 Y42.831 
G01 X59.724 Y42.313 
G01 X58.362 Y42.075 
G01 X56.999 Y41.859 
G01 X55.627 Y41.665 
G01 X54.246 Y41.499 
G01 X52.856 Y41.362 
G01 X51.457 Y41.260 
G01 X50.082 Y41.195 
G01 X48.733 Y41.169 
G01 X47.411 Y41.180 
G01 X46.115 Y41.227 
G01 X44.846 Y41.309 
G01 X43.603 Y41.426 
G01 X42.386 Y41.575 
G01 X41.196 Y41.756 
G01 X40.031 Y41.968 
G01 X38.893 Y42.210 
G01 X37.781 Y42.480 
G01 X36.695 Y42.778 
G01 X35.634 Y43.102 
G01 X34.600 Y43.451 
G01 X33.591 Y43.823 
G01 X32.608 Y44.219 
G01 X31.650 Y44.636 
G01 X30.718 Y45.073 
G01 X29.811 Y45.529 
G01 X28.930 Y46.002 
G01 X28.073 Y46.493 
G01 X27.241 Y46.998 
G01 X26.433 Y47.518 
G01 Z9.500 F750.0 M3
G01 X25.650 Y48.050  F3000.0
G01 X24.891 Y48.594 
G01 X24.156 Y49.148 
G01 X23.444 Y49.712 
G01 X22.756 Y50.283 
G01 X22.091 Y50.862 
G01 X21.448 Y51.445 
G01 X20.829 Y52.034 
G01 X20.231 Y52.625 
G01 X19.656 Y53.218 
G01 X19.094 Y53.821 
G01 X18.058 Y54.998 
G01 X17.097 Y56.175 
G01 X16.217 Y57.331 
G01 X15.415 Y58.460 
G01 X14.689 Y59.551 
G01 X14.037 Y60.595 
G01 X13.456 Y61.585 
G01 X12.944 Y62.511 
G01 X12.500 Y63.364 
G01 X12.119 Y64.135 
G01 X11.797 Y64.825 
G01 X11.348 Y65.863 
G01 X11.119 Y66.441 
G01 X10.777 Y67.373 
G01 X10.462 Y68.303 
G01 X10.173 Y69.230 
G01 X9.911 Y70.153 
G01 X9.674 Y71.073 
G01 X9.463 Y71.990 
G01 X9.276 Y72.902 
G01 X9.114 Y73.809 
G01 X8.975 Y74.712 
G01 X8.860 Y75.610 
G01 X8.767 Y76.502 
G01 X8.696 Y77.388 
G01 X8.646 Y78.268 
G01 X8.617 Y79.141 
G01 X8.609 Y80.008 
G01 X8.620 Y80.868 
G01 X8.650 Y81.721 
G01 X8.699 Y82.566 
G01 X8.766 Y83.403 
G01 X8.850 Y84.232 
G01 X8.951 Y85.053 
G01 X9.068 Y85.865 
G01 X9.201 Y86.668 
G01 X9.352 Y87.475 
G01 X9.688 Y89.023 
G01 X10.080 Y90.544 
G01 X10.522 Y92.024 
G01 X11.007 Y93.462 
G01 X11.532 Y94.856 
G01 X12.093 Y96.204 
G01 X12.685 Y97.505 
G01 X13.304 Y98.757 
G01 X13.945 Y99.959 
G01 X14.605 Y101.109 
G01 X15.278 Y102.206 
G01 X15.963 Y103.248 
G01 X16.653 Y104.234 
G01 X17.346 Y105.163 
G01 X18.038 Y106.033 
G01 X18.725 Y106.844 
G01 X19.405 Y107.593 
G01 X20.076 Y108.282 
G01 X20.734 Y108.908 
G01 X21.369 Y109.462 
G01 X22.139 Y110.087 
G01 X22.916 Y110.682 
G01 X23.706 Y111.258 
G01 X24.511 Y111.814 
G01 X25.328 Y112.349 
G01 X26.158 Y112.865 
G01 X27.000 Y113.362 
G01 X27.854 Y113.840 
G01 X28.717 Y114.299 
G01 X29.591 Y114.740 
G01 X30.474 Y115.162 
G01 X31.366 Y115.566 
G01 X32.266 Y115.953 
G01 X33.173 Y116.321 
G01 X34.088 Y116.673 
G01 X35.008 Y117.007 
G01 X35.935 Y117.325 
G01 X36.867 Y117.626 
G01 X37.803 Y117.911 
G01 X38.744 Y118.180 
G01 X39.688 Y118.432 
G01 X40.644 Y118.672 
G01 X42.534 Y119.097 
G01 X44.440 Y119.465 
G01 X46.345 Y119.774 
G01 X48.247 Y120.026 
G01 X50.150 Y120.224 
G01 X51.213 Y120.297 
G01 X52.288 Y120.327 
G01 X53.364 Y120.314 
G01 X54.439 Y120.258 
G01 X55.512 Y120.163 
G01 X56.583 Y120.028 
G01 X57.651 Y119.855 
G01 X58.713 Y119.645 
G01 X59.770 Y119.400 
G01 X60.821 Y119.119 
G01 X61.864 Y118.806 
G01 X62.898 Y118.460 
G01 X63.924 Y118.082 
G01 X64.939 Y117.674 
G01 X65.943 Y117.237 
G01 X66.936 Y116.771 
G01 X67.915 Y116.278 
G01 X68.881 Y115.759 
G01 X69.832 Y115.213 
G01 X70.767 Y114.643 
G01 X71.686 Y114.049 
G01 X72.587 Y113.432 
G01 X73.470 Y112.793 
G01 X74.334 Y112.133 
G01 X75.177 Y111.452 
G01 X75.999 Y110.751 
G01 X76.799 Y110.032 
G01 X77.575 Y109.294 
G01 X78.328 Y108.539 
G01 X79.055 Y107.767 
G01 X79.756 Y106.980 
G01 X80.460 Y106.140 
G01 X80.940 Y105.481 
G01 X80.944 Y105.476 
G01 X81.799 Y104.306 
G01 X82.364 Y103.560 
G01 X83.032 Y102.710 
G01 X83.798 Y101.773 
G01 X84.661 Y100.762 
G01 X85.617 Y99.692 
G01 X86.666 Y98.576 
G01 X87.806 Y97.428 
G01 X89.042 Y96.256 
G01 X89.681 Y95.678 
G01 X90.348 Y95.096 
G01 X91.038 Y94.514 
G01 X91.746 Y93.938 
G01 X92.476 Y93.367 
G01 X93.226 Y92.805 
G01 X93.996 Y92.252 
G01 X94.784 Y91.710 
G01 X95.592 Y91.182 
G01 X96.419 Y90.668 
G01 X97.265 Y90.169 
G01 X98.128 Y89.690 
G01 X99.010 Y89.229 
G01 X99.909 Y88.789 
G01 X100.826 Y88.372 
G01 X101.761 Y87.979 
G01 X102.712 Y87.613 
G01 X103.680 Y87.273 
G01 X104.664 Y86.963 
G01 X105.666 Y86.682 
G01 X106.684 Y86.434 
G01 X107.718 Y86.218 
G01 X108.769 Y86.038 
G01 X109.837 Y85.894 
G01 X110.920 Y85.789 
G01 X112.020 Y85.722 
G01 X113.138 Y85.697 
G01 X114.273 Y85.715 
G01 X115.425 Y85.777 
G01 X116.595 Y85.885 
G01 X117.782 Y86.042 
G01 X118.987 Y86.248 
G01 X120.211 Y86.506 
G01 X121.454 Y86.818 
G01 X122.714 Y87.186 
G01 X123.995 Y87.612 
G01 X125.293 Y88.097 
G01 X126.610 Y88.644 
G01 X127.946 Y89.254 
G01 X129.306 Y89.933 
G01 X129.997 Y90.304 
G01 X130.685 Y90.695 
G01 X131.367 Y91.103 
G01 X132.040 Y91.528 
G01 X132.704 Y91.967 
G01 X133.362 Y92.424 
G01 X134.011 Y92.896 
G01 X134.652 Y93.381 
G01 X135.287 Y93.882 
G01 X135.913 Y94.396 
G01 X136.531 Y94.924 
G01 X137.134 Y95.457 
G01 X138.342 Y96.584 
G01 X139.509 Y97.747 
G01 X140.646 Y98.953 
G01 X141.752 Y100.197 
G01 X142.828 Y101.474 
G01 X143.872 Y102.781 
G01 X144.886 Y104.113 
G01 X145.869 Y105.465 
G01 X146.823 Y106.836 
G01 X147.755 Y108.232 
G01 X149.334 Y110.620 
G01 X150.885 Y112.920 
G01 X152.400 Y115.116 
G01 X153.877 Y117.207 
G01 X155.315 Y119.191 
G01 X156.715 Y121.069 
G01 X158.077 Y122.839 
G01 X159.399 Y124.501 
G01 X160.682 Y126.054 
G01 X161.927 Y127.497 
G01 X163.134 Y128.830 
G01 X164.304 Y130.053 
G01 X165.439 Y131.165 
G01 X166.529 Y132.157 
G01 X167.079 Y132.625 
G01 X167.612 Y133.056 
G01 X168.139 Y133.460 
G01 X168.661 Y133.837 
G01 X169.512 Y134.408 
G01 X170.396 Y134.957 
G01 X171.315 Y135.476 
G01 X172.269 Y135.958 
G01 X173.258 Y136.396 
G01 X174.262 Y136.771 
G01 X174.805 Y136.946 
G01 X175.339 Y137.098 
G01 X175.881 Y137.231 
G01 X176.458 Y137.351 
G01 X177.574 Y137.512 
G01 X179.531 Y137.745 
G01 X186.080 Y138.452 
G01 X196.224 Y139.490 
G01 X208.685 Y140.737 
G02 X211.087 Y135.612 I0.299 J-2.985
G01 X210.807 Y135.337  
G01 X210.515 Y135.023 
G01 X210.218 Y134.677 
G01 X209.935 Y134.322 
G01 X209.682 Y133.978 
G01 X209.479 Y133.673 
G01 X209.333 Y133.424 
G01 X209.111 Y132.981 
G01 X208.912 Y132.521 
G01 X208.741 Y132.055 
G01 X208.599 Y131.587 
G01 X208.485 Y131.118 
G01 X208.401 Y130.652 
G01 X208.345 Y130.189 
G01 X208.320 Y129.752 
G01 X208.330 Y129.279 
G01 X208.381 Y128.646 
G01 X208.461 Y128.009 
G01 X208.550 Y127.528 
G01 X208.671 Y127.073 
G01 X208.826 Y126.612 
G01 X209.009 Y126.159 
G01 X209.221 Y125.718 
G01 X209.460 Y125.288 
G01 X209.725 Y124.873 
G01 X210.014 Y124.473 
G01 X210.328 Y124.090 
G01 X210.664 Y123.725 
G01 X211.020 Y123.382 
G01 X211.397 Y123.059 
G01 X211.791 Y122.761 
G01 X212.202 Y122.486 
G01 X212.629 Y122.238 
G01 X213.070 Y122.016 
G01 X213.538 Y121.816 
G01 X213.882 Y121.689 
G01 X214.223 Y121.578 
G01 X214.553 Y121.487 
G01 X214.879 Y121.413 
G01 X215.209 Y121.353 
G01 X215.553 Y121.307 
G01 X215.918 Y121.274 
G01 X216.292 Y121.255 
G01 X216.806 Y121.254 
G01 X217.324 Y121.285 
G01 X217.859 Y121.349 
G01 X218.406 Y121.445 
G01 X218.959 Y121.574 
G01 X219.514 Y121.734 
G01 X220.063 Y121.924 
G01 X220.613 Y122.148 
G01 X221.020 Y122.336 
G01 X221.437 Y122.546 
G01 X221.857 Y122.777 
G01 X222.280 Y123.030 
G01 X222.709 Y123.306 
G01 X223.146 Y123.607 
G01 X223.592 Y123.934 
G01 X224.047 Y124.289 
G01 X224.513 Y124.674 
G01 X224.992 Y125.090 
G01 X225.483 Y125.537 
G01 X225.980 Y126.009 
G01 X227.046 Y127.081 
G01 X228.180 Y128.300 
G01 X228.819 Y129.006 
G01 X229.783 Y130.172 
G01 X230.698 Y131.297 
G01 X231.509 Y132.321 
G01 X232.243 Y133.271 
G01 X233.084 Y134.396 
G01 X234.232 Y136.021 
G01 X236.655 Y139.454 
G01 X237.904 Y141.226 
G01 X238.756 Y142.445 
G02 X241.066 Y143.933 I2.599 J-1.498
G01 X249.163 Y144.719  
G01 X257.206 Y145.481 
G01 X264.730 Y146.173 
G01 X264.923 Y146.191 
G01 X272.314 Y146.846 
G01 X274.691 Y147.048 
G01 X279.378 Y147.446 
G01 X286.115 Y147.988 
G01 X292.525 Y148.471 
G01 X298.608 Y148.894 
G01 X304.363 Y149.254 
G01 X309.791 Y149.551 
G01 X314.892 Y149.782 
G01 X319.661 Y149.945 
G01 X321.929 Y150.001 
G01 X324.112 Y150.040 
G01 X326.214 Y150.060 
G01 X328.234 Y150.063 
G01 X330.173 Y150.047 
G01 X332.032 Y150.013 
G01 X333.810 Y149.960 
G01 X335.504 Y149.888 
G01 X338.039 Y149.753 
G01 X340.479 Y149.603 
G01 X342.826 Y149.437 
G01 X345.080 Y149.253 
G01 X347.239 Y149.050 
G01 X349.301 Y148.827 
G01 X351.266 Y148.583 
G01 X353.132 Y148.316 
G01 X354.899 Y148.025 
G01 X356.565 Y147.709 
G01 X358.133 Y147.364 
G01 X359.600 Y146.988 
G01 X360.954 Y146.583 
G01 X361.616 Y146.359 
G01 X362.240 Y146.129 
G01 X362.840 Y145.888 
G01 X363.417 Y145.634 
G01 X363.971 Y145.366 
G01 X364.517 Y145.074 
G01 X364.850 Y144.871 
G01 X365.178 Y144.635 
G01 X365.483 Y144.381 
G01 X365.793 Y144.082 
G01 X366.253 Y143.539 
G01 X366.650 Y142.934 
G01 X366.967 Y142.317 
G01 X367.217 Y141.700 
G01 X367.413 Y141.087 
G01 X367.565 Y140.483 
G01 X367.683 Y139.890 
G01 X367.777 Y139.296 
G01 X367.900 Y138.209 
G01 X367.985 Y137.191 
G01 X368.062 Y136.266 
G01 X370.424 Y111.203 
G01 X372.463 Y89.277 
G01 X374.178 Y70.502 
G01 X375.571 Y54.880 
G01 X376.643 Y42.412 
G01 X377.060 Y37.356 
G01 X377.396 Y33.089 
G01 X377.653 Y29.605 
G01 X377.832 Y26.899 
G01 X377.931 Y24.964 
G01 X377.952 Y24.249 
G01 X377.951 Y23.662 
G01 X377.909 Y23.137 
G01 X377.809 Y22.598 
G01 X377.656 Y22.078 
G01 X377.454 Y21.586 
G01 X377.210 Y21.126 
G01 X376.932 Y20.701 
G01 X376.625 Y20.312 
G01 X376.297 Y19.958 
G01 X375.952 Y19.637 
G01 X375.594 Y19.345 
G01 X375.227 Y19.080 
G01 X374.829 Y18.825 
