%
( heartTray ) ( File created: Sunday December 15 2024 - 09:47 PM)
( for LinuxCNC )
( Material Size) ( X= 800.000, Y= 200.000, Z= 20.000)
G90 (Incremental distance mode)
G17 G21 (Active Plane: XY)(Metric Mode)
G40 G49 G80(Tool Diameter, Length compensation & canned cycles OFF)
G64 P0.05 Q0.05(Path Blending)
T21 M06 (TOOL USE End Mill 6 mm )
G90 (absolute distance mode)
G54 (Coordinate System)
S18000M3
G00 Z40.320
G4 P6
( Profile 1 )
G00 X248.159 Y118.847 Z25.080 F6000.0
G01 Z15.500 F750.0 M3
G03 X277.401 Y139.500 I6.582 J21.709
G03 X262.188 Y161.041 I-21.441 J1.000
G03 X236.366 Y151.799 I-6.680 J-22.032
G03 X248.159 Y118.847 I18.114 J-12.103
G01 Z11.000 F750.0 M3
G03 X277.401 Y139.500 I6.582 J21.709
G03 X262.188 Y161.041 I-21.441 J1.000
G03 X236.366 Y151.799 I-6.680 J-22.032
G03 X248.159 Y118.847 I18.114 J-12.103
G01 Z6.500 F750.0 M3
G03 X277.401 Y139.500 I6.582 J21.709
G03 X262.188 Y161.041 I-21.441 J1.000
G03 X236.366 Y151.799 I-6.680 J-22.032
G03 X248.159 Y118.847 I18.114 J-12.103
G01 Z2.000 F750.0 M3
G03 X277.401 Y139.500 I6.582 J21.709
G03 X262.188 Y161.041 I-21.441 J1.000
G03 X236.366 Y151.799 I-6.680 J-22.032
G03 X248.159 Y118.847 I18.114 J-12.103
G00 Z25.080
G00 X244.671 Y99.225  F6000.0
G01 Z15.500 F750.0 M3
G03 X224.104 Y96.873 I-6.213 J-36.776
G03 X214.591 Y89.420 I8.732 J-20.942
G02 X177.567 Y48.525 I-224.098 J165.680
G02 X148.114 Y31.465 I-54.571 J60.259
G02 X42.327 Y4.340 I-267.567 J823.635
G02 X8.860 Y1.419 I-31.162 J163.871
G02 X2.078 Y7.357 I0.096 J6.952
G02 X0.999 Y24.068 I101.153 J14.921
G03 X1.771 Y89.009 I-5781.131 J101.221
G03 X1.334 Y113.778 I-517.764 J3.249
G02 X1.877 Y127.670 I86.206 J3.586
G02 X10.107 Y136.205 I9.758 J-1.174
G02 X17.301 Y136.050 I3.166 J-20.116
G03 X55.098 Y131.676 I44.891 J222.438
G03 X109.566 Y131.166 I38.890 J1243.485
G03 X124.239 Y132.164 I-1.661 J132.660
G02 X129.560 Y131.378 I1.240 J-9.998
G02 X134.662 Y126.692 I-4.384 J-9.896
G03 X147.536 Y113.530 I30.027 J16.493
G03 X156.968 Y112.909 I5.345 J9.241
G03 X159.096 Y126.219 I-3.029 J7.309
G02 X158.295 Y127.057 I3.852 J4.484
G02 X157.807 Y130.016 I2.457 J1.925
G02 X160.576 Y132.021 I2.831 J-0.994
G01 X172.787 Y132.271  F3000.0
G02 X185.641 Y131.804 I2.320 J-113.316
G03 X196.435 Y133.672 I1.948 J20.866
G03 X214.722 Y150.550 I-17.239 J37.024
G02 X233.810 Y171.157 I53.296 J-30.223
G02 X279.041 Y170.895 I22.424 J-33.319
G02 X286.395 Y114.342 I-21.795 J-31.589
G02 X244.671 Y99.225 I-34.219 J29.307
G01 Z11.000 F750.0 M3
G03 X224.104 Y96.873 I-6.213 J-36.776
G03 X214.591 Y89.420 I8.732 J-20.942
G02 X177.567 Y48.525 I-224.098 J165.680
G02 X148.114 Y31.465 I-54.571 J60.259
G02 X42.327 Y4.340 I-267.567 J823.635
G02 X8.860 Y1.419 I-31.162 J163.871
G02 X2.078 Y7.357 I0.096 J6.952
G02 X0.999 Y24.068 I101.153 J14.921
G03 X1.771 Y89.009 I-5781.131 J101.221
G03 X1.334 Y113.778 I-517.764 J3.249
G02 X1.877 Y127.670 I86.206 J3.586
G02 X10.107 Y136.205 I9.758 J-1.174
G02 X17.301 Y136.050 I3.166 J-20.116
G03 X55.098 Y131.676 I44.891 J222.438
G03 X109.566 Y131.166 I38.890 J1243.485
G03 X124.239 Y132.164 I-1.661 J132.660
G02 X129.560 Y131.378 I1.240 J-9.998
G02 X134.662 Y126.692 I-4.384 J-9.896
G03 X147.536 Y113.530 I30.027 J16.493
G03 X156.968 Y112.909 I5.345 J9.241
G03 X159.096 Y126.219 I-3.029 J7.309
G02 X158.295 Y127.057 I3.852 J4.484
G02 X157.807 Y130.016 I2.457 J1.925
G02 X160.576 Y132.021 I2.831 J-0.994
G01 X172.787 Y132.271  F3000.0
G02 X185.641 Y131.804 I2.320 J-113.316
G03 X196.435 Y133.672 I1.948 J20.866
G03 X214.722 Y150.550 I-17.239 J37.024
G02 X233.810 Y171.157 I53.296 J-30.223
G02 X279.041 Y170.895 I22.424 J-33.319
G02 X286.395 Y114.342 I-21.795 J-31.589
G02 X244.671 Y99.225 I-34.219 J29.307
G01 Z6.500 F750.0 M3
G03 X224.104 Y96.873 I-6.213 J-36.776
G03 X214.591 Y89.420 I8.732 J-20.942
G02 X177.567 Y48.525 I-224.098 J165.680
G02 X148.114 Y31.465 I-54.571 J60.259
G02 X42.327 Y4.340 I-267.567 J823.635
G02 X8.860 Y1.419 I-31.162 J163.871
G02 X2.078 Y7.357 I0.096 J6.952
G02 X0.999 Y24.068 I101.153 J14.921
G03 X1.771 Y89.009 I-5781.131 J101.221
G03 X1.334 Y113.778 I-517.764 J3.249
G02 X1.877 Y127.670 I86.206 J3.586
G02 X10.107 Y136.205 I9.758 J-1.174
G02 X17.301 Y136.050 I3.166 J-20.116
G03 X55.098 Y131.676 I44.891 J222.438
G03 X109.566 Y131.166 I38.890 J1243.485
G03 X124.239 Y132.164 I-1.661 J132.660
G02 X129.560 Y131.378 I1.240 J-9.998
G02 X134.662 Y126.692 I-4.384 J-9.896
G03 X147.536 Y113.530 I30.027 J16.493
G03 X156.968 Y112.909 I5.345 J9.241
G03 X159.096 Y126.219 I-3.029 J7.309
G02 X158.295 Y127.057 I3.852 J4.484
G02 X157.807 Y130.016 I2.457 J1.925
G02 X160.576 Y132.021 I2.831 J-0.994
G01 X172.787 Y132.271  F3000.0
G02 X185.641 Y131.804 I2.320 J-113.316
G03 X196.435 Y133.672 I1.948 J20.866
G03 X214.722 Y150.550 I-17.239 J37.024
G02 X233.810 Y171.157 I53.296 J-30.223
G02 X279.041 Y170.895 I22.424 J-33.319
G02 X286.395 Y114.342 I-21.795 J-31.589
G02 X244.671 Y99.225 I-34.219 J29.307
G01 Z2.000 F750.0 M3
G03 X224.104 Y96.873 I-6.213 J-36.776
G03 X214.591 Y89.420 I8.732 J-20.942
G02 X177.567 Y48.525 I-224.098 J165.680
G02 X148.114 Y31.465 I-54.571 J60.259
G02 X42.327 Y4.340 I-267.567 J823.635
G02 X8.860 Y1.419 I-31.162 J163.871
G02 X2.078 Y7.357 I0.096 J6.952
G02 X0.999 Y24.068 I101.153 J14.921
G03 X1.771 Y89.009 I-5781.131 J101.221
G03 X1.334 Y113.778 I-517.764 J3.249
G02 X1.877 Y127.670 I86.206 J3.586
G02 X10.107 Y136.205 I9.758 J-1.174
G02 X17.301 Y136.050 I3.166 J-20.116
G03 X55.098 Y131.676 I44.891 J222.438
G03 X109.566 Y131.166 I38.890 J1243.485
G03 X124.239 Y132.164 I-1.661 J132.660
G02 X129.560 Y131.378 I1.240 J-9.998
G02 X134.662 Y126.692 I-4.384 J-9.896
G03 X147.536 Y113.530 I30.027 J16.493
G03 X156.968 Y112.909 I5.345 J9.241
G03 X159.096 Y126.219 I-3.029 J7.309
G02 X158.295 Y127.057 I3.852 J4.484
G02 X157.807 Y130.016 I2.457 J1.925
G02 X160.576 Y132.021 I2.831 J-0.994
G01 X172.787 Y132.271  F3000.0
G02 X185.641 Y131.804 I2.320 J-113.316
G03 X196.435 Y133.672 I1.948 J20.866
G03 X214.722 Y150.550 I-17.239 J37.024
G02 X233.810 Y171.157 I53.296 J-30.223
G02 X279.041 Y170.895 I22.424 J-33.319
G02 X286.395 Y114.342 I-21.795 J-31.589
G02 X244.671 Y99.225 I-34.219 J29.307
G00 Z25.080
G00 X236.959 Y60.559  F6000.0
G01 Z15.500 F750.0 M3
G03 X207.717 Y39.907 I-6.582 J-21.709
G03 X222.931 Y18.366 I21.441 J-1.000
G03 X248.752 Y27.607 I6.680 J22.032
G03 X236.959 Y60.559 I-18.114 J12.103
G01 Z11.000 F750.0 M3
G03 X207.717 Y39.907 I-6.582 J-21.709
G03 X222.931 Y18.366 I21.441 J-1.000
G03 X248.752 Y27.607 I6.680 J22.032
G03 X236.959 Y60.559 I-18.114 J12.103
G01 Z6.500 F750.0 M3
G03 X207.717 Y39.907 I-6.582 J-21.709
G03 X222.931 Y18.366 I21.441 J-1.000
G03 X248.752 Y27.607 I6.680 J22.032
G03 X236.959 Y60.559 I-18.114 J12.103
G01 Z2.000 F750.0 M3
G03 X207.717 Y39.907 I-6.582 J-21.709
G03 X222.931 Y18.366 I21.441 J-1.000
G03 X248.752 Y27.607 I6.680 J22.032
G03 X236.959 Y60.559 I-18.114 J12.103
G00 Z25.080
G00 X240.448 Y80.181  F6000.0
G01 Z15.500 F750.0 M3
G03 X261.015 Y82.533 I6.213 J36.776
G03 X270.527 Y89.986 I-8.732 J20.942
G02 X307.552 Y130.881 I224.098 J-165.680
G02 X337.004 Y147.941 I54.571 J-60.259
G02 X442.791 Y175.067 I267.567 J-823.635
G02 X476.259 Y177.987 I31.162 J-163.871
G02 X483.041 Y172.050 I-0.096 J-6.952
G02 X484.120 Y155.339 I-101.153 J-14.921
G03 X483.348 Y90.397 I5781.131 J-101.221
G03 X483.785 Y65.628 I517.764 J-3.249
G02 X483.242 Y51.737 I-86.206 J-3.586
G02 X475.012 Y43.202 I-9.758 J1.174
G02 X467.818 Y43.357 I-3.166 J20.116
G03 X430.020 Y47.730 I-44.891 J-222.438
G03 X375.552 Y48.241 I-38.890 J-1243.485
G03 X360.880 Y47.242 I1.661 J-132.660
G02 X355.559 Y48.029 I-1.240 J9.998
G02 X350.456 Y52.714 I4.384 J9.896
G03 X337.582 Y65.876 I-30.027 J-16.493
G03 X328.150 Y66.498 I-5.345 J-9.241
G03 X326.023 Y53.187 I3.029 J-7.309
G02 X326.823 Y52.350 I-3.852 J-4.484
G02 X327.311 Y49.391 I-2.457 J-1.925
G02 X324.542 Y47.385 I-2.831 J0.994
G01 X312.331 Y47.135  F3000.0
G02 X299.477 Y47.602 I-2.320 J113.316
G03 X288.684 Y45.734 I-1.948 J-20.866
G03 X270.396 Y28.856 I17.239 J-37.024
G02 X251.309 Y8.249 I-53.296 J30.223
G02 X206.077 Y8.511 I-22.424 J33.319
G02 X198.723 Y65.064 I21.795 J31.589
G02 X240.448 Y80.181 I34.219 J-29.307
G01 Z11.000 F750.0 M3
G03 X261.015 Y82.533 I6.213 J36.776
G03 X270.527 Y89.986 I-8.732 J20.942
G02 X307.552 Y130.881 I224.098 J-165.680
G02 X337.004 Y147.941 I54.571 J-60.259
G02 X442.791 Y175.067 I267.567 J-823.635
G02 X476.259 Y177.987 I31.162 J-163.871
G02 X483.041 Y172.050 I-0.096 J-6.952
G02 X484.120 Y155.339 I-101.153 J-14.921
G03 X483.348 Y90.397 I5781.131 J-101.221
G03 X483.785 Y65.628 I517.764 J-3.249
G02 X483.242 Y51.737 I-86.206 J-3.586
G02 X475.012 Y43.202 I-9.758 J1.174
G02 X467.818 Y43.357 I-3.166 J20.116
G03 X430.020 Y47.730 I-44.891 J-222.438
G03 X375.552 Y48.241 I-38.890 J-1243.485
G03 X360.880 Y47.242 I1.661 J-132.660
G02 X355.559 Y48.029 I-1.240 J9.998
G02 X350.456 Y52.714 I4.384 J9.896
G03 X337.582 Y65.876 I-30.027 J-16.493
G03 X328.150 Y66.498 I-5.345 J-9.241
G03 X326.023 Y53.187 I3.029 J-7.309
G02 X326.823 Y52.350 I-3.852 J-4.484
G02 X327.311 Y49.391 I-2.457 J-1.925
G02 X324.542 Y47.385 I-2.831 J0.994
G01 X312.331 Y47.135  F3000.0
G02 X299.477 Y47.602 I-2.320 J113.316
G03 X288.684 Y45.734 I-1.948 J-20.866
G03 X270.396 Y28.856 I17.239 J-37.024
G02 X251.309 Y8.249 I-53.296 J30.223
G02 X206.077 Y8.511 I-22.424 J33.319
G02 X198.723 Y65.064 I21.795 J31.589
G02 X240.448 Y80.181 I34.219 J-29.307
G01 Z6.500 F750.0 M3
G03 X261.015 Y82.533 I6.213 J36.776
G03 X270.527 Y89.986 I-8.732 J20.942
G02 X307.552 Y130.881 I224.098 J-165.680
G02 X337.004 Y147.941 I54.571 J-60.259
G02 X442.791 Y175.067 I267.567 J-823.635
G02 X476.259 Y177.987 I31.162 J-163.871
G02 X483.041 Y172.050 I-0.096 J-6.952
G02 X484.120 Y155.339 I-101.153 J-14.921
G03 X483.348 Y90.397 I5781.131 J-101.221
G03 X483.785 Y65.628 I517.764 J-3.249
G02 X483.242 Y51.737 I-86.206 J-3.586
G02 X475.012 Y43.202 I-9.758 J1.174
G02 X467.818 Y43.357 I-3.166 J20.116
G03 X430.020 Y47.730 I-44.891 J-222.438
G03 X375.552 Y48.241 I-38.890 J-1243.485
G03 X360.880 Y47.242 I1.661 J-132.660
G02 X355.559 Y48.029 I-1.240 J9.998
G02 X350.456 Y52.714 I4.384 J9.896
G03 X337.582 Y65.876 I-30.027 J-16.493
G03 X328.150 Y66.498 I-5.345 J-9.241
G03 X326.023 Y53.187 I3.029 J-7.309
G02 X326.823 Y52.350 I-3.852 J-4.484
G02 X327.311 Y49.391 I-2.457 J-1.925
G02 X324.542 Y47.385 I-2.831 J0.994
G01 X312.331 Y47.135  F3000.0
G02 X299.477 Y47.602 I-2.320 J113.316
G03 X288.684 Y45.734 I-1.948 J-20.866
G03 X270.396 Y28.856 I17.239 J-37.024
G02 X251.309 Y8.249 I-53.296 J30.223
G02 X206.077 Y8.511 I-22.424 J33.319
G02 X198.723 Y65.064 I21.795 J31.589
G02 X240.448 Y80.181 I34.219 J-29.307
G01 Z2.000 F750.0 M3
G03 X261.015 Y82.533 I6.213 J36.776
G03 X270.527 Y89.986 I-8.732 J20.942
G02 X307.552 Y130.881 I224.098 J-165.680
G02 X337.004 Y147.941 I54.571 J-60.259
G02 X442.791 Y175.067 I267.567 J-823.635
G02 X476.259 Y177.987 I31.162 J-163.871
G02 X483.041 Y172.050 I-0.096 J-6.952
G02 X484.120 Y155.339 I-101.153 J-14.921
G03 X483.348 Y90.397 I5781.131 J-101.221
G03 X483.785 Y65.628 I517.764 J-3.249
G02 X483.242 Y51.737 I-86.206 J-3.586
G02 X475.012 Y43.202 I-9.758 J1.174
G02 X467.818 Y43.357 I-3.166 J20.116
G03 X430.020 Y47.730 I-44.891 J-222.438
G03 X375.552 Y48.241 I-38.890 J-1243.485
G03 X360.880 Y47.242 I1.661 J-132.660
G02 X355.559 Y48.029 I-1.240 J9.998
G02 X350.456 Y52.714 I4.384 J9.896
G03 X337.582 Y65.876 I-30.027 J-16.493
G03 X328.150 Y66.498 I-5.345 J-9.241
G03 X326.023 Y53.187 I3.029 J-7.309
G02 X326.823 Y52.350 I-3.852 J-4.484
G02 X327.311 Y49.391 I-2.457 J-1.925
G02 X324.542 Y47.385 I-2.831 J0.994
G01 X312.331 Y47.135  F3000.0
G02 X299.477 Y47.602 I-2.320 J113.316
G03 X288.684 Y45.734 I-1.948 J-20.866
G03 X270.396 Y28.856 I17.239 J-37.024
G02 X251.309 Y8.249 I-53.296 J30.223
G02 X206.077 Y8.511 I-22.424 J33.319
G02 X198.723 Y65.064 I21.795 J31.589
G02 X240.448 Y80.181 I34.219 J-29.307
G00 Z25.080
G00 X721.366 Y151.799  F6000.0
G01 Z15.500 F750.0 M3
G03 X733.159 Y118.847 I18.114 J-12.103
G03 X762.401 Y139.500 I6.582 J21.709
G03 X747.188 Y161.041 I-21.441 J1.000
G03 X721.366 Y151.799 I-6.680 J-22.032
G01 Z11.000 F750.0 M3
G03 X733.159 Y118.847 I18.114 J-12.103
G03 X762.401 Y139.500 I6.582 J21.709
G03 X747.188 Y161.041 I-21.441 J1.000
G03 X721.366 Y151.799 I-6.680 J-22.032
G01 Z6.500 F750.0 M3
G03 X733.159 Y118.847 I18.114 J-12.103
G03 X762.401 Y139.500 I6.582 J21.709
G03 X747.188 Y161.041 I-21.441 J1.000
G03 X721.366 Y151.799 I-6.680 J-22.032
G01 Z2.000 F750.0 M3
G03 X733.159 Y118.847 I18.114 J-12.103
G03 X762.401 Y139.500 I6.582 J21.709
G03 X747.188 Y161.041 I-21.441 J1.000
G03 X721.366 Y151.799 I-6.680 J-22.032
G00 Z25.080
G00 X718.810 Y171.157  F6000.0
G01 Z15.500 F750.0 M3
G02 X764.041 Y170.895 I22.424 J-33.319
G02 X771.395 Y114.342 I-21.795 J-31.589
G02 X729.671 Y99.225 I-34.219 J29.307
G03 X709.104 Y96.873 I-6.213 J-36.776
G03 X699.591 Y89.420 I8.732 J-20.942
G02 X662.567 Y48.525 I-224.098 J165.680
G02 X633.114 Y31.465 I-54.571 J60.259
G02 X527.327 Y4.340 I-267.567 J823.635
G02 X493.860 Y1.419 I-31.162 J163.871
G02 X487.078 Y7.357 I0.096 J6.952
G02 X485.999 Y24.068 I101.153 J14.921
G03 X486.771 Y89.009 I-5781.131 J101.221
G03 X486.334 Y113.778 I-517.764 J3.249
G02 X486.877 Y127.670 I86.206 J3.586
G02 X495.107 Y136.205 I9.758 J-1.174
G02 X502.301 Y136.050 I3.166 J-20.116
G03 X540.098 Y131.676 I44.891 J222.438
G03 X594.566 Y131.166 I38.890 J1243.485
G03 X609.239 Y132.164 I-1.661 J132.660
G02 X614.560 Y131.378 I1.240 J-9.998
G02 X619.662 Y126.692 I-4.384 J-9.896
G03 X632.536 Y113.530 I30.027 J16.493
G03 X641.968 Y112.909 I5.345 J9.241
G03 X644.096 Y126.219 I-3.029 J7.309
G02 X643.295 Y127.057 I3.852 J4.484
G02 X642.807 Y130.016 I2.457 J1.925
G02 X645.576 Y132.021 I2.831 J-0.994
G01 X657.787 Y132.271  F3000.0
G02 X670.641 Y131.804 I2.320 J-113.316
G03 X681.435 Y133.672 I1.948 J20.866
G03 X699.722 Y150.550 I-17.239 J37.024
G02 X718.810 Y171.157 I53.296 J-30.223
G01 Z11.000 F750.0 M3
G02 X764.041 Y170.895 I22.424 J-33.319
G02 X771.395 Y114.342 I-21.795 J-31.589
G02 X729.671 Y99.225 I-34.219 J29.307
G03 X709.104 Y96.873 I-6.213 J-36.776
G03 X699.591 Y89.420 I8.732 J-20.942
G02 X662.567 Y48.525 I-224.098 J165.680
G02 X633.114 Y31.465 I-54.571 J60.259
G02 X527.327 Y4.340 I-267.567 J823.635
G02 X493.860 Y1.419 I-31.162 J163.871
G02 X487.078 Y7.357 I0.096 J6.952
G02 X485.999 Y24.068 I101.153 J14.921
G03 X486.771 Y89.009 I-5781.131 J101.221
G03 X486.334 Y113.778 I-517.764 J3.249
G02 X486.877 Y127.670 I86.206 J3.586
G02 X495.107 Y136.205 I9.758 J-1.174
G02 X502.301 Y136.050 I3.166 J-20.116
G03 X540.098 Y131.676 I44.891 J222.438
G03 X594.566 Y131.166 I38.890 J1243.485
G03 X609.239 Y132.164 I-1.661 J132.660
G02 X614.560 Y131.378 I1.240 J-9.998
G02 X619.662 Y126.692 I-4.384 J-9.896
G03 X632.536 Y113.530 I30.027 J16.493
G03 X641.968 Y112.909 I5.345 J9.241
G03 X644.096 Y126.219 I-3.029 J7.309
G02 X643.295 Y127.057 I3.852 J4.484
G02 X642.807 Y130.016 I2.457 J1.925
G02 X645.576 Y132.021 I2.831 J-0.994
G01 X657.787 Y132.271  F3000.0
G02 X670.641 Y131.804 I2.320 J-113.316
G03 X681.435 Y133.672 I1.948 J20.866
G03 X699.722 Y150.550 I-17.239 J37.024
G02 X718.810 Y171.157 I53.296 J-30.223
G01 Z6.500 F750.0 M3
G02 X764.041 Y170.895 I22.424 J-33.319
G02 X771.395 Y114.342 I-21.795 J-31.589
G02 X729.671 Y99.225 I-34.219 J29.307
G03 X709.104 Y96.873 I-6.213 J-36.776
G03 X699.591 Y89.420 I8.732 J-20.942
G02 X662.567 Y48.525 I-224.098 J165.680
G02 X633.114 Y31.465 I-54.571 J60.259
G02 X527.327 Y4.340 I-267.567 J823.635
G02 X493.860 Y1.419 I-31.162 J163.871
G02 X487.078 Y7.357 I0.096 J6.952
G02 X485.999 Y24.068 I101.153 J14.921
G03 X486.771 Y89.009 I-5781.131 J101.221
G03 X486.334 Y113.778 I-517.764 J3.249
G02 X486.877 Y127.670 I86.206 J3.586
G02 X495.107 Y136.205 I9.758 J-1.174
G02 X502.301 Y136.050 I3.166 J-20.116
G03 X540.098 Y131.676 I44.891 J222.438
G03 X594.566 Y131.166 I38.890 J1243.485
G03 X609.239 Y132.164 I-1.661 J132.660
G02 X614.560 Y131.378 I1.240 J-9.998
G02 X619.662 Y126.692 I-4.384 J-9.896
G03 X632.536 Y113.530 I30.027 J16.493
G03 X641.968 Y112.909 I5.345 J9.241
G03 X644.096 Y126.219 I-3.029 J7.309
G02 X643.295 Y127.057 I3.852 J4.484
G02 X642.807 Y130.016 I2.457 J1.925
G02 X645.576 Y132.021 I2.831 J-0.994
G01 X657.787 Y132.271  F3000.0
G02 X670.641 Y131.804 I2.320 J-113.316
G03 X681.435 Y133.672 I1.948 J20.866
G03 X699.722 Y150.550 I-17.239 J37.024
G02 X718.810 Y171.157 I53.296 J-30.223
G01 Z2.000 F750.0 M3
G02 X764.041 Y170.895 I22.424 J-33.319
G02 X771.395 Y114.342 I-21.795 J-31.589
G02 X729.671 Y99.225 I-34.219 J29.307
G03 X709.104 Y96.873 I-6.213 J-36.776
G03 X699.591 Y89.420 I8.732 J-20.942
G02 X662.567 Y48.525 I-224.098 J165.680
G02 X633.114 Y31.465 I-54.571 J60.259
G02 X527.327 Y4.340 I-267.567 J823.635
G02 X493.860 Y1.419 I-31.162 J163.871
G02 X487.078 Y7.357 I0.096 J6.952
G02 X485.999 Y24.068 I101.153 J14.921
G03 X486.771 Y89.009 I-5781.131 J101.221
G03 X486.334 Y113.778 I-517.764 J3.249
G02 X486.877 Y127.670 I86.206 J3.586
G02 X495.107 Y136.205 I9.758 J-1.174
G02 X502.301 Y136.050 I3.166 J-20.116
G03 X540.098 Y131.676 I44.891 J222.438
G03 X594.566 Y131.166 I38.890 J1243.485
G03 X609.239 Y132.164 I-1.661 J132.660
G02 X614.560 Y131.378 I1.240 J-9.998
G02 X619.662 Y126.692 I-4.384 J-9.896
G03 X632.536 Y113.530 I30.027 J16.493
G03 X641.968 Y112.909 I5.345 J9.241
G03 X644.096 Y126.219 I-3.029 J7.309
G02 X643.295 Y127.057 I3.852 J4.484
G02 X642.807 Y130.016 I2.457 J1.925
G02 X645.576 Y132.021 I2.831 J-0.994
G01 X657.787 Y132.271  F3000.0
G02 X670.641 Y131.804 I2.320 J-113.316
G03 X681.435 Y133.672 I1.948 J20.866
G03 X699.722 Y150.550 I-17.239 J37.024
G02 X718.810 Y171.157 I53.296 J-30.223
G00 Z25.080
(Begin Footer)
G00 Z40.320
M30
M05
G53 G0 Z-10
G53 G0 X1350 Y1000
(End Footer)
%
