%
( nutcracker ) ( File created: Sunday November 24 2024 - 11:38 AM)
( for LinuxCNC )
( Material Size) ( X= 810.000, Y= 280.000, Z= 40.000)
G90 (Incremental distance mode)
G17 G21 (Active Plane: XY)(Metric Mode)
G40 G49 G80(Tool Diameter, Length compensation & canned cycles OFF)
G64 P0.05 Q0.05(Path Blending)
T21 M06 (TOOL USE End Mill 10 mm)
G90 (absolute distance mode)
G54 (Coordinate System)
S18000M3
G00 Z60.320
G4 P6
( Pocket 1 )
G00 X54.563 Y138.182 Z45.080 F6000.0
G01 Z40.000 F750.0 M3
G01 Z39.237 
G01 Z38.271 
G01 Z37.921 
G01 Z37.574 
G01 Z37.453 
G01 Z37.203 
G01 Z36.899 
G01 Z36.490 
G01 Z35.727 
G01 Z34.761 
G01 Z34.411 
G01 Z34.167 
G01 Z33.923 
G01 Z33.572 
G01 Z32.607 
G01 Z31.843 
G01 Z31.434 
G01 Z31.130 
G01 Z30.880 
G01 Z30.759 
G01 Z30.413 
G01 Z30.062 
G01 Z29.097 
G01 Z28.333 
G01 X54.359 Y142.103  F3000.0
G01 X54.105 Y137.145 
G01 X54.049 Y135.342 
G01 X54.086 Y133.560 
G01 X54.612 Y133.231 
G01 X54.655 Y134.516 
G01 X54.652 Y136.081 
G01 X54.563 Y138.182 
G01 X58.123 Y138.360  
G01 X57.854 Y143.724  
G01 X57.798 Y145.327 
G01 X57.757 Y147.284 
G01 X57.757 Y149.853 
G01 X57.826 Y152.250 
G01 X57.960 Y154.549 
G01 X58.016 Y155.216 
G02 X54.107 Y160.725 I31.075 J26.194
G02 X50.639 Y155.863 I-34.732 J21.105
G01 X50.748 Y154.572  
G01 X50.887 Y152.227 
G01 X50.958 Y149.822 
G01 X50.958 Y147.245 
G01 X50.917 Y145.288 
G01 X50.792 Y142.103 
G01 X50.545 Y137.298 
G01 X50.485 Y135.326 
G01 X50.509 Y133.818 
G01 X50.616 Y131.462 
G02 X56.179 Y127.746 I-19.715 J-35.540
G01 X57.962 Y128.922  
G01 X58.167 Y132.927 
G01 X58.219 Y134.460 
G01 X58.227 Y135.473 
G01 X58.171 Y137.343 
G01 X58.123 Y138.360 
G01 X61.682 Y138.537  
G01 X61.415 Y143.866  
G01 X61.361 Y145.427 
G01 X61.321 Y147.322 
G01 X61.321 Y149.814 
G01 X61.387 Y152.094 
G01 X61.515 Y154.285 
G01 X61.708 Y156.411 
G02 X54.156 Y168.987 I27.383 J24.999
G02 X46.927 Y157.019 I-34.782 J12.843
G01 X47.108 Y155.322  
G01 X47.269 Y153.194 
G01 X47.368 Y150.948 
G01 X47.394 Y149.781 
G01 X47.394 Y147.283 
G01 X47.354 Y145.388 
G01 X47.231 Y142.274 
G01 X46.984 Y137.452 
G01 X46.921 Y135.309 
G01 X46.947 Y133.697 
G01 X47.163 Y129.243 
G02 X56.038 Y123.178 I-16.262 J-33.321
G02 X61.430 Y126.828 I23.397 J-28.763
G01 X61.728 Y132.773  
G01 X61.782 Y134.404 
G01 X61.791 Y135.504 
G01 X61.732 Y137.498 
G01 X61.682 Y138.537 
G01 X65.242 Y138.715  
G01 X64.977 Y144.008  
G01 X64.924 Y145.527 
G01 X64.885 Y147.360 
G01 X64.885 Y149.774 
G01 X64.947 Y151.937 
G01 X65.069 Y154.021 
G01 X65.157 Y155.064 
G01 X65.473 Y157.633 
G02 X57.377 Y192.244 I23.618 J23.777
G02 X56.826 Y197.101 I32.935 J6.197
G01 X55.900 Y199.681  
G01 X55.138 Y201.941 
G01 X54.632 Y203.610 
G01 X54.109 Y201.689 
G01 X53.659 Y200.292 
G01 X53.225 Y199.047 
G01 X52.558 Y197.288 
G02 X51.674 Y190.765 I-33.491 J1.215
G02 X43.137 Y158.198 I-32.300 J-8.935
G01 X43.557 Y155.025  
G01 X43.711 Y152.982 
G01 X43.805 Y150.842 
G01 X43.830 Y149.741 
G01 X43.830 Y147.321 
G01 X43.791 Y145.488 
G01 X43.671 Y142.445 
G01 X43.423 Y137.605 
G01 X43.357 Y135.451 
G01 X43.385 Y133.576 
G01 X43.474 Y131.541 
G01 X43.712 Y126.890 
G02 X55.885 Y118.260 I-12.810 J-30.968
G02 X64.917 Y124.621 I23.550 J-23.844
G01 X65.041 Y127.796  
G01 X65.289 Y132.619 
G01 X65.346 Y134.348 
G01 X65.355 Y135.534 
G01 X65.333 Y136.639 
G01 X65.242 Y138.715 
G01 X68.802 Y138.893  
G01 X68.538 Y144.150  
G01 X68.487 Y145.627 
G01 X68.449 Y147.398 
G01 X68.449 Y149.735 
G01 X68.508 Y151.780 
G01 X68.624 Y153.756 
G01 X68.708 Y154.766 
G02 X69.346 Y158.891 I29.844 J-2.503
G02 X61.069 Y191.980 I19.745 J22.519
G02 X60.371 Y197.780 I29.244 J6.462
G01 X59.265 Y200.856  
G01 X58.534 Y203.024 
G01 X58.144 Y204.293 
G01 X57.738 Y205.706 
G01 X57.242 Y207.734 
G01 X57.150 Y208.143 
G01 X56.816 Y209.862 
G01 X56.699 Y210.607 
G02 X54.240 Y215.314 I25.211 J16.166
G02 X52.296 Y211.573 I-27.482 J11.904
G01 X52.227 Y210.695  
G01 X52.088 Y209.334 
G01 X51.857 Y207.720 
G01 X51.495 Y205.820 
G01 X51.159 Y204.391 
G01 X50.694 Y202.711 
G01 X50.279 Y201.424 
G01 X49.872 Y200.254 
G01 X49.106 Y198.248 
G01 X49.012 Y198.015 
G02 X47.980 Y190.697 I-29.945 J0.487
G02 X39.234 Y159.413 I-28.606 J-8.867
G02 X40.005 Y154.727 I-29.074 J-7.189
G01 X40.153 Y152.770  
G01 X40.243 Y150.737 
G01 X40.266 Y149.701 
G01 X40.266 Y147.359 
G01 X40.228 Y145.588 
G01 X40.111 Y142.617 
G01 X39.862 Y137.759 
G01 X39.793 Y135.487 
G01 X39.823 Y133.455 
G01 X39.914 Y131.362 
G01 X40.178 Y126.138 
G01 X40.237 Y124.379 
G02 X55.712 Y112.696 I-9.335 J-28.457
G02 X68.444 Y122.275 I23.723 J-18.281
G01 X68.480 Y124.556  
G01 X68.601 Y127.623 
G01 X68.850 Y132.466 
G01 X68.910 Y134.291 
G01 X68.919 Y135.564 
G01 X68.895 Y136.762 
G01 X68.802 Y138.893 
G01 X72.362 Y139.071  
G01 X72.099 Y144.292  
G01 X72.050 Y145.727 
G01 X72.013 Y147.436 
G01 X72.013 Y149.695 
G01 X72.069 Y151.623 
G01 X72.178 Y153.492 
G01 X72.260 Y154.468 
G02 X73.391 Y160.204 I26.293 J-2.205
G02 X64.800 Y191.712 I15.700 J21.206
G02 X63.928 Y198.412 I25.512 J6.730
G01 X62.630 Y202.031  
G01 X61.930 Y204.108 
G01 X61.560 Y205.309 
G01 X61.181 Y206.630 
G01 X60.717 Y208.528 
G01 X60.628 Y208.925 
G01 X60.333 Y210.440 
G01 X60.125 Y211.887 
G02 X55.655 Y229.388 I21.785 J14.886
G01 X56.951 Y242.399  
G02 X53.042 Y243.282 I3.840 J26.104
G01 X51.690 Y242.939  
G01 X53.010 Y229.868 
G02 X48.794 Y212.707 I-26.252 J-2.650
G01 X48.677 Y211.022  
G01 X48.549 Y209.767 
G01 X48.338 Y208.290 
G01 X48.012 Y206.577 
G01 X47.705 Y205.275 
G01 X47.278 Y203.733 
G01 X46.900 Y202.557 
G01 X46.518 Y201.461 
G01 X45.795 Y199.568 
G01 X45.450 Y198.717 
G02 X44.249 Y190.628 I-26.384 J-0.215
G02 X35.153 Y160.683 I-24.875 J-8.798
G02 X36.453 Y154.429 I-24.992 J-8.459
G01 X36.595 Y152.558  
G01 X36.680 Y150.631 
G01 X36.702 Y149.661 
G01 X36.702 Y147.397 
G01 X36.665 Y145.688 
G01 X36.551 Y142.788 
G01 X36.301 Y137.912 
G01 X36.228 Y135.523 
G01 X36.260 Y133.334 
G01 X36.355 Y131.184 
G01 X36.617 Y125.995 
G01 X36.689 Y123.724 
G01 X36.710 Y121.660 
G02 X55.489 Y105.495 I-5.808 J-25.738
G02 X72.027 Y119.739 I23.946 J-11.079
G01 X72.008 Y121.491  
G01 X72.008 Y122.857 
G01 X72.094 Y125.957 
G01 X72.411 Y132.312 
G01 X72.474 Y134.235 
G01 X72.483 Y135.594 
G01 X72.457 Y136.884 
G01 X72.362 Y139.071 
G01 X75.921 Y139.249  
G01 X75.661 Y144.434  
G01 X75.612 Y145.827 
G01 X75.577 Y147.474 
G01 X75.577 Y149.655 
G01 X75.630 Y151.466 
G01 X75.733 Y153.228 
G01 X75.812 Y154.170 
G02 X77.736 Y161.614 I22.741 J-1.907
G02 X68.592 Y191.440 I11.355 J19.795
G02 X67.498 Y198.993 I21.720 J7.002
G01 X65.995 Y203.205  
G01 X65.325 Y205.191 
G01 X64.977 Y206.325 
G01 X64.623 Y207.555 
G01 X64.192 Y209.322 
G01 X63.958 Y210.359 
G01 X63.814 Y211.236 
G01 X63.580 Y213.178 
G02 X59.202 Y229.035 I18.330 J13.594
G01 X60.860 Y245.683  
G02 X53.085 Y247.023 I-0.069 J22.821
G02 X47.781 Y245.933 I-7.214 J21.651
G01 X47.970 Y244.307  
G01 X49.464 Y229.510 
G02 X45.272 Y213.875 I-22.705 J-2.292
G01 X45.241 Y212.979  
G01 X45.128 Y211.348 
G01 X45.011 Y210.201 
G01 X44.819 Y208.860 
G01 X44.528 Y207.335 
G01 X44.252 Y206.159 
G01 X43.863 Y204.756 
G01 X43.520 Y203.689 
G01 X42.843 Y201.802 
G01 X41.871 Y199.373 
G02 X40.460 Y190.558 I-22.804 J-0.870
G02 X30.757 Y162.051 I-21.086 J-8.728
G02 X32.902 Y154.131 I-20.597 J-9.827
G01 X33.037 Y152.347  
G01 X33.117 Y150.525 
G01 X33.138 Y149.620 
G01 X33.138 Y147.434 
G01 X33.103 Y145.788 
G01 X32.991 Y142.959 
G01 X32.740 Y138.066 
G01 X32.664 Y135.559 
G01 X32.685 Y133.672 
G01 X32.795 Y131.005 
G01 X33.056 Y125.853 
G01 X33.126 Y123.652 
G01 X33.145 Y120.560 
G01 X33.082 Y118.638 
G02 X53.679 Y94.507 I-2.180 J-22.716
G01 X53.592 Y92.936  
G01 X55.288 Y69.902 
G01 X56.647 Y92.482 
G01 X56.628 Y93.638 
G02 X75.737 Y116.935 I22.808 J0.778
G01 X75.625 Y118.790  
G01 X75.573 Y120.612 
G01 X75.573 Y122.818 
G01 X75.656 Y125.817 
G01 X75.972 Y132.158 
G01 X76.037 Y134.179 
G01 X76.048 Y135.624 
G01 X76.019 Y137.007 
G01 X75.921 Y139.249 
G01 X79.481 Y139.426  
G01 X79.222 Y144.576  
G01 X79.142 Y147.511 
G01 X79.142 Y149.616 
G01 X79.191 Y151.310 
G01 X79.287 Y152.964 
G01 X79.364 Y153.872 
G02 X82.239 Y162.494 I19.189 J-1.609
G01 X82.381 Y163.360  
G02 X72.486 Y191.161 I6.710 J18.050
G02 X71.085 Y199.502 I17.827 J7.281
G01 X70.478 Y201.272  
G01 X69.360 Y204.380 
G01 X68.721 Y206.275 
G01 X68.393 Y207.341 
G01 X68.066 Y208.480 
G01 X67.666 Y210.116 
G01 X67.458 Y211.040 
G01 X67.331 Y211.814 
G01 X67.129 Y213.513 
G01 X67.070 Y214.501 
G02 X62.748 Y228.682 I14.840 J12.272
G01 X64.812 Y249.333  
G01 X64.840 Y249.570 
G01 X63.622 Y249.423 
G01 X62.281 Y249.305 
G02 X53.335 Y250.749 I-1.490 J19.199
G01 X53.127 Y250.836  
G02 X45.187 Y249.429 I-7.255 J17.838
G01 X43.665 Y249.483  
G01 X44.080 Y246.746 
G01 X44.340 Y244.729 
G01 X45.917 Y229.152 
G02 X41.721 Y215.097 I-19.159 J-1.934
G01 X41.708 Y213.867  
G01 X41.627 Y212.266 
G01 X41.473 Y210.635 
G01 X41.300 Y209.430 
G01 X41.045 Y208.092 
G01 X40.798 Y207.043 
G01 X40.448 Y205.778 
G01 X40.140 Y204.822 
G01 X39.513 Y203.073 
G01 X38.268 Y199.960 
G02 X36.916 Y191.277 I-19.201 J-1.458
G01 X36.583 Y190.472  
G02 X26.368 Y163.888 I-17.209 J-8.642
G01 X26.563 Y162.312  
G02 X29.350 Y153.833 I-16.402 J-10.088
G01 X29.479 Y152.135  
G01 X29.555 Y150.419 
G01 X29.573 Y148.738 
G01 X29.573 Y147.472 
G01 X29.493 Y144.549 
G01 X29.179 Y138.220 
G01 X29.121 Y136.613 
G01 X29.100 Y135.225 
G01 X29.136 Y133.091 
G01 X29.235 Y130.826 
G01 X29.494 Y125.710 
G01 X29.562 Y123.580 
G01 X29.581 Y120.605 
G01 X29.530 Y118.965 
G01 X29.447 Y117.525 
G01 X29.122 Y115.096 
G02 X50.121 Y94.728 I1.780 J-19.174
G01 X50.020 Y92.912  
G01 X51.683 Y70.288 
G01 X52.084 Y65.284 
G01 X53.360 Y50.037 
G01 X53.756 Y44.837 
G01 X54.102 Y39.602 
G01 X54.386 Y34.332 
G01 X54.593 Y29.827 
G01 X54.610 Y28.239 
G01 X56.446 Y28.239 
G01 X56.357 Y29.463 
G01 X56.291 Y31.303 
G01 X56.291 Y32.889 
G01 X56.343 Y34.583 
G01 X56.431 Y36.146 
G01 X56.538 Y37.566 
G01 X56.812 Y40.367 
G01 X57.332 Y45.205 
G01 X57.496 Y47.276 
G01 X60.211 Y92.409 
G01 X60.190 Y93.759 
G02 X79.782 Y113.669 I19.245 J0.657
G01 X79.371 Y116.280  
G01 X79.285 Y117.268 
G01 X79.186 Y118.947 
G01 X79.137 Y120.652 
G01 X79.137 Y122.779 
G01 X79.217 Y125.676 
G01 X79.533 Y132.005 
G01 X79.601 Y134.123 
G01 X79.612 Y135.654 
G01 X79.581 Y137.130 
G01 X79.481 Y139.426 
G01 X83.041 Y139.604  
G01 X82.784 Y144.718  
G01 X82.706 Y147.549 
G01 X82.706 Y149.576 
G01 X82.752 Y151.153 
G01 X82.842 Y152.699 
G01 X82.915 Y153.574 
G02 X85.633 Y161.170 I15.638 J-1.312
G01 X86.064 Y163.862  
G01 X86.239 Y165.199 
G01 X86.310 Y165.965 
G02 X76.547 Y190.839 I2.781 J15.444
G01 X76.291 Y191.361  
G01 X76.006 Y191.995 
G02 X74.689 Y199.908 I14.307 J6.447
G01 X74.317 Y201.086  
G01 X73.835 Y202.469 
G01 X72.725 Y205.555 
G01 X72.117 Y207.358 
G01 X71.508 Y209.405 
G01 X71.141 Y210.909 
G01 X70.959 Y211.720 
G01 X70.848 Y212.392 
G01 X70.684 Y213.777 
G01 X70.665 Y214.030 
G01 X70.622 Y215.189 
G01 X70.623 Y215.871 
G02 X66.295 Y228.328 I11.287 J10.902
G01 X68.374 Y249.110  
G01 X68.582 Y250.527 
G01 X68.908 Y252.251 
G01 X69.244 Y253.842 
G01 X64.863 Y253.168 
G01 X63.246 Y252.968 
G01 X62.005 Y252.858 
G02 X54.715 Y254.035 I-1.214 J15.645
G01 X53.043 Y254.716  
G02 X45.314 Y252.991 I-7.172 J13.958
G01 X39.821 Y253.172  
G01 X39.551 Y253.176 
G01 X39.685 Y252.036 
G01 X39.993 Y249.904 
G01 X40.551 Y246.247 
G01 X40.799 Y244.317 
G01 X42.371 Y228.794 
G02 X38.139 Y216.414 I-15.613 J-1.576
G01 X38.157 Y214.766  
G01 X38.120 Y213.329 
G01 X38.029 Y212.002 
G01 X37.934 Y211.069 
G01 X37.781 Y210.001 
G01 X37.562 Y208.850 
G01 X37.345 Y207.927 
G01 X37.033 Y206.800 
G01 X36.761 Y205.954 
G01 X36.183 Y204.344 
G01 X34.782 Y200.820 
G01 X34.642 Y200.425 
G01 X34.662 Y200.240 
G02 X33.612 Y192.615 I-15.596 J-1.738
G01 X33.372 Y192.020  
G01 X32.741 Y190.662 
G01 X32.569 Y190.324 
G02 X22.649 Y166.483 I-13.195 J-8.494
G01 X22.658 Y165.635  
G01 X22.742 Y164.348 
G01 X22.897 Y162.856 
G01 X23.134 Y161.052 
G02 X25.798 Y153.535 I-12.973 J-8.829
G01 X25.921 Y151.923  
G01 X25.992 Y150.313 
G01 X26.009 Y148.738 
G01 X26.009 Y147.510 
G01 X25.932 Y144.689 
G01 X25.618 Y138.373 
G01 X25.558 Y136.704 
G01 X25.536 Y135.209 
G01 X25.574 Y132.970 
G01 X25.676 Y130.647 
G01 X25.933 Y125.568 
G01 X25.999 Y123.508 
G01 X26.017 Y120.651 
G01 X25.969 Y119.123 
G01 X25.892 Y117.772 
G02 X23.076 Y109.839 I-15.655 J1.089
G01 X23.030 Y109.497  
G02 X46.564 Y94.949 I7.872 J-13.575
G01 X46.447 Y92.896  
G01 X48.129 Y70.014 
G01 X48.532 Y64.989 
G01 X49.807 Y49.754 
G01 X50.201 Y44.582 
G01 X50.544 Y39.388 
G01 X50.826 Y34.167 
G01 X51.032 Y29.677 
G01 X51.044 Y29.309 
G02 X50.506 Y24.675 I-15.684 J-0.526
G01 X60.544 Y24.675  
G01 X60.364 Y25.611 
G01 X60.252 Y26.305 
G01 X60.131 Y27.206 
G01 X59.966 Y28.893 
G01 X59.875 Y30.555 
G01 X59.855 Y32.108 
G01 X59.873 Y33.610 
G01 X59.937 Y35.117 
G01 X60.090 Y37.267 
G01 X60.356 Y39.990 
G01 X60.880 Y44.870 
G01 X60.974 Y45.924 
G01 X61.052 Y47.045 
G01 X63.775 Y92.337 
G01 X63.771 Y93.304 
G01 X63.752 Y93.881 
G02 X85.761 Y108.777 I15.683 J0.535
G01 X85.746 Y108.893  
G02 X82.922 Y116.591 I12.808 J9.067
G01 X82.789 Y118.316  
G01 X82.718 Y119.924 
G01 X82.701 Y121.491 
G01 X82.701 Y122.741 
G01 X82.779 Y125.535 
G01 X83.094 Y131.851 
G01 X83.165 Y134.067 
G01 X83.176 Y135.684 
G01 X83.143 Y137.253 
G01 X83.041 Y139.604 
G01 X86.601 Y139.782  
G01 X86.345 Y144.861  
G01 X86.270 Y147.587 
G01 X86.270 Y149.537 
G01 X86.312 Y150.996 
G01 X86.396 Y152.435 
G01 X86.467 Y153.276 
G02 X89.016 Y159.755 I12.086 J-1.014
G01 X89.591 Y163.352  
G01 X89.782 Y164.815 
G01 X89.900 Y166.266 
G01 X89.915 Y167.397 
G01 X89.890 Y167.896 
G01 X89.800 Y168.578 
G01 X89.696 Y168.999 
G01 X89.648 Y169.141 
G01 X89.298 Y169.231 
G01 X88.857 Y169.280 
G01 X88.586 Y169.292 
G02 X80.690 Y190.157 I0.505 J12.118
G01 X80.825 Y190.318  
G01 X79.851 Y192.199 
G01 X79.516 Y192.879 
G01 X79.255 Y193.459 
G02 X78.259 Y199.788 I11.058 J4.982
G01 X78.307 Y200.212  
G01 X77.904 Y201.583 
G01 X77.192 Y203.667 
G01 X76.090 Y206.729 
G01 X75.512 Y208.441 
G01 X74.951 Y210.330 
G01 X74.616 Y211.703 
G01 X74.459 Y212.401 
G01 X74.365 Y212.970 
G01 X74.238 Y214.040 
G01 X74.186 Y214.740 
G01 X74.186 Y215.877 
G01 X74.203 Y216.501 
G01 X74.250 Y217.370 
G02 X69.841 Y227.975 I7.660 J9.403
G01 X71.911 Y248.667  
G01 X72.096 Y249.931 
G01 X72.399 Y251.536 
G01 X73.108 Y254.949 
G01 X73.296 Y256.090 
G01 X73.389 Y257.014 
G01 X73.391 Y257.590 
G01 X72.897 Y257.668 
G01 X72.181 Y257.697 
G01 X71.076 Y257.650 
G01 X70.055 Y257.548 
G01 X68.382 Y257.319 
G01 X65.099 Y256.802 
G01 X63.695 Y256.608 
G01 X62.175 Y256.446 
G01 X61.729 Y256.412 
G02 X56.095 Y257.321 I-0.939 J12.092
G01 X53.970 Y258.183  
G01 X52.662 Y258.625 
G02 X45.440 Y256.553 I-6.791 J10.049
G01 X39.892 Y256.735  
G01 X38.083 Y256.749 
G01 X36.241 Y256.711 
G01 X35.886 Y256.693 
G01 X35.848 Y255.874 
G01 X35.872 Y254.509 
G01 X35.974 Y253.111 
G01 X36.151 Y251.570 
G01 X36.469 Y249.366 
G01 X37.022 Y245.747 
G01 X37.259 Y243.906 
G01 X38.825 Y228.436 
G02 X34.512 Y217.892 I-12.067 J-1.218
G01 X34.576 Y216.331  
G01 X34.593 Y214.793 
G01 X34.560 Y213.503 
G01 X34.480 Y212.328 
G01 X34.396 Y211.503 
G01 X34.262 Y210.571 
G01 X34.079 Y209.607 
G01 X33.891 Y208.811 
G01 X33.617 Y207.822 
G01 X33.102 Y206.288 
G01 X32.551 Y204.847 
G01 X31.621 Y202.537 
G01 X31.143 Y201.199 
G01 X31.017 Y200.768 
G01 X31.120 Y199.846 
G02 X30.309 Y193.952 I-12.054 J-1.343
G01 X30.093 Y193.418  
G01 X29.545 Y192.240 
G01 X28.464 Y190.090 
G01 X28.674 Y189.662 
G01 X28.811 Y189.449 
G02 X20.019 Y169.719 I-9.437 J-7.619
G01 X19.652 Y169.698  
G01 X19.491 Y169.349 
G01 X19.383 Y169.054 
G01 X19.244 Y168.464 
G01 X19.176 Y168.026 
G01 X19.109 Y167.292 
G01 X19.083 Y165.993 
G01 X19.151 Y164.530 
G01 X19.296 Y162.985 
G01 X19.718 Y159.690 
G02 X22.246 Y153.237 I-9.558 J-7.467
G01 X22.363 Y151.711  
G01 X22.429 Y150.207 
G01 X22.445 Y148.738 
G01 X22.445 Y147.548 
G01 X22.370 Y144.829 
G01 X22.057 Y138.527 
G01 X21.994 Y136.796 
G01 X21.972 Y135.192 
G01 X22.012 Y132.849 
G01 X22.116 Y130.469 
G01 X22.372 Y125.425 
G01 X22.435 Y123.436 
G01 X22.453 Y120.696 
G01 X22.370 Y118.499 
G01 X22.336 Y118.020 
G02 X19.691 Y111.264 I-12.099 J0.842
G01 X19.452 Y109.614  
G01 X19.337 Y108.450 
G01 X19.272 Y107.365 
G01 X19.256 Y106.195 
G01 X19.274 Y105.174 
G01 X19.297 Y104.755 
G01 X19.662 Y104.494 
G01 X20.073 Y104.259 
G01 X20.688 Y103.996 
G01 X21.341 Y103.811 
G01 X21.647 Y103.762 
G01 X21.752 Y103.882 
G02 X43.007 Y95.170 I9.150 J-7.961
G01 X42.883 Y93.033  
G01 X42.888 Y92.695 
G01 X44.575 Y69.740 
G01 X44.980 Y64.694 
G01 X46.254 Y49.472 
G01 X46.646 Y44.327 
G01 X46.986 Y39.174 
G01 X47.265 Y34.002 
G01 X47.471 Y29.527 
G01 X47.482 Y29.190 
G02 X44.754 Y21.111 I-12.122 J-0.407
G01 X65.948 Y21.111  
G02 X63.883 Y26.177 I9.910 J6.993
G01 X63.670 Y27.633  
G01 X63.520 Y29.166 
G01 X63.437 Y30.672 
G01 X63.419 Y32.108 
G01 X63.436 Y33.502 
G01 X63.496 Y34.918 
G01 X63.642 Y36.967 
G01 X63.900 Y39.613 
G01 X64.429 Y44.536 
G01 X64.527 Y45.642 
G01 X64.609 Y46.813 
G01 X67.338 Y92.266 
G01 X67.335 Y93.390 
G01 X67.314 Y94.002 
G02 X87.179 Y103.750 I12.121 J0.414
G01 X87.297 Y103.652  
G01 X87.772 Y103.758 
G01 X88.348 Y103.983 
G01 X88.869 Y104.277 
G01 X89.256 Y104.562 
G01 X89.419 Y104.713 
G01 X89.471 Y105.560 
G01 X89.484 Y106.527 
G01 X89.457 Y107.437 
G01 X89.382 Y108.458 
G01 X89.207 Y109.888 
G01 X89.138 Y110.315 
G02 X86.472 Y116.902 I9.416 J7.644
G01 X86.347 Y118.525  
G01 X86.281 Y120.026 
G01 X86.265 Y121.491 
G01 X86.265 Y122.702 
G01 X86.340 Y125.395 
G01 X86.654 Y131.697 
G01 X86.729 Y134.011 
G01 X86.740 Y135.714 
G01 X86.705 Y137.376 
G01 X86.601 Y139.782 
G01 X90.160 Y139.960  
G01 X89.906 Y145.003  
G01 X89.834 Y147.625 
G01 X89.834 Y149.497 
G01 X89.873 Y150.839 
G01 X89.951 Y152.171 
G01 X90.019 Y152.978 
G02 X92.389 Y158.208 I8.534 J-0.716
G01 X92.576 Y159.455  
G01 X93.119 Y162.841 
G01 X93.326 Y164.431 
G01 X93.426 Y165.524 
G01 X93.478 Y166.561 
G01 X93.478 Y167.511 
G01 X93.440 Y168.217 
G01 X93.334 Y169.065 
G01 X93.199 Y169.709 
G01 X92.967 Y170.444 
G01 X92.731 Y170.950 
G01 X92.424 Y171.420 
G01 X92.241 Y171.639 
G01 X91.691 Y172.084 
G01 X91.345 Y172.282 
G01 X91.001 Y172.440 
G01 X90.607 Y172.579 
G01 X90.099 Y172.707 
G01 X89.396 Y172.814 
G01 X88.734 Y172.853 
G02 X83.177 Y187.604 I0.357 J8.557
G01 X83.520 Y187.979  
G01 X83.856 Y188.430 
G01 X84.160 Y188.936 
G01 X84.456 Y189.572 
G01 X84.641 Y190.061 
G01 X84.632 Y190.261 
G01 X84.563 Y190.583 
G01 X84.390 Y191.078 
G01 X84.136 Y191.662 
G01 X83.855 Y192.232 
G01 X83.030 Y193.811 
G01 X82.741 Y194.398 
G01 X82.505 Y194.923 
G02 X81.801 Y199.392 I7.808 J3.518
G01 X81.900 Y200.342  
G01 X81.890 Y200.585 
G01 X81.522 Y201.941 
G01 X81.075 Y203.355 
G01 X80.549 Y204.864 
G01 X79.455 Y207.904 
G01 X78.908 Y209.525 
G01 X78.394 Y211.254 
G01 X77.959 Y213.082 
G01 X77.821 Y213.923 
G01 X77.750 Y214.872 
G01 X77.764 Y216.356 
G01 X77.878 Y218.555 
G01 X77.886 Y219.213 
G02 X73.388 Y227.622 I4.024 J7.560
G01 X75.447 Y248.224  
G01 X75.611 Y249.335 
G01 X75.891 Y250.822 
G01 X76.612 Y254.293 
G01 X76.828 Y255.615 
G01 X76.920 Y256.414 
G01 X76.961 Y257.151 
G01 X76.957 Y257.666 
G01 X76.913 Y258.241 
G01 X76.817 Y258.764 
G01 X76.714 Y259.089 
G01 X76.556 Y259.456 
G01 X76.330 Y259.813 
G01 X76.066 Y260.103 
G01 X75.846 Y260.299 
G01 X75.557 Y260.512 
G01 X75.165 Y260.736 
G01 X74.567 Y260.961 
G01 X74.045 Y261.096 
G01 X73.493 Y261.187 
G01 X72.896 Y261.243 
G01 X72.145 Y261.261 
G01 X71.324 Y261.237 
G01 X70.277 Y261.159 
G01 X69.057 Y261.016 
G01 X67.850 Y260.843 
G01 X64.579 Y260.328 
G01 X62.496 Y260.057 
G01 X61.454 Y259.965 
G02 X57.475 Y260.607 I-0.663 J8.538
G01 X55.975 Y261.221  
G01 X55.229 Y261.518 
G01 X53.993 Y261.944 
G01 X52.957 Y262.245 
G01 X52.080 Y262.434 
G01 X51.775 Y262.470 
G02 X45.567 Y260.115 I-5.904 J6.204
G01 X40.942 Y260.274  
G01 X39.010 Y260.313 
G01 X37.055 Y260.300 
G01 X35.223 Y260.228 
G01 X33.799 Y260.118 
G01 X33.225 Y260.049 
G01 X32.960 Y259.951 
G01 X32.848 Y259.886 
G01 X32.619 Y258.987 
G01 X32.453 Y258.060 
G01 X32.368 Y257.379 
G01 X32.299 Y256.405 
G01 X32.283 Y255.387 
G01 X32.312 Y254.343 
G01 X32.426 Y252.778 
G01 X32.618 Y251.103 
G01 X32.946 Y248.828 
G01 X33.493 Y245.247 
G01 X33.719 Y243.494 
G01 X35.279 Y228.078 
G02 X30.854 Y219.697 I-8.521 J-0.860
G01 X31.013 Y216.236  
G01 X31.029 Y214.821 
G01 X31.000 Y213.678 
G01 X30.931 Y212.655 
G01 X30.857 Y211.937 
G01 X30.675 Y210.762 
G01 X30.438 Y209.695 
G01 X30.202 Y208.844 
G01 X29.748 Y207.494 
G01 X29.241 Y206.167 
G01 X28.297 Y203.823 
G01 X27.798 Y202.441 
G01 X27.515 Y201.463 
G01 X27.444 Y201.127 
G01 X27.439 Y200.741 
G01 X27.578 Y199.451 
G02 X27.005 Y195.289 I-8.511 J-0.948
G01 X26.617 Y194.378  
G01 X26.349 Y193.819 
G01 X25.282 Y191.700 
G01 X25.025 Y191.123 
G01 X24.837 Y190.580 
G01 X24.753 Y190.169 
G01 X24.762 Y189.883 
G01 X24.947 Y189.309 
G01 X25.184 Y188.694 
G01 X25.461 Y188.108 
G01 X25.800 Y187.532 
G01 X26.038 Y187.210 
G02 X19.829 Y173.278 I-6.664 J-5.380
G01 X19.041 Y173.218  
G01 X18.461 Y173.096 
G01 X18.017 Y172.944 
G01 X17.666 Y172.767 
G01 X17.478 Y172.635 
G01 X17.239 Y172.408 
G01 X16.976 Y172.100 
G01 X16.672 Y171.661 
G01 X16.388 Y171.148 
G01 X16.102 Y170.462 
G01 X15.965 Y170.068 
G01 X15.775 Y169.302 
G01 X15.637 Y168.455 
G01 X15.551 Y167.507 
G01 X15.519 Y166.468 
G01 X15.535 Y165.366 
G01 X15.640 Y163.734 
G01 X15.820 Y161.994 
G01 X16.323 Y158.171 
G02 X18.695 Y152.939 I-6.162 J-5.947
G01 X18.805 Y151.500  
G01 X18.881 Y149.459 
G01 X18.881 Y147.586 
G01 X18.809 Y144.969 
G01 X18.497 Y138.680 
G01 X18.431 Y136.887 
G01 X18.408 Y135.175 
G01 X18.450 Y132.728 
G01 X18.556 Y130.290 
G01 X18.810 Y125.283 
G01 X18.872 Y123.364 
G01 X18.889 Y120.741 
G01 X18.812 Y118.711 
G01 X18.781 Y118.267 
G02 X16.366 Y112.880 I-8.544 J0.594
G01 X16.082 Y111.271  
G01 X15.913 Y110.032 
G01 X15.784 Y108.734 
G01 X15.711 Y107.508 
G01 X15.692 Y106.924 
G01 X15.692 Y105.605 
G01 X15.745 Y104.442 
G01 X15.808 Y103.730 
G01 X15.887 Y103.439 
G01 X16.084 Y103.055 
G01 X16.382 Y102.644 
G01 X16.600 Y102.400 
G01 X16.858 Y102.149 
G01 X17.212 Y101.857 
G01 X17.757 Y101.481 
G01 X18.457 Y101.082 
G01 X19.072 Y100.799 
G01 X19.776 Y100.544 
G01 X20.608 Y100.323 
G01 X21.213 Y100.224 
G01 X21.912 Y100.182 
G01 X22.232 Y100.194 
G01 X22.628 Y100.245 
G01 X22.989 Y100.352 
G01 X23.316 Y100.518 
G01 X23.681 Y100.775 
G01 X23.946 Y101.008 
G01 X24.441 Y101.543 
G02 X39.449 Y95.391 I6.461 J-5.621
G01 X39.319 Y93.155  
G01 X39.330 Y92.491 
G01 X41.022 Y69.466 
G01 X41.429 Y64.398 
G01 X42.701 Y49.190 
G01 X43.091 Y44.072 
G01 X43.428 Y38.960 
G01 X43.705 Y33.837 
G01 X43.910 Y29.377 
G01 X43.920 Y29.070 
G02 X41.468 Y22.779 I-8.559 J-0.287
G01 X41.084 Y21.937  
G01 X40.810 Y21.224 
G01 X40.638 Y20.571 
G01 X40.559 Y20.061 
G01 X40.538 Y19.357 
G01 X40.597 Y18.710 
G01 X40.740 Y17.846 
G01 X40.802 Y17.547 
G01 X70.058 Y17.547 
G01 X70.204 Y18.953 
G01 X70.250 Y19.752 
G01 X70.247 Y20.513 
G01 X70.193 Y21.161 
G01 X70.148 Y21.438 
G01 X70.000 Y21.683 
G01 X69.116 Y22.821 
G02 X67.402 Y26.743 I6.741 J5.283
G01 X67.209 Y28.060  
G01 X67.074 Y29.439 
G01 X67.000 Y30.789 
G01 X66.984 Y32.108 
G01 X66.998 Y33.393 
G01 X67.098 Y35.406 
G01 X67.193 Y36.668 
G01 X67.444 Y39.236 
G01 X67.977 Y44.201 
G01 X68.080 Y45.361 
G01 X68.166 Y46.582 
G01 X70.893 Y91.904 
G01 X70.908 Y92.787 
G01 X70.876 Y94.124 
G02 X84.903 Y101.007 I8.559 J0.292
G01 X85.340 Y100.656  
G01 X85.756 Y100.394 
G01 X86.037 Y100.259 
G01 X86.415 Y100.136 
G01 X86.786 Y100.080 
G01 X87.368 Y100.077 
G01 X88.012 Y100.155 
G01 X88.567 Y100.279 
G01 X89.157 Y100.464 
G01 X89.900 Y100.774 
G01 X90.592 Y101.149 
G01 X91.150 Y101.519 
G01 X91.573 Y101.852 
G01 X91.910 Y102.162 
G01 X92.314 Y102.609 
G01 X92.605 Y103.028 
G01 X92.781 Y103.371 
G01 X92.882 Y103.670 
G01 X92.916 Y103.852 
G01 X93.008 Y104.931 
G01 X93.048 Y106.012 
G01 X93.037 Y107.112 
G01 X92.982 Y108.186 
G01 X92.884 Y109.252 
G01 X92.732 Y110.419 
G01 X92.462 Y111.941 
G02 X90.023 Y117.213 I6.092 J6.019
G01 X89.905 Y118.734  
G01 X89.844 Y120.128 
G01 X89.829 Y122.000 
G01 X89.857 Y123.961 
G01 X89.961 Y126.582 
G01 X90.215 Y131.544 
G01 X90.293 Y133.955 
G01 X90.304 Y135.744 
G01 X90.267 Y137.499 
G01 X90.160 Y139.960 
G01 X93.720 Y140.137  
G01 X93.468 Y145.145  
G01 X93.398 Y147.663 
G01 X93.411 Y150.039 
G01 X93.505 Y151.907 
G01 X93.570 Y152.681 
G02 X95.255 Y156.021 I4.983 J-0.418
G01 X95.502 Y156.254  
G01 X95.656 Y156.464 
G01 X95.770 Y156.722 
G01 X95.809 Y156.894 
G01 X96.096 Y158.896 
G01 X96.646 Y162.331 
G01 X96.869 Y164.046 
G01 X96.981 Y165.268 
G01 X97.041 Y166.475 
G01 X97.041 Y167.625 
G01 X96.990 Y168.539 
G01 X96.881 Y169.464 
G01 X96.719 Y170.317 
G01 X96.511 Y171.089 
G01 X96.330 Y171.634 
G01 X95.982 Y172.427 
G01 X95.613 Y173.073 
G01 X95.262 Y173.577 
G01 X94.866 Y174.054 
G01 X94.682 Y174.247 
G01 X94.059 Y174.765 
G01 X93.537 Y175.136 
G01 X92.935 Y175.474 
G01 X92.319 Y175.752 
G01 X91.571 Y176.011 
G01 X90.815 Y176.200 
G01 X89.986 Y176.334 
G01 X89.281 Y176.397 
G01 X88.883 Y176.414 
G02 X85.638 Y185.026 I0.208 J4.996
G01 X86.132 Y185.549  
G01 X86.627 Y186.172 
G01 X87.103 Y186.901 
G01 X87.351 Y187.343 
G01 X87.738 Y188.181 
G01 X88.028 Y188.929 
G01 X88.155 Y189.458 
G01 X88.205 Y189.993 
G01 X88.192 Y190.487 
G01 X88.104 Y191.103 
G01 X87.987 Y191.575 
G01 X87.787 Y192.182 
G01 X87.327 Y193.249 
G01 X87.033 Y193.845 
G01 X86.209 Y195.423 
G01 X85.754 Y196.387 
G02 X85.344 Y198.997 I4.559 J2.054
G01 X85.452 Y200.021  
G01 X85.464 Y200.561 
G01 X85.428 Y201.042 
G01 X85.364 Y201.382 
G01 X85.161 Y202.173 
G01 X84.701 Y203.732 
G01 X84.192 Y205.249 
G01 X82.539 Y209.898 
G01 X82.059 Y211.405 
G01 X81.836 Y212.179 
G01 X81.459 Y213.762 
G01 X81.363 Y214.345 
G01 X81.314 Y215.004 
G01 X81.326 Y216.212 
G01 X81.441 Y218.454 
G01 X81.443 Y219.548 
G01 X81.388 Y220.246 
G01 X81.311 Y220.756 
G01 X81.216 Y221.079 
G01 X81.039 Y221.399 
G01 X80.896 Y221.578 
G01 X80.588 Y221.847 
G01 X80.317 Y222.011 
G01 X80.001 Y222.152 
G02 X76.935 Y227.268 I1.909 J4.621
G01 X78.984 Y247.782  
G01 X79.125 Y248.739 
G01 X79.383 Y250.107 
G01 X80.115 Y253.638 
G01 X80.361 Y255.139 
G01 X80.471 Y256.110 
G01 X80.525 Y257.081 
G01 X80.518 Y257.820 
G01 X80.448 Y258.696 
G01 X80.314 Y259.470 
G01 X80.149 Y260.070 
G01 X79.881 Y260.770 
G01 X79.572 Y261.369 
G01 X79.169 Y261.969 
G01 X78.868 Y262.333 
G01 X78.504 Y262.704 
G01 X78.050 Y263.101 
G01 X77.504 Y263.499 
G01 X76.991 Y263.805 
G01 X76.477 Y264.055 
G01 X75.639 Y264.361 
G01 X74.777 Y264.585 
G01 X73.939 Y264.724 
G01 X73.095 Y264.801 
G01 X72.109 Y264.825 
G01 X71.132 Y264.796 
G01 X69.929 Y264.707 
G01 X68.585 Y264.549 
G01 X67.317 Y264.367 
G01 X63.407 Y263.761 
G01 X62.120 Y263.601 
G01 X61.178 Y263.518 
G02 X58.855 Y263.893 I-0.387 J4.985
G01 X57.293 Y264.533  
G01 X56.487 Y264.853 
G01 X55.083 Y265.338 
G01 X53.856 Y265.694 
G01 X52.899 Y265.910 
G01 X52.226 Y266.009 
G01 X51.871 Y266.038 
G01 X51.365 Y266.043 
G01 X50.875 Y265.992 
G01 X50.488 Y265.890 
G01 X50.146 Y265.747 
G01 X49.847 Y265.561 
G01 X49.607 Y265.347 
G01 X49.508 Y265.243 
G02 X45.694 Y263.677 I-3.637 J3.431
G01 X41.041 Y263.837  
G01 X39.036 Y263.877 
G01 X36.981 Y263.864 
G01 X35.958 Y263.834 
G01 X35.005 Y263.786 
G01 X33.447 Y263.665 
G01 X32.628 Y263.565 
G01 X32.157 Y263.452 
G01 X31.615 Y263.256 
G01 X31.075 Y262.982 
G01 X30.688 Y262.723 
G01 X30.264 Y262.373 
G01 X29.949 Y262.021 
G01 X29.845 Y261.866 
G01 X29.616 Y261.433 
G01 X29.435 Y260.912 
G01 X29.206 Y260.054 
G01 X29.021 Y259.166 
G01 X28.846 Y257.962 
G01 X28.775 Y257.201 
G01 X28.719 Y255.989 
G01 X28.729 Y254.786 
G01 X28.782 Y253.626 
G01 X28.938 Y251.848 
G01 X29.084 Y250.637 
G01 X29.423 Y248.289 
G01 X29.964 Y244.748 
G01 X30.245 Y242.458 
G01 X31.733 Y227.720 
G02 X27.596 Y222.289 I-4.975 J-0.502
G01 X27.415 Y222.226  
G01 X27.341 Y222.159 
G01 X27.247 Y221.987 
G01 X27.232 Y221.859 
G01 X27.250 Y220.569 
G01 X27.450 Y216.141 
G01 X27.465 Y214.849 
G01 X27.440 Y213.853 
G01 X27.381 Y212.981 
G01 X27.319 Y212.371 
G01 X27.173 Y211.429 
G01 X26.984 Y210.579 
G01 X26.787 Y209.866 
G01 X26.395 Y208.701 
G01 X25.930 Y207.486 
G01 X24.973 Y205.110 
G01 X24.521 Y203.877 
G01 X24.152 Y202.689 
G01 X23.969 Y201.958 
G01 X23.886 Y201.373 
G01 X23.877 Y200.594 
G01 X24.036 Y199.056 
G02 X23.701 Y196.626 I-4.969 J-0.554
G01 X23.383 Y195.877  
G01 X22.335 Y193.789 
G01 X21.835 Y192.734 
G01 X21.537 Y191.965 
G01 X21.357 Y191.364 
G01 X21.234 Y190.751 
G01 X21.185 Y190.239 
G01 X21.205 Y189.583 
G01 X21.268 Y189.174 
G01 X21.323 Y188.933 
G01 X21.594 Y188.099 
G01 X21.904 Y187.299 
G01 X22.312 Y186.438 
G01 X22.613 Y185.907 
G01 X22.824 Y185.568 
G01 X23.265 Y184.971 
G02 X19.640 Y176.837 I-3.890 J-3.141
G01 X18.768 Y176.776  
G01 X18.237 Y176.698 
G01 X17.885 Y176.628 
G01 X17.209 Y176.442 
G01 X16.567 Y176.201 
G01 X15.916 Y175.873 
G01 X15.393 Y175.531 
G01 X14.938 Y175.147 
G01 X14.429 Y174.615 
G01 X14.111 Y174.219 
G01 X13.634 Y173.525 
G01 X13.299 Y172.938 
G01 X12.960 Y172.213 
G01 X12.639 Y171.367 
G01 X12.405 Y170.559 
G01 X12.221 Y169.688 
G01 X12.099 Y168.884 
G01 X11.993 Y167.722 
G01 X11.954 Y166.502 
G01 X11.973 Y165.231 
G01 X12.089 Y163.427 
G01 X12.282 Y161.564 
G01 X12.920 Y156.766 
G01 X13.003 Y156.521 
G01 X13.121 Y156.326 
G01 X13.331 Y156.094 
G01 X13.457 Y155.983 
G02 X15.143 Y152.641 I-3.297 J-3.759
G01 X15.247 Y151.288  
G01 X15.317 Y149.419 
G01 X15.317 Y147.624 
G01 X15.247 Y145.109 
G01 X14.936 Y138.834 
G01 X14.868 Y136.979 
G01 X14.843 Y135.159 
G01 X14.870 Y133.220 
G01 X14.996 Y130.111 
G01 X15.249 Y125.141 
G01 X15.308 Y123.292 
G01 X15.325 Y120.787 
G01 X15.254 Y118.923 
G01 X15.225 Y118.514 
G02 X13.347 Y114.946 I-4.988 J0.347
G01 X13.198 Y114.795  
G01 X13.106 Y114.641 
G01 X12.787 Y113.153 
G01 X12.559 Y111.813 
G01 X12.373 Y110.451 
G01 X12.231 Y109.017 
G01 X12.149 Y107.651 
G01 X12.128 Y106.980 
G01 X12.128 Y105.542 
G01 X12.189 Y104.201 
G01 X12.264 Y103.323 
G01 X12.358 Y102.811 
G01 X12.532 Y102.233 
G01 X12.791 Y101.647 
G01 X13.043 Y101.195 
G01 X13.441 Y100.617 
G01 X13.776 Y100.207 
G01 X14.036 Y99.923 
G01 X14.523 Y99.456 
G01 X15.070 Y99.007 
G01 X15.852 Y98.468 
G01 X16.463 Y98.105 
G01 X17.238 Y97.712 
G01 X18.112 Y97.347 
G01 X18.722 Y97.138 
G01 X19.493 Y96.920 
G01 X20.394 Y96.739 
G01 X21.072 Y96.656 
G01 X21.871 Y96.617 
G01 X22.586 Y96.647 
G01 X23.208 Y96.726 
G01 X23.753 Y96.850 
G01 X24.346 Y97.055 
G01 X24.944 Y97.343 
G01 X25.482 Y97.675 
G01 X25.924 Y98.005 
G01 X26.235 Y98.265 
G01 X26.685 Y98.708 
G01 X27.129 Y99.204 
G02 X35.892 Y95.612 I3.772 J-3.282
G01 X35.755 Y93.276  
G01 X35.771 Y92.287 
G01 X37.468 Y69.192 
G01 X37.877 Y64.103 
G01 X39.148 Y48.908 
G01 X39.536 Y43.817 
G01 X39.871 Y38.747 
G01 X40.145 Y33.672 
G01 X40.349 Y29.226 
G01 X40.358 Y28.951 
G02 X38.842 Y25.194 I-4.997 J-0.168
G01 X38.584 Y24.921  
G01 X38.413 Y24.642 
G01 X37.938 Y23.650 
G01 X37.571 Y22.739 
G01 X37.394 Y22.239 
G01 X37.147 Y21.293 
G01 X37.044 Y20.695 
G01 X36.985 Y20.070 
G01 X36.973 Y19.253 
G01 X37.019 Y18.609 
G01 X37.178 Y17.507 
G01 X37.730 Y14.731 
G01 X37.845 Y14.228 
G01 X37.950 Y14.077 
G01 X38.089 Y13.997 
G01 X38.147 Y13.983 
G01 X73.007 Y13.983 
G01 X73.129 Y14.024 
G01 X73.244 Y14.113 
G01 X73.315 Y14.231 
G01 X73.345 Y14.348 
G01 X73.445 Y15.723 
G01 X73.757 Y18.671 
G01 X73.813 Y19.647 
G01 X73.809 Y20.663 
G01 X73.752 Y21.422 
G01 X73.648 Y22.121 
G01 X73.542 Y22.533 
G01 X73.364 Y22.977 
G01 X73.171 Y23.337 
G01 X72.904 Y23.751 
G01 X71.922 Y25.019 
G02 X70.921 Y27.309 I3.936 J3.084
G01 X70.747 Y28.487  
G01 X70.628 Y29.712 
G01 X70.557 Y31.209 
G01 X70.548 Y32.723 
G01 X70.613 Y34.522 
G01 X70.745 Y36.368 
G01 X70.988 Y38.859 
G01 X71.526 Y43.867 
G01 X71.633 Y45.079 
G01 X71.722 Y46.351 
G01 X74.455 Y91.759 
G01 X74.472 Y92.794 
G01 X74.438 Y94.245 
G02 X82.627 Y98.264 I4.997 J0.170
G01 X83.263 Y97.759  
G01 X83.794 Y97.410 
G01 X84.389 Y97.092 
G01 X84.727 Y96.944 
G01 X85.376 Y96.722 
G01 X85.694 Y96.645 
G01 X86.237 Y96.553 
G01 X86.820 Y96.506 
G01 X87.568 Y96.518 
G01 X88.139 Y96.570 
G01 X88.846 Y96.686 
G01 X89.515 Y96.842 
G01 X89.898 Y96.952 
G01 X90.372 Y97.113 
G01 X91.172 Y97.436 
G01 X91.824 Y97.753 
G01 X92.443 Y98.103 
G01 X93.248 Y98.636 
G01 X93.889 Y99.142 
G01 X94.439 Y99.649 
G01 X95.007 Y100.272 
G01 X95.416 Y100.812 
G01 X95.703 Y101.264 
G01 X96.002 Y101.833 
G01 X96.247 Y102.475 
G01 X96.398 Y103.066 
G01 X96.456 Y103.436 
G01 X96.566 Y104.715 
G01 X96.612 Y105.966 
G01 X96.600 Y107.220 
G01 X96.537 Y108.442 
G01 X96.426 Y109.650 
G01 X96.257 Y110.949 
G01 X96.045 Y112.193 
G01 X95.767 Y113.525 
G01 X95.613 Y113.825 
G01 X95.405 Y114.067 
G01 X95.198 Y114.254 
G02 X93.573 Y117.524 I3.357 J3.706
G01 X93.463 Y118.943  
G01 X93.406 Y120.230 
G01 X93.393 Y122.625 
G01 X93.463 Y125.113 
G01 X93.776 Y131.390 
G01 X93.856 Y133.899 
G01 X93.868 Y135.774 
G01 X93.829 Y137.622 
G01 X93.720 Y140.137 
G00 Z45.080
G00 X54.354 Y154.068  F6000.0
G01 Z28.333 F750.0 M3
G01 X54.356 Y154.046  F3000.0
G01 X54.357 Y154.065 
G01 X54.354 Y154.068 
G00 Z45.080
G00 X54.563 Y138.182  F6000.0
G01 Z28.333 F750.0 M3
G01 Z27.570 
G01 Z26.605 
G01 Z26.254 
G01 Z25.907 
G01 Z25.787 
G01 Z25.537 
G01 Z25.232 
G01 Z24.823 
G01 Z24.060 
G01 Z23.095 
G01 Z22.744 
G01 Z22.500 
G01 Z22.256 
G01 Z21.905 
G01 Z20.940 
G01 Z20.177 
G01 Z19.768 
G01 Z19.463 
G01 Z19.213 
G01 Z19.093 
G01 Z18.746 
G01 Z18.395 
G01 Z17.430 
G01 Z16.667 
G01 X54.359 Y142.103  F3000.0
G01 X54.105 Y137.145 
G01 X54.049 Y135.342 
G01 X54.086 Y133.560 
G01 X54.612 Y133.231 
G01 X54.655 Y134.516 
G01 X54.652 Y136.081 
G01 X54.563 Y138.182 
G01 X58.123 Y138.360  
G01 X57.854 Y143.724  
G01 X57.798 Y145.327 
G01 X57.757 Y147.284 
G01 X57.757 Y149.853 
G01 X57.826 Y152.250 
G01 X57.960 Y154.549 
G01 X58.016 Y155.216 
G02 X54.107 Y160.725 I31.075 J26.194
G02 X50.639 Y155.863 I-34.732 J21.105
G01 X50.748 Y154.572  
G01 X50.887 Y152.227 
G01 X50.958 Y149.822 
G01 X50.958 Y147.245 
G01 X50.917 Y145.288 
G01 X50.792 Y142.103 
G01 X50.545 Y137.298 
G01 X50.485 Y135.326 
G01 X50.509 Y133.818 
G01 X50.616 Y131.462 
G02 X56.179 Y127.746 I-19.715 J-35.540
G01 X57.962 Y128.922  
G01 X58.167 Y132.927 
G01 X58.219 Y134.460 
G01 X58.227 Y135.473 
G01 X58.171 Y137.343 
G01 X58.123 Y138.360 
G01 X61.682 Y138.537  
G01 X61.415 Y143.866  
G01 X61.361 Y145.427 
G01 X61.321 Y147.322 
G01 X61.321 Y149.814 
G01 X61.387 Y152.094 
G01 X61.515 Y154.285 
G01 X61.708 Y156.411 
G02 X54.156 Y168.987 I27.383 J24.999
G02 X46.927 Y157.019 I-34.782 J12.843
G01 X47.108 Y155.322  
G01 X47.269 Y153.194 
G01 X47.368 Y150.948 
G01 X47.394 Y149.781 
G01 X47.394 Y147.283 
G01 X47.354 Y145.388 
G01 X47.231 Y142.274 
G01 X46.984 Y137.452 
G01 X46.921 Y135.309 
G01 X46.947 Y133.697 
G01 X47.163 Y129.243 
G02 X56.038 Y123.178 I-16.262 J-33.321
G02 X61.430 Y126.828 I23.397 J-28.763
G01 X61.728 Y132.773  
G01 X61.782 Y134.404 
G01 X61.791 Y135.504 
G01 X61.732 Y137.498 
G01 X61.682 Y138.537 
G01 X65.242 Y138.715  
G01 X64.977 Y144.008  
G01 X64.924 Y145.527 
G01 X64.885 Y147.360 
G01 X64.885 Y149.774 
G01 X64.947 Y151.937 
G01 X65.069 Y154.021 
G01 X65.157 Y155.064 
G01 X65.473 Y157.633 
G02 X57.377 Y192.244 I23.618 J23.777
G02 X56.826 Y197.101 I32.935 J6.197
G01 X55.900 Y199.681  
G01 X55.138 Y201.941 
G01 X54.632 Y203.610 
G01 X54.109 Y201.689 
G01 X53.659 Y200.292 
G01 X53.225 Y199.047 
G01 X52.558 Y197.288 
G02 X51.674 Y190.765 I-33.491 J1.215
G02 X43.137 Y158.198 I-32.300 J-8.935
G01 X43.557 Y155.025  
G01 X43.711 Y152.982 
G01 X43.805 Y150.842 
G01 X43.830 Y149.741 
G01 X43.830 Y147.321 
G01 X43.791 Y145.488 
G01 X43.671 Y142.445 
G01 X43.423 Y137.605 
G01 X43.357 Y135.451 
G01 X43.385 Y133.576 
G01 X43.474 Y131.541 
G01 X43.712 Y126.890 
G02 X55.885 Y118.260 I-12.810 J-30.968
G02 X64.917 Y124.621 I23.550 J-23.844
G01 X65.041 Y127.796  
G01 X65.289 Y132.619 
G01 X65.346 Y134.348 
G01 X65.355 Y135.534 
G01 X65.333 Y136.639 
G01 X65.242 Y138.715 
G01 X68.802 Y138.893  
G01 X68.538 Y144.150  
G01 X68.487 Y145.627 
G01 X68.449 Y147.398 
G01 X68.449 Y149.735 
G01 X68.508 Y151.780 
G01 X68.624 Y153.756 
G01 X68.708 Y154.766 
G02 X69.346 Y158.891 I29.844 J-2.503
G02 X61.069 Y191.980 I19.745 J22.519
G02 X60.371 Y197.780 I29.244 J6.462
G01 X59.265 Y200.856  
G01 X58.534 Y203.024 
G01 X58.144 Y204.293 
G01 X57.738 Y205.706 
G01 X57.242 Y207.734 
G01 X57.150 Y208.143 
G01 X56.816 Y209.862 
G01 X56.699 Y210.607 
G02 X54.240 Y215.314 I25.211 J16.166
G02 X52.296 Y211.573 I-27.482 J11.904
G01 X52.227 Y210.695  
G01 X52.088 Y209.334 
G01 X51.857 Y207.720 
G01 X51.495 Y205.820 
G01 X51.159 Y204.391 
G01 X50.694 Y202.711 
G01 X50.279 Y201.424 
G01 X49.872 Y200.254 
G01 X49.106 Y198.248 
G01 X49.012 Y198.015 
G02 X47.980 Y190.697 I-29.945 J0.487
G02 X39.234 Y159.413 I-28.606 J-8.867
G02 X40.005 Y154.727 I-29.074 J-7.189
G01 X40.153 Y152.770  
G01 X40.243 Y150.737 
G01 X40.266 Y149.701 
G01 X40.266 Y147.359 
G01 X40.228 Y145.588 
G01 X40.111 Y142.617 
G01 X39.862 Y137.759 
G01 X39.793 Y135.487 
G01 X39.823 Y133.455 
G01 X39.914 Y131.362 
G01 X40.178 Y126.138 
G01 X40.237 Y124.379 
G02 X55.712 Y112.696 I-9.335 J-28.457
G02 X68.444 Y122.275 I23.723 J-18.281
G01 X68.480 Y124.556  
G01 X68.601 Y127.623 
G01 X68.850 Y132.466 
G01 X68.910 Y134.291 
G01 X68.919 Y135.564 
G01 X68.895 Y136.762 
G01 X68.802 Y138.893 
G01 X72.362 Y139.071  
G01 X72.099 Y144.292  
G01 X72.050 Y145.727 
G01 X72.013 Y147.436 
G01 X72.013 Y149.695 
G01 X72.069 Y151.623 
G01 X72.178 Y153.492 
G01 X72.260 Y154.468 
G02 X73.391 Y160.204 I26.293 J-2.205
G02 X64.800 Y191.712 I15.700 J21.206
G02 X63.928 Y198.412 I25.512 J6.730
G01 X62.630 Y202.031  
G01 X61.930 Y204.108 
G01 X61.560 Y205.309 
G01 X61.181 Y206.630 
G01 X60.717 Y208.528 
G01 X60.628 Y208.925 
G01 X60.333 Y210.440 
G01 X60.125 Y211.887 
G02 X55.655 Y229.388 I21.785 J14.886
G01 X56.951 Y242.399  
G02 X53.042 Y243.282 I3.840 J26.104
G01 X51.690 Y242.939  
G01 X53.010 Y229.868 
G02 X48.794 Y212.707 I-26.252 J-2.650
G01 X48.677 Y211.022  
G01 X48.549 Y209.767 
G01 X48.338 Y208.290 
G01 X48.012 Y206.577 
G01 X47.705 Y205.275 
G01 X47.278 Y203.733 
G01 X46.900 Y202.557 
G01 X46.518 Y201.461 
G01 X45.795 Y199.568 
G01 X45.450 Y198.717 
G02 X44.249 Y190.628 I-26.384 J-0.215
G02 X35.153 Y160.683 I-24.875 J-8.798
G02 X36.453 Y154.429 I-24.992 J-8.459
G01 X36.595 Y152.558  
G01 X36.680 Y150.631 
G01 X36.702 Y149.661 
G01 X36.702 Y147.397 
G01 X36.665 Y145.688 
G01 X36.551 Y142.788 
G01 X36.301 Y137.912 
G01 X36.228 Y135.523 
G01 X36.260 Y133.334 
G01 X36.355 Y131.184 
G01 X36.617 Y125.995 
G01 X36.689 Y123.724 
G01 X36.710 Y121.660 
G02 X55.489 Y105.495 I-5.808 J-25.738
G02 X72.027 Y119.739 I23.946 J-11.079
G01 X72.008 Y121.491  
G01 X72.008 Y122.857 
G01 X72.094 Y125.957 
G01 X72.411 Y132.312 
G01 X72.474 Y134.235 
G01 X72.483 Y135.594 
G01 X72.457 Y136.884 
G01 X72.362 Y139.071 
G01 X75.921 Y139.249  
G01 X75.661 Y144.434  
G01 X75.612 Y145.827 
G01 X75.577 Y147.474 
G01 X75.577 Y149.655 
G01 X75.630 Y151.466 
G01 X75.733 Y153.228 
G01 X75.812 Y154.170 
G02 X77.736 Y161.614 I22.741 J-1.907
G02 X68.592 Y191.440 I11.355 J19.795
G02 X67.498 Y198.993 I21.720 J7.002
G01 X65.995 Y203.205  
G01 X65.325 Y205.191 
G01 X64.977 Y206.325 
G01 X64.623 Y207.555 
G01 X64.192 Y209.322 
G01 X63.958 Y210.359 
G01 X63.814 Y211.236 
G01 X63.580 Y213.178 
G02 X59.202 Y229.035 I18.330 J13.594
G01 X60.860 Y245.683  
G02 X53.085 Y247.023 I-0.069 J22.821
G02 X47.781 Y245.933 I-7.214 J21.651
G01 X47.970 Y244.307  
G01 X49.464 Y229.510 
G02 X45.272 Y213.875 I-22.705 J-2.292
G01 X45.241 Y212.979  
G01 X45.128 Y211.348 
G01 X45.011 Y210.201 
G01 X44.819 Y208.860 
G01 X44.528 Y207.335 
G01 X44.252 Y206.159 
G01 X43.863 Y204.756 
G01 X43.520 Y203.689 
G01 X42.843 Y201.802 
G01 X41.871 Y199.373 
G02 X40.460 Y190.558 I-22.804 J-0.870
G02 X30.757 Y162.051 I-21.086 J-8.728
G02 X32.902 Y154.131 I-20.597 J-9.827
G01 X33.037 Y152.347  
G01 X33.117 Y150.525 
G01 X33.138 Y149.620 
G01 X33.138 Y147.434 
G01 X33.103 Y145.788 
G01 X32.991 Y142.959 
G01 X32.740 Y138.066 
G01 X32.664 Y135.559 
G01 X32.685 Y133.672 
G01 X32.795 Y131.005 
G01 X33.056 Y125.853 
G01 X33.126 Y123.652 
G01 X33.145 Y120.560 
G01 X33.082 Y118.638 
G02 X53.679 Y94.507 I-2.180 J-22.716
G01 X53.592 Y92.936  
G01 X55.288 Y69.902 
G01 X56.647 Y92.482 
G01 X56.628 Y93.638 
G02 X75.737 Y116.935 I22.808 J0.778
G01 X75.625 Y118.790  
G01 X75.573 Y120.612 
G01 X75.573 Y122.818 
G01 X75.656 Y125.817 
G01 X75.972 Y132.158 
G01 X76.037 Y134.179 
G01 X76.048 Y135.624 
G01 X76.019 Y137.007 
G01 X75.921 Y139.249 
G01 X79.481 Y139.426  
G01 X79.222 Y144.576  
G01 X79.142 Y147.511 
G01 X79.142 Y149.616 
G01 X79.191 Y151.310 
G01 X79.287 Y152.964 
G01 X79.364 Y153.872 
G02 X82.239 Y162.494 I19.189 J-1.609
G01 X82.381 Y163.360  
G02 X72.486 Y191.161 I6.710 J18.050
G02 X71.085 Y199.502 I17.827 J7.281
G01 X70.478 Y201.272  
G01 X69.360 Y204.380 
G01 X68.721 Y206.275 
G01 X68.393 Y207.341 
G01 X68.066 Y208.480 
G01 X67.666 Y210.116 
G01 X67.458 Y211.040 
G01 X67.331 Y211.814 
G01 X67.129 Y213.513 
G01 X67.070 Y214.501 
G02 X62.748 Y228.682 I14.840 J12.272
G01 X64.812 Y249.333  
G01 X64.840 Y249.570 
G01 X63.622 Y249.423 
G01 X62.281 Y249.305 
G02 X53.335 Y250.749 I-1.490 J19.199
G01 X53.127 Y250.836  
G02 X45.187 Y249.429 I-7.255 J17.838
G01 X43.665 Y249.483  
G01 X44.080 Y246.746 
G01 X44.340 Y244.729 
G01 X45.917 Y229.152 
G02 X41.721 Y215.097 I-19.159 J-1.934
G01 X41.708 Y213.867  
G01 X41.627 Y212.266 
G01 X41.473 Y210.635 
G01 X41.300 Y209.430 
G01 X41.045 Y208.092 
G01 X40.798 Y207.043 
G01 X40.448 Y205.778 
G01 X40.140 Y204.822 
G01 X39.513 Y203.073 
G01 X38.268 Y199.960 
G02 X36.916 Y191.277 I-19.201 J-1.458
G01 X36.583 Y190.472  
G02 X26.368 Y163.888 I-17.209 J-8.642
G01 X26.563 Y162.312  
G02 X29.350 Y153.833 I-16.402 J-10.088
G01 X29.479 Y152.135  
G01 X29.555 Y150.419 
G01 X29.573 Y148.738 
G01 X29.573 Y147.472 
G01 X29.493 Y144.549 
G01 X29.179 Y138.220 
G01 X29.121 Y136.613 
G01 X29.100 Y135.225 
G01 X29.136 Y133.091 
G01 X29.235 Y130.826 
G01 X29.494 Y125.710 
G01 X29.562 Y123.580 
G01 X29.581 Y120.605 
G01 X29.530 Y118.965 
G01 X29.447 Y117.525 
G01 X29.122 Y115.096 
G02 X50.121 Y94.728 I1.780 J-19.174
G01 X50.020 Y92.912  
G01 X51.683 Y70.288 
G01 X52.084 Y65.284 
G01 X53.360 Y50.037 
G01 X53.756 Y44.837 
G01 X54.102 Y39.602 
G01 X54.386 Y34.332 
G01 X54.593 Y29.827 
G01 X54.610 Y28.239 
G01 X56.446 Y28.239 
G01 X56.357 Y29.463 
G01 X56.291 Y31.303 
G01 X56.291 Y32.889 
G01 X56.343 Y34.583 
G01 X56.431 Y36.146 
G01 X56.538 Y37.566 
G01 X56.812 Y40.367 
G01 X57.332 Y45.205 
G01 X57.496 Y47.276 
G01 X60.211 Y92.409 
G01 X60.190 Y93.759 
G02 X79.782 Y113.669 I19.245 J0.657
G01 X79.371 Y116.280  
G01 X79.285 Y117.268 
G01 X79.186 Y118.947 
G01 X79.137 Y120.652 
G01 X79.137 Y122.779 
G01 X79.217 Y125.676 
G01 X79.533 Y132.005 
G01 X79.601 Y134.123 
G01 X79.612 Y135.654 
G01 X79.581 Y137.130 
G01 X79.481 Y139.426 
G01 X83.041 Y139.604  
G01 X82.784 Y144.718  
G01 X82.706 Y147.549 
G01 X82.706 Y149.576 
G01 X82.752 Y151.153 
G01 X82.842 Y152.699 
G01 X82.915 Y153.574 
G02 X85.633 Y161.170 I15.638 J-1.312
G01 X86.064 Y163.862  
G01 X86.239 Y165.199 
G01 X86.310 Y165.965 
G02 X76.547 Y190.839 I2.781 J15.444
G01 X76.291 Y191.361  
G01 X76.006 Y191.995 
G02 X74.689 Y199.908 I14.307 J6.447
G01 X74.317 Y201.086  
G01 X73.835 Y202.469 
G01 X72.725 Y205.555 
G01 X72.117 Y207.358 
G01 X71.508 Y209.405 
G01 X71.141 Y210.909 
G01 X70.959 Y211.720 
G01 X70.848 Y212.392 
G01 X70.684 Y213.777 
G01 X70.665 Y214.030 
G01 X70.622 Y215.189 
G01 X70.623 Y215.871 
G02 X66.295 Y228.328 I11.287 J10.902
G01 X68.374 Y249.110  
G01 X68.582 Y250.527 
G01 X68.908 Y252.251 
G01 X69.244 Y253.842 
G01 X64.863 Y253.168 
G01 X63.246 Y252.968 
G01 X62.005 Y252.858 
G02 X54.715 Y254.035 I-1.214 J15.645
G01 X53.043 Y254.716  
G02 X45.314 Y252.991 I-7.172 J13.958
G01 X39.821 Y253.172  
G01 X39.551 Y253.176 
G01 X39.685 Y252.036 
G01 X39.993 Y249.904 
G01 X40.551 Y246.247 
G01 X40.799 Y244.317 
G01 X42.371 Y228.794 
G02 X38.139 Y216.414 I-15.613 J-1.576
G01 X38.157 Y214.766  
G01 X38.120 Y213.329 
G01 X38.029 Y212.002 
G01 X37.934 Y211.069 
G01 X37.781 Y210.001 
G01 X37.562 Y208.850 
G01 X37.345 Y207.927 
G01 X37.033 Y206.800 
G01 X36.761 Y205.954 
G01 X36.183 Y204.344 
G01 X34.782 Y200.820 
G01 X34.642 Y200.425 
G01 X34.662 Y200.240 
G02 X33.612 Y192.615 I-15.596 J-1.738
G01 X33.372 Y192.020  
G01 X32.741 Y190.662 
G01 X32.569 Y190.324 
G02 X22.649 Y166.483 I-13.195 J-8.494
G01 X22.658 Y165.635  
G01 X22.742 Y164.348 
G01 X22.897 Y162.856 
G01 X23.134 Y161.052 
G02 X25.798 Y153.535 I-12.973 J-8.829
G01 X25.921 Y151.923  
G01 X25.992 Y150.313 
G01 X26.009 Y148.738 
G01 X26.009 Y147.510 
G01 X25.932 Y144.689 
G01 X25.618 Y138.373 
G01 X25.558 Y136.704 
G01 X25.536 Y135.209 
G01 X25.574 Y132.970 
G01 X25.676 Y130.647 
G01 X25.933 Y125.568 
G01 X25.999 Y123.508 
G01 X26.017 Y120.651 
G01 X25.969 Y119.123 
G01 X25.892 Y117.772 
G02 X23.076 Y109.839 I-15.655 J1.089
G01 X23.030 Y109.497  
G02 X46.564 Y94.949 I7.872 J-13.575
G01 X46.447 Y92.896  
G01 X48.129 Y70.014 
G01 X48.532 Y64.989 
G01 X49.807 Y49.754 
G01 X50.201 Y44.582 
G01 X50.544 Y39.388 
G01 X50.826 Y34.167 
G01 X51.032 Y29.677 
G01 X51.044 Y29.309 
G02 X50.506 Y24.675 I-15.684 J-0.526
G01 X60.544 Y24.675  
G01 X60.364 Y25.611 
G01 X60.252 Y26.305 
G01 X60.131 Y27.206 
G01 X59.966 Y28.893 
G01 X59.875 Y30.555 
G01 X59.855 Y32.108 
G01 X59.873 Y33.610 
G01 X59.937 Y35.117 
G01 X60.090 Y37.267 
G01 X60.356 Y39.990 
G01 X60.880 Y44.870 
G01 X60.974 Y45.924 
G01 X61.052 Y47.045 
G01 X63.775 Y92.337 
G01 X63.771 Y93.304 
G01 X63.752 Y93.881 
G02 X85.761 Y108.777 I15.683 J0.535
G01 X85.746 Y108.893  
G02 X82.922 Y116.591 I12.808 J9.067
G01 X82.789 Y118.316  
G01 X82.718 Y119.924 
G01 X82.701 Y121.491 
G01 X82.701 Y122.741 
G01 X82.779 Y125.535 
G01 X83.094 Y131.851 
G01 X83.165 Y134.067 
G01 X83.176 Y135.684 
G01 X83.143 Y137.253 
G01 X83.041 Y139.604 
G01 X86.601 Y139.782  
G01 X86.345 Y144.861  
G01 X86.270 Y147.587 
G01 X86.270 Y149.537 
G01 X86.312 Y150.996 
G01 X86.396 Y152.435 
G01 X86.467 Y153.276 
G02 X89.016 Y159.755 I12.086 J-1.014
G01 X89.591 Y163.352  
G01 X89.782 Y164.815 
G01 X89.900 Y166.266 
G01 X89.915 Y167.397 
G01 X89.890 Y167.896 
G01 X89.800 Y168.578 
G01 X89.696 Y168.999 
G01 X89.648 Y169.141 
G01 X89.298 Y169.231 
G01 X88.857 Y169.280 
G01 X88.586 Y169.292 
G02 X80.690 Y190.157 I0.505 J12.118
G01 X80.825 Y190.318  
G01 X79.851 Y192.199 
G01 X79.516 Y192.879 
G01 X79.255 Y193.459 
G02 X78.259 Y199.788 I11.058 J4.982
G01 X78.307 Y200.212  
G01 X77.904 Y201.583 
G01 X77.192 Y203.667 
G01 X76.090 Y206.729 
G01 X75.512 Y208.441 
G01 X74.951 Y210.330 
G01 X74.616 Y211.703 
G01 X74.459 Y212.401 
G01 X74.365 Y212.970 
G01 X74.238 Y214.040 
G01 X74.186 Y214.740 
G01 X74.186 Y215.877 
G01 X74.203 Y216.501 
G01 X74.250 Y217.370 
G02 X69.841 Y227.975 I7.660 J9.403
G01 X71.911 Y248.667  
G01 X72.096 Y249.931 
G01 X72.399 Y251.536 
G01 X73.108 Y254.949 
G01 X73.296 Y256.090 
G01 X73.389 Y257.014 
G01 X73.391 Y257.590 
G01 X72.897 Y257.668 
G01 X72.181 Y257.697 
G01 X71.076 Y257.650 
G01 X70.055 Y257.548 
G01 X68.382 Y257.319 
G01 X65.099 Y256.802 
G01 X63.695 Y256.608 
G01 X62.175 Y256.446 
G01 X61.729 Y256.412 
G02 X56.095 Y257.321 I-0.939 J12.092
G01 X53.970 Y258.183  
G01 X52.662 Y258.625 
G02 X45.440 Y256.553 I-6.791 J10.049
G01 X39.892 Y256.735  
G01 X38.083 Y256.749 
G01 X36.241 Y256.711 
G01 X35.886 Y256.693 
G01 X35.848 Y255.874 
G01 X35.872 Y254.509 
G01 X35.974 Y253.111 
G01 X36.151 Y251.570 
G01 X36.469 Y249.366 
G01 X37.022 Y245.747 
G01 X37.259 Y243.906 
G01 X38.825 Y228.436 
G02 X34.512 Y217.892 I-12.067 J-1.218
G01 X34.576 Y216.331  
G01 X34.593 Y214.793 
G01 X34.560 Y213.503 
G01 X34.480 Y212.328 
G01 X34.396 Y211.503 
G01 X34.262 Y210.571 
G01 X34.079 Y209.607 
G01 X33.891 Y208.811 
G01 X33.617 Y207.822 
G01 X33.102 Y206.288 
G01 X32.551 Y204.847 
G01 X31.621 Y202.537 
G01 X31.143 Y201.199 
G01 X31.017 Y200.768 
G01 X31.120 Y199.846 
G02 X30.309 Y193.952 I-12.054 J-1.343
G01 X30.093 Y193.418  
G01 X29.545 Y192.240 
G01 X28.464 Y190.090 
G01 X28.674 Y189.662 
G01 X28.811 Y189.449 
G02 X20.019 Y169.719 I-9.437 J-7.619
G01 X19.652 Y169.698  
G01 X19.491 Y169.349 
G01 X19.383 Y169.054 
G01 X19.244 Y168.464 
G01 X19.176 Y168.026 
G01 X19.109 Y167.292 
G01 X19.083 Y165.993 
G01 X19.151 Y164.530 
G01 X19.296 Y162.985 
G01 X19.718 Y159.690 
G02 X22.246 Y153.237 I-9.558 J-7.467
G01 X22.363 Y151.711  
G01 X22.429 Y150.207 
G01 X22.445 Y148.738 
G01 X22.445 Y147.548 
G01 X22.370 Y144.829 
G01 X22.057 Y138.527 
G01 X21.994 Y136.796 
G01 X21.972 Y135.192 
G01 X22.012 Y132.849 
G01 X22.116 Y130.469 
G01 X22.372 Y125.425 
G01 X22.435 Y123.436 
G01 X22.453 Y120.696 
G01 X22.370 Y118.499 
G01 X22.336 Y118.020 
G02 X19.691 Y111.264 I-12.099 J0.842
G01 X19.452 Y109.614  
G01 X19.337 Y108.450 
G01 X19.272 Y107.365 
G01 X19.256 Y106.195 
G01 X19.274 Y105.174 
G01 X19.297 Y104.755 
G01 X19.662 Y104.494 
G01 X20.073 Y104.259 
G01 X20.688 Y103.996 
G01 X21.341 Y103.811 
G01 X21.647 Y103.762 
G01 X21.752 Y103.882 
G02 X43.007 Y95.170 I9.150 J-7.961
G01 X42.883 Y93.033  
G01 X42.888 Y92.695 
G01 X44.575 Y69.740 
G01 X44.980 Y64.694 
G01 X46.254 Y49.472 
G01 X46.646 Y44.327 
G01 X46.986 Y39.174 
G01 X47.265 Y34.002 
G01 X47.471 Y29.527 
G01 X47.482 Y29.190 
G02 X44.754 Y21.111 I-12.122 J-0.407
G01 X65.948 Y21.111  
G02 X63.883 Y26.177 I9.910 J6.993
G01 X63.670 Y27.633  
G01 X63.520 Y29.166 
G01 X63.437 Y30.672 
G01 X63.419 Y32.108 
G01 X63.436 Y33.502 
G01 X63.496 Y34.918 
G01 X63.642 Y36.967 
G01 X63.900 Y39.613 
G01 X64.429 Y44.536 
G01 X64.527 Y45.642 
G01 X64.609 Y46.813 
G01 X67.338 Y92.266 
G01 X67.335 Y93.390 
G01 X67.314 Y94.002 
G02 X87.179 Y103.750 I12.121 J0.414
G01 X87.297 Y103.652  
G01 X87.772 Y103.758 
G01 X88.348 Y103.983 
G01 X88.869 Y104.277 
G01 X89.256 Y104.562 
G01 X89.419 Y104.713 
G01 X89.471 Y105.560 
G01 X89.484 Y106.527 
G01 X89.457 Y107.437 
G01 X89.382 Y108.458 
G01 X89.207 Y109.888 
G01 X89.138 Y110.315 
G02 X86.472 Y116.902 I9.416 J7.644
G01 X86.347 Y118.525  
G01 X86.281 Y120.026 
G01 X86.265 Y121.491 
G01 X86.265 Y122.702 
G01 X86.340 Y125.395 
G01 X86.654 Y131.697 
G01 X86.729 Y134.011 
G01 X86.740 Y135.714 
G01 X86.705 Y137.376 
G01 X86.601 Y139.782 
G01 X90.160 Y139.960  
G01 X89.906 Y145.003  
G01 X89.834 Y147.625 
G01 X89.834 Y149.497 
G01 X89.873 Y150.839 
G01 X89.951 Y152.171 
G01 X90.019 Y152.978 
G02 X92.389 Y158.208 I8.534 J-0.716
G01 X92.576 Y159.455  
G01 X93.119 Y162.841 
G01 X93.326 Y164.431 
G01 X93.426 Y165.524 
G01 X93.478 Y166.561 
G01 X93.478 Y167.511 
G01 X93.440 Y168.217 
G01 X93.334 Y169.065 
G01 X93.199 Y169.709 
G01 X92.967 Y170.444 
G01 X92.731 Y170.950 
G01 X92.424 Y171.420 
G01 X92.241 Y171.639 
G01 X91.691 Y172.084 
G01 X91.345 Y172.282 
G01 X91.001 Y172.440 
G01 X90.607 Y172.579 
G01 X90.099 Y172.707 
G01 X89.396 Y172.814 
G01 X88.734 Y172.853 
G02 X83.177 Y187.604 I0.357 J8.557
G01 X83.520 Y187.979  
G01 X83.856 Y188.430 
G01 X84.160 Y188.936 
G01 X84.456 Y189.572 
G01 X84.641 Y190.061 
G01 X84.632 Y190.261 
G01 X84.563 Y190.583 
G01 X84.390 Y191.078 
G01 X84.136 Y191.662 
G01 X83.855 Y192.232 
G01 X83.030 Y193.811 
G01 X82.741 Y194.398 
G01 X82.505 Y194.923 
G02 X81.801 Y199.392 I7.808 J3.518
G01 X81.900 Y200.342  
G01 X81.890 Y200.585 
G01 X81.522 Y201.941 
G01 X81.075 Y203.355 
G01 X80.549 Y204.864 
G01 X79.455 Y207.904 
G01 X78.908 Y209.525 
G01 X78.394 Y211.254 
G01 X77.959 Y213.082 
G01 X77.821 Y213.923 
G01 X77.750 Y214.872 
G01 X77.764 Y216.356 
G01 X77.878 Y218.555 
G01 X77.886 Y219.213 
G02 X73.388 Y227.622 I4.024 J7.560
G01 X75.447 Y248.224  
G01 X75.611 Y249.335 
G01 X75.891 Y250.822 
G01 X76.612 Y254.293 
G01 X76.828 Y255.615 
G01 X76.920 Y256.414 
G01 X76.961 Y257.151 
G01 X76.957 Y257.666 
G01 X76.913 Y258.241 
G01 X76.817 Y258.764 
G01 X76.714 Y259.089 
G01 X76.556 Y259.456 
G01 X76.330 Y259.813 
G01 X76.066 Y260.103 
G01 X75.846 Y260.299 
G01 X75.557 Y260.512 
G01 X75.165 Y260.736 
G01 X74.567 Y260.961 
G01 X74.045 Y261.096 
G01 X73.493 Y261.187 
G01 X72.896 Y261.243 
G01 X72.145 Y261.261 
G01 X71.324 Y261.237 
G01 X70.277 Y261.159 
G01 X69.057 Y261.016 
G01 X67.850 Y260.843 
G01 X64.579 Y260.328 
G01 X62.496 Y260.057 
G01 X61.454 Y259.965 
G02 X57.475 Y260.607 I-0.663 J8.538
G01 X55.975 Y261.221  
G01 X55.229 Y261.518 
G01 X53.993 Y261.944 
G01 X52.957 Y262.245 
G01 X52.080 Y262.434 
G01 X51.775 Y262.470 
G02 X45.567 Y260.115 I-5.904 J6.204
G01 X40.942 Y260.274  
G01 X39.010 Y260.313 
G01 X37.055 Y260.300 
G01 X35.223 Y260.228 
G01 X33.799 Y260.118 
G01 X33.225 Y260.049 
G01 X32.960 Y259.951 
G01 X32.848 Y259.886 
G01 X32.619 Y258.987 
G01 X32.453 Y258.060 
G01 X32.368 Y257.379 
G01 X32.299 Y256.405 
G01 X32.283 Y255.387 
G01 X32.312 Y254.343 
G01 X32.426 Y252.778 
G01 X32.618 Y251.103 
G01 X32.946 Y248.828 
G01 X33.493 Y245.247 
G01 X33.719 Y243.494 
G01 X35.279 Y228.078 
G02 X30.854 Y219.697 I-8.521 J-0.860
G01 X31.013 Y216.236  
G01 X31.029 Y214.821 
G01 X31.000 Y213.678 
G01 X30.931 Y212.655 
G01 X30.857 Y211.937 
G01 X30.675 Y210.762 
G01 X30.438 Y209.695 
G01 X30.202 Y208.844 
G01 X29.748 Y207.494 
G01 X29.241 Y206.167 
G01 X28.297 Y203.823 
G01 X27.798 Y202.441 
G01 X27.515 Y201.463 
G01 X27.444 Y201.127 
G01 X27.439 Y200.741 
G01 X27.578 Y199.451 
G02 X27.005 Y195.289 I-8.511 J-0.948
G01 X26.617 Y194.378  
G01 X26.349 Y193.819 
G01 X25.282 Y191.700 
G01 X25.025 Y191.123 
G01 X24.837 Y190.580 
G01 X24.753 Y190.169 
G01 X24.762 Y189.883 
G01 X24.947 Y189.309 
G01 X25.184 Y188.694 
G01 X25.461 Y188.108 
G01 X25.800 Y187.532 
G01 X26.038 Y187.210 
G02 X19.829 Y173.278 I-6.664 J-5.380
G01 X19.041 Y173.218  
G01 X18.461 Y173.096 
G01 X18.017 Y172.944 
G01 X17.666 Y172.767 
G01 X17.478 Y172.635 
G01 X17.239 Y172.408 
G01 X16.976 Y172.100 
G01 X16.672 Y171.661 
G01 X16.388 Y171.148 
G01 X16.102 Y170.462 
G01 X15.965 Y170.068 
G01 X15.775 Y169.302 
G01 X15.637 Y168.455 
G01 X15.551 Y167.507 
G01 X15.519 Y166.468 
G01 X15.535 Y165.366 
G01 X15.640 Y163.734 
G01 X15.820 Y161.994 
G01 X16.323 Y158.171 
G02 X18.695 Y152.939 I-6.162 J-5.947
G01 X18.805 Y151.500  
G01 X18.881 Y149.459 
G01 X18.881 Y147.586 
G01 X18.809 Y144.969 
G01 X18.497 Y138.680 
G01 X18.431 Y136.887 
G01 X18.408 Y135.175 
G01 X18.450 Y132.728 
G01 X18.556 Y130.290 
G01 X18.810 Y125.283 
G01 X18.872 Y123.364 
G01 X18.889 Y120.741 
G01 X18.812 Y118.711 
G01 X18.781 Y118.267 
G02 X16.366 Y112.880 I-8.544 J0.594
G01 X16.082 Y111.271  
G01 X15.913 Y110.032 
G01 X15.784 Y108.734 
G01 X15.711 Y107.508 
G01 X15.692 Y106.924 
G01 X15.692 Y105.605 
G01 X15.745 Y104.442 
G01 X15.808 Y103.730 
G01 X15.887 Y103.439 
G01 X16.084 Y103.055 
G01 X16.382 Y102.644 
G01 X16.600 Y102.400 
G01 X16.858 Y102.149 
G01 X17.212 Y101.857 
G01 X17.757 Y101.481 
G01 X18.457 Y101.082 
G01 X19.072 Y100.799 
G01 X19.776 Y100.544 
G01 X20.608 Y100.323 
G01 X21.213 Y100.224 
G01 X21.912 Y100.182 
G01 X22.232 Y100.194 
G01 X22.628 Y100.245 
G01 X22.989 Y100.352 
G01 X23.316 Y100.518 
G01 X23.681 Y100.775 
G01 X23.946 Y101.008 
G01 X24.441 Y101.543 
G02 X39.449 Y95.391 I6.461 J-5.621
G01 X39.319 Y93.155  
G01 X39.330 Y92.491 
G01 X41.022 Y69.466 
G01 X41.429 Y64.398 
G01 X42.701 Y49.190 
G01 X43.091 Y44.072 
G01 X43.428 Y38.960 
G01 X43.705 Y33.837 
G01 X43.910 Y29.377 
G01 X43.920 Y29.070 
G02 X41.468 Y22.779 I-8.559 J-0.287
G01 X41.084 Y21.937  
G01 X40.810 Y21.224 
G01 X40.638 Y20.571 
G01 X40.559 Y20.061 
G01 X40.538 Y19.357 
G01 X40.597 Y18.710 
G01 X40.740 Y17.846 
G01 X40.802 Y17.547 
G01 X70.058 Y17.547 
G01 X70.204 Y18.953 
G01 X70.250 Y19.752 
G01 X70.247 Y20.513 
G01 X70.193 Y21.161 
G01 X70.148 Y21.438 
G01 X70.000 Y21.683 
G01 X69.116 Y22.821 
G02 X67.402 Y26.743 I6.741 J5.283
G01 X67.209 Y28.060  
G01 X67.074 Y29.439 
G01 X67.000 Y30.789 
G01 X66.984 Y32.108 
G01 X66.998 Y33.393 
G01 X67.098 Y35.406 
G01 X67.193 Y36.668 
G01 X67.444 Y39.236 
G01 X67.977 Y44.201 
G01 X68.080 Y45.361 
G01 X68.166 Y46.582 
G01 X70.893 Y91.904 
G01 X70.908 Y92.787 
G01 X70.876 Y94.124 
G02 X84.903 Y101.007 I8.559 J0.292
G01 X85.340 Y100.656  
G01 X85.756 Y100.394 
G01 X86.037 Y100.259 
G01 X86.415 Y100.136 
G01 X86.786 Y100.080 
G01 X87.368 Y100.077 
G01 X88.012 Y100.155 
G01 X88.567 Y100.279 
G01 X89.157 Y100.464 
G01 X89.900 Y100.774 
G01 X90.592 Y101.149 
G01 X91.150 Y101.519 
G01 X91.573 Y101.852 
G01 X91.910 Y102.162 
G01 X92.314 Y102.609 
G01 X92.605 Y103.028 
G01 X92.781 Y103.371 
G01 X92.882 Y103.670 
G01 X92.916 Y103.852 
G01 X93.008 Y104.931 
G01 X93.048 Y106.012 
G01 X93.037 Y107.112 
G01 X92.982 Y108.186 
G01 X92.884 Y109.252 
G01 X92.732 Y110.419 
G01 X92.462 Y111.941 
G02 X90.023 Y117.213 I6.092 J6.019
G01 X89.905 Y118.734  
G01 X89.844 Y120.128 
G01 X89.829 Y122.000 
G01 X89.857 Y123.961 
G01 X89.961 Y126.582 
G01 X90.215 Y131.544 
G01 X90.293 Y133.955 
G01 X90.304 Y135.744 
G01 X90.267 Y137.499 
G01 X90.160 Y139.960 
G01 X93.720 Y140.137  
G01 X93.468 Y145.145  
G01 X93.398 Y147.663 
G01 X93.411 Y150.039 
G01 X93.505 Y151.907 
G01 X93.570 Y152.681 
G02 X95.255 Y156.021 I4.983 J-0.418
G01 X95.502 Y156.254  
G01 X95.656 Y156.464 
G01 X95.770 Y156.722 
G01 X95.809 Y156.894 
G01 X96.096 Y158.896 
G01 X96.646 Y162.331 
G01 X96.869 Y164.046 
G01 X96.981 Y165.268 
G01 X97.041 Y166.475 
G01 X97.041 Y167.625 
G01 X96.990 Y168.539 
G01 X96.881 Y169.464 
G01 X96.719 Y170.317 
G01 X96.511 Y171.089 
G01 X96.330 Y171.634 
G01 X95.982 Y172.427 
G01 X95.613 Y173.073 
G01 X95.262 Y173.577 
G01 X94.866 Y174.054 
G01 X94.682 Y174.247 
G01 X94.059 Y174.765 
G01 X93.537 Y175.136 
G01 X92.935 Y175.474 
G01 X92.319 Y175.752 
G01 X91.571 Y176.011 
G01 X90.815 Y176.200 
G01 X89.986 Y176.334 
G01 X89.281 Y176.397 
G01 X88.883 Y176.414 
G02 X85.638 Y185.026 I0.208 J4.996
G01 X86.132 Y185.549  
G01 X86.627 Y186.172 
G01 X87.103 Y186.901 
G01 X87.351 Y187.343 
G01 X87.738 Y188.181 
G01 X88.028 Y188.929 
G01 X88.155 Y189.458 
G01 X88.205 Y189.993 
G01 X88.192 Y190.487 
G01 X88.104 Y191.103 
G01 X87.987 Y191.575 
G01 X87.787 Y192.182 
G01 X87.327 Y193.249 
G01 X87.033 Y193.845 
G01 X86.209 Y195.423 
G01 X85.754 Y196.387 
G02 X85.344 Y198.997 I4.559 J2.054
G01 X85.452 Y200.021  
G01 X85.464 Y200.561 
G01 X85.428 Y201.042 
G01 X85.364 Y201.382 
G01 X85.161 Y202.173 
G01 X84.701 Y203.732 
G01 X84.192 Y205.249 
G01 X82.539 Y209.898 
G01 X82.059 Y211.405 
G01 X81.836 Y212.179 
G01 X81.459 Y213.762 
G01 X81.363 Y214.345 
G01 X81.314 Y215.004 
G01 X81.326 Y216.212 
G01 X81.441 Y218.454 
G01 X81.443 Y219.548 
G01 X81.388 Y220.246 
G01 X81.311 Y220.756 
G01 X81.216 Y221.079 
G01 X81.039 Y221.399 
G01 X80.896 Y221.578 
G01 X80.588 Y221.847 
G01 X80.317 Y222.011 
G01 X80.001 Y222.152 
G02 X76.935 Y227.268 I1.909 J4.621
G01 X78.984 Y247.782  
G01 X79.125 Y248.739 
G01 X79.383 Y250.107 
G01 X80.115 Y253.638 
G01 X80.361 Y255.139 
G01 X80.471 Y256.110 
G01 X80.525 Y257.081 
G01 X80.518 Y257.820 
G01 X80.448 Y258.696 
G01 X80.314 Y259.470 
G01 X80.149 Y260.070 
G01 X79.881 Y260.770 
G01 X79.572 Y261.369 
G01 X79.169 Y261.969 
G01 X78.868 Y262.333 
G01 X78.504 Y262.704 
G01 X78.050 Y263.101 
G01 X77.504 Y263.499 
G01 X76.991 Y263.805 
G01 X76.477 Y264.055 
G01 X75.639 Y264.361 
G01 X74.777 Y264.585 
G01 X73.939 Y264.724 
G01 X73.095 Y264.801 
G01 X72.109 Y264.825 
G01 X71.132 Y264.796 
G01 X69.929 Y264.707 
G01 X68.585 Y264.549 
G01 X67.317 Y264.367 
G01 X63.407 Y263.761 
G01 X62.120 Y263.601 
G01 X61.178 Y263.518 
G02 X58.855 Y263.893 I-0.387 J4.985
G01 X57.293 Y264.533  
G01 X56.487 Y264.853 
G01 X55.083 Y265.338 
G01 X53.856 Y265.694 
G01 X52.899 Y265.910 
G01 X52.226 Y266.009 
G01 X51.871 Y266.038 
G01 X51.365 Y266.043 
G01 X50.875 Y265.992 
G01 X50.488 Y265.890 
G01 X50.146 Y265.747 
G01 X49.847 Y265.561 
G01 X49.607 Y265.347 
G01 X49.508 Y265.243 
G02 X45.694 Y263.677 I-3.637 J3.431
G01 X41.041 Y263.837  
G01 X39.036 Y263.877 
G01 X36.981 Y263.864 
G01 X35.958 Y263.834 
G01 X35.005 Y263.786 
G01 X33.447 Y263.665 
G01 X32.628 Y263.565 
G01 X32.157 Y263.452 
G01 X31.615 Y263.256 
G01 X31.075 Y262.982 
G01 X30.688 Y262.723 
G01 X30.264 Y262.373 
G01 X29.949 Y262.021 
G01 X29.845 Y261.866 
G01 X29.616 Y261.433 
G01 X29.435 Y260.912 
G01 X29.206 Y260.054 
G01 X29.021 Y259.166 
G01 X28.846 Y257.962 
G01 X28.775 Y257.201 
G01 X28.719 Y255.989 
G01 X28.729 Y254.786 
G01 X28.782 Y253.626 
G01 X28.938 Y251.848 
G01 X29.084 Y250.637 
G01 X29.423 Y248.289 
G01 X29.964 Y244.748 
G01 X30.245 Y242.458 
G01 X31.733 Y227.720 
G02 X27.596 Y222.289 I-4.975 J-0.502
G01 X27.415 Y222.226  
G01 X27.341 Y222.159 
G01 X27.247 Y221.987 
G01 X27.232 Y221.859 
G01 X27.250 Y220.569 
G01 X27.450 Y216.141 
G01 X27.465 Y214.849 
G01 X27.440 Y213.853 
G01 X27.381 Y212.981 
G01 X27.319 Y212.371 
G01 X27.173 Y211.429 
G01 X26.984 Y210.579 
G01 X26.787 Y209.866 
G01 X26.395 Y208.701 
G01 X25.930 Y207.486 
G01 X24.973 Y205.110 
G01 X24.521 Y203.877 
G01 X24.152 Y202.689 
G01 X23.969 Y201.958 
G01 X23.886 Y201.373 
G01 X23.877 Y200.594 
G01 X24.036 Y199.056 
G02 X23.701 Y196.626 I-4.969 J-0.554
G01 X23.383 Y195.877  
G01 X22.335 Y193.789 
G01 X21.835 Y192.734 
G01 X21.537 Y191.965 
G01 X21.357 Y191.364 
G01 X21.234 Y190.751 
G01 X21.185 Y190.239 
G01 X21.205 Y189.583 
G01 X21.268 Y189.174 
G01 X21.323 Y188.933 
G01 X21.594 Y188.099 
G01 X21.904 Y187.299 
G01 X22.312 Y186.438 
G01 X22.613 Y185.907 
G01 X22.824 Y185.568 
G01 X23.265 Y184.971 
G02 X19.640 Y176.837 I-3.890 J-3.141
G01 X18.768 Y176.776  
G01 X18.237 Y176.698 
G01 X17.885 Y176.628 
G01 X17.209 Y176.442 
G01 X16.567 Y176.201 
G01 X15.916 Y175.873 
G01 X15.393 Y175.531 
G01 X14.938 Y175.147 
G01 X14.429 Y174.615 
G01 X14.111 Y174.219 
G01 X13.634 Y173.525 
G01 X13.299 Y172.938 
G01 X12.960 Y172.213 
G01 X12.639 Y171.367 
G01 X12.405 Y170.559 
G01 X12.221 Y169.688 
G01 X12.099 Y168.884 
G01 X11.993 Y167.722 
G01 X11.954 Y166.502 
G01 X11.973 Y165.231 
G01 X12.089 Y163.427 
G01 X12.282 Y161.564 
G01 X12.920 Y156.766 
G01 X13.003 Y156.521 
G01 X13.121 Y156.326 
G01 X13.331 Y156.094 
G01 X13.457 Y155.983 
G02 X15.143 Y152.641 I-3.297 J-3.759
G01 X15.247 Y151.288  
G01 X15.317 Y149.419 
G01 X15.317 Y147.624 
G01 X15.247 Y145.109 
G01 X14.936 Y138.834 
G01 X14.868 Y136.979 
G01 X14.843 Y135.159 
G01 X14.870 Y133.220 
G01 X14.996 Y130.111 
G01 X15.249 Y125.141 
G01 X15.308 Y123.292 
G01 X15.325 Y120.787 
G01 X15.254 Y118.923 
G01 X15.225 Y118.514 
G02 X13.347 Y114.946 I-4.988 J0.347
G01 X13.198 Y114.795  
G01 X13.106 Y114.641 
G01 X12.787 Y113.153 
G01 X12.559 Y111.813 
G01 X12.373 Y110.451 
G01 X12.231 Y109.017 
G01 X12.149 Y107.651 
G01 X12.128 Y106.980 
G01 X12.128 Y105.542 
G01 X12.189 Y104.201 
G01 X12.264 Y103.323 
G01 X12.358 Y102.811 
G01 X12.532 Y102.233 
G01 X12.791 Y101.647 
G01 X13.043 Y101.195 
G01 X13.441 Y100.617 
G01 X13.776 Y100.207 
G01 X14.036 Y99.923 
G01 X14.523 Y99.456 
G01 X15.070 Y99.007 
G01 X15.852 Y98.468 
G01 X16.463 Y98.105 
G01 X17.238 Y97.712 
G01 X18.112 Y97.347 
G01 X18.722 Y97.138 
G01 X19.493 Y96.920 
G01 X20.394 Y96.739 
G01 X21.072 Y96.656 
G01 X21.871 Y96.617 
G01 X22.586 Y96.647 
G01 X23.208 Y96.726 
G01 X23.753 Y96.850 
G01 X24.346 Y97.055 
G01 X24.944 Y97.343 
G01 X25.482 Y97.675 
G01 X25.924 Y98.005 
G01 X26.235 Y98.265 
G01 X26.685 Y98.708 
G01 X27.129 Y99.204 
G02 X35.892 Y95.612 I3.772 J-3.282
G01 X35.755 Y93.276  
G01 X35.771 Y92.287 
G01 X37.468 Y69.192 
G01 X37.877 Y64.103 
G01 X39.148 Y48.908 
G01 X39.536 Y43.817 
G01 X39.871 Y38.747 
G01 X40.145 Y33.672 
G01 X40.349 Y29.226 
G01 X40.358 Y28.951 
G02 X38.842 Y25.194 I-4.997 J-0.168
G01 X38.584 Y24.921  
G01 X38.413 Y24.642 
G01 X37.938 Y23.650 
G01 X37.571 Y22.739 
G01 X37.394 Y22.239 
G01 X37.147 Y21.293 
G01 X37.044 Y20.695 
G01 X36.985 Y20.070 
G01 X36.973 Y19.253 
G01 X37.019 Y18.609 
G01 X37.178 Y17.507 
G01 X37.730 Y14.731 
G01 X37.845 Y14.228 
G01 X37.950 Y14.077 
G01 X38.089 Y13.997 
G01 X38.147 Y13.983 
G01 X73.007 Y13.983 
G01 X73.129 Y14.024 
G01 X73.244 Y14.113 
G01 X73.315 Y14.231 
G01 X73.345 Y14.348 
G01 X73.445 Y15.723 
G01 X73.757 Y18.671 
G01 X73.813 Y19.647 
G01 X73.809 Y20.663 
G01 X73.752 Y21.422 
G01 X73.648 Y22.121 
G01 X73.542 Y22.533 
G01 X73.364 Y22.977 
G01 X73.171 Y23.337 
G01 X72.904 Y23.751 
G01 X71.922 Y25.019 
G02 X70.921 Y27.309 I3.936 J3.084
G01 X70.747 Y28.487  
G01 X70.628 Y29.712 
G01 X70.557 Y31.209 
G01 X70.548 Y32.723 
G01 X70.613 Y34.522 
G01 X70.745 Y36.368 
G01 X70.988 Y38.859 
G01 X71.526 Y43.867 
G01 X71.633 Y45.079 
G01 X71.722 Y46.351 
G01 X74.455 Y91.759 
G01 X74.472 Y92.794 
G01 X74.438 Y94.245 
G02 X82.627 Y98.264 I4.997 J0.170
G01 X83.263 Y97.759  
G01 X83.794 Y97.410 
G01 X84.389 Y97.092 
G01 X84.727 Y96.944 
G01 X85.376 Y96.722 
G01 X85.694 Y96.645 
G01 X86.237 Y96.553 
G01 X86.820 Y96.506 
G01 X87.568 Y96.518 
G01 X88.139 Y96.570 
G01 X88.846 Y96.686 
G01 X89.515 Y96.842 
G01 X89.898 Y96.952 
G01 X90.372 Y97.113 
G01 X91.172 Y97.436 
G01 X91.824 Y97.753 
G01 X92.443 Y98.103 
G01 X93.248 Y98.636 
G01 X93.889 Y99.142 
G01 X94.439 Y99.649 
G01 X95.007 Y100.272 
G01 X95.416 Y100.812 
G01 X95.703 Y101.264 
G01 X96.002 Y101.833 
G01 X96.247 Y102.475 
G01 X96.398 Y103.066 
G01 X96.456 Y103.436 
G01 X96.566 Y104.715 
G01 X96.612 Y105.966 
G01 X96.600 Y107.220 
G01 X96.537 Y108.442 
G01 X96.426 Y109.650 
G01 X96.257 Y110.949 
G01 X96.045 Y112.193 
G01 X95.767 Y113.525 
G01 X95.613 Y113.825 
G01 X95.405 Y114.067 
G01 X95.198 Y114.254 
G02 X93.573 Y117.524 I3.357 J3.706
G01 X93.463 Y118.943  
G01 X93.406 Y120.230 
G01 X93.393 Y122.625 
G01 X93.463 Y125.113 
G01 X93.776 Y131.390 
G01 X93.856 Y133.899 
G01 X93.868 Y135.774 
G01 X93.829 Y137.622 
G01 X93.720 Y140.137 
G00 Z45.080
G00 X54.354 Y154.068  F6000.0
G01 Z16.667 F750.0 M3
G01 X54.356 Y154.046  F3000.0
G01 X54.357 Y154.065 
G01 X54.354 Y154.068 
G00 Z45.080
G00 X54.563 Y138.182  F6000.0
G01 Z16.667 F750.0 M3
G01 Z15.903 
G01 Z14.938 
G01 Z14.587 
G01 Z14.241 
G01 Z14.120 
G01 Z13.870 
G01 Z13.566 
G01 Z13.157 
G01 Z12.393 
G01 Z11.428 
G01 Z11.077 
G01 Z10.833 
G01 Z10.589 
G01 Z10.239 
G01 Z9.273 
G01 Z8.510 
G01 Z8.101 
G01 Z7.797 
G01 Z7.547 
G01 Z7.426 
G01 Z7.079 
G01 Z6.729 
G01 Z5.763 
G01 Z5.000 
G01 X54.359 Y142.103  F3000.0
G01 X54.105 Y137.145 
G01 X54.049 Y135.342 
G01 X54.086 Y133.560 
G01 X54.612 Y133.231 
G01 X54.655 Y134.516 
G01 X54.652 Y136.081 
G01 X54.563 Y138.182 
G01 X58.123 Y138.360  
G01 X57.854 Y143.724  
G01 X57.798 Y145.327 
G01 X57.757 Y147.284 
G01 X57.757 Y149.853 
G01 X57.826 Y152.250 
G01 X57.960 Y154.549 
G01 X58.016 Y155.216 
G02 X54.107 Y160.725 I31.075 J26.194
G02 X50.639 Y155.863 I-34.732 J21.105
G01 X50.748 Y154.572  
G01 X50.887 Y152.227 
G01 X50.958 Y149.822 
G01 X50.958 Y147.245 
G01 X50.917 Y145.288 
G01 X50.792 Y142.103 
G01 X50.545 Y137.298 
G01 X50.485 Y135.326 
G01 X50.509 Y133.818 
G01 X50.616 Y131.462 
G02 X56.179 Y127.746 I-19.715 J-35.540
G01 X57.962 Y128.922  
G01 X58.167 Y132.927 
G01 X58.219 Y134.460 
G01 X58.227 Y135.473 
G01 X58.171 Y137.343 
G01 X58.123 Y138.360 
G01 X61.682 Y138.537  
G01 X61.415 Y143.866  
G01 X61.361 Y145.427 
G01 X61.321 Y147.322 
G01 X61.321 Y149.814 
G01 X61.387 Y152.094 
G01 X61.515 Y154.285 
G01 X61.708 Y156.411 
G02 X54.156 Y168.987 I27.383 J24.999
G02 X46.927 Y157.019 I-34.782 J12.843
G01 X47.108 Y155.322  
G01 X47.269 Y153.194 
G01 X47.368 Y150.948 
G01 X47.394 Y149.781 
G01 X47.394 Y147.283 
G01 X47.354 Y145.388 
G01 X47.231 Y142.274 
G01 X46.984 Y137.452 
G01 X46.921 Y135.309 
G01 X46.947 Y133.697 
G01 X47.163 Y129.243 
G02 X56.038 Y123.178 I-16.262 J-33.321
G02 X61.430 Y126.828 I23.397 J-28.763
G01 X61.728 Y132.773  
G01 X61.782 Y134.404 
G01 X61.791 Y135.504 
G01 X61.732 Y137.498 
G01 X61.682 Y138.537 
G01 X65.242 Y138.715  
G01 X64.977 Y144.008  
G01 X64.924 Y145.527 
G01 X64.885 Y147.360 
G01 X64.885 Y149.774 
G01 X64.947 Y151.937 
G01 X65.069 Y154.021 
G01 X65.157 Y155.064 
G01 X65.473 Y157.633 
G02 X57.377 Y192.244 I23.618 J23.777
G02 X56.826 Y197.101 I32.935 J6.197
G01 X55.900 Y199.681  
G01 X55.138 Y201.941 
G01 X54.632 Y203.610 
G01 X54.109 Y201.689 
G01 X53.659 Y200.292 
G01 X53.225 Y199.047 
G01 X52.558 Y197.288 
G02 X51.674 Y190.765 I-33.491 J1.215
G02 X43.137 Y158.198 I-32.300 J-8.935
G01 X43.557 Y155.025  
G01 X43.711 Y152.982 
G01 X43.805 Y150.842 
G01 X43.830 Y149.741 
G01 X43.830 Y147.321 
G01 X43.791 Y145.488 
G01 X43.671 Y142.445 
G01 X43.423 Y137.605 
G01 X43.357 Y135.451 
G01 X43.385 Y133.576 
G01 X43.474 Y131.541 
G01 X43.712 Y126.890 
G02 X55.885 Y118.260 I-12.810 J-30.968
G02 X64.917 Y124.621 I23.550 J-23.844
G01 X65.041 Y127.796  
G01 X65.289 Y132.619 
G01 X65.346 Y134.348 
G01 X65.355 Y135.534 
G01 X65.333 Y136.639 
G01 X65.242 Y138.715 
G01 X68.802 Y138.893  
G01 X68.538 Y144.150  
G01 X68.487 Y145.627 
G01 X68.449 Y147.398 
G01 X68.449 Y149.735 
G01 X68.508 Y151.780 
G01 X68.624 Y153.756 
G01 X68.708 Y154.766 
G02 X69.346 Y158.891 I29.844 J-2.503
G02 X61.069 Y191.980 I19.745 J22.519
G02 X60.371 Y197.780 I29.244 J6.462
G01 X59.265 Y200.856  
G01 X58.534 Y203.024 
G01 X58.144 Y204.293 
G01 X57.738 Y205.706 
G01 X57.242 Y207.734 
G01 X57.150 Y208.143 
G01 X56.816 Y209.862 
G01 X56.699 Y210.607 
G02 X54.240 Y215.314 I25.211 J16.166
G02 X52.296 Y211.573 I-27.482 J11.904
G01 X52.227 Y210.695  
G01 X52.088 Y209.334 
G01 X51.857 Y207.720 
G01 X51.495 Y205.820 
G01 X51.159 Y204.391 
G01 X50.694 Y202.711 
G01 X50.279 Y201.424 
G01 X49.872 Y200.254 
G01 X49.106 Y198.248 
G01 X49.012 Y198.015 
G02 X47.980 Y190.697 I-29.945 J0.487
G02 X39.234 Y159.413 I-28.606 J-8.867
G02 X40.005 Y154.727 I-29.074 J-7.189
G01 X40.153 Y152.770  
G01 X40.243 Y150.737 
G01 X40.266 Y149.701 
G01 X40.266 Y147.359 
G01 X40.228 Y145.588 
G01 X40.111 Y142.617 
G01 X39.862 Y137.759 
G01 X39.793 Y135.487 
G01 X39.823 Y133.455 
G01 X39.914 Y131.362 
G01 X40.178 Y126.138 
G01 X40.237 Y124.379 
G02 X55.712 Y112.696 I-9.335 J-28.457
G02 X68.444 Y122.275 I23.723 J-18.281
G01 X68.480 Y124.556  
G01 X68.601 Y127.623 
G01 X68.850 Y132.466 
G01 X68.910 Y134.291 
G01 X68.919 Y135.564 
G01 X68.895 Y136.762 
G01 X68.802 Y138.893 
G01 X72.362 Y139.071  
G01 X72.099 Y144.292  
G01 X72.050 Y145.727 
G01 X72.013 Y147.436 
G01 X72.013 Y149.695 
G01 X72.069 Y151.623 
G01 X72.178 Y153.492 
G01 X72.260 Y154.468 
G02 X73.391 Y160.204 I26.293 J-2.205
G02 X64.800 Y191.712 I15.700 J21.206
G02 X63.928 Y198.412 I25.512 J6.730
G01 X62.630 Y202.031  
G01 X61.930 Y204.108 
G01 X61.560 Y205.309 
G01 X61.181 Y206.630 
G01 X60.717 Y208.528 
G01 X60.628 Y208.925 
G01 X60.333 Y210.440 
G01 X60.125 Y211.887 
G02 X55.655 Y229.388 I21.785 J14.886
G01 X56.951 Y242.399  
G02 X53.042 Y243.282 I3.840 J26.104
G01 X51.690 Y242.939  
G01 X53.010 Y229.868 
G02 X48.794 Y212.707 I-26.252 J-2.650
G01 X48.677 Y211.022  
G01 X48.549 Y209.767 
G01 X48.338 Y208.290 
G01 X48.012 Y206.577 
G01 X47.705 Y205.275 
G01 X47.278 Y203.733 
G01 X46.900 Y202.557 
G01 X46.518 Y201.461 
G01 X45.795 Y199.568 
G01 X45.450 Y198.717 
G02 X44.249 Y190.628 I-26.384 J-0.215
G02 X35.153 Y160.683 I-24.875 J-8.798
G02 X36.453 Y154.429 I-24.992 J-8.459
G01 X36.595 Y152.558  
G01 X36.680 Y150.631 
G01 X36.702 Y149.661 
G01 X36.702 Y147.397 
G01 X36.665 Y145.688 
G01 X36.551 Y142.788 
G01 X36.301 Y137.912 
G01 X36.228 Y135.523 
G01 X36.260 Y133.334 
G01 X36.355 Y131.184 
G01 X36.617 Y125.995 
G01 X36.689 Y123.724 
G01 X36.710 Y121.660 
G02 X55.489 Y105.495 I-5.808 J-25.738
G02 X72.027 Y119.739 I23.946 J-11.079
G01 X72.008 Y121.491  
G01 X72.008 Y122.857 
G01 X72.094 Y125.957 
G01 X72.411 Y132.312 
G01 X72.474 Y134.235 
G01 X72.483 Y135.594 
G01 X72.457 Y136.884 
G01 X72.362 Y139.071 
G01 X75.921 Y139.249  
G01 X75.661 Y144.434  
G01 X75.612 Y145.827 
G01 X75.577 Y147.474 
G01 X75.577 Y149.655 
G01 X75.630 Y151.466 
G01 X75.733 Y153.228 
G01 X75.812 Y154.170 
G02 X77.736 Y161.614 I22.741 J-1.907
G02 X68.592 Y191.440 I11.355 J19.795
G02 X67.498 Y198.993 I21.720 J7.002
G01 X65.995 Y203.205  
G01 X65.325 Y205.191 
G01 X64.977 Y206.325 
G01 X64.623 Y207.555 
G01 X64.192 Y209.322 
G01 X63.958 Y210.359 
G01 X63.814 Y211.236 
G01 X63.580 Y213.178 
G02 X59.202 Y229.035 I18.330 J13.594
G01 X60.860 Y245.683  
G02 X53.085 Y247.023 I-0.069 J22.821
G02 X47.781 Y245.933 I-7.214 J21.651
G01 X47.970 Y244.307  
G01 X49.464 Y229.510 
G02 X45.272 Y213.875 I-22.705 J-2.292
G01 X45.241 Y212.979  
G01 X45.128 Y211.348 
G01 X45.011 Y210.201 
G01 X44.819 Y208.860 
G01 X44.528 Y207.335 
G01 X44.252 Y206.159 
G01 X43.863 Y204.756 
G01 X43.520 Y203.689 
G01 X42.843 Y201.802 
G01 X41.871 Y199.373 
G02 X40.460 Y190.558 I-22.804 J-0.870
G02 X30.757 Y162.051 I-21.086 J-8.728
G02 X32.902 Y154.131 I-20.597 J-9.827
G01 X33.037 Y152.347  
G01 X33.117 Y150.525 
G01 X33.138 Y149.620 
G01 X33.138 Y147.434 
G01 X33.103 Y145.788 
G01 X32.991 Y142.959 
G01 X32.740 Y138.066 
G01 X32.664 Y135.559 
G01 X32.685 Y133.672 
G01 X32.795 Y131.005 
G01 X33.056 Y125.853 
G01 X33.126 Y123.652 
G01 X33.145 Y120.560 
G01 X33.082 Y118.638 
G02 X53.679 Y94.507 I-2.180 J-22.716
G01 X53.592 Y92.936  
G01 X55.288 Y69.902 
G01 X56.647 Y92.482 
G01 X56.628 Y93.638 
G02 X75.737 Y116.935 I22.808 J0.778
G01 X75.625 Y118.790  
G01 X75.573 Y120.612 
G01 X75.573 Y122.818 
G01 X75.656 Y125.817 
G01 X75.972 Y132.158 
G01 X76.037 Y134.179 
G01 X76.048 Y135.624 
G01 X76.019 Y137.007 
G01 X75.921 Y139.249 
G01 X79.481 Y139.426  
G01 X79.222 Y144.576  
G01 X79.142 Y147.511 
G01 X79.142 Y149.616 
G01 X79.191 Y151.310 
G01 X79.287 Y152.964 
G01 X79.364 Y153.872 
G02 X82.239 Y162.494 I19.189 J-1.609
G01 X82.381 Y163.360  
G02 X72.486 Y191.161 I6.710 J18.050
G02 X71.085 Y199.502 I17.827 J7.281
G01 X70.478 Y201.272  
G01 X69.360 Y204.380 
G01 X68.721 Y206.275 
G01 X68.393 Y207.341 
G01 X68.066 Y208.480 
G01 X67.666 Y210.116 
G01 X67.458 Y211.040 
G01 X67.331 Y211.814 
G01 X67.129 Y213.513 
G01 X67.070 Y214.501 
G02 X62.748 Y228.682 I14.840 J12.272
G01 X64.812 Y249.333  
G01 X64.840 Y249.570 
G01 X63.622 Y249.423 
G01 X62.281 Y249.305 
G02 X53.335 Y250.749 I-1.490 J19.199
G01 X53.127 Y250.836  
G02 X45.187 Y249.429 I-7.255 J17.838
G01 X43.665 Y249.483  
G01 X44.080 Y246.746 
G01 X44.340 Y244.729 
G01 X45.917 Y229.152 
G02 X41.721 Y215.097 I-19.159 J-1.934
G01 X41.708 Y213.867  
G01 X41.627 Y212.266 
G01 X41.473 Y210.635 
G01 X41.300 Y209.430 
G01 X41.045 Y208.092 
G01 X40.798 Y207.043 
G01 X40.448 Y205.778 
G01 X40.140 Y204.822 
G01 X39.513 Y203.073 
G01 X38.268 Y199.960 
G02 X36.916 Y191.277 I-19.201 J-1.458
G01 X36.583 Y190.472  
G02 X26.368 Y163.888 I-17.209 J-8.642
G01 X26.563 Y162.312  
G02 X29.350 Y153.833 I-16.402 J-10.088
G01 X29.479 Y152.135  
G01 X29.555 Y150.419 
G01 X29.573 Y148.738 
G01 X29.573 Y147.472 
G01 X29.493 Y144.549 
G01 X29.179 Y138.220 
G01 X29.121 Y136.613 
G01 X29.100 Y135.225 
G01 X29.136 Y133.091 
G01 X29.235 Y130.826 
G01 X29.494 Y125.710 
G01 X29.562 Y123.580 
G01 X29.581 Y120.605 
G01 X29.530 Y118.965 
G01 X29.447 Y117.525 
G01 X29.122 Y115.096 
G02 X50.121 Y94.728 I1.780 J-19.174
G01 X50.020 Y92.912  
G01 X51.683 Y70.288 
G01 X52.084 Y65.284 
G01 X53.360 Y50.037 
G01 X53.756 Y44.837 
G01 X54.102 Y39.602 
G01 X54.386 Y34.332 
G01 X54.593 Y29.827 
G01 X54.610 Y28.239 
G01 X56.446 Y28.239 
G01 X56.357 Y29.463 
G01 X56.291 Y31.303 
G01 X56.291 Y32.889 
G01 X56.343 Y34.583 
G01 X56.431 Y36.146 
G01 X56.538 Y37.566 
G01 X56.812 Y40.367 
G01 X57.332 Y45.205 
G01 X57.496 Y47.276 
G01 X60.211 Y92.409 
G01 X60.190 Y93.759 
G02 X79.782 Y113.669 I19.245 J0.657
G01 X79.371 Y116.280  
G01 X79.285 Y117.268 
G01 X79.186 Y118.947 
G01 X79.137 Y120.652 
G01 X79.137 Y122.779 
G01 X79.217 Y125.676 
G01 X79.533 Y132.005 
G01 X79.601 Y134.123 
G01 X79.612 Y135.654 
G01 X79.581 Y137.130 
G01 X79.481 Y139.426 
G01 X83.041 Y139.604  
G01 X82.784 Y144.718  
G01 X82.706 Y147.549 
G01 X82.706 Y149.576 
G01 X82.752 Y151.153 
G01 X82.842 Y152.699 
G01 X82.915 Y153.574 
G02 X85.633 Y161.170 I15.638 J-1.312
G01 X86.064 Y163.862  
G01 X86.239 Y165.199 
G01 X86.310 Y165.965 
G02 X76.547 Y190.839 I2.781 J15.444
G01 X76.291 Y191.361  
G01 X76.006 Y191.995 
G02 X74.689 Y199.908 I14.307 J6.447
G01 X74.317 Y201.086  
G01 X73.835 Y202.469 
G01 X72.725 Y205.555 
G01 X72.117 Y207.358 
G01 X71.508 Y209.405 
G01 X71.141 Y210.909 
G01 X70.959 Y211.720 
G01 X70.848 Y212.392 
G01 X70.684 Y213.777 
G01 X70.665 Y214.030 
G01 X70.622 Y215.189 
G01 X70.623 Y215.871 
G02 X66.295 Y228.328 I11.287 J10.902
G01 X68.374 Y249.110  
G01 X68.582 Y250.527 
G01 X68.908 Y252.251 
G01 X69.244 Y253.842 
G01 X64.863 Y253.168 
G01 X63.246 Y252.968 
G01 X62.005 Y252.858 
G02 X54.715 Y254.035 I-1.214 J15.645
G01 X53.043 Y254.716  
G02 X45.314 Y252.991 I-7.172 J13.958
G01 X39.821 Y253.172  
G01 X39.551 Y253.176 
G01 X39.685 Y252.036 
G01 X39.993 Y249.904 
G01 X40.551 Y246.247 
G01 X40.799 Y244.317 
G01 X42.371 Y228.794 
G02 X38.139 Y216.414 I-15.613 J-1.576
G01 X38.157 Y214.766  
G01 X38.120 Y213.329 
G01 X38.029 Y212.002 
G01 X37.934 Y211.069 
G01 X37.781 Y210.001 
G01 X37.562 Y208.850 
G01 X37.345 Y207.927 
G01 X37.033 Y206.800 
G01 X36.761 Y205.954 
G01 X36.183 Y204.344 
G01 X34.782 Y200.820 
G01 X34.642 Y200.425 
G01 X34.662 Y200.240 
G02 X33.612 Y192.615 I-15.596 J-1.738
G01 X33.372 Y192.020  
G01 X32.741 Y190.662 
G01 X32.569 Y190.324 
G02 X22.649 Y166.483 I-13.195 J-8.494
G01 X22.658 Y165.635  
G01 X22.742 Y164.348 
G01 X22.897 Y162.856 
G01 X23.134 Y161.052 
G02 X25.798 Y153.535 I-12.973 J-8.829
G01 X25.921 Y151.923  
G01 X25.992 Y150.313 
G01 X26.009 Y148.738 
G01 X26.009 Y147.510 
G01 X25.932 Y144.689 
G01 X25.618 Y138.373 
G01 X25.558 Y136.704 
G01 X25.536 Y135.209 
G01 X25.574 Y132.970 
G01 X25.676 Y130.647 
G01 X25.933 Y125.568 
G01 X25.999 Y123.508 
G01 X26.017 Y120.651 
G01 X25.969 Y119.123 
G01 X25.892 Y117.772 
G02 X23.076 Y109.839 I-15.655 J1.089
G01 X23.030 Y109.497  
G02 X46.564 Y94.949 I7.872 J-13.575
G01 X46.447 Y92.896  
G01 X48.129 Y70.014 
G01 X48.532 Y64.989 
G01 X49.807 Y49.754 
G01 X50.201 Y44.582 
G01 X50.544 Y39.388 
G01 X50.826 Y34.167 
G01 X51.032 Y29.677 
G01 X51.044 Y29.309 
G02 X50.506 Y24.675 I-15.684 J-0.526
G01 X60.544 Y24.675  
G01 X60.364 Y25.611 
G01 X60.252 Y26.305 
G01 X60.131 Y27.206 
G01 X59.966 Y28.893 
G01 X59.875 Y30.555 
G01 X59.855 Y32.108 
G01 X59.873 Y33.610 
G01 X59.937 Y35.117 
G01 X60.090 Y37.267 
G01 X60.356 Y39.990 
G01 X60.880 Y44.870 
G01 X60.974 Y45.924 
G01 X61.052 Y47.045 
G01 X63.775 Y92.337 
G01 X63.771 Y93.304 
G01 X63.752 Y93.881 
G02 X85.761 Y108.777 I15.683 J0.535
G01 X85.746 Y108.893  
G02 X82.922 Y116.591 I12.808 J9.067
G01 X82.789 Y118.316  
G01 X82.718 Y119.924 
G01 X82.701 Y121.491 
G01 X82.701 Y122.741 
G01 X82.779 Y125.535 
G01 X83.094 Y131.851 
G01 X83.165 Y134.067 
G01 X83.176 Y135.684 
G01 X83.143 Y137.253 
G01 X83.041 Y139.604 
G01 X86.601 Y139.782  
G01 X86.345 Y144.861  
G01 X86.270 Y147.587 
G01 X86.270 Y149.537 
G01 X86.312 Y150.996 
G01 X86.396 Y152.435 
G01 X86.467 Y153.276 
G02 X89.016 Y159.755 I12.086 J-1.014
G01 X89.591 Y163.352  
G01 X89.782 Y164.815 
G01 X89.900 Y166.266 
G01 X89.915 Y167.397 
G01 X89.890 Y167.896 
G01 X89.800 Y168.578 
G01 X89.696 Y168.999 
G01 X89.648 Y169.141 
G01 X89.298 Y169.231 
G01 X88.857 Y169.280 
G01 X88.586 Y169.292 
G02 X80.690 Y190.157 I0.505 J12.118
G01 X80.825 Y190.318  
G01 X79.851 Y192.199 
G01 X79.516 Y192.879 
G01 X79.255 Y193.459 
G02 X78.259 Y199.788 I11.058 J4.982
G01 X78.307 Y200.212  
G01 X77.904 Y201.583 
G01 X77.192 Y203.667 
G01 X76.090 Y206.729 
G01 X75.512 Y208.441 
G01 X74.951 Y210.330 
G01 X74.616 Y211.703 
G01 X74.459 Y212.401 
G01 X74.365 Y212.970 
G01 X74.238 Y214.040 
G01 X74.186 Y214.740 
G01 X74.186 Y215.877 
G01 X74.203 Y216.501 
G01 X74.250 Y217.370 
G02 X69.841 Y227.975 I7.660 J9.403
G01 X71.911 Y248.667  
G01 X72.096 Y249.931 
G01 X72.399 Y251.536 
G01 X73.108 Y254.949 
G01 X73.296 Y256.090 
G01 X73.389 Y257.014 
G01 X73.391 Y257.590 
G01 X72.897 Y257.668 
G01 X72.181 Y257.697 
G01 X71.076 Y257.650 
G01 X70.055 Y257.548 
G01 X68.382 Y257.319 
G01 X65.099 Y256.802 
G01 X63.695 Y256.608 
G01 X62.175 Y256.446 
G01 X61.729 Y256.412 
G02 X56.095 Y257.321 I-0.939 J12.092
G01 X53.970 Y258.183  
G01 X52.662 Y258.625 
G02 X45.440 Y256.553 I-6.791 J10.049
G01 X39.892 Y256.735  
G01 X38.083 Y256.749 
G01 X36.241 Y256.711 
G01 X35.886 Y256.693 
G01 X35.848 Y255.874 
G01 X35.872 Y254.509 
G01 X35.974 Y253.111 
G01 X36.151 Y251.570 
G01 X36.469 Y249.366 
G01 X37.022 Y245.747 
G01 X37.259 Y243.906 
G01 X38.825 Y228.436 
G02 X34.512 Y217.892 I-12.067 J-1.218
G01 X34.576 Y216.331  
G01 X34.593 Y214.793 
G01 X34.560 Y213.503 
G01 X34.480 Y212.328 
G01 X34.396 Y211.503 
G01 X34.262 Y210.571 
G01 X34.079 Y209.607 
G01 X33.891 Y208.811 
G01 X33.617 Y207.822 
G01 X33.102 Y206.288 
G01 X32.551 Y204.847 
G01 X31.621 Y202.537 
G01 X31.143 Y201.199 
G01 X31.017 Y200.768 
G01 X31.120 Y199.846 
G02 X30.309 Y193.952 I-12.054 J-1.343
G01 X30.093 Y193.418  
G01 X29.545 Y192.240 
G01 X28.464 Y190.090 
G01 X28.674 Y189.662 
G01 X28.811 Y189.449 
G02 X20.019 Y169.719 I-9.437 J-7.619
G01 X19.652 Y169.698  
G01 X19.491 Y169.349 
G01 X19.383 Y169.054 
G01 X19.244 Y168.464 
G01 X19.176 Y168.026 
G01 X19.109 Y167.292 
G01 X19.083 Y165.993 
G01 X19.151 Y164.530 
G01 X19.296 Y162.985 
G01 X19.718 Y159.690 
G02 X22.246 Y153.237 I-9.558 J-7.467
G01 X22.363 Y151.711  
G01 X22.429 Y150.207 
G01 X22.445 Y148.738 
G01 X22.445 Y147.548 
G01 X22.370 Y144.829 
G01 X22.057 Y138.527 
G01 X21.994 Y136.796 
G01 X21.972 Y135.192 
G01 X22.012 Y132.849 
G01 X22.116 Y130.469 
G01 X22.372 Y125.425 
G01 X22.435 Y123.436 
G01 X22.453 Y120.696 
G01 X22.370 Y118.499 
G01 X22.336 Y118.020 
G02 X19.691 Y111.264 I-12.099 J0.842
G01 X19.452 Y109.614  
G01 X19.337 Y108.450 
G01 X19.272 Y107.365 
G01 X19.256 Y106.195 
G01 X19.274 Y105.174 
G01 X19.297 Y104.755 
G01 X19.662 Y104.494 
G01 X20.073 Y104.259 
G01 X20.688 Y103.996 
G01 X21.341 Y103.811 
G01 X21.647 Y103.762 
G01 X21.752 Y103.882 
G02 X43.007 Y95.170 I9.150 J-7.961
G01 X42.883 Y93.033  
G01 X42.888 Y92.695 
G01 X44.575 Y69.740 
G01 X44.980 Y64.694 
G01 X46.254 Y49.472 
G01 X46.646 Y44.327 
G01 X46.986 Y39.174 
G01 X47.265 Y34.002 
G01 X47.471 Y29.527 
G01 X47.482 Y29.190 
G02 X44.754 Y21.111 I-12.122 J-0.407
G01 X65.948 Y21.111  
G02 X63.883 Y26.177 I9.910 J6.993
G01 X63.670 Y27.633  
G01 X63.520 Y29.166 
G01 X63.437 Y30.672 
G01 X63.419 Y32.108 
G01 X63.436 Y33.502 
G01 X63.496 Y34.918 
G01 X63.642 Y36.967 
G01 X63.900 Y39.613 
G01 X64.429 Y44.536 
G01 X64.527 Y45.642 
G01 X64.609 Y46.813 
G01 X67.338 Y92.266 
G01 X67.335 Y93.390 
G01 X67.314 Y94.002 
G02 X87.179 Y103.750 I12.121 J0.414
G01 X87.297 Y103.652  
G01 X87.772 Y103.758 
G01 X88.348 Y103.983 
G01 X88.869 Y104.277 
G01 X89.256 Y104.562 
G01 X89.419 Y104.713 
G01 X89.471 Y105.560 
G01 X89.484 Y106.527 
G01 X89.457 Y107.437 
G01 X89.382 Y108.458 
G01 X89.207 Y109.888 
G01 X89.138 Y110.315 
G02 X86.472 Y116.902 I9.416 J7.644
G01 X86.347 Y118.525  
G01 X86.281 Y120.026 
G01 X86.265 Y121.491 
G01 X86.265 Y122.702 
G01 X86.340 Y125.395 
G01 X86.654 Y131.697 
G01 X86.729 Y134.011 
G01 X86.740 Y135.714 
G01 X86.705 Y137.376 
G01 X86.601 Y139.782 
G01 X90.160 Y139.960  
G01 X89.906 Y145.003  
G01 X89.834 Y147.625 
G01 X89.834 Y149.497 
G01 X89.873 Y150.839 
G01 X89.951 Y152.171 
G01 X90.019 Y152.978 
G02 X92.389 Y158.208 I8.534 J-0.716
G01 X92.576 Y159.455  
G01 X93.119 Y162.841 
G01 X93.326 Y164.431 
G01 X93.426 Y165.524 
G01 X93.478 Y166.561 
G01 X93.478 Y167.511 
G01 X93.440 Y168.217 
G01 X93.334 Y169.065 
G01 X93.199 Y169.709 
G01 X92.967 Y170.444 
G01 X92.731 Y170.950 
G01 X92.424 Y171.420 
G01 X92.241 Y171.639 
G01 X91.691 Y172.084 
G01 X91.345 Y172.282 
G01 X91.001 Y172.440 
G01 X90.607 Y172.579 
G01 X90.099 Y172.707 
G01 X89.396 Y172.814 
G01 X88.734 Y172.853 
G02 X83.177 Y187.604 I0.357 J8.557
G01 X83.520 Y187.979  
G01 X83.856 Y188.430 
G01 X84.160 Y188.936 
G01 X84.456 Y189.572 
G01 X84.641 Y190.061 
G01 X84.632 Y190.261 
G01 X84.563 Y190.583 
G01 X84.390 Y191.078 
G01 X84.136 Y191.662 
G01 X83.855 Y192.232 
G01 X83.030 Y193.811 
G01 X82.741 Y194.398 
G01 X82.505 Y194.923 
G02 X81.801 Y199.392 I7.808 J3.518
G01 X81.900 Y200.342  
G01 X81.890 Y200.585 
G01 X81.522 Y201.941 
G01 X81.075 Y203.355 
G01 X80.549 Y204.864 
G01 X79.455 Y207.904 
G01 X78.908 Y209.525 
G01 X78.394 Y211.254 
G01 X77.959 Y213.082 
G01 X77.821 Y213.923 
G01 X77.750 Y214.872 
G01 X77.764 Y216.356 
G01 X77.878 Y218.555 
G01 X77.886 Y219.213 
G02 X73.388 Y227.622 I4.024 J7.560
G01 X75.447 Y248.224  
G01 X75.611 Y249.335 
G01 X75.891 Y250.822 
G01 X76.612 Y254.293 
G01 X76.828 Y255.615 
G01 X76.920 Y256.414 
G01 X76.961 Y257.151 
G01 X76.957 Y257.666 
G01 X76.913 Y258.241 
G01 X76.817 Y258.764 
G01 X76.714 Y259.089 
G01 X76.556 Y259.456 
G01 X76.330 Y259.813 
G01 X76.066 Y260.103 
G01 X75.846 Y260.299 
G01 X75.557 Y260.512 
G01 X75.165 Y260.736 
G01 X74.567 Y260.961 
G01 X74.045 Y261.096 
G01 X73.493 Y261.187 
G01 X72.896 Y261.243 
G01 X72.145 Y261.261 
G01 X71.324 Y261.237 
G01 X70.277 Y261.159 
G01 X69.057 Y261.016 
G01 X67.850 Y260.843 
G01 X64.579 Y260.328 
G01 X62.496 Y260.057 
G01 X61.454 Y259.965 
G02 X57.475 Y260.607 I-0.663 J8.538
G01 X55.975 Y261.221  
G01 X55.229 Y261.518 
G01 X53.993 Y261.944 
G01 X52.957 Y262.245 
G01 X52.080 Y262.434 
G01 X51.775 Y262.470 
G02 X45.567 Y260.115 I-5.904 J6.204
G01 X40.942 Y260.274  
G01 X39.010 Y260.313 
G01 X37.055 Y260.300 
G01 X35.223 Y260.228 
G01 X33.799 Y260.118 
G01 X33.225 Y260.049 
G01 X32.960 Y259.951 
G01 X32.848 Y259.886 
G01 X32.619 Y258.987 
G01 X32.453 Y258.060 
G01 X32.368 Y257.379 
G01 X32.299 Y256.405 
G01 X32.283 Y255.387 
G01 X32.312 Y254.343 
G01 X32.426 Y252.778 
G01 X32.618 Y251.103 
G01 X32.946 Y248.828 
G01 X33.493 Y245.247 
G01 X33.719 Y243.494 
G01 X35.279 Y228.078 
G02 X30.854 Y219.697 I-8.521 J-0.860
G01 X31.013 Y216.236  
G01 X31.029 Y214.821 
G01 X31.000 Y213.678 
G01 X30.931 Y212.655 
G01 X30.857 Y211.937 
G01 X30.675 Y210.762 
G01 X30.438 Y209.695 
G01 X30.202 Y208.844 
G01 X29.748 Y207.494 
G01 X29.241 Y206.167 
G01 X28.297 Y203.823 
G01 X27.798 Y202.441 
G01 X27.515 Y201.463 
G01 X27.444 Y201.127 
G01 X27.439 Y200.741 
G01 X27.578 Y199.451 
G02 X27.005 Y195.289 I-8.511 J-0.948
G01 X26.617 Y194.378  
G01 X26.349 Y193.819 
G01 X25.282 Y191.700 
G01 X25.025 Y191.123 
G01 X24.837 Y190.580 
G01 X24.753 Y190.169 
G01 X24.762 Y189.883 
G01 X24.947 Y189.309 
G01 X25.184 Y188.694 
G01 X25.461 Y188.108 
G01 X25.800 Y187.532 
G01 X26.038 Y187.210 
G02 X19.829 Y173.278 I-6.664 J-5.380
G01 X19.041 Y173.218  
G01 X18.461 Y173.096 
G01 X18.017 Y172.944 
G01 X17.666 Y172.767 
G01 X17.478 Y172.635 
G01 X17.239 Y172.408 
G01 X16.976 Y172.100 
G01 X16.672 Y171.661 
G01 X16.388 Y171.148 
G01 X16.102 Y170.462 
G01 X15.965 Y170.068 
G01 X15.775 Y169.302 
G01 X15.637 Y168.455 
G01 X15.551 Y167.507 
G01 X15.519 Y166.468 
G01 X15.535 Y165.366 
G01 X15.640 Y163.734 
G01 X15.820 Y161.994 
G01 X16.323 Y158.171 
G02 X18.695 Y152.939 I-6.162 J-5.947
G01 X18.805 Y151.500  
G01 X18.881 Y149.459 
G01 X18.881 Y147.586 
G01 X18.809 Y144.969 
G01 X18.497 Y138.680 
G01 X18.431 Y136.887 
G01 X18.408 Y135.175 
G01 X18.450 Y132.728 
G01 X18.556 Y130.290 
G01 X18.810 Y125.283 
G01 X18.872 Y123.364 
G01 X18.889 Y120.741 
G01 X18.812 Y118.711 
G01 X18.781 Y118.267 
G02 X16.366 Y112.880 I-8.544 J0.594
G01 X16.082 Y111.271  
G01 X15.913 Y110.032 
G01 X15.784 Y108.734 
G01 X15.711 Y107.508 
G01 X15.692 Y106.924 
G01 X15.692 Y105.605 
G01 X15.745 Y104.442 
G01 X15.808 Y103.730 
G01 X15.887 Y103.439 
G01 X16.084 Y103.055 
G01 X16.382 Y102.644 
G01 X16.600 Y102.400 
G01 X16.858 Y102.149 
G01 X17.212 Y101.857 
G01 X17.757 Y101.481 
G01 X18.457 Y101.082 
G01 X19.072 Y100.799 
G01 X19.776 Y100.544 
G01 X20.608 Y100.323 
G01 X21.213 Y100.224 
G01 X21.912 Y100.182 
G01 X22.232 Y100.194 
G01 X22.628 Y100.245 
G01 X22.989 Y100.352 
G01 X23.316 Y100.518 
G01 X23.681 Y100.775 
G01 X23.946 Y101.008 
G01 X24.441 Y101.543 
G02 X39.449 Y95.391 I6.461 J-5.621
G01 X39.319 Y93.155  
G01 X39.330 Y92.491 
G01 X41.022 Y69.466 
G01 X41.429 Y64.398 
G01 X42.701 Y49.190 
G01 X43.091 Y44.072 
G01 X43.428 Y38.960 
G01 X43.705 Y33.837 
G01 X43.910 Y29.377 
G01 X43.920 Y29.070 
G02 X41.468 Y22.779 I-8.559 J-0.287
G01 X41.084 Y21.937  
G01 X40.810 Y21.224 
G01 X40.638 Y20.571 
G01 X40.559 Y20.061 
G01 X40.538 Y19.357 
G01 X40.597 Y18.710 
G01 X40.740 Y17.846 
G01 X40.802 Y17.547 
G01 X70.058 Y17.547 
G01 X70.204 Y18.953 
G01 X70.250 Y19.752 
G01 X70.247 Y20.513 
G01 X70.193 Y21.161 
G01 X70.148 Y21.438 
G01 X70.000 Y21.683 
G01 X69.116 Y22.821 
G02 X67.402 Y26.743 I6.741 J5.283
G01 X67.209 Y28.060  
G01 X67.074 Y29.439 
G01 X67.000 Y30.789 
G01 X66.984 Y32.108 
G01 X66.998 Y33.393 
G01 X67.098 Y35.406 
G01 X67.193 Y36.668 
G01 X67.444 Y39.236 
G01 X67.977 Y44.201 
G01 X68.080 Y45.361 
G01 X68.166 Y46.582 
G01 X70.893 Y91.904 
G01 X70.908 Y92.787 
G01 X70.876 Y94.124 
G02 X84.903 Y101.007 I8.559 J0.292
G01 X85.340 Y100.656  
G01 X85.756 Y100.394 
G01 X86.037 Y100.259 
G01 X86.415 Y100.136 
G01 X86.786 Y100.080 
G01 X87.368 Y100.077 
G01 X88.012 Y100.155 
G01 X88.567 Y100.279 
G01 X89.157 Y100.464 
G01 X89.900 Y100.774 
G01 X90.592 Y101.149 
G01 X91.150 Y101.519 
G01 X91.573 Y101.852 
G01 X91.910 Y102.162 
G01 X92.314 Y102.609 
G01 X92.605 Y103.028 
G01 X92.781 Y103.371 
G01 X92.882 Y103.670 
G01 X92.916 Y103.852 
G01 X93.008 Y104.931 
G01 X93.048 Y106.012 
G01 X93.037 Y107.112 
G01 X92.982 Y108.186 
G01 X92.884 Y109.252 
G01 X92.732 Y110.419 
G01 X92.462 Y111.941 
G02 X90.023 Y117.213 I6.092 J6.019
G01 X89.905 Y118.734  
G01 X89.844 Y120.128 
G01 X89.829 Y122.000 
G01 X89.857 Y123.961 
G01 X89.961 Y126.582 
G01 X90.215 Y131.544 
G01 X90.293 Y133.955 
G01 X90.304 Y135.744 
G01 X90.267 Y137.499 
G01 X90.160 Y139.960 
G01 X93.720 Y140.137  
G01 X93.468 Y145.145  
G01 X93.398 Y147.663 
G01 X93.411 Y150.039 
G01 X93.505 Y151.907 
G01 X93.570 Y152.681 
G02 X95.255 Y156.021 I4.983 J-0.418
G01 X95.502 Y156.254  
G01 X95.656 Y156.464 
G01 X95.770 Y156.722 
G01 X95.809 Y156.894 
G01 X96.096 Y158.896 
G01 X96.646 Y162.331 
G01 X96.869 Y164.046 
G01 X96.981 Y165.268 
G01 X97.041 Y166.475 
G01 X97.041 Y167.625 
G01 X96.990 Y168.539 
G01 X96.881 Y169.464 
G01 X96.719 Y170.317 
G01 X96.511 Y171.089 
G01 X96.330 Y171.634 
G01 X95.982 Y172.427 
G01 X95.613 Y173.073 
G01 X95.262 Y173.577 
G01 X94.866 Y174.054 
G01 X94.682 Y174.247 
G01 X94.059 Y174.765 
G01 X93.537 Y175.136 
G01 X92.935 Y175.474 
G01 X92.319 Y175.752 
G01 X91.571 Y176.011 
G01 X90.815 Y176.200 
G01 X89.986 Y176.334 
G01 X89.281 Y176.397 
G01 X88.883 Y176.414 
G02 X85.638 Y185.026 I0.208 J4.996
G01 X86.132 Y185.549  
G01 X86.627 Y186.172 
G01 X87.103 Y186.901 
G01 X87.351 Y187.343 
G01 X87.738 Y188.181 
G01 X88.028 Y188.929 
G01 X88.155 Y189.458 
G01 X88.205 Y189.993 
G01 X88.192 Y190.487 
G01 X88.104 Y191.103 
G01 X87.987 Y191.575 
G01 X87.787 Y192.182 
G01 X87.327 Y193.249 
G01 X87.033 Y193.845 
G01 X86.209 Y195.423 
G01 X85.754 Y196.387 
G02 X85.344 Y198.997 I4.559 J2.054
G01 X85.452 Y200.021  
G01 X85.464 Y200.561 
G01 X85.428 Y201.042 
G01 X85.364 Y201.382 
G01 X85.161 Y202.173 
G01 X84.701 Y203.732 
G01 X84.192 Y205.249 
G01 X82.539 Y209.898 
G01 X82.059 Y211.405 
G01 X81.836 Y212.179 
G01 X81.459 Y213.762 
G01 X81.363 Y214.345 
G01 X81.314 Y215.004 
G01 X81.326 Y216.212 
G01 X81.441 Y218.454 
G01 X81.443 Y219.548 
G01 X81.388 Y220.246 
G01 X81.311 Y220.756 
G01 X81.216 Y221.079 
G01 X81.039 Y221.399 
G01 X80.896 Y221.578 
G01 X80.588 Y221.847 
G01 X80.317 Y222.011 
G01 X80.001 Y222.152 
G02 X76.935 Y227.268 I1.909 J4.621
G01 X78.984 Y247.782  
G01 X79.125 Y248.739 
G01 X79.383 Y250.107 
G01 X80.115 Y253.638 
G01 X80.361 Y255.139 
G01 X80.471 Y256.110 
G01 X80.525 Y257.081 
G01 X80.518 Y257.820 
G01 X80.448 Y258.696 
G01 X80.314 Y259.470 
G01 X80.149 Y260.070 
G01 X79.881 Y260.770 
G01 X79.572 Y261.369 
G01 X79.169 Y261.969 
G01 X78.868 Y262.333 
G01 X78.504 Y262.704 
G01 X78.050 Y263.101 
G01 X77.504 Y263.499 
G01 X76.991 Y263.805 
G01 X76.477 Y264.055 
G01 X75.639 Y264.361 
G01 X74.777 Y264.585 
G01 X73.939 Y264.724 
G01 X73.095 Y264.801 
G01 X72.109 Y264.825 
G01 X71.132 Y264.796 
G01 X69.929 Y264.707 
G01 X68.585 Y264.549 
G01 X67.317 Y264.367 
G01 X63.407 Y263.761 
G01 X62.120 Y263.601 
G01 X61.178 Y263.518 
G02 X58.855 Y263.893 I-0.387 J4.985
G01 X57.293 Y264.533  
G01 X56.487 Y264.853 
G01 X55.083 Y265.338 
G01 X53.856 Y265.694 
G01 X52.899 Y265.910 
G01 X52.226 Y266.009 
G01 X51.871 Y266.038 
G01 X51.365 Y266.043 
G01 X50.875 Y265.992 
G01 X50.488 Y265.890 
G01 X50.146 Y265.747 
G01 X49.847 Y265.561 
G01 X49.607 Y265.347 
G01 X49.508 Y265.243 
G02 X45.694 Y263.677 I-3.637 J3.431
G01 X41.041 Y263.837  
G01 X39.036 Y263.877 
G01 X36.981 Y263.864 
G01 X35.958 Y263.834 
G01 X35.005 Y263.786 
G01 X33.447 Y263.665 
G01 X32.628 Y263.565 
G01 X32.157 Y263.452 
G01 X31.615 Y263.256 
G01 X31.075 Y262.982 
G01 X30.688 Y262.723 
G01 X30.264 Y262.373 
G01 X29.949 Y262.021 
G01 X29.845 Y261.866 
G01 X29.616 Y261.433 
G01 X29.435 Y260.912 
G01 X29.206 Y260.054 
G01 X29.021 Y259.166 
G01 X28.846 Y257.962 
G01 X28.775 Y257.201 
G01 X28.719 Y255.989 
G01 X28.729 Y254.786 
G01 X28.782 Y253.626 
G01 X28.938 Y251.848 
G01 X29.084 Y250.637 
G01 X29.423 Y248.289 
G01 X29.964 Y244.748 
G01 X30.245 Y242.458 
G01 X31.733 Y227.720 
G02 X27.596 Y222.289 I-4.975 J-0.502
G01 X27.415 Y222.226  
G01 X27.341 Y222.159 
G01 X27.247 Y221.987 
G01 X27.232 Y221.859 
G01 X27.250 Y220.569 
G01 X27.450 Y216.141 
G01 X27.465 Y214.849 
G01 X27.440 Y213.853 
G01 X27.381 Y212.981 
G01 X27.319 Y212.371 
G01 X27.173 Y211.429 
G01 X26.984 Y210.579 
G01 X26.787 Y209.866 
G01 X26.395 Y208.701 
G01 X25.930 Y207.486 
G01 X24.973 Y205.110 
G01 X24.521 Y203.877 
G01 X24.152 Y202.689 
G01 X23.969 Y201.958 
G01 X23.886 Y201.373 
G01 X23.877 Y200.594 
G01 X24.036 Y199.056 
G02 X23.701 Y196.626 I-4.969 J-0.554
G01 X23.383 Y195.877  
G01 X22.335 Y193.789 
G01 X21.835 Y192.734 
G01 X21.537 Y191.965 
G01 X21.357 Y191.364 
G01 X21.234 Y190.751 
G01 X21.185 Y190.239 
G01 X21.205 Y189.583 
G01 X21.268 Y189.174 
G01 X21.323 Y188.933 
G01 X21.594 Y188.099 
G01 X21.904 Y187.299 
G01 X22.312 Y186.438 
G01 X22.613 Y185.907 
G01 X22.824 Y185.568 
G01 X23.265 Y184.971 
G02 X19.640 Y176.837 I-3.890 J-3.141
G01 X18.768 Y176.776  
G01 X18.237 Y176.698 
G01 X17.885 Y176.628 
G01 X17.209 Y176.442 
G01 X16.567 Y176.201 
G01 X15.916 Y175.873 
G01 X15.393 Y175.531 
G01 X14.938 Y175.147 
G01 X14.429 Y174.615 
G01 X14.111 Y174.219 
G01 X13.634 Y173.525 
G01 X13.299 Y172.938 
G01 X12.960 Y172.213 
G01 X12.639 Y171.367 
G01 X12.405 Y170.559 
G01 X12.221 Y169.688 
G01 X12.099 Y168.884 
G01 X11.993 Y167.722 
G01 X11.954 Y166.502 
G01 X11.973 Y165.231 
G01 X12.089 Y163.427 
G01 X12.282 Y161.564 
G01 X12.920 Y156.766 
G01 X13.003 Y156.521 
G01 X13.121 Y156.326 
G01 X13.331 Y156.094 
G01 X13.457 Y155.983 
G02 X15.143 Y152.641 I-3.297 J-3.759
G01 X15.247 Y151.288  
G01 X15.317 Y149.419 
G01 X15.317 Y147.624 
G01 X15.247 Y145.109 
G01 X14.936 Y138.834 
G01 X14.868 Y136.979 
G01 X14.843 Y135.159 
G01 X14.870 Y133.220 
G01 X14.996 Y130.111 
G01 X15.249 Y125.141 
G01 X15.308 Y123.292 
G01 X15.325 Y120.787 
G01 X15.254 Y118.923 
G01 X15.225 Y118.514 
G02 X13.347 Y114.946 I-4.988 J0.347
G01 X13.198 Y114.795  
G01 X13.106 Y114.641 
G01 X12.787 Y113.153 
G01 X12.559 Y111.813 
G01 X12.373 Y110.451 
G01 X12.231 Y109.017 
G01 X12.149 Y107.651 
G01 X12.128 Y106.980 
G01 X12.128 Y105.542 
G01 X12.189 Y104.201 
G01 X12.264 Y103.323 
G01 X12.358 Y102.811 
G01 X12.532 Y102.233 
G01 X12.791 Y101.647 
G01 X13.043 Y101.195 
G01 X13.441 Y100.617 
G01 X13.776 Y100.207 
G01 X14.036 Y99.923 
G01 X14.523 Y99.456 
G01 X15.070 Y99.007 
G01 X15.852 Y98.468 
G01 X16.463 Y98.105 
G01 X17.238 Y97.712 
G01 X18.112 Y97.347 
G01 X18.722 Y97.138 
G01 X19.493 Y96.920 
G01 X20.394 Y96.739 
G01 X21.072 Y96.656 
G01 X21.871 Y96.617 
G01 X22.586 Y96.647 
G01 X23.208 Y96.726 
G01 X23.753 Y96.850 
G01 X24.346 Y97.055 
G01 X24.944 Y97.343 
G01 X25.482 Y97.675 
G01 X25.924 Y98.005 
G01 X26.235 Y98.265 
G01 X26.685 Y98.708 
G01 X27.129 Y99.204 
G02 X35.892 Y95.612 I3.772 J-3.282
G01 X35.755 Y93.276  
G01 X35.771 Y92.287 
G01 X37.468 Y69.192 
G01 X37.877 Y64.103 
G01 X39.148 Y48.908 
G01 X39.536 Y43.817 
G01 X39.871 Y38.747 
G01 X40.145 Y33.672 
G01 X40.349 Y29.226 
G01 X40.358 Y28.951 
G02 X38.842 Y25.194 I-4.997 J-0.168
G01 X38.584 Y24.921  
G01 X38.413 Y24.642 
G01 X37.938 Y23.650 
G01 X37.571 Y22.739 
G01 X37.394 Y22.239 
G01 X37.147 Y21.293 
G01 X37.044 Y20.695 
G01 X36.985 Y20.070 
G01 X36.973 Y19.253 
G01 X37.019 Y18.609 
G01 X37.178 Y17.507 
G01 X37.730 Y14.731 
G01 X37.845 Y14.228 
G01 X37.950 Y14.077 
G01 X38.089 Y13.997 
G01 X38.147 Y13.983 
G01 X73.007 Y13.983 
G01 X73.129 Y14.024 
G01 X73.244 Y14.113 
G01 X73.315 Y14.231 
G01 X73.345 Y14.348 
G01 X73.445 Y15.723 
G01 X73.757 Y18.671 
G01 X73.813 Y19.647 
G01 X73.809 Y20.663 
G01 X73.752 Y21.422 
G01 X73.648 Y22.121 
G01 X73.542 Y22.533 
G01 X73.364 Y22.977 
G01 X73.171 Y23.337 
G01 X72.904 Y23.751 
G01 X71.922 Y25.019 
G02 X70.921 Y27.309 I3.936 J3.084
G01 X70.747 Y28.487  
G01 X70.628 Y29.712 
G01 X70.557 Y31.209 
G01 X70.548 Y32.723 
G01 X70.613 Y34.522 
G01 X70.745 Y36.368 
G01 X70.988 Y38.859 
G01 X71.526 Y43.867 
G01 X71.633 Y45.079 
G01 X71.722 Y46.351 
G01 X74.455 Y91.759 
G01 X74.472 Y92.794 
G01 X74.438 Y94.245 
G02 X82.627 Y98.264 I4.997 J0.170
G01 X83.263 Y97.759  
G01 X83.794 Y97.410 
G01 X84.389 Y97.092 
G01 X84.727 Y96.944 
G01 X85.376 Y96.722 
G01 X85.694 Y96.645 
G01 X86.237 Y96.553 
G01 X86.820 Y96.506 
G01 X87.568 Y96.518 
G01 X88.139 Y96.570 
G01 X88.846 Y96.686 
G01 X89.515 Y96.842 
G01 X89.898 Y96.952 
G01 X90.372 Y97.113 
G01 X91.172 Y97.436 
G01 X91.824 Y97.753 
G01 X92.443 Y98.103 
G01 X93.248 Y98.636 
G01 X93.889 Y99.142 
G01 X94.439 Y99.649 
G01 X95.007 Y100.272 
G01 X95.416 Y100.812 
G01 X95.703 Y101.264 
G01 X96.002 Y101.833 
G01 X96.247 Y102.475 
G01 X96.398 Y103.066 
G01 X96.456 Y103.436 
G01 X96.566 Y104.715 
G01 X96.612 Y105.966 
G01 X96.600 Y107.220 
G01 X96.537 Y108.442 
G01 X96.426 Y109.650 
G01 X96.257 Y110.949 
G01 X96.045 Y112.193 
G01 X95.767 Y113.525 
G01 X95.613 Y113.825 
G01 X95.405 Y114.067 
G01 X95.198 Y114.254 
G02 X93.573 Y117.524 I3.357 J3.706
G01 X93.463 Y118.943  
G01 X93.406 Y120.230 
G01 X93.393 Y122.625 
G01 X93.463 Y125.113 
G01 X93.776 Y131.390 
G01 X93.856 Y133.899 
G01 X93.868 Y135.774 
G01 X93.829 Y137.622 
G01 X93.720 Y140.137 
G00 Z45.080
G00 X54.354 Y154.068  F6000.0
G01 Z5.000 F750.0 M3
G01 X54.356 Y154.046  F3000.0
G01 X54.357 Y154.065 
G01 X54.354 Y154.068 
G00 Z45.080
G00 Z60.320
M05
M1
( Pocket 2 [Clear 1] )
T2 M6( TOOL USE End Mill 4 mm )
S18000 M03
( Pocket 2 [Clear 1] )
( Pocket 2 [Clear 1] )
G00 X47.454 Y23.797 Z45.080 F7000.0
G01 Z4.000 F1200.0 M3
G01 X46.926 Y23.743  F3500.0
G01 X46.435 Y23.664 
G01 X45.962 Y23.561 
G01 X45.517 Y23.436 
G01 X45.105 Y23.288 
G01 X44.889 Y23.190 
G01 X48.164 Y23.181 
G01 X47.918 Y23.456 
G01 X47.742 Y23.618 
G01 X47.508 Y23.778 
G01 X47.454 Y23.797 
G00 Z45.080
G00 X62.869 Y23.170  F7000.0
G01 Z4.000 F1200.0 M3
G01 X65.681 Y23.170  F3500.0
G01 X65.220 Y23.408 
G01 X64.869 Y23.545 
G01 X64.537 Y23.641 
G01 X64.099 Y23.712 
G01 X63.807 Y23.707 
G01 X63.529 Y23.634 
G01 X63.226 Y23.467 
G01 X62.869 Y23.170 
G00 Z45.080
G00 X61.871 Y88.521  F7000.0
G01 Z4.000 F1200.0 M3
G01 X61.542 Y89.160  F3500.0
G01 X61.780 Y93.235 
G01 X62.168 Y93.601 
G01 X61.780 Y93.235 
G01 X48.910 Y93.246 
G01 X48.521 Y93.612 
G01 X48.910 Y93.246 
G01 X49.171 Y88.978 
G01 X48.844 Y88.318 
G01 X49.171 Y88.978 
G02 X50.699 Y89.783 I5.143 J-7.914
G01 X50.951 Y89.887  
G02 X52.133 Y90.288 I3.614 J-8.718
G01 X52.411 Y90.362  
G01 X53.302 Y90.554 
G01 X53.938 Y90.659 
G01 X54.864 Y90.742 
G01 X55.419 Y90.757 
G01 X56.320 Y90.739 
G01 X56.658 Y90.715 
G02 X58.004 Y90.525 I-0.644 J-9.416
G01 X58.307 Y90.460  
G02 X59.769 Y90.018 I-1.990 J-9.226
G01 X60.037 Y89.913  
G02 X61.498 Y89.187 I-3.452 J-8.784
G01 X61.542 Y89.160  
G01 X61.871 Y88.521 
G01 X60.488 Y87.003  
G02 X61.474 Y86.278 I-3.669 J-6.018
G01 X61.677 Y86.099  
G02 X62.479 Y85.268 I-4.654 J-5.292
G01 X62.653 Y85.056  
G01 X63.246 Y84.211 
G01 X63.610 Y83.574 
G01 X63.807 Y82.490 
G01 X63.881 Y81.941 
G01 X63.750 Y82.829 
G01 X63.610 Y83.574 
G01 X64.313 Y95.623 
G01 X64.701 Y95.989 
G01 X64.313 Y95.623 
G01 X46.370 Y95.638 
G01 X45.981 Y96.004 
G01 X46.370 Y95.638 
G01 X47.158 Y82.716 
G01 X47.064 Y81.651 
G01 X46.983 Y79.571 
G01 X47.064 Y81.651 
G01 X47.158 Y82.716 
G02 X47.589 Y83.793 I6.736 J-2.072
G01 X47.641 Y83.897  
G02 X48.294 Y84.957 I6.305 J-3.150
G01 X48.364 Y85.051  
G02 X49.092 Y85.884 I5.653 J-4.210
G01 X49.178 Y85.968  
G02 X50.229 Y86.814 I4.924 J-5.042
G01 X50.440 Y86.953  
G02 X51.614 Y87.575 I3.873 J-5.889
