%
(1001)
(T1  D=3. CR=1.5 - ZMIN=15.118 - BALL END MILL)
G90 G94 G17 G91.1
G64 P0.001
G21
G28 G91 Z0.
G90
(2D CONTOUR1)
M9
S18000 M3
G54
M8
G0 X649.059 Y520.114
G0 Z40.
Z30.
G1 Z25.6 F1200.
Z22.3
G18 G3 X648.759 Z22. I-0.3 K0. F2000.
G1 X648.459
G17 G3 X648.159 Y519.814 I0. J-0.3
G1 Y24.257 F4000.
G2 X646.659 Y22.757 I-1.5 J0.
G1 X349.325
G2 X347.825 Y24.257 I0. J1.5
G1 Y519.814
G2 X349.325 Y521.314 I1.5 J0.
G1 X646.659
G2 X648.159 Y519.814 I0. J-1.5
G3 X648.459 Y519.514 I0.3 J0. F2000.
G1 X648.759
G18 G2 X649.059 Z22.3 I0. K0.3
G0 Z30.
Y520.114
G1 Z23.767 F1200.
Z19.3
G3 X648.759 Z19. I-0.3 K0. F2000.
G1 X648.459
G17 G3 X648.159 Y519.814 I0. J-0.3
G1 Y24.257 F4000.
G2 X646.659 Y22.757 I-1.5 J0.
G1 X349.325
G2 X347.825 Y24.257 I0. J1.5
G1 Y519.814
G2 X349.325 Y521.314 I1.5 J0.
G1 X646.659
G2 X648.159 Y519.814 I0. J-1.5
G3 X648.459 Y519.514 I0.3 J0. F2000.
G1 X648.759
G18 G2 X649.059 Z19.3 I0. K0.3
G0 Z30.
Y520.114
G1 Z20.767 F1200.
Z17.486
G3 X648.759 Z17.186 I-0.3 K0. F2000.
G1 X648.459
G17 G3 X648.159 Y519.814 I0. J-0.3
G1 Y24.257 F4000.
G2 X646.659 Y22.757 I-1.5 J0.
G1 X349.325
G2 X347.825 Y24.257 I0. J1.5
G1 Y519.814
G2 X349.325 Y521.314 I1.5 J0.
G1 X646.659
G2 X648.159 Y519.814 I0. J-1.5
G3 X648.459 Y519.514 I0.3 J0. F2000.
G1 X648.759
G18 G2 X649.059 Z17.486 I0. K0.3
G0 Z30.
Y520.114
G1 Z18.952 F1200.
Z15.671
G3 X648.759 Z15.371 I-0.3 K0. F2000.
G1 X648.459
G17 G3 X648.159 Y519.814 I0. J-0.3
G1 Y24.257 F4000.
G2 X646.659 Y22.757 I-1.5 J0.
G1 X349.325
G2 X347.825 Y24.257 I0. J1.5
G1 Y519.814
G2 X349.325 Y521.314 I1.5 J0.
G1 X646.659
G2 X648.159 Y519.814 I0. J-1.5
G3 X648.459 Y519.514 I0.3 J0. F2000.
G1 X648.759
G18 G2 X649.059 Z15.671 I0. K0.3
G0 Z40.
X652.366 Y356.028
Z30.
G1 Z25.6 F1200.
Z22.3
G19 G2 Y355.728 Z22. J-0.3 K0. F2000.
G1 Y355.428
G17 G3 X652.666 Y355.128 I0.3 J0.
G1 X950. F4000.
G2 X951.5 Y353.628 I0. J-1.5
G1 Y190.444
G2 X950. Y188.944 I-1.5 J0.
G1 X652.666
G2 X651.166 Y190.444 I0. J1.5
G1 Y353.628
G2 X652.666 Y355.128 I1.5 J0.
G3 X652.966 Y355.428 I0. J0.3 F2000.
G1 Y355.728
G19 G3 Y356.028 Z22.3 J0. K0.3
G0 Z30.
X652.366
G1 Z23.767 F1200.
Z19.3
G2 Y355.728 Z19. J-0.3 K0. F2000.
G1 Y355.428
G17 G3 X652.666 Y355.128 I0.3 J0.
G1 X950. F4000.
G2 X951.5 Y353.628 I0. J-1.5
G1 Y190.444
G2 X950. Y188.944 I-1.5 J0.
G1 X652.666
G2 X651.166 Y190.444 I0. J1.5
G1 Y353.628
G2 X652.666 Y355.128 I1.5 J0.
G3 X652.966 Y355.428 I0. J0.3 F2000.
G1 Y355.728
G19 G3 Y356.028 Z19.3 J0. K0.3
G0 Z30.
X652.366
G1 Z20.767 F1200.
Z17.479
G2 Y355.728 Z17.179 J-0.3 K0. F2000.
G1 Y355.428
G17 G3 X652.666 Y355.128 I0.3 J0.
G1 X950. F4000.
G2 X951.5 Y353.628 I0. J-1.5
G1 Y190.444
G2 X950. Y188.944 I-1.5 J0.
G1 X652.666
G2 X651.166 Y190.444 I0. J1.5
G1 Y353.628
G2 X652.666 Y355.128 I1.5 J0.
G3 X652.966 Y355.428 I0. J0.3 F2000.
G1 Y355.728
G19 G3 Y356.028 Z17.479 J0. K0.3
G0 Z30.
X652.366
G1 Z18.946 F1200.
Z15.658
G2 Y355.728 Z15.358 J-0.3 K0. F2000.
G1 Y355.428
G17 G3 X652.666 Y355.128 I0.3 J0.
G1 X950. F4000.
G2 X951.5 Y353.628 I0. J-1.5
G1 Y190.444
G2 X950. Y188.944 I-1.5 J0.
G1 X652.666
G2 X651.166 Y190.444 I0. J1.5
G1 Y353.628
G2 X652.666 Y355.128 I1.5 J0.
G3 X652.966 Y355.428 I0. J0.3 F2000.
G1 Y355.728
G19 G3 Y356.028 Z15.658 J0. K0.3
G0 Z40.
X348.722 Y520.114
Z30.
G1 Z25.6 F1200.
Z22.3
G18 G3 X348.422 Z22. I-0.3 K0. F2000.
G1 X348.122
G17 G3 X347.822 Y519.814 I0. J-0.3
G1 Y24.257 F4000.
G2 X346.322 Y22.757 I-1.5 J0.
G1 X48.987
G2 X47.487 Y24.257 I0. J1.5
G1 Y519.814
G2 X48.987 Y521.314 I1.5 J0.
G1 X346.322
G2 X347.822 Y519.814 I0. J-1.5
G3 X348.122 Y519.514 I0.3 J0. F2000.
G1 X348.422
G18 G2 X348.722 Z22.3 I0. K0.3
G0 Z30.
Y520.114
G1 Z23.767 F1200.
Z19.3
G3 X348.422 Z19. I-0.3 K0. F2000.
G1 X348.122
G17 G3 X347.822 Y519.814 I0. J-0.3
G1 Y24.257 F4000.
G2 X346.322 Y22.757 I-1.5 J0.
G1 X48.987
G2 X47.487 Y24.257 I0. J1.5
G1 Y519.814
G2 X48.987 Y521.314 I1.5 J0.
G1 X346.322
G2 X347.822 Y519.814 I0. J-1.5
G3 X348.122 Y519.514 I0.3 J0. F2000.
G1 X348.422
G18 G2 X348.722 Z19.3 I0. K0.3
G0 Z30.
Y520.114
G1 Z20.767 F1200.
Z17.451
G3 X348.422 Z17.151 I-0.3 K0. F2000.
G1 X348.122
G17 G3 X347.822 Y519.814 I0. J-0.3
G1 Y24.257 F4000.
G2 X346.322 Y22.757 I-1.5 J0.
G1 X48.987
G2 X47.487 Y24.257 I0. J1.5
G1 Y519.814
G2 X48.987 Y521.314 I1.5 J0.
G1 X346.322
G2 X347.822 Y519.814 I0. J-1.5
G3 X348.122 Y519.514 I0.3 J0. F2000.
G1 X348.422
G18 G2 X348.722 Z17.451 I0. K0.3
G0 Z30.
Y520.114
G1 Z18.918 F1200.
Z15.602
G3 X348.422 Z15.302 I-0.3 K0. F2000.
G1 X348.122
G17 G3 X347.822 Y519.814 I0. J-0.3
G1 Y24.257 F4000.
G2 X346.322 Y22.757 I-1.5 J0.
G1 X48.987
G2 X47.487 Y24.257 I0. J1.5
G1 Y519.814
G2 X48.987 Y521.314 I1.5 J0.
G1 X346.322
G2 X347.822 Y519.814 I0. J-1.5
G3 X348.122 Y519.514 I0.3 J0. F2000.
G1 X348.422
G18 G2 X348.722 Z15.602 I0. K0.3
G0 Z40.
X649.059 Y355.43
Z30.
G1 Z25.6 F1200.
Z22.3
G3 X648.759 Z22. I-0.3 K0. F2000.
G1 X648.459
G17 G3 X648.159 Y355.129 I0. J-0.3
G1 Y24.257 F4000.
G2 X646.659 Y22.757 I-1.5 J0.
G1 X349.325
G2 X347.825 Y24.257 I0. J1.5
G1 Y519.814
G2 X349.325 Y521.314 I1.5 J0.
G1 X646.659
G2 X648.159 Y519.814 I0. J-1.5
G1 Y355.129
G3 X648.459 Y354.829 I0.3 J0. F2000.
G1 X648.759
G18 G2 X649.059 Z22.3 I0. K0.3
G0 Z30.
X650.407 Y354.493
G1 Z25.6 F1200.
Z22.3
X650.414 Y354.489 Z22.233 F2000.
X650.433 Y354.479 Z22.17
X650.465 Y354.462 Z22.113
X650.507 Y354.439 Z22.065
X650.557 Y354.413 Z22.03
X650.613 Y354.383 Z22.008
X650.672 Y354.351 Z22.
X650.937 Y354.21
G17 G3 X651.342 Y354.334 I0.141 J0.265
G2 X652.666 Y355.128 I1.324 J-0.706 F4000.
G1 X950.
G2 X951.5 Y353.628 I0. J-1.5
G1 Y190.444
G2 X950. Y188.944 I-1.5 J0.
G1 X652.666
G2 X651.166 Y190.444 I0. J1.5
G1 Y353.628
G2 X651.342 Y354.334 I1.5 J0.
G3 X651.219 Y354.74 I-0.265 J0.141 F2000.
G1 X650.954 Y354.881
X650.895 Y354.912 Z22.008
X650.839 Y354.942 Z22.03
X650.789 Y354.969 Z22.065
X650.747 Y354.991 Z22.113
X650.716 Y355.008 Z22.17
X650.696 Y355.018 Z22.233
X650.689 Y355.022 Z22.3
G0 Z30.
Y355.237
G1 Z25.6 F1200.
Z22.3
X650.696 Y355.241 Z22.233 F2000.
X650.716 Y355.251 Z22.17
X650.747 Y355.268 Z22.113
X650.789 Y355.29 Z22.065
X650.839 Y355.317 Z22.03
X650.895 Y355.347 Z22.008
X650.954 Y355.378 Z22.
X651.219 Y355.519
G3 X651.342 Y355.925 I-0.141 J0.265
G2 X651.166 Y356.631 I1.324 J0.706 F4000.
G1 Y518.813
G2 X652.666 Y520.313 I1.5 J0.
G1 X950.
G2 X951.5 Y518.813 I0. J-1.5
G1 Y356.631
G2 X950. Y355.131 I-1.5 J0.
G1 X652.666
G2 X651.342 Y355.925 I0. J1.5
G3 X650.937 Y356.049 I-0.265 J-0.141 F2000.
G1 X650.672 Y355.908
X650.613 Y355.876 Z22.008
X650.557 Y355.846 Z22.03
X650.507 Y355.82 Z22.065
X650.465 Y355.797 Z22.113
X650.433 Y355.78 Z22.17
X650.414 Y355.77 Z22.233
X650.407 Y355.766 Z22.3
G0 Z30.
X650.685 Y520.429
G1 Z25.6 F1200.
Z22.3
X650.692 Y520.432 Z22.233 F2000.
X650.712 Y520.443 Z22.17
X650.743 Y520.459 Z22.113
X650.785 Y520.482 Z22.065
X650.835 Y520.508 Z22.03
X650.892 Y520.538 Z22.008
X650.951 Y520.569 Z22.
X651.216 Y520.71
G3 X651.34 Y521.115 I-0.14 J0.265
G2 X651.166 Y521.817 I1.326 J0.702 F4000.
G1 Y685.
G2 X652.666 Y686.5 I1.5 J0.
G1 X950.
G2 X951.5 Y685. I0. J-1.5
G1 Y521.817
G2 X950. Y520.317 I-1.5 J0.
G1 X652.666
G2 X651.34 Y521.115 I0. J1.5
G3 X650.935 Y521.24 I-0.265 J-0.14 F2000.
G1 X650.67 Y521.099
X650.611 Y521.068 Z22.008
X650.555 Y521.039 Z22.03
X650.504 Y521.012 Z22.065
X650.462 Y520.99 Z22.113
X650.431 Y520.973 Z22.17
X650.411 Y520.963 Z22.233
X650.405 Y520.959 Z22.3
G0 Z30.
X648.92 Y521.96
G1 Z25.6 F1200.
Z22.3
X648.914 Y521.964 Z22.233 F2000.
X648.894 Y521.974 Z22.17
X648.863 Y521.991 Z22.113
X648.821 Y522.013 Z22.065
X648.77 Y522.039 Z22.03
X648.714 Y522.069 Z22.008
X648.655 Y522.1 Z22.
X648.39 Y522.241
G3 X647.985 Y522.116 I-0.14 J-0.265
G2 X646.659 Y521.318 I-1.326 J0.702 F4000.
G1 X48.987
G2 X47.487 Y522.818 I0. J1.5
G1 Y685.
G2 X48.987 Y686.5 I1.5 J0.
G1 X646.659
G2 X648.159 Y685. I0. J-1.5
G1 Y522.818
G2 X647.985 Y522.116 I-1.5 J0.
G3 X648.109 Y521.711 I0.265 J-0.14 F2000.
G1 X648.375 Y521.57
X648.434 Y521.539 Z22.008
X648.49 Y521.509 Z22.03
X648.54 Y521.483 Z22.065
X648.582 Y521.46 Z22.113
X648.613 Y521.444 Z22.17
X648.633 Y521.433 Z22.233
X648.64 Y521.43 Z22.3
G0 Z30.
X650.342 Y521.146
G1 Z23.767 F1200.
Z19.3
X650.35 Y521.147 Z19.233 F2000.
X650.372 Y521.151 Z19.17
X650.407 Y521.156 Z19.113
X650.454 Y521.164 Z19.065
X650.51 Y521.173 Z19.03
X650.573 Y521.182 Z19.008
X650.639 Y521.193 Z19.
X650.935 Y521.24
G3 X651.184 Y521.583 I-0.047 J0.296
G2 X651.166 Y521.817 I1.482 J0.234 F4000.
G1 Y685.
G2 X652.666 Y686.5 I1.5 J0.
G1 X950.
G2 X951.5 Y685. I0. J-1.5
G1 Y521.817
G2 X950. Y520.317 I-1.5 J0.
G1 X652.666
G2 X651.184 Y521.583 I0. J1.5
G3 X650.841 Y521.832 I-0.296 J-0.047 F2000.
G1 X650.545 Y521.786
X650.479 Y521.775 Z19.008
X650.416 Y521.765 Z19.03
X650.36 Y521.756 Z19.065
X650.313 Y521.749 Z19.113
X650.278 Y521.743 Z19.17
X650.256 Y521.74 Z19.233
X650.249 Y521.739 Z19.3
G0 Z30.
X650.405 Y519.671
G1 Z23.767 F1200.
Z19.3
X650.411 Y519.667 Z19.233 F2000.
X650.431 Y519.657 Z19.17
X650.462 Y519.64 Z19.113
X650.504 Y519.618 Z19.065
X650.555 Y519.591 Z19.03
X650.611 Y519.562 Z19.008
X650.67 Y519.531 Z19.
X650.935 Y519.39
G3 X651.34 Y519.515 I0.14 J0.265
G2 X652.666 Y520.313 I1.326 J-0.702 F4000.
G1 X950.
G2 X951.5 Y518.813 I0. J-1.5
G1 Y356.631
G2 X950. Y355.131 I-1.5 J0.
G1 X652.666
G2 X651.166 Y356.631 I0. J1.5
G1 Y518.813
G2 X651.34 Y519.515 I1.5 J0.
G3 X651.216 Y519.92 I-0.265 J0.14 F2000.
G1 X650.951 Y520.061
X650.892 Y520.092 Z19.008
X650.835 Y520.122 Z19.03
X650.785 Y520.148 Z19.065
X650.743 Y520.171 Z19.113
X650.712 Y520.187 Z19.17
X650.692 Y520.198 Z19.233
X650.685 Y520.201 Z19.3
G0 Z30.
X347.208 Y22.007
G1 Z25.6 F1200.
Z22.3
X347.206 Y22.014 Z22.233 F2000.
X347.201 Y22.036 Z22.17
X347.192 Y22.07 Z22.113
X347.18 Y22.116 Z22.065
X347.166 Y22.171 Z22.03
X347.15 Y22.233 Z22.008
X347.134 Y22.298 Z22.
X347.059 Y22.588
G3 X346.694 Y22.804 I-0.291 J-0.074
G2 X346.322 Y22.757 I-0.372 J1.453 F4000.
G1 X48.987
G2 X47.487 Y24.257 I0. J1.5
G1 Y519.814
G2 X48.987 Y521.314 I1.5 J0.
G1 X346.322
G2 X347.822 Y519.814 I0. J-1.5
G1 Y24.257
G2 X346.694 Y22.804 I-1.5 J0.
G3 X346.478 Y22.439 I0.074 J-0.291 F2000.
G1 X346.553 Y22.149
X346.569 Y22.084 Z22.008
X346.585 Y22.023 Z22.03
X346.599 Y21.967 Z22.065
X346.611 Y21.921 Z22.113
X346.62 Y21.887 Z22.17
X346.625 Y21.865 Z22.233
X346.627 Y21.858 Z22.3
G0 Z30.
X347.208 Y22.007
G1 Z23.767 F1200.
Z19.3
X347.206 Y22.014 Z19.233 F2000.
X347.201 Y22.036 Z19.17
X347.192 Y22.07 Z19.113
X347.18 Y22.116 Z19.065
X347.166 Y22.171 Z19.03
X347.15 Y22.233 Z19.008
X347.134 Y22.298 Z19.
X347.059 Y22.588
G3 X346.694 Y22.804 I-0.291 J-0.074
G2 X346.322 Y22.757 I-0.372 J1.453 F4000.
G1 X48.987
G2 X47.487 Y24.257 I0. J1.5
G1 Y519.814
G2 X48.987 Y521.314 I1.5 J0.
G1 X346.322
G2 X347.822 Y519.814 I0. J-1.5
G1 Y24.257
G2 X346.694 Y22.804 I-1.5 J0.
G3 X346.478 Y22.439 I0.074 J-0.291 F2000.
G1 X346.553 Y22.149
X346.569 Y22.084 Z19.008
X346.585 Y22.023 Z19.03
X346.599 Y21.967 Z19.065
X346.611 Y21.921 Z19.113
X346.62 Y21.887 Z19.17
X346.625 Y21.865 Z19.233
X346.627 Y21.858 Z19.3
G0 Z30.
X650.407 Y188.306
G1 Z25.6 F1200.
Z22.3
X650.414 Y188.302 Z22.233 F2000.
X650.433 Y188.292 Z22.17
X650.465 Y188.275 Z22.113
X650.507 Y188.252 Z22.065
X650.557 Y188.226 Z22.03
X650.613 Y188.196 Z22.008
X650.672 Y188.164 Z22.
X650.937 Y188.023
G3 X651.342 Y188.147 I0.141 J0.265
G2 X652.666 Y188.941 I1.324 J-0.706 F4000.
G1 X950.
G2 X951.5 Y187.441 I0. J-1.5
G1 Y24.257
G2 X950. Y22.757 I-1.5 J0.
G1 X652.666
G2 X651.166 Y24.257 I0. J1.5
G1 Y187.441
G2 X651.342 Y188.147 I1.5 J0.
G3 X651.219 Y188.553 I-0.265 J0.141 F2000.
G1 X650.954 Y188.694
X650.895 Y188.725 Z22.008
X650.839 Y188.755 Z22.03
X650.789 Y188.782 Z22.065
X650.747 Y188.804 Z22.113
X650.716 Y188.821 Z22.17
X650.696 Y188.831 Z22.233
X650.689 Y188.835 Z22.3
G0 Z30.
X650.407 Y188.306
G1 Z23.767 F1200.
Z19.3
X650.414 Y188.302 Z19.233 F2000.
X650.433 Y188.292 Z19.17
X650.465 Y188.275 Z19.113
X650.507 Y188.252 Z19.065
X650.557 Y188.226 Z19.03
X650.613 Y188.196 Z19.008
X650.672 Y188.164 Z19.
X650.937 Y188.023
G3 X651.342 Y188.147 I0.141 J0.265
G2 X652.666 Y188.941 I1.324 J-0.706 F4000.
G1 X950.
G2 X951.5 Y187.441 I0. J-1.5
G1 Y24.257
G2 X950. Y22.757 I-1.5 J0.
G1 X652.666
G2 X651.166 Y24.257 I0. J1.5
G1 Y187.441
G2 X651.342 Y188.147 I1.5 J0.
G3 X651.219 Y188.553 I-0.265 J0.141 F2000.
G1 X650.954 Y188.694
X650.895 Y188.725 Z19.008
X650.839 Y188.755 Z19.03
X650.789 Y188.782 Z19.065
X650.747 Y188.804 Z19.113
X650.716 Y188.821 Z19.17
X650.696 Y188.831 Z19.233
X650.689 Y188.835 Z19.3
G0 Z30.
Y189.05
G1 Z23.767 F1200.
Z19.3
X650.696 Y189.054 Z19.233 F2000.
X650.716 Y189.064 Z19.17
X650.747 Y189.081 Z19.113
X650.789 Y189.103 Z19.065
X650.839 Y189.13 Z19.03
X650.895 Y189.16 Z19.008
X650.954 Y189.191 Z19.
X651.219 Y189.332
G3 X651.342 Y189.738 I-0.141 J0.265
G2 X651.166 Y190.444 I1.324 J0.706 F4000.
G1 Y353.628
G2 X652.666 Y355.128 I1.5 J0.
G1 X950.
G2 X951.5 Y353.628 I0. J-1.5
G1 Y190.444
G2 X950. Y188.944 I-1.5 J0.
G1 X652.666
G2 X651.342 Y189.738 I0. J1.5
G3 X650.937 Y189.862 I-0.265 J-0.141 F2000.
G1 X650.672 Y189.721
X650.613 Y189.689 Z19.008
X650.557 Y189.659 Z19.03
X650.507 Y189.633 Z19.065
X650.465 Y189.61 Z19.113
X650.433 Y189.593 Z19.17
X650.414 Y189.583 Z19.233
X650.407 Y189.579 Z19.3
G0 Z30.
X649.059 Y189.242
G1 Z23.767 F1200.
Z19.3
G18 G3 X648.759 Z19. I-0.3 K0. F2000.
G1 X648.459
G17 G3 X648.159 Y188.943 I0. J-0.3
G1 Y24.257 F4000.
G2 X646.659 Y22.757 I-1.5 J0.
G1 X349.325
G2 X347.825 Y24.257 I0. J1.5
G1 Y519.814
G2 X349.325 Y521.314 I1.5 J0.
G1 X646.659
G2 X648.159 Y519.814 I0. J-1.5
G1 Y188.943
G3 X648.459 Y188.643 I0.3 J0. F2000.
G1 X648.759
G18 G2 X649.059 Z19.3 I0. K0.3
G0 Z30.
X650.407 Y188.306
G1 Z20.767 F1200.
Z16.3
X650.414 Y188.302 Z16.233 F2000.
X650.433 Y188.292 Z16.17
X650.465 Y188.275 Z16.113
X650.507 Y188.252 Z16.065
X650.557 Y188.226 Z16.03
X650.613 Y188.196 Z16.008
X650.672 Y188.164 Z16.
X650.937 Y188.023
G17 G3 X651.342 Y188.147 I0.141 J0.265
G2 X652.666 Y188.941 I1.324 J-0.706 F4000.
G1 X950.
G2 X951.5 Y187.441 I0. J-1.5
G1 Y24.257
G2 X950. Y22.757 I-1.5 J0.
G1 X652.666
G2 X651.166 Y24.257 I0. J1.5
G1 Y187.441
G2 X651.342 Y188.147 I1.5 J0.
G3 X651.219 Y188.553 I-0.265 J0.141 F2000.
G1 X650.954 Y188.694
X650.895 Y188.725 Z16.008
X650.839 Y188.755 Z16.03
X650.789 Y188.782 Z16.065
X650.747 Y188.804 Z16.113
X650.716 Y188.821 Z16.17
X650.696 Y188.831 Z16.233
X650.689 Y188.835 Z16.3
G0 Z30.
Y189.05
G1 Z20.767 F1200.
Z16.3
X650.696 Y189.054 Z16.233 F2000.
X650.716 Y189.064 Z16.17
X650.747 Y189.081 Z16.113
X650.789 Y189.103 Z16.065
X650.839 Y189.13 Z16.03
X650.895 Y189.16 Z16.008
X650.954 Y189.191 Z16.
X651.219 Y189.332
G3 X651.342 Y189.738 I-0.141 J0.265
G2 X651.166 Y190.444 I1.324 J0.706 F4000.
G1 Y353.628
G2 X652.666 Y355.128 I1.5 J0.
G1 X950.
G2 X951.5 Y353.628 I0. J-1.5
G1 Y190.444
G2 X950. Y188.944 I-1.5 J0.
G1 X652.666
G2 X651.342 Y189.738 I0. J1.5
G3 X650.937 Y189.862 I-0.265 J-0.141 F2000.
G1 X650.672 Y189.721
X650.613 Y189.689 Z16.008
X650.557 Y189.659 Z16.03
X650.507 Y189.633 Z16.065
X650.465 Y189.61 Z16.113
X650.433 Y189.593 Z16.17
X650.414 Y189.583 Z16.233
X650.407 Y189.579 Z16.3
G0 Z30.
X650.689 Y355.237
G1 Z20.767 F1200.
Z16.3
X650.696 Y355.241 Z16.233 F2000.
X650.716 Y355.251 Z16.17
X650.747 Y355.268 Z16.113
X650.789 Y355.29 Z16.065
X650.839 Y355.317 Z16.03
X650.895 Y355.347 Z16.008
X650.954 Y355.378 Z16.
X651.219 Y355.519
G3 X651.342 Y355.925 I-0.141 J0.265
G2 X651.166 Y356.631 I1.324 J0.706 F4000.
G1 Y518.813
G2 X652.666 Y520.313 I1.5 J0.
G1 X950.
G2 X951.5 Y518.813 I0. J-1.5
G1 Y356.631
G2 X950. Y355.131 I-1.5 J0.
G1 X652.666
G2 X651.342 Y355.925 I0. J1.5
G3 X650.937 Y356.049 I-0.265 J-0.141 F2000.
G1 X650.672 Y355.908
X650.613 Y355.876 Z16.008
X650.557 Y355.846 Z16.03
X650.507 Y355.82 Z16.065
X650.465 Y355.797 Z16.113
X650.433 Y355.78 Z16.17
X650.414 Y355.77 Z16.233
X650.407 Y355.766 Z16.3
G0 Z30.
X648.92 Y521.96
G1 Z23.767 F1200.
Z19.3
X648.914 Y521.964 Z19.233 F2000.
X648.894 Y521.974 Z19.17
X648.863 Y521.991 Z19.113
X648.821 Y522.013 Z19.065
X648.77 Y522.039 Z19.03
X648.714 Y522.069 Z19.008
X648.655 Y522.1 Z19.
X648.39 Y522.241
G3 X647.985 Y522.116 I-0.14 J-0.265
G2 X646.659 Y521.318 I-1.326 J0.702 F4000.
G1 X48.987
G2 X47.487 Y522.818 I0. J1.5
G1 Y685.
G2 X48.987 Y686.5 I1.5 J0.
G1 X646.659
G2 X648.159 Y685. I0. J-1.5
G1 Y522.818
G2 X647.985 Y522.116 I-1.5 J0.
G3 X648.109 Y521.711 I0.265 J-0.14 F2000.
G1 X648.375 Y521.57
X648.434 Y521.539 Z19.008
X648.49 Y521.509 Z19.03
X648.54 Y521.483 Z19.065
X648.582 Y521.46 Z19.113
X648.613 Y521.444 Z19.17
X648.633 Y521.433 Z19.233
X648.64 Y521.43 Z19.3
G0 Z30.
X648.92 Y521.96
G1 Z20.767 F1200.
Z16.3
X648.914 Y521.964 Z16.233 F2000.
X648.894 Y521.974 Z16.17
X648.863 Y521.991 Z16.113
X648.821 Y522.013 Z16.065
X648.77 Y522.039 Z16.03
X648.714 Y522.069 Z16.008
X648.655 Y522.1 Z16.
X648.39 Y522.241
G3 X647.985 Y522.116 I-0.14 J-0.265
G2 X646.659 Y521.318 I-1.326 J0.702 F4000.
G1 X48.987
G2 X47.487 Y522.818 I0. J1.5
G1 Y685.
G2 X48.987 Y686.5 I1.5 J0.
G1 X646.659
G2 X648.159 Y685. I0. J-1.5
G1 Y522.818
G2 X647.985 Y522.116 I-1.5 J0.
G3 X648.109 Y521.711 I0.265 J-0.14 F2000.
G1 X648.375 Y521.57
X648.434 Y521.539 Z16.008
X648.49 Y521.509 Z16.03
X648.54 Y521.483 Z16.065
X648.582 Y521.46 Z16.113
X648.613 Y521.444 Z16.17
X648.633 Y521.433 Z16.233
X648.64 Y521.43 Z16.3
G0 Z30.
Y521.202
G1 Z20.767 F1200.
Z16.3
X648.633 Y521.199 Z16.233 F2000.
X648.613 Y521.188 Z16.17
X648.582 Y521.172 Z16.113
X648.54 Y521.149 Z16.065
X648.49 Y521.123 Z16.03
X648.434 Y521.093 Z16.008
X648.375 Y521.062 Z16.
X648.109 Y520.921
G3 X647.985 Y520.516 I0.14 J-0.265
G2 X648.159 Y519.814 I-1.326 J-0.702 F4000.
G1 Y24.257
G2 X646.659 Y22.757 I-1.5 J0.
G1 X349.325
G2 X347.825 Y24.257 I0. J1.5
G1 Y519.814
G2 X349.325 Y521.314 I1.5 J0.
G1 X646.659
G2 X647.985 Y520.516 I0. J-1.5
G3 X648.39 Y520.391 I0.265 J0.14 F2000.
G1 X648.655 Y520.532
X648.714 Y520.563 Z16.008
X648.77 Y520.592 Z16.03
X648.821 Y520.619 Z16.065
X648.863 Y520.641 Z16.113
X648.894 Y520.658 Z16.17
X648.914 Y520.668 Z16.233
X648.92 Y520.672 Z16.3
G0 Z30.
X650.342 Y521.146
G1 Z20.767 F1200.
Z16.3
X650.35 Y521.147 Z16.233 F2000.
X650.372 Y521.151 Z16.17
X650.407 Y521.156 Z16.113
X650.454 Y521.164 Z16.065
X650.51 Y521.173 Z16.03
X650.573 Y521.182 Z16.008
X650.639 Y521.193 Z16.
X650.935 Y521.24
G3 X651.184 Y521.583 I-0.047 J0.296
G2 X651.166 Y521.817 I1.482 J0.234 F4000.
G1 Y685.
G2 X652.666 Y686.5 I1.5 J0.
G1 X950.
G2 X951.5 Y685. I0. J-1.5
G1 Y521.817
G2 X950. Y520.317 I-1.5 J0.
G1 X652.666
G2 X651.184 Y521.583 I0. J1.5
G3 X650.841 Y521.832 I-0.296 J-0.047 F2000.
G1 X650.545 Y521.786
X650.479 Y521.775 Z16.008
X650.416 Y521.765 Z16.03
X650.36 Y521.756 Z16.065
X650.313 Y521.749 Z16.113
X650.278 Y521.743 Z16.17
X650.256 Y521.74 Z16.233
X650.249 Y521.739 Z16.3
G0 Z30.
X650.342 Y521.146
G1 Z17.767 F1200.
Z15.418
X650.35 Y521.147 Z15.352 F2000.
X650.372 Y521.151 Z15.288
X650.407 Y521.156 Z15.231
X650.454 Y521.164 Z15.184
X650.51 Y521.173 Z15.148
X650.573 Y521.182 Z15.126
X650.639 Y521.193 Z15.118
X650.935 Y521.24
G3 X651.184 Y521.583 I-0.047 J0.296
G2 X651.166 Y521.817 I1.482 J0.234 F4000.
G1 Y685.
G2 X652.666 Y686.5 I1.5 J0.
G1 X950.
G2 X951.5 Y685. I0. J-1.5
G1 Y521.817
G2 X950. Y520.317 I-1.5 J0.
G1 X652.666
G2 X651.184 Y521.583 I0. J1.5
G3 X650.841 Y521.832 I-0.296 J-0.047 F2000.
G1 X650.545 Y521.786
X650.479 Y521.775 Z15.126
X650.416 Y521.765 Z15.148
X650.36 Y521.756 Z15.184
X650.313 Y521.749 Z15.231
X650.278 Y521.743 Z15.288
X650.256 Y521.74 Z15.352
X650.249 Y521.739 Z15.418
G0 Z30.
X650.405 Y519.671
G1 Z17.767 F1200.
Z15.418
X650.411 Y519.667 Z15.352 F2000.
X650.431 Y519.657 Z15.288
X650.462 Y519.64 Z15.231
X650.504 Y519.618 Z15.184
X650.555 Y519.591 Z15.148
X650.611 Y519.562 Z15.126
X650.67 Y519.531 Z15.118
X650.935 Y519.39
G3 X651.34 Y519.515 I0.14 J0.265
G2 X652.666 Y520.313 I1.326 J-0.702 F4000.
G1 X950.
G2 X951.5 Y518.813 I0. J-1.5
G1 Y356.631
G2 X950. Y355.131 I-1.5 J0.
G1 X652.666
G2 X651.166 Y356.631 I0. J1.5
G1 Y518.813
G2 X651.34 Y519.515 I1.5 J0.
G3 X651.216 Y519.92 I-0.265 J0.14 F2000.
G1 X650.951 Y520.061
X650.892 Y520.092 Z15.126
X650.835 Y520.122 Z15.148
X650.785 Y520.148 Z15.184
X650.743 Y520.171 Z15.231
X650.712 Y520.187 Z15.288
X650.692 Y520.198 Z15.352
X650.685 Y520.201 Z15.418
G0 Z30.
X650.407 Y354.493
G1 Z17.767 F1200.
Z15.418
X650.414 Y354.489 Z15.352 F2000.
X650.433 Y354.479 Z15.288
X650.465 Y354.462 Z15.231
X650.507 Y354.439 Z15.184
X650.557 Y354.413 Z15.148
X650.613 Y354.383 Z15.126
X650.672 Y354.351 Z15.118
X650.937 Y354.21
G3 X651.342 Y354.334 I0.141 J0.265
G2 X652.666 Y355.128 I1.324 J-0.706 F4000.
G1 X950.
G2 X951.5 Y353.628 I0. J-1.5
G1 Y190.444
G2 X950. Y188.944 I-1.5 J0.
G1 X652.666
G2 X651.166 Y190.444 I0. J1.5
G1 Y353.628
G2 X651.342 Y354.334 I1.5 J0.
G3 X651.219 Y354.74 I-0.265 J0.141 F2000.
G1 X650.954 Y354.881
X650.895 Y354.912 Z15.126
X650.839 Y354.942 Z15.148
X650.789 Y354.969 Z15.184
X650.747 Y354.991 Z15.231
X650.716 Y355.008 Z15.288
X650.696 Y355.018 Z15.352
X650.689 Y355.022 Z15.418
G0 Z30.
X650.407 Y188.306
G1 Z17.767 F1200.
Z15.418
X650.414 Y188.302 Z15.352 F2000.
X650.433 Y188.292 Z15.288
X650.465 Y188.275 Z15.231
X650.507 Y188.252 Z15.184
X650.557 Y188.226 Z15.148
X650.613 Y188.196 Z15.126
X650.672 Y188.164 Z15.118
X650.937 Y188.023
G3 X651.342 Y188.147 I0.141 J0.265
G2 X652.666 Y188.941 I1.324 J-0.706 F4000.
G1 X950.
G2 X951.5 Y187.441 I0. J-1.5
G1 Y24.257
G2 X950. Y22.757 I-1.5 J0.
G1 X652.666
G2 X651.166 Y24.257 I0. J1.5
G1 Y187.441
G2 X651.342 Y188.147 I1.5 J0.
G3 X651.219 Y188.553 I-0.265 J0.141 F2000.
G1 X650.954 Y188.694
X650.895 Y188.725 Z15.126
X650.839 Y188.755 Z15.148
X650.789 Y188.782 Z15.184
X650.747 Y188.804 Z15.231
X650.716 Y188.821 Z15.288
X650.696 Y188.831 Z15.352
X650.689 Y188.835 Z15.418
G0 Z30.
X347.208 Y22.007
G1 Z20.767 F1200.
Z16.3
X347.206 Y22.014 Z16.233 F2000.
X347.201 Y22.036 Z16.17
X347.192 Y22.07 Z16.113
X347.18 Y22.116 Z16.065
X347.166 Y22.171 Z16.03
X347.15 Y22.233 Z16.008
X347.134 Y22.298 Z16.
X347.059 Y22.588
G3 X346.694 Y22.804 I-0.291 J-0.074
G2 X346.322 Y22.757 I-0.372 J1.453 F4000.
G1 X48.987
G2 X47.487 Y24.257 I0. J1.5
G1 Y519.814
G2 X48.987 Y521.314 I1.5 J0.
G1 X346.322
G2 X347.822 Y519.814 I0. J-1.5
G1 Y24.257
G2 X346.694 Y22.804 I-1.5 J0.
G3 X346.478 Y22.439 I0.074 J-0.291 F2000.
G1 X346.553 Y22.149
X346.569 Y22.084 Z16.008
X346.585 Y22.023 Z16.03
X346.599 Y21.967 Z16.065
X346.611 Y21.921 Z16.113
X346.62 Y21.887 Z16.17
X346.625 Y21.865 Z16.233
X346.627 Y21.858 Z16.3
G0 Z30.
X347.208 Y22.007
G1 Z17.767 F1200.
Z15.418
X347.206 Y22.014 Z15.352 F2000.
X347.201 Y22.036 Z15.288
X347.192 Y22.07 Z15.231
X347.18 Y22.116 Z15.184
X347.166 Y22.171 Z15.148
X347.15 Y22.233 Z15.126
X347.134 Y22.298 Z15.118
X347.059 Y22.588
G3 X346.694 Y22.804 I-0.291 J-0.074
G2 X346.322 Y22.757 I-0.372 J1.453 F4000.
G1 X48.987
G2 X47.487 Y24.257 I0. J1.5
G1 Y519.814
G2 X48.987 Y521.314 I1.5 J0.
G1 X346.322
G2 X347.822 Y519.814 I0. J-1.5
G1 Y24.257
G2 X346.694 Y22.804 I-1.5 J0.
G3 X346.478 Y22.439 I0.074 J-0.291 F2000.
G1 X346.553 Y22.149
X346.569 Y22.084 Z15.126
X346.585 Y22.023 Z15.148
X346.599 Y21.967 Z15.184
X346.611 Y21.921 Z15.231
X346.62 Y21.887 Z15.288
X346.625 Y21.865 Z15.352
X346.627 Y21.858 Z15.418
G0 Z30.
X649.059 Y189.242
G1 Z17.767 F1200.
Z15.418
G18 G3 X648.759 Z15.118 I-0.3 K0. F2000.
G1 X648.459
G17 G3 X648.159 Y188.943 I0. J-0.3
G1 Y24.257 F4000.
G2 X646.659 Y22.757 I-1.5 J0.
G1 X349.325
G2 X347.825 Y24.257 I0. J1.5
G1 Y519.814
G2 X349.325 Y521.314 I1.5 J0.
G1 X646.659
G2 X648.159 Y519.814 I0. J-1.5
G1 Y188.943
G3 X648.459 Y188.643 I0.3 J0. F2000.
G1 X648.759
G18 G2 X649.059 Z15.418 I0. K0.3
G0 Z30.
X648.92 Y521.96
G1 Z17.767 F1200.
Z15.418
X648.914 Y521.964 Z15.352 F2000.
X648.894 Y521.974 Z15.288
X648.863 Y521.991 Z15.231
X648.821 Y522.013 Z15.184
X648.77 Y522.039 Z15.148
X648.714 Y522.069 Z15.126
X648.655 Y522.1 Z15.118
X648.39 Y522.241
G17 G3 X647.985 Y522.116 I-0.14 J-0.265
G2 X646.659 Y521.318 I-1.326 J0.702 F4000.
G1 X48.987
G2 X47.487 Y522.818 I0. J1.5
G1 Y685.
G2 X48.987 Y686.5 I1.5 J0.
G1 X646.659
G2 X648.159 Y685. I0. J-1.5
G1 Y522.818
G2 X647.985 Y522.116 I-1.5 J0.
G3 X648.109 Y521.711 I0.265 J-0.14 F2000.
G1 X648.375 Y521.57
X648.434 Y521.539 Z15.126
X648.49 Y521.509 Z15.148
X648.54 Y521.483 Z15.184
X648.582 Y521.46 Z15.231
X648.613 Y521.444 Z15.288
X648.633 Y521.433 Z15.352
X648.64 Y521.43 Z15.418
G0 Z40.
M9
G28 G91 Z0.
G90
M30
%
