%
( Pocket 1 ) ( File created: Saturday September 28 2024 - 02:49 PM)
( for LinuxCNC )
( Material Size) ( X= 200.000, Y= 200.000, Z= 22.000)
G90 (Incremental distance mode)
G17 G21 (Active Plane: XY)(Metric Mode)
G40 G49 G80(Tool Diameter, Length compensation & canned cycles OFF)
G64 P0.05 Q0.05(Path Blending)
M600
T6 M06 (TOOL USE End Mill 6 mm)
G90 (absolute distance mode)
G54 (Coordinate System)
S18000M3
G00 Z27.000
G4 P6
( Pocket 1 )
G00 X77.031 Y111.838 Z27.000 F6000.0
G01 Z22.000 F800.0 M3
G01 Z21.621 
G01 Z21.241 
G01 Z20.862 
G01 Z20.482 
G01 Z20.103 
G01 Z19.724 
G01 Z19.650 
G01 Z19.576 
G01 Z19.197 
G01 Z18.818 
G01 Z18.438 
G01 Z18.059 
G01 Z17.679 
G01 Z17.300 
G01 X75.725 Y112.787  F3000.0
G01 X74.418 Y111.838 
G01 X74.917 Y110.303 
G01 X76.532 Y110.303 
G01 X77.031 Y111.838 
G01 X79.991 Y112.800  
G02 X75.725 Y115.900 I13.661 J23.289
G02 X71.458 Y112.800 I-17.927 J20.189
G02 X73.088 Y107.785 I-24.741 J-10.811
G02 X78.361 Y107.785 I2.637 J-26.871
G02 X79.991 Y112.800 I26.371 J-5.796
G01 X83.171 Y113.834  
G02 X75.725 Y119.244 I10.481 J22.256
G02 X68.278 Y113.834 I-17.927 J16.845
G02 X71.122 Y105.080 I-21.561 J-11.845
G02 X80.327 Y105.080 I4.602 J-24.166
G02 X83.171 Y113.834 I24.405 J-3.091
G01 X86.739 Y114.993  
G02 X75.725 Y122.995 I6.913 J21.096
G02 X64.710 Y114.993 I-17.927 J13.094
G02 X68.917 Y102.045 I-17.993 J-13.004
G02 X82.532 Y102.045 I6.807 J-21.131
G02 X86.739 Y114.993 I22.200 J-0.056
G01 X90.805 Y116.495  
G02 X75.897 Y127.326 I2.847 J19.594
G01 X75.725 Y127.675  
G01 X75.553 Y127.326 
G02 X60.644 Y116.495 I-17.755 J8.763
G01 X60.260 Y116.439  
G01 X60.538 Y116.168 
G02 X66.232 Y98.642 I-13.821 J-14.179
G01 X66.167 Y98.259  
G01 X66.511 Y98.440 
G02 X84.938 Y98.440 I9.214 J-17.526
G01 X85.283 Y98.259  
G01 X85.217 Y98.642 
G02 X90.911 Y116.168 I19.515 J3.347
G01 X91.190 Y116.439  
G01 X90.805 Y116.495 
G01 X91.150 Y118.870  
G02 X78.049 Y128.388 I2.502 J17.219
G01 X75.725 Y133.098  
G01 X73.400 Y128.388 
G02 X60.299 Y118.870 I-15.603 J7.701
G01 X55.102 Y118.115  
G01 X58.863 Y114.449 
G02 X63.867 Y99.048 I-12.145 J-12.460
G01 X62.979 Y93.872  
G01 X67.628 Y96.315 
G02 X83.822 Y96.315 I8.097 J-15.401
G01 X88.470 Y93.872  
G01 X87.582 Y99.048 
G02 X92.586 Y114.449 I17.150 J2.941
G01 X96.347 Y118.115  
G01 X91.150 Y118.870 
G01 X91.495 Y121.245  
G02 X80.201 Y129.451 I2.157 J14.844
G01 X75.725 Y138.521  
G01 X71.248 Y129.451 
G02 X59.954 Y121.245 I-13.451 J6.638
G01 X49.945 Y119.791  
G01 X57.188 Y112.730 
G02 X61.502 Y99.453 I-10.470 J-10.741
G01 X59.792 Y89.484  
G01 X68.744 Y94.191 
G02 X82.705 Y94.191 I6.980 J-13.277
G01 X91.658 Y89.484  
G01 X89.948 Y99.453 
G02 X94.262 Y112.730 I14.784 J2.536
G01 X101.505 Y119.791  
G01 X91.495 Y121.245 
G01 X91.840 Y123.620  
G02 X82.353 Y130.513 I1.812 J12.469
G01 X75.725 Y143.944  
G01 X69.096 Y130.513 
G02 X59.609 Y123.620 I-11.299 J5.576
G01 X44.787 Y121.466  
G01 X55.512 Y111.012 
G02 X59.136 Y99.859 I-8.795 J-9.023
G01 X56.604 Y85.097  
G01 X69.861 Y92.067 
G02 X81.588 Y92.067 I5.863 J-11.153
G01 X94.845 Y85.097  
G01 X92.313 Y99.859 
G02 X95.937 Y111.012 I12.419 J2.130
G01 X106.662 Y121.466  
G01 X91.840 Y123.620 
G01 X92.185 Y125.995  
G02 X84.505 Y131.575 I1.467 J10.094
G01 X75.725 Y149.367  
G01 X66.944 Y131.575 
G02 X59.264 Y125.995 I-9.147 J4.514
G01 X39.630 Y123.142  
G01 X53.837 Y109.293 
G02 X56.771 Y100.265 I-7.120 J-7.304
G01 X53.417 Y80.710  
G01 X70.978 Y89.942 
G02 X80.471 Y89.942 I4.746 J-9.028
G01 X98.033 Y80.710  
G01 X94.679 Y100.265 
G02 X97.612 Y109.293 I10.053 J1.724
G01 X111.820 Y123.142  
G01 X92.185 Y125.995 
G01 X92.530 Y128.370  
G02 X86.658 Y132.637 I1.122 J7.719
G01 X75.725 Y154.790  
G01 X64.792 Y132.637 
G02 X58.919 Y128.370 I-6.995 J3.452
G01 X34.472 Y124.818  
G01 X52.162 Y107.575 
G02 X54.405 Y100.671 I-5.444 J-5.585
G01 X50.229 Y76.323  
G01 X72.095 Y87.818 
G02 X79.354 Y87.818 I3.630 J-6.904
G01 X101.220 Y76.323  
G01 X97.044 Y100.671 
G02 X99.287 Y107.575 I7.688 J1.319
G01 X116.977 Y124.818  
G01 X92.530 Y128.370 
G01 X92.876 Y130.745  
G02 X88.810 Y133.699 I0.777 J5.344
G01 X75.725 Y160.212  
G01 X62.640 Y133.699 
G02 X58.574 Y130.745 I-4.842 J2.390
G01 X29.315 Y126.494  
G01 X50.487 Y105.856 
G02 X52.040 Y101.076 I-3.769 J-3.867
G01 X47.042 Y71.935  
G01 X73.212 Y85.694 
G02 X78.237 Y85.694 I2.513 J-4.780
G01 X104.408 Y71.935  
G01 X99.410 Y101.076 
G02 X100.963 Y105.856 I5.322 J0.913
G01 X122.135 Y126.494  
G01 X92.876 Y130.745 
G01 X93.221 Y133.120  
G02 X90.962 Y134.761 I0.431 J2.969
G01 X75.725 Y165.635  
G01 X60.487 Y134.761 
G02 X58.229 Y133.120 I-2.690 J1.328
G01 X24.157 Y128.169  
G01 X48.811 Y104.137 
G02 X49.674 Y101.482 I-2.094 J-2.148
G01 X43.854 Y67.548  
G01 X74.329 Y83.569 
G02 X77.121 Y83.569 I1.396 J-2.655
G01 X107.595 Y67.548  
G01 X101.775 Y101.482 
G02 X102.638 Y104.137 I2.957 J0.507
G01 X127.292 Y128.169  
G01 X93.221 Y133.120 
G00 Z27.000
(Begin Footer)
G00 Z27.000
M30
M05
G53 G0 Z-10
G53 G0 X1350 Y1000
(End Footer)
%
