%
( smallBowl ) ( File created: Wednesday October 09 2024 - 07:28 PM)
( for LinuxCNC )
( Material Size) ( X= 170.000, Y= 120.000, Z= 20.000)
G90 (Incremental distance mode)
G17 G21 (Active Plane: XY)(Metric Mode)
G40 G49 G80(Tool Diameter, Length compensation & canned cycles OFF)
G64 P0.05 Q0.05(Path Blending)
M600
G90 (absolute distance mode)
G54 (Coordinate System)
S18000M3
G00 Z25.000
G4 P6
( 3D Finish 1 )
G00 X84.485 Y19.048 Z25.000 F8000.0
G01 Z18.817 F2000.0 M3
G01 X83.027 Y19.093 Z18.810 F4000.0
G01 X82.877 Y19.103 Z20.360
G01 X82.425 Y19.136 
G01 X82.272 Y19.150 Z18.813
G01 X81.827 Y19.195 Z18.812
G01 X81.688 Y19.212 Z20.360
G01 X81.130 Y19.280 
G01 X80.990 Y19.297 Z18.813
G01 X80.571 Y19.347 Z18.818
G01 X80.570 Y19.348 Z20.360
G01 X80.713 Y19.348 Z18.828
G01 X82.715 Y19.348 Z18.952
G01 X85.862 Y19.348 Z19.007
G01 X88.722 Y19.348 Z18.941
G01 X90.439 Y19.348 Z18.834
G01 X90.582 Y19.348 Z20.360
G01 X90.868 Y19.348 
G01 X91.292 Y19.412 
G01 X91.433 Y19.434 Z18.818
G01 X91.574 Y19.455 Z20.360
G01 X92.281 Y19.562 
G01 X92.422 Y19.584 Z18.804
G01 X92.800 Y19.648 Z18.801
G01 X91.224 Y19.648 Z18.957
G01 X88.358 Y19.648 Z19.114
G01 X85.348 Y19.648 Z19.157
G01 X82.338 Y19.648 Z19.096
G01 X79.329 Y19.648 Z18.908
G01 X78.325 Y19.648 Z18.793
G01 X78.198 Y19.665 Z20.360
G01 X78.071 Y19.682 
G01 X77.926 Y19.720 Z18.785
G01 X77.780 Y19.758 Z18.794
G01 X77.635 Y19.796 Z20.360
G01 X77.489 Y19.834 
G01 X77.344 Y19.872 Z18.809
G01 X77.198 Y19.910 Z18.818
G01 X77.053 Y19.948 Z20.360
G01 X77.195 Y19.948 Z18.841
G01 X79.614 Y19.948 Z19.088
G01 X82.744 Y19.948 Z19.244
G01 X85.874 Y19.948 Z19.284
G01 X88.720 Y19.948 Z19.235
G01 X91.707 Y19.948 Z19.078
G01 X94.269 Y19.948 Z18.820
G01 X94.411 Y19.948 Z20.360
G01 X94.572 Y19.986 
G01 X94.700 Y20.018 Z18.800
G01 X94.829 Y20.051 Z20.360
G01 X95.591 Y20.248 
G01 X95.162 Y20.248 
G01 X95.019 Y20.248 Z18.890
G01 X94.161 Y20.248 Z18.999
G01 X91.302 Y20.248 Z19.243
G01 X88.157 Y20.248 Z19.367
G01 X85.155 Y20.248 Z19.393
G01 X82.296 Y20.248 Z19.345
G01 X79.294 Y20.248 Z19.203
G01 X76.292 Y20.248 Z18.913
G01 X76.006 Y20.248 Z18.869
G01 X75.863 Y20.248 Z20.360
G01 X75.811 Y20.261 
G01 X75.676 Y20.292 Z18.841
G01 X75.540 Y20.322 Z20.360
G01 X75.135 Y20.415 
G01 X75.000 Y20.446 Z18.819
G01 X74.746 Y20.514 Z18.821
G01 X74.619 Y20.548 Z20.360
G01 X74.762 Y20.548 Z18.844
G01 X76.472 Y20.548 Z19.088
G01 X79.180 Y20.548 Z19.313
G01 X82.030 Y20.548 Z19.437
G01 X84.168 Y20.548 Z19.475
G01 X86.306 Y20.548 Z19.484
G01 X89.014 Y20.548 Z19.443
G01 X91.721 Y20.548 Z19.331
G01 X94.429 Y20.548 Z19.123
G01 X96.567 Y20.548 Z18.827
G01 X96.710 Y20.548 Z20.360
G01 X96.855 Y20.587 Z18.802
G01 X97.000 Y20.626 Z20.360
G01 X97.281 Y20.705 
G01 X97.421 Y20.745 Z18.807
G01 X97.561 Y20.785 Z18.807
G01 X97.702 Y20.825 Z20.360
G01 X97.774 Y20.848 
G01 X97.631 Y20.848 
G01 X97.488 Y20.848 Z18.858
G01 X95.632 Y20.848 Z19.115
G01 X94.061 Y20.848 Z19.282
G01 X91.205 Y20.848 Z19.461
G01 X87.921 Y20.848 Z19.546
G01 X84.923 Y20.848 Z19.559
G01 X82.067 Y20.848 Z19.522
G01 X79.212 Y20.848 Z19.421
G01 X76.356 Y20.848 Z19.212
G01 X74.071 Y20.848 Z18.906
G01 X73.929 Y20.848 Z18.883
G01 X73.786 Y20.848 Z20.360
G01 X73.643 Y20.848 
G01 X73.505 Y20.892 Z18.839
G01 X73.368 Y20.936 Z18.845
G01 X73.245 Y20.978 Z20.360
G01 X73.123 Y21.021 Z18.850
G01 X73.000 Y21.063 Z18.848
G01 X72.878 Y21.105 Z20.360
G01 X72.755 Y21.148 Z18.848
G01 X73.471 Y21.148 Z18.978
G01 X75.762 Y21.148 Z19.267
G01 X77.050 Y21.148 Z19.380
G01 X79.770 Y21.148 Z19.531
G01 X83.206 Y21.148 Z19.609
G01 X86.642 Y21.148 Z19.620
G01 X89.505 Y21.148 Z19.584
G01 X91.939 Y21.148 Z19.508
G01 X94.373 Y21.148 Z19.366
G01 X96.520 Y21.148 Z19.144
G01 X97.666 Y21.148 Z18.988
G01 X98.668 Y21.148 Z18.797
G01 X98.812 Y21.200 Z18.798
G01 X98.957 Y21.252 Z20.360
G01 X99.101 Y21.303 Z18.799
G01 X99.246 Y21.355 Z20.360
G01 X99.390 Y21.407 
G01 X99.498 Y21.448 Z18.803
G01 X98.068 Y21.448 Z19.066
G01 X96.924 Y21.448 Z19.230
G01 X94.206 Y21.448 Z19.475
G01 X90.917 Y21.448 Z19.614
G01 X87.342 Y21.448 Z19.663
G01 X82.765 Y21.448 Z19.657
G01 X79.190 Y21.448 Z19.577
G01 X76.473 Y21.448 Z19.439
G01 X74.184 Y21.448 Z19.211
G01 X73.040 Y21.448 Z19.057
G01 X71.896 Y21.448 Z18.840
G01 X71.758 Y21.498 Z18.839
G01 X71.621 Y21.548 Z20.360
G01 X71.483 Y21.598 Z18.839
G01 X71.345 Y21.648 Z18.839
G01 X71.207 Y21.698 Z20.360
G01 X71.069 Y21.748 Z18.837
G01 X72.353 Y21.748 Z19.081
G01 X73.493 Y21.748 Z19.255
G01 X76.059 Y21.748 Z19.492
G01 X77.770 Y21.748 Z19.582
G01 X80.194 Y21.748 Z19.659
G01 X84.186 Y21.748 Z19.700
G01 X89.319 Y21.748 Z19.684
G01 X92.170 Y21.748 Z19.631
G01 X94.594 Y21.748 Z19.526
G01 X97.017 Y21.748 Z19.336
G01 X98.586 Y21.748 Z19.121
G01 X100.154 Y21.748 Z18.848
G01 X100.297 Y21.748 Z20.360
G01 X100.920 Y21.994 
G01 X101.056 Y22.048 Z18.805
G01 X100.054 Y22.048 Z19.028
G01 X98.193 Y22.048 Z19.302
G01 X96.761 Y22.048 Z19.453
G01 X94.184 Y22.048 Z19.615
G01 X90.891 Y22.048 Z19.698
G01 X85.165 Y22.048 Z19.722
G01 X80.154 Y22.048 Z19.694
G01 X77.005 Y22.048 Z19.612
G01 X74.714 Y22.048 Z19.471
G01 X73.282 Y22.048 Z19.340
G01 X71.564 Y22.048 Z19.086
G01 X70.276 Y22.048 Z18.845
G01 X70.139 Y22.103 Z20.360
G01 X70.002 Y22.158 Z18.845
G01 X69.865 Y22.213 Z18.838
G01 X69.713 Y22.281 Z20.360
G01 X69.562 Y22.348 Z18.837
G01 X70.421 Y22.348 Z19.032
G01 X72.281 Y22.348 Z19.318
G01 X73.855 Y22.348 Z19.489
G01 X76.574 Y22.348 Z19.647
G01 X80.009 Y22.348 Z19.718
G01 X91.314 Y22.348 Z19.717
G01 X94.462 Y22.348 Z19.653
G01 X97.038 Y22.348 Z19.515
G01 X99.185 Y22.348 Z19.287
G01 X100.330 Y22.348 Z19.114
G01 X101.475 Y22.348 Z18.872
G01 X101.618 Y22.348 Z20.360
G01 X101.761 Y22.348 
G01 X101.812 Y22.370 
G01 X101.954 Y22.431 Z18.804
G01 X102.095 Y22.492 Z20.360
G01 X102.475 Y22.648 
G01 X102.332 Y22.648 
G01 X102.189 Y22.648 Z18.868
G01 X100.903 Y22.648 Z19.137
G01 X99.759 Y22.648 Z19.324
G01 X97.759 Y22.648 Z19.527
G01 X96.044 Y22.648 Z19.635
G01 X93.472 Y22.648 Z19.709
G01 X89.185 Y22.648 Z19.724
G01 X78.324 Y22.648 Z19.716
G01 X75.752 Y22.648 Z19.658
G01 X73.466 Y22.648 Z19.534
G01 X71.465 Y22.648 Z19.318
G01 X70.179 Y22.648 Z19.124
G01 X69.036 Y22.648 Z18.869
G01 X68.893 Y22.648 Z20.360
G01 X68.765 Y22.708 
G01 X68.638 Y22.768 Z18.838
G01 X68.510 Y22.828 Z20.360
G01 X68.383 Y22.888 Z18.841
G01 X68.256 Y22.948 Z18.841
G01 X69.397 Y22.948 Z19.100
G01 X70.681 Y22.948 Z19.325
G01 X72.679 Y22.948 Z19.536
G01 X74.391 Y22.948 Z19.647
G01 X76.959 Y22.948 Z19.718
G01 X81.097 Y22.948 Z19.716
G01 X86.804 Y22.948 Z19.695
G01 X93.510 Y22.948 Z19.724
G01 X96.364 Y22.948 Z19.667
G01 X98.219 Y22.948 Z19.561
G01 X100.074 Y22.948 Z19.383
G01 X101.501 Y22.948 Z19.157
G01 X102.785 Y22.948 Z18.891
G01 X102.928 Y22.948 Z18.857
G01 X103.070 Y22.948 Z20.360
G01 X103.213 Y22.948 
G01 X103.760 Y23.248 
G01 X103.617 Y23.248 
G01 X103.474 Y23.248 Z18.873
G01 X102.760 Y23.248 Z19.049
G01 X101.190 Y23.248 Z19.324
G01 X99.619 Y23.248 Z19.517
G01 X97.620 Y23.248 Z19.653
G01 X95.764 Y23.248 Z19.711
G01 X93.052 Y23.248 Z19.723
G01 X86.342 Y23.248 Z19.657
G01 X81.630 Y23.248 Z19.684
G01 X76.919 Y23.248 Z19.727
G01 X74.063 Y23.248 Z19.675
G01 X72.064 Y23.248 Z19.555
G01 X70.351 Y23.248 Z19.378
G01 X68.923 Y23.248 Z19.137
G01 X67.781 Y23.248 Z18.884
G01 X67.638 Y23.248 Z20.360
G01 X67.506 Y23.313 Z18.855
G01 X67.374 Y23.378 Z20.360
G01 X67.242 Y23.443 Z18.860
G01 X67.110 Y23.508 Z20.360
G01 X67.033 Y23.548 
G01 X67.176 Y23.548 Z18.893
G01 X68.317 Y23.548 Z19.148
G01 X69.744 Y23.548 Z19.385
G01 X71.028 Y23.548 Z19.536
G01 X73.025 Y23.548 Z19.667
G01 X75.022 Y23.548 Z19.721
G01 X77.875 Y23.548 Z19.713
G01 X83.867 Y23.548 Z19.615
G01 X86.720 Y23.548 Z19.609
G01 X91.000 Y23.548 Z19.667
G01 X94.709 Y23.548 Z19.726
G01 X97.134 Y23.548 Z19.703
G01 X99.274 Y23.548 Z19.608
G01 X100.558 Y23.548 Z19.493
G01 X102.127 Y23.548 Z19.286
G01 X103.126 Y23.548 Z19.106
G01 X103.982 Y23.548 Z18.892
G01 X104.124 Y23.548 Z20.360
G01 X104.410 Y23.548 
G01 X104.506 Y23.571 Z18.760
G01 X104.587 Y23.581 Z20.360
G01 X104.653 Y23.608 
G01 X104.698 Y23.648 
G01 X104.730 Y23.728 
G01 X104.888 Y23.848 
G01 X104.602 Y23.848 
G01 X104.459 Y23.848 Z18.919
G01 X103.459 Y23.848 Z19.159
G01 X102.458 Y23.848 Z19.342
G01 X100.887 Y23.848 Z19.534
G01 X99.315 Y23.848 Z19.653
G01 X97.457 Y23.848 Z19.716
G01 X95.314 Y23.848 Z19.721
G01 X87.456 Y23.848 Z19.547
G01 X84.741 Y23.848 Z19.541
G01 X82.169 Y23.848 Z19.577
G01 X76.168 Y23.848 Z19.717
G01 X73.881 Y23.848 Z19.718
G01 X71.881 Y23.848 Z19.650
G01 X70.595 Y23.848 Z19.564
G01 X68.880 Y23.848 Z19.356
G01 X67.452 Y23.848 Z19.106
G01 X66.451 Y23.848 Z18.842
G01 X66.333 Y23.909 Z18.840
G01 X66.214 Y23.970 Z20.360
G01 X65.997 Y24.088 
G01 X65.888 Y24.148 Z18.836
G01 X67.031 Y24.148 Z19.134
G01 X67.888 Y24.148 Z19.302
G01 X69.317 Y24.148 Z19.497
G01 X70.747 Y24.148 Z19.631
G01 X72.461 Y24.148 Z19.706
G01 X74.462 Y24.148 Z19.725
G01 X77.035 Y24.148 Z19.671
G01 X82.894 Y24.148 Z19.481
G01 X86.181 Y24.148 Z19.456
G01 X88.753 Y24.148 Z19.494
G01 X91.897 Y24.148 Z19.596
G01 X95.756 Y24.148 Z19.710
G01 X97.900 Y24.148 Z19.723
G01 X99.615 Y24.148 Z19.678
G01 X101.330 Y24.148 Z19.557
G01 X102.759 Y24.148 Z19.393
G01 X104.188 Y24.148 Z19.126
G01 X105.331 Y24.148 Z18.840
G01 X105.474 Y24.148 Z20.360
G01 X106.015 Y24.402 
G01 X106.096 Y24.448 Z18.773
G01 X105.524 Y24.448 Z18.942
G01 X104.237 Y24.448 Z19.235
G01 X102.950 Y24.448 Z19.450
G01 X101.663 Y24.448 Z19.590
G01 X99.948 Y24.448 Z19.694
G01 X97.946 Y24.448 Z19.727
G01 X95.086 Y24.448 Z19.665
G01 X89.939 Y24.448 Z19.446
G01 X87.651 Y24.448 Z19.375
G01 X85.220 Y24.448 Z19.353
G01 X82.503 Y24.448 Z19.402
G01 X79.358 Y24.448 Z19.524
G01 X75.068 Y24.448 Z19.698
G01 X72.780 Y24.448 Z19.726
G01 X70.922 Y24.448 Z19.682
G01 X69.349 Y24.448 Z19.569
G01 X67.776 Y24.448 Z19.386
G01 X66.489 Y24.448 Z19.134
G01 X65.345 Y24.448 Z18.836
G01 X65.225 Y24.519 Z20.360
G01 X65.106 Y24.590 Z18.839
G01 X64.986 Y24.661 Z20.360
G01 X64.866 Y24.732 Z18.844
G01 X64.843 Y24.748 Z18.845
G01 X65.984 Y24.748 Z19.143
G01 X67.268 Y24.748 Z19.391
G01 X68.267 Y24.748 Z19.528
G01 X69.693 Y24.748 Z19.648
G01 X71.262 Y24.748 Z19.718
G01 X73.260 Y24.748 Z19.717
G01 X76.113 Y24.748 Z19.617
G01 X80.963 Y24.748 Z19.359
G01 X83.388 Y24.748 Z19.265
G01 X85.956 Y24.748 Z19.238
G01 X88.524 Y24.748 Z19.286
G01 X91.377 Y24.748 Z19.416
G01 X95.942 Y24.748 Z19.654
G01 X98.225 Y24.748 Z19.721
G01 X100.079 Y24.748 Z19.712
G01 X101.791 Y24.748 Z19.633
G01 X103.075 Y24.748 Z19.509
G01 X104.216 Y24.748 Z19.342
G01 X105.358 Y24.748 Z19.120
G01 X106.071 Y24.748 Z18.933
G01 X106.356 Y24.748 Z18.845
G01 X106.499 Y24.748 Z20.360
G01 X106.953 Y25.048 
G01 X106.811 Y25.048 Z18.856
G01 X105.670 Y25.048 Z19.171
G01 X104.814 Y25.048 Z19.338
G01 X103.530 Y25.048 Z19.522
G01 X102.246 Y25.048 Z19.648
G01 X100.534 Y25.048 Z19.717
G01 X98.822 Y25.048 Z19.718
G01 X96.825 Y25.048 Z19.652
G01 X93.972 Y25.048 Z19.480
G01 X90.263 Y25.048 Z19.242
G01 X87.837 Y25.048 Z19.135
G01 X85.270 Y25.048 Z19.101
G01 X82.702 Y25.048 Z19.157
G01 X79.991 Y25.048 Z19.296
G01 X75.284 Y25.048 Z19.603
G01 X72.859 Y25.048 Z19.708
G01 X71.004 Y25.048 Z19.723
G01 X69.435 Y25.048 Z19.671
G01 X68.008 Y25.048 Z19.567
G01 X66.724 Y25.048 Z19.391
G01 X65.583 Y25.048 Z19.174
G01 X64.442 Y25.048 Z18.886
G01 X64.387 Y25.090 Z20.360
G01 X64.310 Y25.129 
G01 X64.248 Y25.143 Z18.868
G01 X64.163 Y25.171 Z18.857
G01 X64.023 Y25.248 Z18.847
G01 X63.877 Y25.348 Z18.850
G01 X64.734 Y25.348 Z19.101
G01 X65.734 Y25.348 Z19.313
G01 X67.020 Y25.348 Z19.513
G01 X68.305 Y25.348 Z19.645
G01 X70.020 Y25.348 Z19.718
G01 X71.734 Y25.348 Z19.716
G01 X73.734 Y25.348 Z19.638
G01 X76.591 Y25.348 Z19.443
G01 X80.733 Y25.348 Z19.123
G01 X83.162 Y25.348 Z18.987
G01 X85.876 Y25.348 Z18.941
G01 X88.304 Y25.348 Z18.996
G01 X90.875 Y25.348 Z19.148
G01 X96.447 Y25.348 Z19.575
G01 X98.446 Y25.348 Z19.682
G01 X100.303 Y25.348 Z19.726
G01 X101.875 Y25.348 Z19.700
G01 X103.303 Y25.348 Z19.608
G01 X104.589 Y25.348 Z19.463
G01 X105.732 Y25.348 Z19.267
G01 X106.732 Y25.348 Z19.020
G01 X107.303 Y25.348 Z18.853
G01 X107.446 Y25.348 Z20.360
G01 X107.981 Y25.648 
G01 X107.838 Y25.648 
G01 X107.695 Y25.648 Z18.882
G01 X106.553 Y25.648 Z19.191
G01 X105.411 Y25.648 Z19.421
G01 X104.269 Y25.648 Z19.569
G01 X102.984 Y25.648 Z19.674
G01 X101.414 Y25.648 Z19.725
G01 X99.701 Y25.648 Z19.702
G01 X97.416 Y25.648 Z19.579
G01 X93.990 Y25.648 Z19.288
G01 X92.562 Y25.648 Z19.152
G01 X90.278 Y25.648 Z18.950
G01 X87.851 Y25.648 Z18.808
G01 X86.852 Y25.648 Z18.785
G01 X86.709 Y25.648 Z20.360
G01 X84.710 Y25.648 
G01 X84.568 Y25.648 Z18.781
G01 X82.855 Y25.648 Z18.829
G01 X80.142 Y25.648 Z19.015
G01 X77.001 Y25.648 Z19.307
G01 X73.860 Y25.648 Z19.575
G01 X72.005 Y25.648 Z19.681
G01 X70.291 Y25.648 Z19.726
G01 X68.721 Y25.648 Z19.698
G01 X67.436 Y25.648 Z19.619
G01 X66.151 Y25.648 Z19.469
G01 X64.866 Y25.648 Z19.251
G01 X63.867 Y25.648 Z18.989
G01 X63.439 Y25.648 Z18.855
G01 X63.285 Y25.752 Z20.360
G01 X63.142 Y25.829 
G01 X63.053 Y25.857 Z18.829
G01 X62.961 Y25.891 Z18.817
G01 X62.867 Y25.948 Z18.814
G01 X63.725 Y25.948 Z19.076
G01 X64.725 Y25.948 Z19.320
G01 X65.869 Y25.948 Z19.504
G01 X67.298 Y25.948 Z19.652
G01 X68.871 Y25.948 Z19.722
G01 X70.586 Y25.948 Z19.710
G01 X72.873 Y25.948 Z19.587
G01 X74.588 Y25.948 Z19.435
G01 X76.875 Y25.948 Z19.200
G01 X80.163 Y25.948 Z18.845
G01 X80.306 Y25.948 Z20.360
G01 X81.592 Y25.948 
G01 X80.871 Y26.037 
G01 X79.715 Y26.248 
G01 X79.002 Y26.248 
G01 X78.859 Y26.248 Z18.817
G01 X77.434 Y26.248 Z18.986
G01 X75.153 Y26.248 Z19.274
G01 X73.014 Y26.248 Z19.510
G01 X70.733 Y26.248 Z19.675
G01 X69.308 Y26.248 Z19.722
G01 X67.882 Y26.248 Z19.710
G01 X66.599 Y26.248 Z19.640
G01 X65.316 Y26.248 Z19.503
G01 X64.176 Y26.248 Z19.299
G01 X63.035 Y26.248 Z19.012
G01 X62.465 Y26.248 Z18.830
G01 X62.423 Y26.280 Z20.360
G01 X62.320 Y26.362 Z18.841
G01 X62.218 Y26.445 Z18.846
G01 X62.070 Y26.548 Z20.360
G01 X62.213 Y26.548 Z18.896
G01 X63.068 Y26.548 Z19.143
G01 X64.067 Y26.548 Z19.368
G01 X65.208 Y26.548 Z19.554
G01 X66.634 Y26.548 Z19.680
G01 X68.203 Y26.548 Z19.727
G01 X69.914 Y26.548 Z19.685
G01 X71.483 Y26.548 Z19.576
G01 X73.622 Y26.548 Z19.355
G01 X76.902 Y26.548 Z18.905
G01 X77.758 Y26.548 Z18.764
G01 X77.901 Y26.548 Z20.360
G01 X78.471 Y26.548 
G01 X77.929 Y26.683 
G01 X78.194 Y26.699 
G01 X78.634 Y26.644 
G01 X78.778 Y26.612 Z18.586
G01 X78.922 Y26.580 Z18.591
G01 X79.066 Y26.548 Z20.360
G00 Z25.000
G00 X62.213 Y26.548  F8000.0
G01 Z18.896 F2000.0 M3
G01 X63.068 Y26.548 Z19.143 F4000.0
G01 X64.067 Y26.548 Z19.368
G01 X65.208 Y26.548 Z19.554
G01 X66.634 Y26.548 Z19.680
G01 X68.203 Y26.548 Z19.727
G01 X69.914 Y26.548 Z19.685
G01 X71.483 Y26.548 Z19.576
G01 X73.622 Y26.548 Z19.355
G01 X76.902 Y26.548 Z18.905
G01 X77.758 Y26.548 Z18.764
G01 X77.901 Y26.548 Z20.360
G01 X78.471 Y26.548 
G01 X77.929 Y26.683 
G01 X78.194 Y26.699 
G01 X78.634 Y26.644 
G01 X78.778 Y26.612 Z18.586
G01 X78.922 Y26.580 Z18.591
G01 X79.066 Y26.548 Z20.360
G00 Z25.000
G00 X62.023 Y26.580  F8000.0
G01 Z18.851 F2000.0 M3
G01 X61.863 Y26.673 Z20.360 F4000.0
G01 X61.757 Y26.708 
G01 X61.682 Y26.725 Z18.807
G01 X61.602 Y26.766 Z18.798
G01 X61.529 Y26.826 Z20.360
G01 X61.511 Y26.848 
G01 X61.654 Y26.848 Z18.859
G01 X62.508 Y26.848 Z19.117
G01 X63.504 Y26.848 Z19.347
G01 X64.643 Y26.848 Z19.540
G01 X65.924 Y26.848 Z19.669
G01 X67.347 Y26.848 Z19.724
G01 X68.770 Y26.848 Z19.706
G01 X70.478 Y26.848 Z19.606
G01 X72.328 Y26.848 Z19.412
G01 X74.036 Y26.848 Z19.187
G01 X76.314 Y26.848 Z18.823
G01 X76.456 Y26.848 Z20.360
G01 X76.883 Y26.848 
G01 X75.957 Y27.148 
G01 X75.244 Y27.148 
G01 X75.102 Y27.148 Z18.849
G01 X73.390 Y27.148 Z19.159
G01 X71.108 Y27.148 Z19.476
G01 X69.682 Y27.148 Z19.618
G01 X68.113 Y27.148 Z19.708
G01 X66.829 Y27.148 Z19.725
G01 X65.545 Y27.148 Z19.676
G01 X64.261 Y27.148 Z19.550
G01 X62.978 Y27.148 Z19.334
G01 X61.979 Y27.148 Z19.093
G01 X61.266 Y27.148 Z18.855
G00 Z25.000
G00 X82.392 Y25.948  F8000.0
G01 Z20.360 F2000.0 M3
G01 X82.675 Y25.948  F4000.0
G01 X82.816 Y25.948 Z18.633
G01 X84.089 Y25.948 Z18.586
G01 X85.786 Y25.948 Z18.549
G01 X88.189 Y25.948 Z18.621
G01 X88.472 Y25.948 Z18.643
G01 X88.614 Y25.948 Z20.360
G01 X89.038 Y25.948 
G01 X88.865 Y25.911 
G01 X89.377 Y25.900 
G01 X89.821 Y25.922 
G01 X90.201 Y25.948 
G01 X90.774 Y25.948 
G01 X90.917 Y25.948 Z18.835
G01 X94.066 Y25.948 Z19.169
G01 X97.645 Y25.948 Z19.533
G01 X99.936 Y25.948 Z19.684
G01 X101.510 Y25.948 Z19.725
G01 X102.942 Y25.948 Z19.704
G01 X104.230 Y25.948 Z19.627
G01 X105.375 Y25.948 Z19.503
G01 X106.664 Y25.948 Z19.274
G01 X107.809 Y25.948 Z18.992
G01 X108.382 Y25.948 Z18.814
G01 X108.525 Y25.948 Z20.360
G01 X108.734 Y26.091 
G01 X108.898 Y26.248 
G01 X108.755 Y26.248 
G01 X108.612 Y26.248 Z18.884
G01 X107.896 Y26.248 Z19.098
G01 X106.893 Y26.248 Z19.326
G01 X105.604 Y26.248 Z19.538
G01 X104.458 Y26.248 Z19.653
G01 X102.882 Y26.248 Z19.723
G01 X101.306 Y26.248 Z19.709
G01 X99.444 Y26.248 Z19.614
G01 X97.152 Y26.248 Z19.403
G01 X93.570 Y26.248 Z18.963
G01 X92.567 Y26.248 Z18.836
G01 X92.281 Y26.248 Z18.805
G01 X92.138 Y26.248 Z20.360
G01 X91.565 Y26.248 
G01 X93.076 Y26.548 
G00 Z25.000
G00 X82.097 Y25.971  F8000.0
G01 Z20.360 F2000.0 M3
G01 X81.944 Y25.995  F4000.0
G01 X81.790 Y26.019 Z18.668
G01 X81.637 Y26.043 Z18.663
G01 X81.483 Y26.066 Z20.360
G01 X81.191 Y26.118 
G01 X81.045 Y26.144 Z18.640
G01 X80.607 Y26.222 Z18.617
G01 X80.461 Y26.248 Z20.360
G01 X80.604 Y26.248 Z18.601
G01 X83.176 Y26.248 Z18.385
G01 X85.748 Y26.248 Z18.309
G01 X88.178 Y26.248 Z18.394
G01 X90.464 Y26.248 Z18.584
G01 X90.607 Y26.248 Z20.360
G01 X90.750 Y26.248 
G01 X90.891 Y26.275 
G01 X91.032 Y26.302 Z18.617
G01 X91.172 Y26.330 Z18.617
G01 X91.313 Y26.357 Z20.360
G01 X91.594 Y26.411 
G01 X91.735 Y26.439 Z18.614
G01 X91.876 Y26.466 Z18.613
G01 X92.016 Y26.493 Z20.360
G01 X92.298 Y26.548 
G01 X92.013 Y26.548 
G01 X91.871 Y26.548 Z18.552
G01 X90.306 Y26.548 Z18.338
G01 X87.887 Y26.548 Z18.101
G01 X85.611 Y26.548 Z18.021
G01 X83.050 Y26.548 Z18.120
G01 X80.347 Y26.548 Z18.403
G01 X79.351 Y26.548 Z18.552
G01 X79.209 Y26.548 Z20.360
G01 X79.066 Y26.548 
G01 X79.209 Y26.548 
G01 X79.351 Y26.548 Z18.552
G01 X80.631 Y26.548 Z18.370
G01 X83.192 Y26.548 Z18.112
G01 X85.753 Y26.548 Z18.025
G01 X88.029 Y26.548 Z18.110
G01 X90.590 Y26.548 Z18.370
G01 X91.871 Y26.548 Z18.552
G01 X92.013 Y26.548 Z20.360
G01 X92.298 Y26.548 
G01 X92.441 Y26.576 Z18.610
G01 X92.585 Y26.604 Z20.360
G01 X93.017 Y26.687 
G01 X93.161 Y26.715 Z18.614
G01 X93.305 Y26.743 Z18.619
G01 X93.430 Y26.618 Z18.724
G01 X93.312 Y26.595 Z20.360
G01 X93.076 Y26.548 
G01 X93.363 Y26.548 
G01 X93.507 Y26.548 Z18.780
G01 X95.371 Y26.548 Z19.053
G01 X97.523 Y26.548 Z19.346
G01 X99.818 Y26.548 Z19.587
G01 X101.683 Y26.548 Z19.701
G01 X103.261 Y26.548 Z19.725
G01 X104.839 Y26.548 Z19.665
G01 X106.130 Y26.548 Z19.531
G01 X107.421 Y26.548 Z19.318
G01 X108.282 Y26.548 Z19.115
G01 X108.999 Y26.548 Z18.893
G01 X109.142 Y26.548 Z20.360
G01 X109.286 Y26.548 
G01 X109.720 Y26.848 
G00 Z25.000
G00 X93.220 Y26.548  F8000.0
G01 Z20.360 F2000.0 M3
G01 X93.363 Y26.548  F4000.0
G01 X93.507 Y26.548 Z18.780
G01 X95.371 Y26.548 Z19.053
G01 X97.523 Y26.548 Z19.346
G01 X99.818 Y26.548 Z19.587
G01 X101.683 Y26.548 Z19.701
G01 X103.261 Y26.548 Z19.725
G01 X104.839 Y26.548 Z19.665
G01 X106.130 Y26.548 Z19.531
G01 X107.421 Y26.548 Z19.318
G01 X108.282 Y26.548 Z19.115
G01 X108.999 Y26.548 Z18.893
G01 X109.142 Y26.548 Z20.360
G01 X109.286 Y26.548 
G01 X109.720 Y26.848 
G01 X109.577 Y26.848 
G01 X109.435 Y26.848 Z18.884
G01 X108.580 Y26.848 Z19.146
G01 X107.725 Y26.848 Z19.353
G01 X106.300 Y26.848 Z19.572
G01 X105.017 Y26.848 Z19.684
G01 X103.592 Y26.848 Z19.727
G01 X101.882 Y26.848 Z19.683
G01 X100.029 Y26.848 Z19.543
G01 X98.462 Y26.848 Z19.357
G01 X96.609 Y26.848 Z19.100
G01 X94.757 Y26.848 Z18.796
G01 X94.614 Y26.848 Z20.360
G01 X94.472 Y26.848 
G01 X94.118 Y26.760 
G01 X93.929 Y26.730 
G01 X93.643 Y26.722 
G01 X94.006 Y26.848 
G01 X93.578 Y26.848 
G01 X93.435 Y26.848 Z18.571
G01 X92.579 Y26.848 Z18.422
G01 X90.582 Y26.848 Z18.103
G01 X88.015 Y26.848 Z17.801
G01 X86.588 Y26.848 Z17.734
G01 X86.303 Y26.848 Z17.690
G01 X85.447 Y26.848 Z17.671
G01 X84.877 Y26.848 Z17.694
G01 X84.734 Y26.848 Z17.728
G01 X83.022 Y26.848 Z17.816
G01 X80.455 Y26.848 Z18.127
G01 X78.458 Y26.848 Z18.455
G01 X77.602 Y26.848 Z18.594
G01 X77.459 Y26.848 Z20.360
G01 X77.317 Y26.848 
G01 X77.182 Y26.893 Z18.642
G01 X77.047 Y26.938 Z20.360
G01 X76.912 Y26.983 
G01 X76.778 Y27.029 Z18.627
G01 X76.643 Y27.074 Z18.620
G01 X76.523 Y27.111 Z20.360
G01 X76.403 Y27.148 Z18.617
G00 Z25.000
G00 X109.577 Y26.848  F8000.0
G01 Z20.360 F2000.0 M3
G01 X109.435 Y26.848 Z18.884 F4000.0
G01 X108.580 Y26.848 Z19.146
G01 X107.725 Y26.848 Z19.353
G01 X106.300 Y26.848 Z19.572
G01 X105.017 Y26.848 Z19.684
G01 X103.592 Y26.848 Z19.727
G01 X101.882 Y26.848 Z19.683
G01 X100.029 Y26.848 Z19.543
G01 X98.462 Y26.848 Z19.357
G01 X96.609 Y26.848 Z19.100
G01 X94.757 Y26.848 Z18.796
G01 X94.614 Y26.848 Z20.360
G01 X94.472 Y26.848 
G01 X95.453 Y27.148 
G01 X96.023 Y27.148 
G01 X96.165 Y27.148 Z18.871
G01 X98.018 Y27.148 Z19.182
G01 X99.871 Y27.148 Z19.450
G01 X101.725 Y27.148 Z19.632
G01 X103.150 Y27.148 Z19.710
G01 X104.433 Y27.148 Z19.724
G01 X105.716 Y27.148 Z19.671
G01 X106.999 Y27.148 Z19.544
G01 X107.996 Y27.148 Z19.385
G01 X108.994 Y27.148 Z19.145
G01 X109.849 Y27.148 Z18.881
G01 X110.135 Y27.148 Z18.777
G01 X110.235 Y27.238 Z20.360
G01 X110.330 Y27.395 
G01 X110.379 Y27.420 
G01 X110.438 Y27.429 Z18.807
G01 X110.590 Y27.429 Z20.360
G01 X110.612 Y27.448 
G01 X110.469 Y27.448 Z18.807
G01 X109.609 Y27.448 Z19.089
G01 X108.606 Y27.448 Z19.343
G01 X107.460 Y27.448 Z19.547
G01 X106.314 Y27.448 Z19.661
G01 X105.025 Y27.448 Z19.722
G01 X103.736 Y27.448 Z19.710
G01 X102.446 Y27.448 Z19.645
G01 X101.157 Y27.448 Z19.519
G01 X99.581 Y27.448 Z19.316
G01 X98.149 Y27.448 Z19.069
G01 X97.003 Y27.448 Z18.863
G01 X96.859 Y27.448 Z20.360
G01 X96.430 Y27.448 
G01 X96.848 Y27.563 
G01 X97.338 Y27.748 
G01 X97.624 Y27.748 
G01 X97.768 Y27.748 Z18.842
G01 X99.488 Y27.748 Z19.189
G01 X101.209 Y27.748 Z19.450
G01 X102.499 Y27.748 Z19.600
G01 X103.790 Y27.748 Z19.692
G01 X105.080 Y27.748 Z19.727
G01 X106.371 Y27.748 Z19.691
G01 X107.518 Y27.748 Z19.593
G01 X108.665 Y27.748 Z19.415
G01 X109.812 Y27.748 Z19.149
G01 X110.672 Y27.748 Z18.880
G01 X110.816 Y27.748 Z18.828
G01 X110.959 Y27.748 Z20.360
G01 X111.306 Y28.048 
G01 X111.164 Y28.048 
G01 X111.022 Y28.048 Z18.889
G01 X110.453 Y28.048 Z19.083
G01 X109.459 Y28.048 Z19.336
G01 X108.321 Y28.048 Z19.540
G01 X107.326 Y28.048 Z19.655
G01 X106.189 Y28.048 Z19.719
G01 X104.910 Y28.048 Z19.717
G01 X103.489 Y28.048 Z19.636
G01 X101.925 Y28.048 Z19.471
G01 X100.220 Y28.048 Z19.194
G01 X98.941 Y28.048 Z18.941
G01 X98.514 Y28.048 Z18.842
G01 X98.372 Y28.048 Z20.360
G01 X98.088 Y28.048 
G01 X98.465 Y28.202 
G01 X98.328 Y28.248 
G01 X98.196 Y28.232 
G01 X97.803 Y28.101 
G01 X97.666 Y28.048 
G00 Z25.000
G00 X111.164 Y28.048  F8000.0
G01 Z20.360 F2000.0 M3
G01 X111.022 Y28.048 Z18.889 F4000.0
G01 X110.453 Y28.048 Z19.083
G01 X109.459 Y28.048 Z19.336
G01 X108.321 Y28.048 Z19.540
G01 X107.326 Y28.048 Z19.655
G01 X106.189 Y28.048 Z19.719
G01 X104.910 Y28.048 Z19.717
G01 X103.489 Y28.048 Z19.636
G01 X101.925 Y28.048 Z19.471
G01 X100.220 Y28.048 Z19.194
G01 X98.941 Y28.048 Z18.941
G01 X98.514 Y28.048 Z18.842
G01 X98.372 Y28.048 Z20.360
G01 X98.088 Y28.048 
G01 X98.465 Y28.202 
G01 X98.328 Y28.248 
G01 X98.196 Y28.232 
G01 X97.803 Y28.101 
G01 X97.666 Y28.048 
G00 Z25.000
G00 X111.422 Y28.148  F8000.0
G01 Z20.360 F2000.0 M3
G01 X111.653 Y28.348  F4000.0
G01 X111.510 Y28.348 Z18.839
G01 X110.652 Y28.348 Z19.137
G01 X109.937 Y28.348 Z19.320
G01 X108.936 Y28.348 Z19.510
G01 X107.935 Y28.348 Z19.638
G01 X106.790 Y28.348 Z19.715
G01 X105.503 Y28.348 Z19.721
G01 X104.216 Y28.348 Z19.654
G01 X102.500 Y28.348 Z19.471
G01 X101.212 Y28.348 Z19.263
G01 X99.353 Y28.348 Z18.874
G01 X99.210 Y28.348 Z20.360
G01 X98.924 Y28.348 
G01 X99.478 Y28.588 
G01 X99.583 Y28.648 
G01 X99.726 Y28.648 
G01 X99.869 Y28.648 Z18.831
G01 X101.581 Y28.648 Z19.224
G01 X103.008 Y28.648 Z19.461
G01 X104.436 Y28.648 Z19.633
G01 X105.863 Y28.648 Z19.717
G01 X107.147 Y28.648 Z19.717
G01 X108.432 Y28.648 Z19.630
G01 X109.574 Y28.648 Z19.474
G01 X110.430 Y28.648 Z19.296
G01 X111.286 Y28.648 Z19.050
G01 X111.857 Y28.648 Z18.840
G01 X112.000 Y28.648 Z20.360
G00 Z25.000
G00 X133.475 Y27.748  F8000.0
G01 Z18.810 F2000.0 M3
G01 X134.629 Y27.748 Z18.877 F4000.0
G01 X137.080 Y27.748 Z18.926
G01 X139.675 Y27.748 Z18.857
G01 X140.540 Y27.748 Z18.794
G00 Z25.000
G00 X133.475 Y27.748  F8000.0
G01 Z18.810 F2000.0 M3
G01 X133.206 Y27.783 Z18.812 F4000.0
G01 X133.064 Y27.804 Z20.360
G01 X132.781 Y27.848 
G01 X132.639 Y27.869 Z18.821
G01 X132.214 Y27.934 Z18.831
G01 X132.081 Y27.957 Z20.360
G01 X131.947 Y27.980 
G01 X131.814 Y28.002 Z18.839
G01 X131.547 Y28.048 Z18.840
G01 X134.405 Y28.048 Z19.041
G01 X137.121 Y28.048 Z19.086
G01 X139.694 Y28.048 Z19.024
G01 X142.267 Y28.048 Z18.840
G01 X142.410 Y28.048 Z18.823
G01 X142.546 Y28.071 Z20.360
G01 X143.773 Y28.283 
G01 X143.945 Y28.316 Z18.790
G01 X144.117 Y28.348 Z18.791
G01 X141.972 Y28.348 Z19.037
G01 X139.256 Y28.348 Z19.187
G01 X136.539 Y28.348 Z19.221
G01 X134.109 Y28.348 Z19.170
G01 X131.679 Y28.348 Z19.023
G01 X129.771 Y28.357 Z18.809
G01 X129.628 Y28.391 Z18.811
G01 X129.484 Y28.425 Z20.360
G01 X129.340 Y28.459 Z18.816
G01 X129.194 Y28.499 Z18.823
G01 X129.049 Y28.539 Z20.360
G01 X128.903 Y28.579 Z18.821
G01 X128.796 Y28.613 Z18.823
G01 X128.689 Y28.648 Z20.360
G01 X128.832 Y28.648 Z18.851
G01 X129.692 Y28.648 Z18.965
G01 X131.843 Y28.648 Z19.179
G01 X134.711 Y28.648 Z19.314
G01 X137.292 Y28.648 Z19.341
G01 X139.729 Y28.648 Z19.292
G01 X142.167 Y28.648 Z19.163
G01 X144.748 Y28.648 Z18.890
G01 X145.035 Y28.648 Z18.843
G01 X145.178 Y28.648 Z20.360
G01 X145.322 Y28.648 
G01 X146.284 Y28.948 
G01 X145.998 Y28.948 
G01 X145.855 Y28.948 Z18.874
G01 X144.570 Y28.948 Z19.071
G01 X141.998 Y28.948 Z19.300
G01 X138.997 Y28.948 Z19.421
G01 X136.425 Y28.948 Z19.441
G01 X133.997 Y28.948 Z19.398
G01 X131.568 Y28.948 Z19.281
G01 X129.282 Y28.948 Z19.078
G01 X127.996 Y28.948 Z18.883
G01 X127.853 Y28.948 Z20.360
G01 X127.710 Y28.948 
G01 X127.442 Y28.999 
G01 X127.275 Y29.023 Z18.803
G01 X126.873 Y29.144 Z18.808
G01 X126.725 Y29.196 Z18.812
G01 X126.576 Y29.248 Z20.360
G01 X126.720 Y29.248 Z18.843
G01 X128.867 Y29.248 Z19.161
G01 X129.869 Y29.248 Z19.263
G01 X132.160 Y29.248 Z19.424
G01 X135.023 Y29.248 Z19.510
G01 X137.457 Y29.248 Z19.525
G01 X139.891 Y29.248 Z19.486
G01 X142.181 Y29.248 Z19.395
G01 X144.758 Y29.248 Z19.187
G01 X146.762 Y29.248 Z18.893
G01 X147.049 Y29.248 Z18.844
G01 X147.192 Y29.248 Z20.360
G01 X147.286 Y29.279 
G01 X147.416 Y29.324 Z18.820
G01 X147.547 Y29.368 Z18.823
G01 X147.677 Y29.413 Z20.360
G01 X147.808 Y29.458 Z18.812
G01 X147.939 Y29.503 Z20.360
G01 X148.069 Y29.548 
G01 X147.926 Y29.548 
G01 X147.783 Y29.548 Z18.870
G01 X147.069 Y29.548 Z19.002
G01 X145.213 Y29.548 Z19.252
G01 X144.071 Y29.548 Z19.363
G01 X141.786 Y29.548 Z19.505
G01 X138.930 Y29.548 Z19.582
G01 X136.074 Y29.548 Z19.592
G01 X133.646 Y29.548 Z19.557
G01 X131.504 Y29.548 Z19.479
G01 X129.362 Y29.548 Z19.335
G01 X127.363 Y29.548 Z19.100
G01 X126.363 Y29.548 Z18.936
G01 X126.078 Y29.548 Z18.877
G01 X125.935 Y29.548 Z20.360
G01 X125.792 Y29.548 
G01 X125.506 Y29.662 
G01 X125.363 Y29.719 Z18.821
G01 X125.214 Y29.784 Z20.360
G01 X125.065 Y29.848 
G01 X125.207 Y29.848 
G01 X125.350 Y29.848 Z18.891
G01 X126.920 Y29.848 Z19.177
G01 X129.346 Y29.848 Z19.434
G01 X132.201 Y29.848 Z19.584
G01 X135.198 Y29.848 Z19.640
G01 X138.623 Y29.848 Z19.641
G01 X141.905 Y29.848 Z19.575
G01 X144.617 Y29.848 Z19.421
G01 X146.900 Y29.848 Z19.170
G01 X147.614 Y29.848 Z19.056
G01 X148.328 Y29.848 Z18.915
G01 X148.470 Y29.848 Z20.360
G01 X148.899 Y29.848 
G01 X149.173 Y29.957 
G01 X149.311 Y30.011 Z18.790
G01 X149.448 Y30.066 Z20.360
G01 X149.634 Y30.148 
G01 X149.491 Y30.148 Z18.827
G01 X147.921 Y30.148 Z19.140
G01 X146.922 Y30.148 Z19.288
G01 X144.781 Y30.148 Z19.493
G01 X142.639 Y30.148 Z19.605
G01 X140.641 Y30.148 Z19.656
G01 X137.358 Y30.148 Z19.688
G01 X133.646 Y30.148 Z19.665
G01 X131.362 Y30.148 Z19.613
G01 X129.221 Y30.148 Z19.507
G01 X127.080 Y30.148 Z19.312
G01 X125.795 Y30.148 Z19.123
G01 X124.367 Y30.148 Z18.849
G01 X124.189 Y30.228 Z18.851
G01 X124.068 Y30.283 Z20.360
G01 X123.947 Y30.338 Z18.852
G01 X123.826 Y30.393 Z20.360
G01 X123.705 Y30.448 
G01 X123.848 Y30.448 Z18.887
G01 X124.564 Y30.448 Z19.043
G01 X126.138 Y30.448 Z19.297
G01 X127.283 Y30.448 Z19.435
G01 X129.715 Y30.448 Z19.605
G01 X132.863 Y30.448 Z19.692
G01 X137.300 Y30.448 Z19.715
G01 X141.449 Y30.448 Z19.685
G01 X144.311 Y30.448 Z19.595
G01 X146.601 Y30.448 Z19.424
G01 X147.603 Y30.448 Z19.308
G01 X149.034 Y30.448 Z19.074
G01 X150.178 Y30.448 Z18.840
G01 X150.321 Y30.448 Z20.360
G01 X150.539 Y30.530 
G01 X150.661 Y30.571 Z18.774
G01 X150.796 Y30.634 Z20.360
G01 X151.018 Y30.748 
G01 X150.875 Y30.748 Z18.811
G01 X149.877 Y30.748 Z19.059
G01 X148.307 Y30.748 Z19.316
G01 X146.881 Y30.748 Z19.486
G01 X144.313 Y30.748 Z19.647
G01 X141.174 Y30.748 Z19.714
G01 X133.471 Y30.748 Z19.719
G01 X130.617 Y30.748 Z19.678
G01 X128.763 Y30.748 Z19.611
G01 X126.908 Y30.748 Z19.484
G01 X125.054 Y30.748 Z19.257
G01 X124.198 Y30.748 Z19.109
G01 X123.056 Y30.748 Z18.845
G01 X122.683 Y30.928 Z18.844
G01 X122.559 Y30.988 Z20.360
G01 X122.434 Y31.048 Z18.846
G01 X123.575 Y31.048 Z19.111
G01 X124.574 Y31.048 Z19.297
G01 X126.286 Y31.048 Z19.501
G01 X127.712 Y31.048 Z19.609
G01 X129.994 Y31.048 Z19.698
G01 X133.418 Y31.048 Z19.727
G01 X142.832 Y31.048 Z19.714
G01 X145.114 Y31.048 Z19.656
G01 X147.111 Y31.048 Z19.540
G01 X148.823 Y31.048 Z19.347
G01 X149.964 Y31.048 Z19.174
G01 X151.247 Y31.048 Z18.873
G01 X151.390 Y31.048 Z18.834
G01 X151.533 Y31.048 Z20.360
G01 X152.002 Y31.303 
G01 X152.107 Y31.348 
G01 X151.964 Y31.348 
G01 X151.821 Y31.348 Z18.879
G01 X150.536 Y31.348 Z19.178
G01 X149.537 Y31.348 Z19.353
G01 X147.824 Y31.348 Z19.544
G01 X146.396 Y31.348 Z19.644
G01 X143.827 Y31.348 Z19.719
G01 X139.401 Y31.348 Z19.715
G01 X134.547 Y31.348 Z19.713
G01 X129.979 Y31.348 Z19.720
G01 X127.409 Y31.348 Z19.646
G01 X125.411 Y31.348 Z19.492
G01 X124.269 Y31.348 Z19.350
G01 X122.984 Y31.348 Z19.119
G01 X121.985 Y31.348 Z18.893
G01 X121.842 Y31.348 Z20.360
G01 X121.721 Y31.411 
G01 X121.599 Y31.474 Z18.850
G01 X121.357 Y31.600 Z18.842
G01 X121.277 Y31.648 Z20.360
G01 X121.420 Y31.648 Z18.884
G01 X122.136 Y31.648 Z19.076
G01 X123.425 Y31.648 Z19.318
G01 X124.857 Y31.648 Z19.516
G01 X126.861 Y31.648 Z19.659
G01 X129.009 Y31.648 Z19.721
G01 X132.445 Y31.648 Z19.710
G01 X137.313 Y31.648 Z19.676
G01 X144.329 Y31.648 Z19.725
G01 X146.763 Y31.648 Z19.670
G01 X148.768 Y31.648 Z19.527
G01 X149.913 Y31.648 Z19.393
G01 X151.059 Y31.648 Z19.192
G01 X152.204 Y31.648 Z18.935
G01 X152.634 Y31.648 Z18.818
G01 X152.777 Y31.648 Z20.360
G01 X153.212 Y31.948 
G01 X153.069 Y31.948 
G01 X152.927 Y31.948 Z18.885
G01 X152.355 Y31.948 Z19.042
G01 X150.926 Y31.948 Z19.328
G01 X149.497 Y31.948 Z19.528
G01 X147.639 Y31.948 Z19.665
G01 X145.782 Y31.948 Z19.721
G01 X143.067 Y31.948 Z19.712
G01 X137.922 Y31.948 Z19.635
G01 X134.635 Y31.948 Z19.644
G01 X129.205 Y31.948 Z19.726
G01 X127.062 Y31.948 Z19.699
G01 X125.347 Y31.948 Z19.616
G01 X124.061 Y31.948 Z19.496
G01 X122.632 Y31.948 Z19.292
G01 X121.774 Y31.948 Z19.115
G01 X120.917 Y31.948 Z18.889
G01 X120.774 Y31.948 Z18.845
G01 X120.628 Y32.039 Z18.850
G01 X120.507 Y32.115 Z20.360
G01 X120.264 Y32.248 
G01 X120.407 Y32.248 
G01 X120.550 Y32.248 Z18.931
G01 X121.551 Y32.248 Z19.185
G01 X122.408 Y32.248 Z19.356
G01 X123.980 Y32.248 Z19.557
G01 X125.410 Y32.248 Z19.666
G01 X127.411 Y32.248 Z19.725
G01 X129.983 Y32.248 Z19.701
G01 X135.414 Y32.248 Z19.580
G01 X137.844 Y32.248 Z19.576
G01 X140.274 Y32.248 Z19.617
G01 X145.133 Y32.248 Z19.723
G01 X147.134 Y32.248 Z19.711
G01 X148.992 Y32.248 Z19.628
G01 X150.136 Y32.248 Z19.524
G01 X151.708 Y32.248 Z19.295
G01 X152.565 Y32.248 Z19.121
G01 X153.423 Y32.248 Z18.882
G01 X153.566 Y32.248 Z20.360
G01 X153.709 Y32.248 
G01 X153.826 Y32.319 Z18.789
G01 X153.943 Y32.390 Z20.360
G01 X154.200 Y32.548 
G01 X154.056 Y32.548 
G01 X153.913 Y32.548 Z18.877
G01 X153.055 Y32.548 Z19.120
G01 X152.196 Y32.548 Z19.313
G01 X150.908 Y32.548 Z19.503
G01 X149.477 Y32.548 Z19.640
G01 X148.046 Y32.548 Z19.707
G01 X146.186 Y32.548 Z19.724
G01 X143.897 Y32.548 Z19.671
G01 X139.031 Y32.548 Z19.516
G01 X136.456 Y32.548 Z19.499
G01 X134.023 Y32.548 Z19.538
G01 X128.299 Y32.548 Z19.715
G01 X126.296 Y32.548 Z19.720
G01 X124.722 Y32.548 Z19.666
G01 X123.148 Y32.548 Z19.536
G01 X122.003 Y32.548 Z19.378
G01 X120.858 Y32.548 Z19.146
G01 X119.857 Y32.548 Z18.880
G01 X119.714 Y32.548 Z20.360
G01 X119.605 Y32.623 Z18.844
G01 X119.497 Y32.698 Z20.360
G01 X119.280 Y32.848 
G01 X119.423 Y32.848 
G01 X119.566 Y32.848 Z18.941
G01 X120.424 Y32.848 Z19.165
G01 X121.568 Y32.848 Z19.392
G01 X122.854 Y32.848 Z19.570
G01 X124.570 Y32.848 Z19.690
G01 X126.286 Y32.848 Z19.727
G01 X128.574 Y32.848 Z19.683
G01 X133.578 Y32.848 Z19.472
G01 X135.294 Y32.848 Z19.423
G01 X137.296 Y32.848 Z19.406
G01 X139.584 Y32.848 Z19.449
G01 X142.300 Y32.848 Z19.557
G01 X145.875 Y32.848 Z19.702
G01 X147.877 Y32.848 Z19.725
G01 X149.450 Y32.848 Z19.681
G01 X151.022 Y32.848 Z19.558
G01 X152.166 Y32.848 Z19.409
G01 X153.167 Y32.848 Z19.208
G01 X154.168 Y32.848 Z18.947
G01 X154.311 Y32.848 Z20.360
G01 X154.597 Y32.848 
G01 X154.712 Y32.939 
G01 X154.866 Y33.000 
G01 X154.985 Y33.054 Z18.797
G01 X155.133 Y33.148 Z18.797
G01 X154.133 Y33.148 Z19.091
G01 X152.990 Y33.148 Z19.349
G01 X151.847 Y33.148 Z19.532
G01 X150.560 Y33.148 Z19.649
G01 X149.132 Y33.148 Z19.715
G01 X147.417 Y33.148 Z19.719
G01 X144.988 Y33.148 Z19.632
G01 X140.558 Y33.148 Z19.390
G01 X138.700 Y33.148 Z19.321
G01 X136.557 Y33.148 Z19.298
G01 X134.270 Y33.148 Z19.344
G01 X131.841 Y33.148 Z19.463
G01 X128.126 Y33.148 Z19.661
G01 X126.125 Y33.148 Z19.722
G01 X124.553 Y33.148 Z19.713
G01 X122.982 Y33.148 Z19.632
G01 X121.981 Y33.148 Z19.530
G01 X120.695 Y33.148 Z19.329
G01 X119.838 Y33.148 Z19.146
G01 X118.980 Y33.148 Z18.890
G01 X118.838 Y33.148 Z18.840
G01 X118.614 Y33.298 Z18.838
G01 X118.502 Y33.373 Z20.360
G01 X118.390 Y33.448 Z18.836
G01 X119.390 Y33.448 Z19.143
G01 X120.248 Y33.448 Z19.341
G01 X121.391 Y33.448 Z19.520
G01 X122.535 Y33.448 Z19.640
G01 X123.821 Y33.448 Z19.711
G01 X125.394 Y33.448 Z19.722
G01 X127.395 Y33.448 Z19.657
G01 X130.110 Y33.448 Z19.483
G01 X133.112 Y33.448 Z19.286
G01 X135.113 Y33.448 Z19.198
G01 X137.114 Y33.448 Z19.171
G01 X139.258 Y33.448 Z19.217
G01 X141.688 Y33.448 Z19.346
G01 X145.833 Y33.448 Z19.623
G01 X147.691 Y33.448 Z19.708
G01 X149.407 Y33.448 Z19.723
G01 X150.836 Y33.448 Z19.670
G01 X151.980 Y33.448 Z19.577
G01 X153.266 Y33.448 Z19.388
G01 X154.409 Y33.448 Z19.142
G01 X155.124 Y33.448 Z18.947
G01 X155.410 Y33.448 Z18.845
G01 X155.553 Y33.448 Z20.360
G01 X155.960 Y33.748 
G01 X155.817 Y33.748 Z18.842
G01 X154.958 Y33.748 Z19.125
G01 X153.813 Y33.748 Z19.376
G01 X152.668 Y33.748 Z19.551
G01 X151.524 Y33.748 Z19.664
G01 X150.093 Y33.748 Z19.721
G01 X148.662 Y33.748 Z19.714
G01 X146.945 Y33.748 Z19.643
G01 X143.940 Y33.748 Z19.416
G01 X140.935 Y33.748 Z19.174
G01 X138.788 Y33.748 Z19.055
G01 X136.642 Y33.748 Z19.023
G01 X134.639 Y33.748 Z19.071
G01 X132.349 Y33.748 Z19.212
G01 X127.341 Y33.748 Z19.612
G01 X125.481 Y33.748 Z19.704
G01 X124.050 Y33.748 Z19.726
G01 X122.619 Y33.748 Z19.684
G01 X121.331 Y33.748 Z19.575
G01 X120.186 Y33.748 Z19.419
G01 X119.042 Y33.748 Z19.165
G01 X118.183 Y33.748 Z18.912
G01 X118.040 Y33.748 Z18.865
G01 X117.897 Y33.748 Z20.360
G00 Z25.000
G00 X76.403 Y27.148  F8000.0
G01 Z18.617 F2000.0 M3
G01 X78.123 Y27.148 Z18.263 F4000.0
G01 X79.844 Y27.148 Z17.942
G01 X80.561 Y27.148 Z17.793
G01 X80.704 Y27.148 Z17.738
G01 X81.421 Y27.148 Z17.642
G01 X81.564 Y27.148 Z17.602
G01 X81.708 Y27.148 Z17.527
G01 X81.851 Y27.148 Z17.411
G01 X83.142 Y27.148 Z17.264
G01 X84.575 Y27.148 Z17.201
G01 X84.719 Y27.148 Z17.175
G01 X84.862 Y27.148 Z17.092
G01 X85.006 Y27.148 Z16.841
G01 X85.149 Y27.148 Z16.486
G01 X86.153 Y27.148 Z16.487
G01 X86.296 Y27.148 Z16.902
G01 X86.439 Y27.148 Z17.106
G01 X86.583 Y27.148 Z17.182
G01 X87.013 Y27.148 Z17.213
G01 X88.160 Y27.148 Z17.268
G01 X89.307 Y27.148 Z17.406
G01 X89.450 Y27.148 Z17.523
G01 X89.594 Y27.148 Z17.593
G01 X89.881 Y27.148 Z17.648
G01 X90.311 Y27.148 Z17.698
G01 X90.597 Y27.148 Z17.793
G01 X92.605 Y27.148 Z18.171
G01 X94.899 Y27.148 Z18.630
G00 Z25.000
G00 X61.266 Y27.148  F8000.0
G01 Z18.855 F2000.0 M3
G01 X61.065 Y27.298 Z18.852 F4000.0
G01 X60.964 Y27.373 Z20.360
G01 X60.864 Y27.448 Z18.845
G01 X61.577 Y27.448 Z19.090
G01 X62.432 Y27.448 Z19.314
G01 X63.431 Y27.448 Z19.493
G01 X64.572 Y27.448 Z19.634
G01 X65.713 Y27.448 Z19.710
G01 X66.996 Y27.448 Z19.725
G01 X68.565 Y27.448 Z19.658
G01 X70.277 Y27.448 Z19.497
G01 X71.703 Y27.448 Z19.302
G01 X73.985 Y27.448 Z18.908
G01 X74.128 Y27.448 Z18.880
G01 X74.270 Y27.448 Z20.360
G01 X74.984 Y27.448 
G01 X75.126 Y27.448 Z18.658
G01 X76.695 Y27.448 Z18.330
G01 X78.264 Y27.448 Z17.951
G01 X79.262 Y27.448 Z17.738
G01 X79.548 Y27.448 Z17.621
G01 X79.833 Y27.448 Z17.555
G01 X79.975 Y27.448 Z17.482
G01 X80.118 Y27.448 Z17.361
G01 X80.261 Y27.448 Z17.270
G01 X80.403 Y27.448 Z17.242
G01 X80.546 Y27.448 Z17.161
G01 X80.689 Y27.448 Z16.563
G01 X82.115 Y27.448 Z16.348
G01 X83.541 Y27.448 Z16.205
G01 X84.825 Y27.448 Z16.139
G01 X86.251 Y27.448 Z16.137
G01 X87.677 Y27.448 Z16.206
G01 X89.104 Y27.448 Z16.348
G01 X90.387 Y27.448 Z16.542
G01 X90.530 Y27.448 Z17.079
G01 X90.672 Y27.448 Z17.209
G01 X90.815 Y27.448 Z17.253
G01 X90.958 Y27.448 Z17.392
G01 X91.100 Y27.448 Z17.485
G01 X91.243 Y27.448 Z17.538
G01 X91.671 Y27.448 Z17.632
G01 X91.813 Y27.448 Z17.699
G01 X92.954 Y27.448 Z17.952
G01 X94.381 Y27.448 Z18.295
G01 X96.092 Y27.448 Z18.670
G01 X96.235 Y27.448 Z20.360
G01 X96.928 Y27.748 
G01 X96.786 Y27.748 Z18.628
G01 X95.502 Y27.748 Z18.306
G01 X93.934 Y27.748 Z17.907
G01 X93.079 Y27.748 Z17.651
G01 X92.794 Y27.748 Z17.510
G01 X92.651 Y27.748 Z17.480
G01 X92.508 Y27.748 Z17.420
G01 X92.366 Y27.748 Z17.315
G01 X92.223 Y27.748 Z17.167
G01 X92.081 Y27.748 Z17.139
G01 X91.938 Y27.748 Z17.075
G01 X91.796 Y27.748 Z16.469
G01 X90.370 Y27.748 Z16.186
G01 X89.087 Y27.748 Z15.997
G01 X87.661 Y27.748 Z15.859
G01 X86.235 Y27.748 Z15.792
G01 X84.809 Y27.748 Z15.794
G01 X83.384 Y27.748 Z15.871
G01 X81.958 Y27.748 Z16.019
G01 X80.532 Y27.748 Z16.238
G01 X79.392 Y27.748 Z16.471
G01 X79.249 Y27.748 Z17.051
G01 X79.106 Y27.748 Z17.145
G01 X78.821 Y27.748 Z17.388
G01 X78.679 Y27.748 Z17.460
G01 X78.394 Y27.748 Z17.529
G01 X78.108 Y27.748 Z17.653
G01 X77.253 Y27.748 Z17.908
G01 X76.255 Y27.748 Z18.177
G01 X74.402 Y27.748 Z18.633
G00 Z25.000
G00 X30.521 Y26.548  F8000.0
G01 Z20.360 F2000.0 M3
G01 X30.807 Y26.548  F4000.0
G01 X30.950 Y26.548 Z18.870
G01 X31.954 Y26.548 Z18.927
G01 X34.533 Y26.548 Z18.972
G01 X37.112 Y26.548 Z18.910
G01 X37.685 Y26.548 Z18.868
G01 X37.828 Y26.548 Z20.360
G01 X38.402 Y26.548 
G01 X38.555 Y26.568 
G01 X38.709 Y26.588 Z18.815
G01 X38.862 Y26.608 Z20.360
G01 X39.549 Y26.714 
G01 X39.686 Y26.735 Z18.831
G01 X40.195 Y26.825 Z18.825
G01 X40.323 Y26.848 Z20.360
G01 X40.180 Y26.848 Z18.840
G01 X39.325 Y26.848 Z18.926
G01 X36.760 Y26.848 Z19.081
G01 X34.052 Y26.848 Z19.123
G01 X31.345 Y26.848 Z19.060
G01 X28.779 Y26.848 Z18.884
G01 X28.352 Y26.848 Z18.832
G01 X27.754 Y26.958 Z18.824
G01 X27.612 Y26.987 Z20.360
G01 X27.469 Y27.017 Z18.822
G01 X27.185 Y27.076 Z18.825
G01 X27.042 Y27.106 Z20.360
G01 X26.900 Y27.135 
G01 X26.849 Y27.148 Z18.824
G01 X28.843 Y27.148 Z19.053
G01 X31.834 Y27.148 Z19.221
G01 X34.541 Y27.148 Z19.259
G01 X37.247 Y27.148 Z19.201
G01 X39.811 Y27.148 Z19.047
G01 X41.805 Y27.148 Z18.818
G01 X41.979 Y27.186 Z18.823
G01 X42.154 Y27.225 Z20.360
G01 X42.282 Y27.256 
G01 X42.410 Y27.287 Z18.825
G01 X42.538 Y27.318 Z20.360
G01 X42.923 Y27.412 
G01 X43.052 Y27.448 Z18.810
G01 X42.196 Y27.448 Z18.948
G01 X39.484 Y27.448 Z19.214
G01 X36.629 Y27.448 Z19.342
G01 X33.918 Y27.448 Z19.368
G01 X31.348 Y27.448 Z19.323
G01 X28.779 Y27.448 Z19.186
G01 X26.210 Y27.448 Z18.923
G01 X25.639 Y27.448 Z18.829
G01 X24.957 Y27.635 Z18.820
G01 X24.835 Y27.672 Z20.360
G01 X24.714 Y27.710 
G01 X24.592 Y27.748 Z18.820
G01 X26.158 Y27.748 Z19.071
G01 X28.863 Y27.748 Z19.316
G01 X31.995 Y27.748 Z19.444
G01 X34.700 Y27.748 Z19.467
G01 X37.263 Y27.748 Z19.424
G01 X39.825 Y27.748 Z19.310
G01 X42.246 Y27.748 Z19.095
G01 X43.954 Y27.748 Z18.833
G01 X44.096 Y27.748 Z18.808
G01 X44.286 Y27.806 Z20.360
G01 X44.412 Y27.846 
G01 X44.539 Y27.886 Z18.813
G01 X44.665 Y27.927 Z18.819
G01 X44.792 Y27.967 Z20.360
G01 X44.918 Y28.007 Z18.821
G01 X45.045 Y28.048 Z20.360
G01 X44.902 Y28.048 Z18.847
G01 X43.192 Y28.048 Z19.108
G01 X41.909 Y28.048 Z19.258
G01 X39.344 Y28.048 Z19.440
G01 X36.493 Y28.048 Z19.529
G01 X33.643 Y28.048 Z19.544
G01 X31.220 Y28.048 Z19.509
G01 X28.797 Y28.048 Z19.413
G01 X26.231 Y28.048 Z19.215
G01 X24.379 Y28.048 Z18.956
G01 X23.666 Y28.048 Z18.835
G01 X23.525 Y28.097 Z20.360
G01 X23.384 Y28.146 Z18.844
G01 X23.243 Y28.195 Z20.360
G01 X23.102 Y28.244 
G01 X22.968 Y28.296 Z18.841
G01 X22.835 Y28.348 Z18.837
G01 X23.550 Y28.348 Z18.984
G01 X25.552 Y28.348 Z19.256
G01 X26.696 Y28.348 Z19.369
G01 X29.413 Y28.348 Z19.530
G01 X32.416 Y28.348 Z19.599
G01 X35.134 Y28.348 Z19.607
G01 X37.565 Y28.348 Z19.575
G01 X39.853 Y28.348 Z19.499
G01 X42.284 Y28.348 Z19.339
G01 X44.572 Y28.348 Z19.061
G01 X45.430 Y28.348 Z18.907
G01 X45.859 Y28.348 Z18.814
G01 X46.002 Y28.348 Z20.360
G01 X46.134 Y28.394 
G01 X46.265 Y28.441 Z18.778
G01 X46.416 Y28.510 Z20.360
G01 X46.567 Y28.579 Z18.792
G01 X46.718 Y28.648 Z20.360
G01 X46.576 Y28.648 
G01 X46.433 Y28.648 Z18.860
G01 X45.151 Y28.648 Z19.108
G01 X44.153 Y28.648 Z19.246
G01 X42.158 Y28.648 Z19.446
G01 X39.450 Y28.648 Z19.590
G01 X36.171 Y28.648 Z19.653
G01 X32.893 Y28.648 Z19.656
G01 X30.043 Y28.648 Z19.610
G01 X28.190 Y28.648 Z19.548
G01 X26.195 Y28.648 Z19.426
G01 X24.342 Y28.648 Z19.229
G01 X23.344 Y28.648 Z19.096
G01 X22.061 Y28.648 Z18.834
G01 X21.938 Y28.695 Z20.360
G01 X21.814 Y28.743 Z18.834
G01 X21.690 Y28.791 Z20.360
G01 X21.243 Y28.948 
G01 X21.386 Y28.948 
G01 X21.529 Y28.948 Z18.883
G01 X22.959 Y28.948 Z19.160
G01 X23.961 Y28.948 Z19.304
G01 X26.106 Y28.948 Z19.503
G01 X27.823 Y28.948 Z19.595
G01 X30.112 Y28.948 Z19.664
G01 X33.688 Y28.948 Z19.696
G01 X37.837 Y28.948 Z19.674
G01 X39.983 Y28.948 Z19.624
G01 X42.272 Y28.948 Z19.521
G01 X44.560 Y28.948 Z19.316
G01 X46.277 Y28.948 Z19.049
G01 X47.135 Y28.948 Z18.879
G01 X47.278 Y28.948 Z20.360
G01 X47.421 Y28.948 
G01 X47.506 Y28.976 
G01 X47.640 Y29.000 Z18.796
G01 X47.769 Y29.026 Z18.775
G01 X47.954 Y29.096 Z20.360
G01 X48.255 Y29.248 
G01 X48.112 Y29.248 
G01 X47.970 Y29.248 Z18.843
G01 X47.115 Y29.248 Z19.039
G01 X45.547 Y29.248 Z19.291
G01 X44.265 Y29.248 Z19.444
G01 X41.985 Y29.248 Z19.604
G01 X38.993 Y29.248 Z19.692
G01 X33.863 Y29.248 Z19.719
G01 X29.161 Y29.248 Z19.685
G01 X26.168 Y29.248 Z19.579
G01 X23.888 Y29.248 Z19.400
G01 X22.463 Y29.248 Z19.203
G01 X21.181 Y29.248 Z18.970
G01 X20.468 Y29.248 Z18.811
G01 X20.349 Y29.308 Z18.814
G01 X20.229 Y29.368 Z20.360
G01 X20.104 Y29.441 Z18.818
G01 X19.979 Y29.513 Z20.360
G01 X19.919 Y29.548 
G01 X20.062 Y29.548 Z18.864
G01 X20.919 Y29.548 Z19.067
G01 X22.491 Y29.548 Z19.321
G01 X23.921 Y29.548 Z19.489
G01 X25.922 Y29.548 Z19.622
G01 X27.780 Y29.548 Z19.687
G01 X31.925 Y29.548 Z19.726
G01 X39.358 Y29.548 Z19.711
G01 X42.074 Y29.548 Z19.650
G01 X44.218 Y29.548 Z19.528
G01 X45.933 Y29.548 Z19.347
G01 X47.362 Y29.548 Z19.132
G01 X48.506 Y29.548 Z18.868
G01 X48.649 Y29.548 Z20.360
G01 X48.791 Y29.548 
G01 X49.358 Y29.848 
G01 X49.072 Y29.848 
G01 X48.929 Y29.848 Z18.920
G01 X47.642 Y29.848 Z19.200
G01 X46.641 Y29.848 Z19.356
G01 X44.782 Y29.848 Z19.552
G01 X43.352 Y29.848 Z19.639
G01 X41.207 Y29.848 Z19.707
G01 X37.347 Y29.848 Z19.726
G01 X28.195 Y29.848 Z19.716
G01 X25.908 Y29.848 Z19.667
G01 X23.763 Y29.848 Z19.550
G01 X22.047 Y29.848 Z19.363
G01 X20.760 Y29.848 Z19.170
G01 X19.616 Y29.848 Z18.903
G01 X19.473 Y29.848 Z20.360
G01 X19.330 Y29.848 
G01 X19.297 Y29.857 Z18.824
G01 X19.200 Y29.882 Z18.812
G01 X18.917 Y30.017 Z18.807
G01 X18.795 Y30.082 Z20.360
G01 X18.672 Y30.148 Z18.812
G01 X19.958 Y30.148 Z19.127
G01 X21.101 Y30.148 Z19.338
G01 X22.529 Y30.148 Z19.504
G01 X24.100 Y30.148 Z19.632
G01 X26.528 Y30.148 Z19.713
G01 X29.813 Y30.148 Z19.721
G01 X35.812 Y30.148 Z19.704
G01 X41.239 Y30.148 Z19.723
G01 X43.667 Y30.148 Z19.669
G01 X45.238 Y30.148 Z19.580
G01 X47.095 Y30.148 Z19.397
G01 X48.523 Y30.148 Z19.151
G01 X49.951 Y30.148 Z18.820
G01 X50.067 Y30.208 Z20.360
G01 X50.528 Y30.448 
G01 X50.385 Y30.448 Z18.848
G01 X49.672 Y30.448 Z19.038
G01 X48.531 Y30.448 Z19.267
G01 X47.105 Y30.448 Z19.478
G01 X45.393 Y30.448 Z19.625
G01 X43.682 Y30.448 Z19.700
G01 X41.115 Y30.448 Z19.726
G01 X34.126 Y30.448 Z19.664
G01 X26.567 Y30.448 Z19.726
G01 X24.285 Y30.448 Z19.680
G01 X22.573 Y30.448 Z19.578
G01 X21.004 Y30.448 Z19.419
G01 X19.578 Y30.448 Z19.173
G01 X18.294 Y30.448 Z18.870
G01 X18.152 Y30.448 Z18.831
G01 X18.037 Y30.514 Z20.360
G01 X17.922 Y30.581 Z18.842
G01 X17.808 Y30.647 Z18.840
G01 X17.693 Y30.714 Z20.360
G01 X17.635 Y30.748 Z18.838
G01 X18.207 Y30.748 Z18.998
G01 X19.493 Y30.748 Z19.271
G01 X20.779 Y30.748 Z19.471
G01 X22.066 Y30.748 Z19.597
G01 X23.923 Y30.748 Z19.699
G01 X26.353 Y30.748 Z19.725
G01 X33.070 Y30.748 Z19.621
G01 X36.357 Y30.748 Z19.627
G01 X42.359 Y30.748 Z19.726
G01 X44.646 Y30.748 Z19.699
G01 X46.504 Y30.748 Z19.603
G01 X48.076 Y30.748 Z19.435
G01 X49.505 Y30.748 Z19.204
G01 X50.362 Y30.748 Z19.000
G01 X50.934 Y30.748 Z18.839
G01 X51.077 Y30.748 Z20.360
G01 X51.566 Y31.048 
G01 X51.423 Y31.048 Z18.846
G01 X50.137 Y31.048 Z19.185
G01 X49.279 Y31.048 Z19.348
G01 X47.993 Y31.048 Z19.523
G01 X46.564 Y31.048 Z19.648
G01 X44.562 Y31.048 Z19.720
G01 X42.275 Y31.048 Z19.714
G01 X35.986 Y31.048 Z19.566
G01 X33.556 Y31.048 Z19.557
G01 X31.127 Y31.048 Z19.593
G01 X25.695 Y31.048 Z19.723
G01 X23.551 Y31.048 Z19.711
G01 X21.550 Y31.048 Z19.614
G01 X20.121 Y31.048 Z19.463
G01 X18.548 Y31.048 Z19.205
G01 X17.834 Y31.048 Z19.037
G01 X17.262 Y31.048 Z18.872
G01 X17.119 Y31.048 Z20.360
G01 X17.006 Y31.113 
G01 X16.894 Y31.179 Z18.823
G01 X16.757 Y31.263 Z20.360
G01 X16.619 Y31.348 
G01 X16.762 Y31.348 Z18.868
G01 X17.905 Y31.348 Z19.181
G01 X18.620 Y31.348 Z19.326
G01 X19.906 Y31.348 Z19.510
G01 X21.478 Y31.348 Z19.657
G01 X23.336 Y31.348 Z19.720
G01 X25.480 Y31.348 Z19.712
G01 X32.339 Y31.348 Z19.491
G01 X34.769 Y31.348 Z19.472
G01 X37.055 Y31.348 Z19.511
G01 X43.200 Y31.348 Z19.711
G01 X45.201 Y31.348 Z19.722
G01 X46.916 Y31.348 Z19.667
G01 X48.488 Y31.348 Z19.536
G01 X49.488 Y31.348 Z19.410
G01 X50.775 Y31.348 Z19.157
G01 X51.775 Y31.348 Z18.895
G01 X51.918 Y31.348 Z20.360
G01 X52.061 Y31.348 
G01 X52.156 Y31.397 
G01 X52.254 Y31.429 Z18.792
G01 X52.337 Y31.457 Z20.360
G01 X52.468 Y31.535 
G01 X52.613 Y31.648 
G01 X52.470 Y31.648 Z18.835
G01 X51.612 Y31.648 Z19.078
G01 X50.611 Y31.648 Z19.300
G01 X49.324 Y31.648 Z19.513
G01 X47.750 Y31.648 Z19.654
G01 X46.177 Y31.648 Z19.720
G01 X44.318 Y31.648 Z19.716
G01 X41.601 Y31.648 Z19.621
G01 X37.596 Y31.648 Z19.441
G01 X35.880 Y31.648 Z19.395
G01 X33.878 Y31.648 Z19.381
G01 X31.589 Y31.648 Z19.422
G01 X28.872 Y31.648 Z19.535
G01 X25.153 Y31.648 Z19.693
G01 X23.151 Y31.648 Z19.726
G01 X21.578 Y31.648 Z19.693
G01 X20.148 Y31.648 Z19.599
G01 X18.861 Y31.648 Z19.453
G01 X17.859 Y31.648 Z19.280
G01 X16.715 Y31.648 Z18.996
G01 X16.143 Y31.648 Z18.823
G01 X15.799 Y31.881 Z18.832
G01 X15.713 Y31.948 Z20.360
G01 X15.856 Y31.948 Z18.886
G01 X16.999 Y31.948 Z19.194
G01 X18.142 Y31.948 Z19.423
G01 X18.999 Y31.948 Z19.544
G01 X20.428 Y31.948 Z19.666
G01 X21.999 Y31.948 Z19.724
G01 X23.857 Y31.948 Z19.708
G01 X26.571 Y31.948 Z19.587
G01 X30.286 Y31.948 Z19.375
G01 X32.429 Y31.948 Z19.291
G01 X34.572 Y31.948 Z19.264
G01 X36.858 Y31.948 Z19.310
G01 X39.429 Y31.948 Z19.433
G01 X43.430 Y31.948 Z19.657
G01 X45.430 Y31.948 Z19.722
G01 X47.144 Y31.948 Z19.712
G01 X48.716 Y31.948 Z19.631
G01 X49.859 Y31.948 Z19.509
G01 X51.145 Y31.948 Z19.299
G01 X52.145 Y31.948 Z19.069
G01 X52.716 Y31.948 Z18.897
G01 X52.859 Y31.948 Z20.360
G01 X53.002 Y31.948 
G01 X53.250 Y32.138 
G01 X53.420 Y32.248 
G01 X53.277 Y32.248 
G01 X53.134 Y32.248 Z18.902
G01 X52.136 Y32.248 Z19.191
G01 X51.280 Y32.248 Z19.369
G01 X49.996 Y32.248 Z19.557
G01 X48.713 Y32.248 Z19.671
G01 X47.001 Y32.248 Z19.726
G01 X45.147 Y32.248 Z19.696
G01 X42.579 Y32.248 Z19.557
G01 X38.300 Y32.248 Z19.261
G01 X36.303 Y32.248 Z19.163
G01 X34.021 Y32.248 Z19.133
G01 X31.739 Y32.248 Z19.185
G01 X29.314 Y32.248 Z19.323
G01 X24.892 Y32.248 Z19.626
G01 X22.895 Y32.248 Z19.714
G01 X21.183 Y32.248 Z19.720
G01 X19.614 Y32.248 Z19.652
G01 X18.473 Y32.248 Z19.544
G01 X17.332 Y32.248 Z19.366
G01 X16.191 Y32.248 Z19.114
G01 X15.478 Y32.248 Z18.918
G01 X15.335 Y32.248 Z20.360
G01 X15.287 Y32.269 
G01 X15.197 Y32.286 Z18.841
G01 X15.056 Y32.317 Z18.804
G01 X15.013 Y32.351 Z18.805
G01 X14.995 Y32.393 Z20.360
G01 X14.990 Y32.500 
G01 X14.922 Y32.548 
G01 X15.065 Y32.548 Z18.918
G01 X15.636 Y32.548 Z19.097
G01 X16.778 Y32.548 Z19.352
G01 X17.920 Y32.548 Z19.536
G01 X19.204 Y32.548 Z19.665
G01 X20.775 Y32.548 Z19.723
G01 X22.488 Y32.548 Z19.704
G01 X24.343 Y32.548 Z19.610
G01 X26.913 Y32.548 Z19.406
G01 X30.053 Y32.548 Z19.143
G01 X32.337 Y32.548 Z19.018
G01 X34.478 Y32.548 Z18.977
G01 X36.762 Y32.548 Z19.039
G01 X39.046 Y32.548 Z19.182
G01 X43.328 Y32.548 Z19.539
G01 X45.184 Y32.548 Z19.663
G01 X47.039 Y32.548 Z19.724
G01 X48.610 Y32.548 Z19.705
G01 X49.894 Y32.548 Z19.620
G01 X51.036 Y32.548 Z19.489
G01 X52.035 Y32.548 Z19.318
G01 X53.035 Y32.548 Z19.064
G01 X53.606 Y32.548 Z18.888
G01 X53.748 Y32.548 Z20.360
G01 X53.891 Y32.548 
G01 X54.128 Y32.711 
G01 X54.264 Y32.848 
G00 Z25.000
G00 X60.461 Y27.748  F8000.0
G01 Z18.839 F2000.0 M3
G01 X61.320 Y27.748 Z19.128 F4000.0
G01 X62.322 Y27.748 Z19.379
G01 X63.323 Y27.748 Z19.544
G01 X64.468 Y27.748 Z19.664
G01 X65.613 Y27.748 Z19.720
G01 X66.901 Y27.748 Z19.714
G01 X68.189 Y27.748 Z19.644
G01 X69.763 Y27.748 Z19.481
G01 X71.194 Y27.748 Z19.278
G01 X73.341 Y27.748 Z18.870
G01 X73.484 Y27.748 Z20.360
G01 X74.057 Y27.748 
G01 X73.415 Y28.048 
G00 Z25.000
G00 X74.402 Y27.748  F8000.0
G01 Z18.633 F2000.0 M3
G01 X74.334 Y27.780 Z18.630 F4000.0
G01 X74.210 Y27.833 Z20.360
G01 X74.086 Y27.885 Z18.617
G01 X73.962 Y27.937 Z20.360
G01 X73.839 Y27.990 
G01 X73.715 Y28.042 Z18.603
G01 X73.698 Y28.048 Z20.360
G01 X73.841 Y28.048 Z18.568
G01 X74.982 Y28.048 Z18.253
G01 X75.553 Y28.048 Z18.080
G01 X76.409 Y28.048 Z17.836
G01 X76.837 Y28.048 Z17.685
G01 X77.265 Y28.048 Z17.448
G01 X77.408 Y28.048 Z17.306
G01 X77.550 Y28.048 Z17.116
G01 X77.978 Y28.048 Z16.993
G01 X78.121 Y28.048 Z16.786
G01 X78.264 Y28.048 Z16.400
G01 X79.690 Y28.048 Z16.061
G01 X80.974 Y28.048 Z15.822
G01 X82.401 Y28.048 Z15.629
G01 X83.828 Y28.048 Z15.505
G01 X85.254 Y28.048 Z15.453
G01 X86.681 Y28.048 Z15.472
G01 X88.108 Y28.048 Z15.559
G01 X89.534 Y28.048 Z15.719
G01 X90.961 Y28.048 Z15.952
G01 X92.388 Y28.048 Z16.258
G01 X93.101 Y28.048 Z16.442
G01 X93.244 Y28.048 Z16.980
G01 X93.386 Y28.048 Z17.051
G01 X93.529 Y28.048 Z17.094
G01 X93.672 Y28.048 Z17.187
G01 X93.814 Y28.048 Z17.378
G01 X93.957 Y28.048 Z17.482
G01 X94.100 Y28.048 Z17.540
G01 X94.385 Y28.048 Z17.696
G01 X94.813 Y28.048 Z17.816
G01 X95.669 Y28.048 Z18.092
G01 X96.810 Y28.048 Z18.424
G01 X97.524 Y28.048 Z18.598
G01 X97.666 Y28.048 Z20.360
G01 X97.524 Y28.048 Z18.598
G01 X96.240 Y28.048 Z18.267
G01 X94.956 Y28.048 Z17.873
G01 X94.670 Y28.048 Z17.778
G01 X94.385 Y28.048 Z17.696
G01 X94.100 Y28.048 Z17.540
G01 X93.957 Y28.048 Z17.482
G01 X93.814 Y28.048 Z17.378
G01 X93.672 Y28.048 Z17.187
G01 X93.529 Y28.048 Z17.094
G01 X93.386 Y28.048 Z17.051
G01 X93.244 Y28.048 Z16.980
G01 X93.101 Y28.048 Z16.442
G01 X91.817 Y28.048 Z16.126
G01 X90.390 Y28.048 Z15.850
G01 X88.964 Y28.048 Z15.646
G01 X87.537 Y28.048 Z15.516
G01 X86.110 Y28.048 Z15.457
G01 X84.684 Y28.048 Z15.465
G01 X83.257 Y28.048 Z15.547
G01 X81.830 Y28.048 Z15.698
G01 X80.404 Y28.048 Z15.920
G01 X78.977 Y28.048 Z16.221
G01 X78.264 Y28.048 Z16.400
G01 X78.121 Y28.048 Z16.786
G01 X77.978 Y28.048 Z16.993
G01 X77.550 Y28.048 Z17.116
G01 X77.408 Y28.048 Z17.306
G01 X77.265 Y28.048 Z17.448
G01 X76.837 Y28.048 Z17.685
G01 X76.124 Y28.048 Z17.925
G01 X75.268 Y28.048 Z18.163
G01 X74.126 Y28.048 Z18.496
G01 X73.841 Y28.048 Z18.568
G01 X73.698 Y28.048 Z20.360
G01 X73.553 Y28.099 
G01 X73.408 Y28.149 Z18.609
G01 X73.262 Y28.200 Z20.360
G01 X72.929 Y28.285 
G01 X73.415 Y28.048 
G01 X72.984 Y28.048 
G01 X72.841 Y28.048 Z18.804
G01 X71.261 Y28.048 Z19.148
G01 X69.968 Y28.048 Z19.367
G01 X68.389 Y28.048 Z19.576
G01 X67.096 Y28.048 Z19.683
G01 X65.660 Y28.048 Z19.727
G01 X64.511 Y28.048 Z19.698
G01 X63.218 Y28.048 Z19.588
G01 X62.357 Y28.048 Z19.462
G01 X61.351 Y28.048 Z19.240
G01 X60.489 Y28.048 Z18.986
G01 X60.059 Y28.048 Z18.834
G01 X59.958 Y28.123 Z20.360
G01 X59.857 Y28.198 Z18.831
G01 X59.757 Y28.273 Z20.360
G01 X59.656 Y28.348 Z18.828
G00 Z25.000
G00 X73.272 Y28.048  F8000.0
G01 Z20.360 F2000.0 M3
G01 X72.984 Y28.048  F4000.0
G01 X72.841 Y28.048 Z18.804
G01 X71.261 Y28.048 Z19.148
G01 X69.968 Y28.048 Z19.367
G01 X68.389 Y28.048 Z19.576
G01 X67.096 Y28.048 Z19.683
G01 X65.660 Y28.048 Z19.727
G01 X64.511 Y28.048 Z19.698
G01 X63.218 Y28.048 Z19.588
G01 X62.357 Y28.048 Z19.462
G01 X61.351 Y28.048 Z19.240
G01 X60.489 Y28.048 Z18.986
G01 X60.059 Y28.048 Z18.834
G01 X59.958 Y28.123 Z20.360
G01 X59.857 Y28.198 Z18.831
G01 X59.757 Y28.273 Z20.360
G01 X59.656 Y28.348 Z18.828
G01 X60.511 Y28.348 Z19.115
G01 X61.508 Y28.348 Z19.369
G01 X62.505 Y28.348 Z19.550
G01 X63.502 Y28.348 Z19.659
G01 X64.641 Y28.348 Z19.720
G01 X65.923 Y28.348 Z19.714
G01 X67.348 Y28.348 Z19.624
G01 X68.772 Y28.348 Z19.462
G01 X70.766 Y28.348 Z19.115
G01 X71.905 Y28.348 Z18.861
G01 X72.048 Y28.348 Z20.360
G01 X72.475 Y28.348 
G01 X72.677 Y28.292 
G01 X72.685 Y28.301 
G01 X72.630 Y28.348 
G01 X72.772 Y28.348 Z18.630
G01 X74.055 Y28.348 Z18.288
G01 X75.338 Y28.348 Z17.854
G01 X75.908 Y28.348 Z17.645
G01 X76.050 Y28.348 Z17.572
G01 X76.193 Y28.348 Z17.473
G01 X76.335 Y28.348 Z17.410
G01 X76.478 Y28.348 Z17.296
G01 X76.620 Y28.348 Z17.064
G01 X76.763 Y28.348 Z16.497
G01 X78.188 Y28.348 Z16.080
G01 X79.614 Y28.348 Z15.745
G01 X81.039 Y28.348 Z15.485
G01 X82.464 Y28.348 Z15.295
G01 X83.890 Y28.348 Z15.180
G01 X85.315 Y28.348 Z15.132
G01 X86.740 Y28.348 Z15.150
G01 X88.165 Y28.348 Z15.241
G01 X89.591 Y28.348 Z15.401
G01 X91.016 Y28.348 Z15.630
G01 X92.441 Y28.348 Z15.937
G01 X93.867 Y28.348 Z16.320
G01 X94.437 Y28.348 Z16.496
G01 X94.579 Y28.348 Z16.945
G01 X94.722 Y28.348 Z17.191
G01 X94.864 Y28.348 Z17.357
G01 X95.292 Y28.348 Z17.625
G01 X95.577 Y28.348 Z17.738
G01 X95.720 Y28.348 Z17.814
G01 X97.002 Y28.348 Z18.234
G01 X98.428 Y28.348 Z18.640
G01 X98.570 Y28.348 Z20.360
G01 X98.713 Y28.348 
G01 X98.944 Y28.512 
G01 X99.067 Y28.580 Z18.666
G01 X99.191 Y28.648 Z20.360
G00 Z25.000
G00 X59.656 Y28.348  F8000.0
G01 Z18.828 F2000.0 M3
G01 X60.511 Y28.348 Z19.115 F4000.0
G01 X61.508 Y28.348 Z19.369
G01 X62.505 Y28.348 Z19.550
G01 X63.502 Y28.348 Z19.659
G01 X64.641 Y28.348 Z19.720
G01 X65.923 Y28.348 Z19.714
G01 X67.348 Y28.348 Z19.624
G01 X68.772 Y28.348 Z19.462
G01 X70.766 Y28.348 Z19.115
G01 X71.905 Y28.348 Z18.861
G01 X72.048 Y28.348 Z20.360
G01 X72.475 Y28.348 
G01 X71.817 Y28.648 
G01 X71.531 Y28.648 
G01 X71.388 Y28.648 Z18.824
G01 X70.246 Y28.648 Z19.089
G01 X68.819 Y28.648 Z19.367
G01 X67.677 Y28.648 Z19.534
G01 X66.249 Y28.648 Z19.671
G01 X65.107 Y28.648 Z19.722
G01 X63.965 Y28.648 Z19.713
G01 X62.823 Y28.648 Z19.639
G01 X61.823 Y28.648 Z19.502
G01 X60.967 Y28.648 Z19.334
G01 X60.110 Y28.648 Z19.110
G01 X59.396 Y28.648 Z18.875
G01 X59.254 Y28.648 Z20.360
G01 X59.143 Y28.730 Z18.814
G01 X59.143 Y28.865 Z18.875
G01 X59.128 Y28.918 Z20.360
G01 X59.100 Y28.948 
G01 X59.242 Y28.948 Z18.948
G01 X59.953 Y28.948 Z19.176
G01 X60.950 Y28.948 Z19.413
G01 X61.946 Y28.948 Z19.579
G01 X62.942 Y28.948 Z19.681
G01 X63.938 Y28.948 Z19.724
G01 X65.219 Y28.948 Z19.706
G01 X66.500 Y28.948 Z19.608
G01 X67.923 Y28.948 Z19.427
G01 X69.204 Y28.948 Z19.190
G01 X70.627 Y28.948 Z18.853
G01 X70.769 Y28.948 Z20.360
G01 X71.339 Y28.948 
G01 X71.338 Y28.957 
G01 X71.431 Y28.948 
G00 Z25.000
G00 X70.303 Y29.248  F8000.0
G01 Z20.360 F2000.0 M3
G01 X70.016 Y29.248  F4000.0
G01 X69.873 Y29.248 Z18.888
G01 X68.728 Y29.248 Z19.176
G01 X67.440 Y29.248 Z19.416
G01 X66.008 Y29.248 Z19.613
G01 X64.720 Y29.248 Z19.707
G01 X63.432 Y29.248 Z19.723
G01 X62.286 Y29.248 Z19.661
G01 X61.141 Y29.248 Z19.517
G01 X60.139 Y29.248 Z19.321
G01 X59.423 Y29.248 Z19.127
G01 X58.708 Y29.248 Z18.867
G01 X58.565 Y29.248 Z20.360
G01 X58.521 Y29.284 
G01 X58.431 Y29.374 Z18.811
G01 X58.341 Y29.464 Z18.815
G01 X58.259 Y29.548 Z20.360
G01 X58.402 Y29.548 Z18.877
G01 X59.257 Y29.548 Z19.177
G01 X60.113 Y29.548 Z19.398
G01 X61.111 Y29.548 Z19.570
G01 X62.109 Y29.548 Z19.676
G01 X63.249 Y29.548 Z19.726
G01 X64.532 Y29.548 Z19.694
G01 X65.816 Y29.548 Z19.582
G01 X66.956 Y29.548 Z19.414
G01 X68.382 Y29.548 Z19.131
G01 X69.522 Y29.548 Z18.834
G01 X69.665 Y29.548 Z18.792
G01 X69.807 Y29.548 Z20.360
G01 X69.950 Y29.548 
G01 X69.759 Y29.708 
G01 X69.705 Y29.792 
G01 X69.708 Y29.820 
G01 X69.734 Y29.839 
G01 X69.797 Y29.848 
G00 Z25.000
G00 X69.235 Y29.848  F8000.0
G01 Z20.360 F2000.0 M3
G01 X69.093 Y29.848  F4000.0
G01 X68.950 Y29.848 Z18.844
G01 X67.809 Y29.848 Z19.138
G01 X66.382 Y29.848 Z19.434
G01 X65.241 Y29.848 Z19.596
G01 X64.099 Y29.848 Z19.694
G01 X62.958 Y29.848 Z19.727
G01 X61.817 Y29.848 Z19.683
G01 X60.818 Y29.848 Z19.582
G01 X59.962 Y29.848 Z19.441
G01 X59.106 Y29.848 Z19.228
G01 X58.250 Y29.848 Z18.947
G01 X58.108 Y29.848 Z20.360
G01 X57.965 Y29.848 
G00 Z25.000
G00 X69.301 Y29.872  F8000.0
G01 Z20.360 F2000.0 M3
G01 X69.034 Y30.005  F4000.0
G01 X68.816 Y30.148 
G01 X68.530 Y30.148 
G01 X68.387 Y30.148 Z18.849
G01 X66.813 Y30.148 Z19.257
G01 X65.811 Y30.148 Z19.453
G01 X64.810 Y30.148 Z19.593
G01 X63.665 Y30.148 Z19.696
G01 X62.521 Y30.148 Z19.726
G01 X61.376 Y30.148 Z19.679
G01 X60.374 Y30.148 Z19.574
G01 X59.373 Y30.148 Z19.383
G01 X58.514 Y30.148 Z19.149
G01 X57.799 Y30.148 Z18.900
G01 X57.656 Y30.148 Z18.841
G01 X57.550 Y30.248 Z20.360
G01 X57.444 Y30.348 Z18.843
G01 X57.338 Y30.448 Z18.846
G01 X58.190 Y30.448 Z19.150
G01 X58.901 Y30.448 Z19.349
G01 X59.896 Y30.448 Z19.551
G01 X60.891 Y30.448 Z19.672
G01 X62.028 Y30.448 Z19.725
G01 X63.023 Y30.448 Z19.707
G01 X64.017 Y30.448 Z19.635
G01 X65.296 Y30.448 Z19.464
G01 X66.291 Y30.448 Z19.274
G01 X67.428 Y30.448 Z18.978
G01 X67.570 Y30.448 Z18.935
G01 X67.712 Y30.448 Z20.360
G01 X68.423 Y30.448 
G00 Z25.000
G00 X99.049 Y28.648  F8000.0
G01 Z18.620 F2000.0 M3
G01 X97.766 Y28.648 Z18.211 F4000.0
G01 X96.626 Y28.648 Z17.827
G01 X96.198 Y28.648 Z17.604
G01 X96.056 Y28.648 Z17.479
G01 X95.913 Y28.648 Z17.428
G01 X95.771 Y28.648 Z17.349
G01 X95.628 Y28.648 Z17.203
G01 X95.486 Y28.648 Z16.513
G01 X94.061 Y28.648 Z16.041
G01 X92.636 Y28.648 Z15.656
G01 X91.210 Y28.648 Z15.346
G01 X89.785 Y28.648 Z15.107
G01 X88.360 Y28.648 Z14.942
G01 X86.793 Y28.648 Z14.839
G01 X85.367 Y28.648 Z14.814
G01 X83.942 Y28.648 Z14.861
G01 X82.375 Y28.648 Z14.989
G01 X80.950 Y28.648 Z15.176
G01 X79.524 Y28.648 Z15.439
G01 X78.099 Y28.648 Z15.775
G01 X76.674 Y28.648 Z16.186
G01 X75.819 Y28.648 Z16.475
G01 X75.677 Y28.648 Z17.127
G01 X75.534 Y28.648 Z17.287
G01 X75.392 Y28.648 Z17.373
G01 X75.107 Y28.648 Z17.481
G01 X74.964 Y28.648 Z17.608
G01 X74.537 Y28.648 Z17.845
G01 X73.396 Y28.648 Z18.235
G01 X72.256 Y28.648 Z18.586
G01 X72.114 Y28.648 Z20.360
G00 Z25.000
G00 X112.111 Y28.748  F8000.0
G01 Z20.360 F2000.0 M3
G01 X112.335 Y28.948  F4000.0
G01 X112.192 Y28.948 
G01 X112.049 Y28.948 Z18.904
G01 X111.191 Y28.948 Z19.187
G01 X110.189 Y28.948 Z19.433
G01 X109.188 Y28.948 Z19.590
G01 X108.044 Y28.948 Z19.693
G01 X107.043 Y28.948 Z19.727
G01 X105.756 Y28.948 Z19.693
G01 X104.612 Y28.948 Z19.602
G01 X103.325 Y28.948 Z19.427
G01 X102.037 Y28.948 Z19.200
G01 X100.750 Y28.948 Z18.896
G01 X100.607 Y28.948 Z18.857
G01 X100.464 Y28.948 Z20.360
G01 X99.606 Y28.948 
G01 X99.463 Y28.948 Z18.537
G01 X98.319 Y28.948 Z18.158
G01 X97.318 Y28.948 Z17.758
G01 X97.032 Y28.948 Z17.611
G01 X96.889 Y28.948 Z17.517
G01 X96.746 Y28.948 Z17.392
G01 X96.603 Y28.948 Z17.297
G01 X96.460 Y28.948 Z17.105
G01 X96.317 Y28.948 Z16.485
G01 X95.030 Y28.948 Z16.018
G01 X93.599 Y28.948 Z15.584
G01 X92.169 Y28.948 Z15.226
G01 X90.739 Y28.948 Z14.943
G01 X89.309 Y28.948 Z14.733
G01 X87.736 Y28.948 Z14.580
G01 X86.305 Y28.948 Z14.514
G01 X84.732 Y28.948 Z14.519
G01 X83.159 Y28.948 Z14.602
G01 X81.729 Y28.948 Z14.754
G01 X80.299 Y28.948 Z14.973
G01 X78.868 Y28.948 Z15.262
G01 X77.438 Y28.948 Z15.630
G01 X76.008 Y28.948 Z16.075
G01 X74.864 Y28.948 Z16.491
G01 X74.721 Y28.948 Z17.025
G01 X74.578 Y28.948 Z17.294
G01 X74.435 Y28.948 Z17.465
G01 X74.292 Y28.948 Z17.571
G01 X73.863 Y28.948 Z17.784
G01 X72.004 Y28.948 Z18.457
G01 X71.575 Y28.948 Z18.592
G01 X71.431 Y28.948 Z20.360
G00 Z25.000
G00 X112.528 Y29.248  F8000.0
G01 Z18.856 F2000.0 M3
G01 X111.533 Y29.248 Z19.192 F4000.0
G01 X110.396 Y29.248 Z19.463
G01 X109.402 Y29.248 Z19.613
G01 X108.407 Y29.248 Z19.695
G01 X107.270 Y29.248 Z19.727
G01 X106.133 Y29.248 Z19.686
G01 X104.855 Y29.248 Z19.575
G01 X103.576 Y29.248 Z19.386
G01 X102.155 Y29.248 Z19.100
G01 X101.018 Y29.248 Z18.810
G01 X100.876 Y29.248 Z20.360
G01 X100.517 Y29.083 
G01 X100.417 Y29.044 
G01 X100.286 Y29.017 
G01 X100.231 Y29.033 
G01 X100.239 Y29.070 
G01 X100.429 Y29.190 
G01 X100.536 Y29.248 
G01 X100.393 Y29.248 
G01 X100.250 Y29.248 Z18.567
G01 X98.961 Y29.248 Z18.136
G01 X98.389 Y29.248 Z17.897
G01 X97.959 Y29.248 Z17.713
G01 X97.673 Y29.248 Z17.520
G01 X97.386 Y29.248 Z17.264
G01 X97.243 Y29.248 Z17.115
G01 X97.100 Y29.248 Z16.462
G01 X95.668 Y29.248 Z15.913
G01 X94.236 Y29.248 Z15.446
G01 X92.948 Y29.248 Z15.095
G01 X91.516 Y29.248 Z14.777
G01 X90.084 Y29.248 Z14.530
G01 X88.652 Y29.248 Z14.354
G01 X87.078 Y29.248 Z14.239
G01 X85.503 Y29.248 Z14.201
G01 X83.928 Y29.248 Z14.249
G01 X82.353 Y29.248 Z14.374
G01 X80.921 Y29.248 Z14.560
G01 X79.489 Y29.248 Z14.817
G01 X78.057 Y29.248 Z15.144
G01 X76.769 Y29.248 Z15.505
G01 X75.337 Y29.248 Z15.984
G01 X74.048 Y29.248 Z16.485
G01 X73.905 Y29.248 Z17.149
G01 X73.762 Y29.248 Z17.366
G01 X73.619 Y29.248 Z17.492
G01 X73.332 Y29.248 Z17.663
G01 X72.903 Y29.248 Z17.843
G01 X72.473 Y29.248 Z18.043
G01 X71.328 Y29.248 Z18.462
G01 X70.898 Y29.248 Z18.598
G01 X70.755 Y29.248 Z20.360
G01 X70.628 Y29.316 Z18.633
G01 X70.500 Y29.384 Z20.360
G01 X70.367 Y29.466 Z18.614
G01 X70.234 Y29.548 Z20.360
G01 X70.377 Y29.548 Z18.558
G01 X71.376 Y29.548 Z18.213
G01 X72.089 Y29.548 Z17.923
G01 X72.517 Y29.548 Z17.711
G01 X72.802 Y29.548 Z17.495
G01 X72.945 Y29.548 Z17.342
G01 X73.231 Y29.548 Z17.137
G01 X73.373 Y29.548 Z16.866
G01 X73.516 Y29.548 Z16.381
G01 X74.800 Y29.548 Z15.858
G01 X76.227 Y29.548 Z15.357
G01 X77.654 Y29.548 Z14.939
G01 X79.081 Y29.548 Z14.597
G01 X80.651 Y29.548 Z14.302
G01 X82.078 Y29.548 Z14.106
G01 X83.647 Y29.548 Z13.969
G01 X85.217 Y29.548 Z13.909
G01 X86.644 Y29.548 Z13.925
G01 X88.214 Y29.548 Z14.017
G01 X89.641 Y29.548 Z14.168
G01 X91.210 Y29.548 Z14.415
G01 X92.637 Y29.548 Z14.712
G01 X94.064 Y29.548 Z15.081
G01 X95.491 Y29.548 Z15.529
G01 X96.918 Y29.548 Z16.060
G01 X97.774 Y29.548 Z16.419
G01 X97.917 Y29.548 Z16.934
G01 X98.060 Y29.548 Z17.188
G01 X98.345 Y29.548 Z17.393
G01 X98.488 Y29.548 Z17.544
G01 X98.773 Y29.548 Z17.753
G01 X99.344 Y29.548 Z18.012
G01 X100.771 Y29.548 Z18.550
G01 X100.913 Y29.548 Z20.360
G01 X101.056 Y29.548 
G01 X101.343 Y29.725 
G01 X101.594 Y29.830 
G01 X101.653 Y29.823 
G01 X101.633 Y29.766 
G01 X101.369 Y29.548 
G01 X101.513 Y29.548 
G01 X101.657 Y29.548 Z18.829
G01 X103.093 Y29.548 Z19.186
G01 X104.242 Y29.548 Z19.418
G01 X105.535 Y29.548 Z19.598
G01 X106.972 Y29.548 Z19.709
G01 X108.121 Y29.548 Z19.723
G01 X109.270 Y29.548 Z19.667
G01 X110.275 Y29.548 Z19.544
G01 X111.137 Y29.548 Z19.380
G01 X111.999 Y29.548 Z19.158
G01 X112.717 Y29.548 Z18.918
G01 X112.861 Y29.548 Z20.360
G01 X113.005 Y29.548 
G00 Z25.000
G00 X113.194 Y29.848  F8000.0
G01 Z20.360 F2000.0 M3
G01 X113.051 Y29.848 Z18.926 F4000.0
G01 X112.052 Y29.848 Z19.243
G01 X111.053 Y29.848 Z19.471
G01 X110.054 Y29.848 Z19.624
G01 X109.055 Y29.848 Z19.706
G01 X107.913 Y29.848 Z19.725
G01 X106.771 Y29.848 Z19.673
G01 X105.344 Y29.848 Z19.514
G01 X104.202 Y29.848 Z19.320
G01 X103.061 Y29.848 Z19.056
G01 X102.347 Y29.848 Z18.861
G01 X102.204 Y29.848 Z20.360
G01 X101.348 Y29.848 
G01 X101.205 Y29.848 Z18.500
G01 X100.349 Y29.848 Z18.164
G01 X99.492 Y29.848 Z17.776
G01 X99.350 Y29.848 Z17.696
G01 X99.064 Y29.848 Z17.479
G01 X98.921 Y29.848 Z17.321
G01 X98.779 Y29.848 Z16.553
G01 X97.494 Y29.848 Z15.973
G01 X96.067 Y29.848 Z15.421
G01 X94.640 Y29.848 Z14.948
G01 X93.212 Y29.848 Z14.553
G01 X91.785 Y29.848 Z14.234
G01 X90.215 Y29.848 Z13.960
G01 X88.788 Y29.848 Z13.783
G01 X87.218 Y29.848 Z13.665
G01 X85.648 Y29.848 Z13.622
G01 X84.078 Y29.848 Z13.660
G01 X82.508 Y29.848 Z13.774
G01 X81.081 Y29.848 Z13.946
G01 X79.511 Y29.848 Z14.215
G01 X78.084 Y29.848 Z14.530
G01 X76.799 Y29.848 Z14.877
G01 X75.372 Y29.848 Z15.337
G01 X73.945 Y29.848 Z15.876
G01 X72.660 Y29.848 Z16.440
G01 X72.517 Y29.848 Z16.508
G01 X72.375 Y29.848 Z17.166
G01 X72.232 Y29.848 Z17.397
G01 X72.089 Y29.848 Z17.558
G01 X71.946 Y29.848 Z17.666
G01 X71.518 Y29.848 Z17.884
G01 X70.662 Y29.848 Z18.232
G01 X70.091 Y29.848 Z18.457
G01 X69.948 Y29.848 Z20.360
G01 X69.442 Y29.848 
G01 X69.442 Y29.879 Z18.671
G01 X69.383 Y29.950 Z20.360
G01 X69.286 Y30.022 Z18.637
G01 X69.190 Y30.094 Z20.360
G01 X69.105 Y30.148 Z18.619
G00 Z25.000
G00 X69.619 Y29.848  F8000.0
G01 Z20.360 F2000.0 M3
G01 X69.442 Y29.848  F4000.0
G01 X69.442 Y29.879 Z18.671
G01 X69.383 Y29.950 Z20.360
G01 X69.286 Y30.022 Z18.637
G01 X69.190 Y30.094 Z20.360
G01 X69.105 Y30.148 Z18.619
G01 X70.105 Y30.148 Z18.231
G01 X70.820 Y30.148 Z17.900
G01 X71.248 Y30.148 Z17.678
G01 X71.391 Y30.148 Z17.562
G01 X71.677 Y30.148 Z17.365
G01 X71.820 Y30.148 Z17.173
G01 X71.963 Y30.148 Z16.453
G01 X73.106 Y30.148 Z15.919
G01 X74.535 Y30.148 Z15.337
G01 X75.963 Y30.148 Z14.836
G01 X77.249 Y30.148 Z14.455
G01 X78.678 Y30.148 Z14.102
G01 X80.250 Y30.148 Z13.792
G01 X81.678 Y30.148 Z13.584
G01 X83.250 Y30.148 Z13.430
G01 X84.822 Y30.148 Z13.352
G01 X86.393 Y30.148 Z13.354
G01 X87.965 Y30.148 Z13.430
G01 X89.394 Y30.148 Z13.568
G01 X90.965 Y30.148 Z13.796
G01 X92.537 Y30.148 Z14.103
G01 X93.966 Y30.148 Z14.459
G01 X95.395 Y30.148 Z14.888
G01 X96.823 Y30.148 Z15.394
G01 X98.252 Y30.148 Z15.990
G01 X99.109 Y30.148 Z16.390
G01 X99.252 Y30.148 Z16.929
G01 X99.395 Y30.148 Z17.238
G01 X99.538 Y30.148 Z17.380
G01 X99.824 Y30.148 Z17.530
G01 X99.967 Y30.148 Z17.654
G01 X100.395 Y30.148 Z17.920
G01 X101.252 Y30.148 Z18.302
G01 X102.253 Y30.148 Z18.659
G01 X102.155 Y30.076 Z20.360
G01 X102.030 Y29.964 
G01 X101.980 Y29.890 
G01 X101.987 Y29.870 
G01 X102.016 Y29.864 
G01 X102.132 Y29.894 
G01 X102.502 Y30.085 
G01 X102.598 Y30.148 
G01 X102.742 Y30.148 
G01 X102.885 Y30.148 Z18.861
G01 X103.747 Y30.148 Z19.108
G01 X104.895 Y30.148 Z19.363
G01 X106.331 Y30.148 Z19.586
G01 X107.479 Y30.148 Z19.694
G01 X108.771 Y30.148 Z19.726
G01 X109.776 Y30.148 Z19.684
G01 X110.925 Y30.148 Z19.555
G01 X111.930 Y30.148 Z19.362
G01 X112.647 Y30.148 Z19.174
G01 X113.365 Y30.148 Z18.922
G01 X113.509 Y30.148 Z18.864
G01 X113.652 Y30.148 Z20.360
G01 X113.968 Y30.448 
G01 X113.826 Y30.448 Z18.859
G01 X112.970 Y30.448 Z19.173
G01 X112.257 Y30.448 Z19.367
G01 X111.259 Y30.448 Z19.557
G01 X110.118 Y30.448 Z19.686
G01 X108.977 Y30.448 Z19.727
G01 X107.837 Y30.448 Z19.688
G01 X106.838 Y30.448 Z19.598
G01 X105.840 Y30.448 Z19.450
G01 X104.557 Y30.448 Z19.187
G01 X103.559 Y30.448 Z18.922
G01 X103.416 Y30.448 Z20.360
G01 X102.988 Y30.448 
G01 X103.064 Y30.544 
G01 X103.062 Y30.564 
G01 X103.038 Y30.571 Z18.684
G01 X102.931 Y30.543 Z20.360
G01 X102.733 Y30.448 
G00 Z25.000
G00 X113.826 Y30.448  F8000.0
G01 Z18.859 F2000.0 M3
G01 X112.970 Y30.448 Z19.173 F4000.0
G01 X112.257 Y30.448 Z19.367
G01 X111.259 Y30.448 Z19.557
G01 X110.118 Y30.448 Z19.686
G01 X108.977 Y30.448 Z19.727
G01 X107.837 Y30.448 Z19.688
G01 X106.838 Y30.448 Z19.598
G01 X105.840 Y30.448 Z19.450
G01 X104.557 Y30.448 Z19.187
G01 X103.559 Y30.448 Z18.922
G01 X103.416 Y30.448 Z20.360
G01 X102.988 Y30.448 
G01 X103.064 Y30.544 
G01 X103.062 Y30.564 
G01 X103.038 Y30.571 Z18.684
G01 X102.931 Y30.543 Z20.360
G01 X102.733 Y30.448 
G00 Z25.000
G00 X114.073 Y30.548  F8000.0
G01 Z20.360 F2000.0 M3
G01 X114.284 Y30.748  F4000.0
G01 X114.141 Y30.748 Z18.855
G01 X113.283 Y30.748 Z19.170
G01 X112.426 Y30.748 Z19.404
G01 X111.569 Y30.748 Z19.563
G01 X110.568 Y30.748 Z19.678
G01 X109.425 Y30.748 Z19.727
G01 X108.424 Y30.748 Z19.698
G01 X107.424 Y30.748 Z19.619
G01 X106.281 Y30.748 Z19.456
G01 X105.280 Y30.748 Z19.244
G01 X104.137 Y30.748 Z18.951
G01 X103.994 Y30.748 Z18.907
G01 X103.851 Y30.748 Z20.360
G01 X103.566 Y30.748 
G01 X103.911 Y30.963 
G01 X104.019 Y31.048 
G01 X104.162 Y31.048 
G01 X104.305 Y31.048 Z18.855
G01 X105.735 Y31.048 Z19.254
G01 X106.879 Y31.048 Z19.489
G01 X108.165 Y31.048 Z19.653
G01 X109.309 Y31.048 Z19.721
G01 X110.310 Y31.048 Z19.714
G01 X111.454 Y31.048 Z19.626
G01 X112.311 Y31.048 Z19.494
G01 X113.169 Y31.048 Z19.294
G01 X114.027 Y31.048 Z19.020
G01 X114.456 Y31.048 Z18.849
G01 X114.599 Y31.048 Z20.360
G01 X114.698 Y31.148 Z18.790
G01 X114.797 Y31.248 Z20.360
G01 X114.896 Y31.348 
G01 X114.753 Y31.348 Z18.851
G01 X114.040 Y31.348 Z19.121
G01 X113.185 Y31.348 Z19.370
G01 X112.187 Y31.348 Z19.570
G01 X111.475 Y31.348 Z19.658
G01 X110.477 Y31.348 Z19.721
G01 X109.337 Y31.348 Z19.711
G01 X108.196 Y31.348 Z19.614
G01 X107.056 Y31.348 Z19.448
G01 X105.916 Y31.348 Z19.198
G01 X104.918 Y31.348 Z18.896
G01 X104.775 Y31.348 Z18.849
G01 X104.633 Y31.348 Z20.360
G01 X104.348 Y31.348 
G00 Z25.000
G00 X115.050 Y31.648  F8000.0
G01 Z18.854 F2000.0 M3
G01 X114.337 Y31.648 Z19.125 F4000.0
G01 X113.481 Y31.648 Z19.373
G01 X112.483 Y31.648 Z19.572
G01 X111.628 Y31.648 Z19.674
G01 X110.772 Y31.648 Z19.722
G01 X109.774 Y31.648 Z19.714
G01 X108.633 Y31.648 Z19.624
G01 X107.492 Y31.648 Z19.452
G01 X106.351 Y31.648 Z19.204
G01 X105.496 Y31.648 Z18.952
G01 X105.211 Y31.648 Z18.855
G01 X105.068 Y31.648 Z20.360
G01 X104.925 Y31.648 
G01 X104.751 Y31.559 
G01 X104.740 Y31.569 
G01 X104.790 Y31.648 
G00 Z25.000
G00 X69.105 Y30.148  F8000.0
G01 Z18.619 F2000.0 M3
G01 X70.105 Y30.148 Z18.231 F4000.0
G01 X70.820 Y30.148 Z17.900
G01 X71.248 Y30.148 Z17.678
G01 X71.391 Y30.148 Z17.562
G01 X71.677 Y30.148 Z17.365
G01 X71.820 Y30.148 Z17.173
G01 X71.963 Y30.148 Z16.453
G01 X73.106 Y30.148 Z15.919
G01 X74.535 Y30.148 Z15.337
G01 X75.963 Y30.148 Z14.836
G01 X77.249 Y30.148 Z14.455
G01 X78.678 Y30.148 Z14.102
G01 X80.250 Y30.148 Z13.792
G01 X81.678 Y30.148 Z13.584
G01 X83.250 Y30.148 Z13.430
G01 X84.822 Y30.148 Z13.352
G01 X86.393 Y30.148 Z13.354
G01 X87.965 Y30.148 Z13.430
G01 X89.394 Y30.148 Z13.568
G01 X90.965 Y30.148 Z13.796
G01 X92.537 Y30.148 Z14.103
G01 X93.966 Y30.148 Z14.459
G01 X95.395 Y30.148 Z14.888
G01 X96.823 Y30.148 Z15.394
G01 X98.252 Y30.148 Z15.990
G01 X99.109 Y30.148 Z16.390
G01 X99.252 Y30.148 Z16.929
G01 X99.395 Y30.148 Z17.238
G01 X99.538 Y30.148 Z17.380
G01 X99.824 Y30.148 Z17.530
G01 X99.967 Y30.148 Z17.654
G01 X100.395 Y30.148 Z17.920
G01 X101.252 Y30.148 Z18.302
G01 X102.253 Y30.148 Z18.659
G01 X102.344 Y30.214 Z20.360
G01 X102.733 Y30.448 
G01 X102.590 Y30.448 
G01 X102.448 Y30.448 Z18.535
G01 X101.591 Y30.448 Z18.202
G01 X100.734 Y30.448 Z17.798
G01 X100.449 Y30.448 Z17.611
G01 X100.306 Y30.448 Z17.486
G01 X100.163 Y30.448 Z17.286
G01 X100.020 Y30.448 Z16.529
G01 X98.878 Y30.448 Z15.962
G01 X97.450 Y30.448 Z15.341
G01 X96.022 Y30.448 Z14.803
G01 X94.737 Y30.448 Z14.389
G01 X93.309 Y30.448 Z14.001
G01 X91.738 Y30.448 Z13.655
G01 X90.310 Y30.448 Z13.412
G01 X88.739 Y30.448 Z13.222
G01 X87.169 Y30.448 Z13.106
G01 X85.598 Y30.448 Z13.070
G01 X84.027 Y30.448 Z13.108
G01 X82.456 Y30.448 Z13.221
G01 X80.886 Y30.448 Z13.414
G01 X79.315 Y30.448 Z13.684
G01 X77.887 Y30.448 Z14.002
G01 X76.459 Y30.448 Z14.392
G01 X75.031 Y30.448 Z14.855
G01 X73.746 Y30.448 Z15.342
G01 X72.461 Y30.448 Z15.900
G01 X71.175 Y30.448 Z16.532
G01 X71.033 Y30.448 Z17.102
G01 X70.890 Y30.448 Z17.350
G01 X70.604 Y30.448 Z17.672
G01 X70.461 Y30.448 Z17.784
G01 X69.605 Y30.448 Z18.214
G01 X68.605 Y30.448 Z18.606
G01 X68.490 Y30.512 Z20.360
G01 X68.338 Y30.560 
G01 X68.345 Y30.528 
G01 X68.423 Y30.448 
G00 Z25.000
G00 X102.590 Y30.448  F8000.0
G01 Z20.360 F2000.0 M3
G01 X102.448 Y30.448 Z18.535 F4000.0
G01 X101.591 Y30.448 Z18.202
G01 X100.734 Y30.448 Z17.798
G01 X100.449 Y30.448 Z17.611
G01 X100.306 Y30.448 Z17.486
G01 X100.163 Y30.448 Z17.286
G01 X100.020 Y30.448 Z16.529
G01 X98.878 Y30.448 Z15.962
G01 X97.450 Y30.448 Z15.341
G01 X96.022 Y30.448 Z14.803
G01 X94.737 Y30.448 Z14.389
G01 X93.309 Y30.448 Z14.001
G01 X91.738 Y30.448 Z13.655
G01 X90.310 Y30.448 Z13.412
G01 X88.739 Y30.448 Z13.222
G01 X87.169 Y30.448 Z13.106
G01 X85.598 Y30.448 Z13.070
G01 X84.027 Y30.448 Z13.108
G01 X82.456 Y30.448 Z13.221
G01 X80.886 Y30.448 Z13.414
G01 X79.315 Y30.448 Z13.684
G01 X77.887 Y30.448 Z14.002
G01 X76.459 Y30.448 Z14.392
G01 X75.031 Y30.448 Z14.855
G01 X73.746 Y30.448 Z15.342
G01 X72.461 Y30.448 Z15.900
G01 X71.175 Y30.448 Z16.532
G01 X71.033 Y30.448 Z17.102
G01 X70.890 Y30.448 Z17.350
G01 X70.604 Y30.448 Z17.672
G01 X70.461 Y30.448 Z17.784
G01 X69.605 Y30.448 Z18.214
G01 X68.605 Y30.448 Z18.606
G01 X68.490 Y30.512 Z20.360
G01 X68.338 Y30.560 
G01 X68.345 Y30.528 
G01 X68.423 Y30.448 
G00 Z25.000
G00 X102.590 Y30.448  F8000.0
G01 Z20.360 F2000.0 M3
G01 X102.448 Y30.448 Z18.535 F4000.0
G01 X101.591 Y30.448 Z18.202
G01 X100.734 Y30.448 Z17.798
G01 X100.449 Y30.448 Z17.611
G01 X100.306 Y30.448 Z17.486
G01 X100.163 Y30.448 Z17.286
G01 X100.020 Y30.448 Z16.529
G01 X98.878 Y30.448 Z15.962
G01 X97.450 Y30.448 Z15.341
G01 X96.022 Y30.448 Z14.803
G01 X94.737 Y30.448 Z14.389
G01 X93.309 Y30.448 Z14.001
G01 X91.738 Y30.448 Z13.655
G01 X90.310 Y30.448 Z13.412
G01 X88.739 Y30.448 Z13.222
G01 X87.169 Y30.448 Z13.106
G01 X85.598 Y30.448 Z13.070
G01 X84.027 Y30.448 Z13.108
G01 X82.456 Y30.448 Z13.221
G01 X80.886 Y30.448 Z13.414
G01 X79.315 Y30.448 Z13.684
G01 X77.887 Y30.448 Z14.002
G01 X76.459 Y30.448 Z14.392
G01 X75.031 Y30.448 Z14.855
G01 X73.746 Y30.448 Z15.342
G01 X72.461 Y30.448 Z15.900
G01 X71.175 Y30.448 Z16.532
G01 X71.033 Y30.448 Z17.102
G01 X70.890 Y30.448 Z17.350
G01 X70.604 Y30.448 Z17.672
G01 X70.461 Y30.448 Z17.784
G01 X69.605 Y30.448 Z18.214
G01 X68.605 Y30.448 Z18.606
G01 X68.490 Y30.512 Z20.360
G01 X68.338 Y30.560 
G01 X68.345 Y30.528 
G01 X68.423 Y30.448 
G01 X67.712 Y30.448 
G01 X67.570 Y30.448 Z18.935
G01 X66.433 Y30.448 Z19.242
G01 X65.439 Y30.448 Z19.439
G01 X64.302 Y30.448 Z19.601
G01 X63.307 Y30.448 Z19.692
G01 X62.312 Y30.448 Z19.727
G01 X61.033 Y30.448 Z19.684
G01 X60.038 Y30.448 Z19.573
G01 X59.185 Y30.448 Z19.413
G01 X58.333 Y30.448 Z19.195
G01 X57.480 Y30.448 Z18.903
G01 X57.338 Y30.448 Z18.846
G01 X57.279 Y30.503 Z20.360
G01 X57.154 Y30.625 Z18.849
G01 X57.028 Y30.748 Z18.854
G00 Z25.000
G00 X68.281 Y30.448  F8000.0
G01 Z20.360 F2000.0 M3
G01 X67.712 Y30.448  F4000.0
G01 X67.570 Y30.448 Z18.935
G01 X66.433 Y30.448 Z19.242
G01 X65.439 Y30.448 Z19.439
G01 X64.302 Y30.448 Z19.601
G01 X63.307 Y30.448 Z19.692
G01 X62.312 Y30.448 Z19.727
G01 X61.033 Y30.448 Z19.684
G01 X60.038 Y30.448 Z19.573
G01 X59.185 Y30.448 Z19.413
G01 X58.333 Y30.448 Z19.195
G01 X57.480 Y30.448 Z18.903
G01 X57.338 Y30.448 Z18.846
G01 X57.279 Y30.503 Z20.360
G01 X57.154 Y30.625 Z18.849
G01 X57.028 Y30.748 Z18.854
G01 X57.880 Y30.748 Z19.156
G01 X58.733 Y30.748 Z19.387
G01 X59.586 Y30.748 Z19.554
G01 X60.581 Y30.748 Z19.676
G01 X61.718 Y30.748 Z19.726
G01 X62.713 Y30.748 Z19.704
G01 X63.708 Y30.748 Z19.627
G01 X64.987 Y30.748 Z19.440
G01 X65.982 Y30.748 Z19.241
G01 X67.119 Y30.748 Z18.934
G01 X67.261 Y30.748 Z18.889
G01 X67.403 Y30.748 Z20.360
G01 X67.688 Y30.748 
G01 X67.733 Y30.644 
G01 X67.784 Y30.606 
G01 X67.952 Y30.571 
G01 X68.096 Y30.596 
G01 X68.121 Y30.622 
G01 X68.108 Y30.654 
G01 X67.987 Y30.748 
G01 X68.130 Y30.748 Z18.583
G01 X68.986 Y30.748 Z18.246
G01 X69.556 Y30.748 Z17.980
G01 X69.984 Y30.748 Z17.753
G01 X70.269 Y30.748 Z17.549
G01 X70.412 Y30.748 Z17.418
G01 X70.554 Y30.748 Z17.202
G01 X70.697 Y30.748 Z16.468
G01 X71.980 Y30.748 Z15.815
G01 X73.407 Y30.748 Z15.182
G01 X74.833 Y30.748 Z14.633
G01 X76.116 Y30.748 Z14.208
G01 X77.542 Y30.748 Z13.808
G01 X79.111 Y30.748 Z13.448
G01 X80.537 Y30.748 Z13.192
G01 X82.106 Y30.748 Z12.987
G01 X83.675 Y30.748 Z12.857
G01 X85.101 Y30.748 Z12.803
G01 X86.670 Y30.748 Z12.818
G01 X88.239 Y30.748 Z12.906
G01 X89.665 Y30.748 Z13.051
G01 X91.234 Y30.748 Z13.287
G01 X92.802 Y30.748 Z13.601
G01 X94.229 Y30.748 Z13.958
G01 X95.655 Y30.748 Z14.390
G01 X97.081 Y30.748 Z14.896
G01 X98.364 Y30.748 Z15.423
G01 X99.648 Y30.748 Z16.025
G01 X100.504 Y30.748 Z16.468
G01 X100.646 Y30.748 Z17.163
G01 X100.932 Y30.748 Z17.538
G01 X101.074 Y30.748 Z17.662
G01 X101.502 Y30.748 Z17.896
G01 X102.786 Y30.748 Z18.478
G01 X103.071 Y30.748 Z18.592
G01 X103.213 Y30.748 Z20.360
G01 X103.356 Y30.748 
G01 X103.533 Y30.902 
G01 X103.728 Y31.048 
G00 Z25.000
G00 X57.028 Y30.748  F8000.0
G01 Z18.854 F2000.0 M3
G01 X57.880 Y30.748 Z19.156 F4000.0
G01 X58.733 Y30.748 Z19.387
G01 X59.586 Y30.748 Z19.554
G01 X60.581 Y30.748 Z19.676
G01 X61.718 Y30.748 Z19.726
G01 X62.713 Y30.748 Z19.704
G01 X63.708 Y30.748 Z19.627
G01 X64.987 Y30.748 Z19.440
G01 X65.982 Y30.748 Z19.241
G01 X67.119 Y30.748 Z18.934
G01 X67.261 Y30.748 Z18.889
G01 X67.403 Y30.748 Z20.360
G01 X67.688 Y30.748 
G01 X67.608 Y30.831 
G01 X67.279 Y31.048 
G01 X66.994 Y31.048 
G01 X66.851 Y31.048 Z18.875
G01 X65.852 Y31.048 Z19.161
G01 X64.854 Y31.048 Z19.382
G01 X63.855 Y31.048 Z19.558
G01 X62.856 Y31.048 Z19.671
G01 X61.714 Y31.048 Z19.725
G01 X60.715 Y31.048 Z19.706
G01 X59.716 Y31.048 Z19.619
G01 X58.717 Y31.048 Z19.455
G01 X57.861 Y31.048 Z19.249
G01 X57.148 Y31.048 Z19.021
G01 X56.719 Y31.048 Z18.848
G01 X56.572 Y31.191 Z18.842
G01 X56.498 Y31.269 Z20.360
G01 X56.423 Y31.348 
G00 Z25.000
G00 X103.585 Y31.048  F8000.0
G01 Z18.603 F2000.0 M3
G01 X102.728 Y31.048 Z18.236 F4000.0
G01 X102.157 Y31.048 Z17.946
G01 X101.871 Y31.048 Z17.787
G01 X101.728 Y31.048 Z17.683
G01 X101.586 Y31.048 Z17.534
G01 X101.443 Y31.048 Z17.414
G01 X101.300 Y31.048 Z17.331
G01 X101.157 Y31.048 Z17.185
G01 X101.014 Y31.048 Z16.432
G01 X99.729 Y31.048 Z15.756
G01 X98.444 Y31.048 Z15.161
G01 X97.016 Y31.048 Z14.582
G01 X95.588 Y31.048 Z14.083
G01 X94.160 Y31.048 Z13.663
G01 X92.590 Y31.048 Z13.280
G01 X91.162 Y31.048 Z13.004
G01 X89.591 Y31.048 Z12.777
G01 X88.020 Y31.048 Z12.624
G01 X86.592 Y31.048 Z12.550
G01 X85.022 Y31.048 Z12.542
G01 X83.451 Y31.048 Z12.605
G01 X82.023 Y31.048 Z12.728
G01 X80.452 Y31.048 Z12.938
G01 X78.882 Y31.048 Z13.223
G01 X77.454 Y31.048 Z13.554
G01 X76.026 Y31.048 Z13.956
G01 X74.598 Y31.048 Z14.429
G01 X73.313 Y31.048 Z14.925
G01 X71.885 Y31.048 Z15.558
G01 X70.600 Y31.048 Z16.206
G01 X70.171 Y31.048 Z16.439
G01 X70.028 Y31.048 Z17.153
G01 X69.886 Y31.048 Z17.331
G01 X69.743 Y31.048 Z17.439
G01 X69.600 Y31.048 Z17.596
G01 X69.314 Y31.048 Z17.813
G01 X68.743 Y31.048 Z18.113
G01 X67.601 Y31.048 Z18.603
G00 Z25.000
G00 X56.566 Y31.348  F8000.0
G01 Z18.903 F2000.0 M3
G01 X57.281 Y31.348 Z19.170 F4000.0
G01 X58.139 Y31.348 Z19.402
G01 X59.140 Y31.348 Z19.584
G01 X60.141 Y31.348 Z19.692
G01 X61.142 Y31.348 Z19.727
G01 X62.286 Y31.348 Z19.684
G01 X63.287 Y31.348 Z19.584
G01 X64.287 Y31.348 Z19.421
G01 X65.574 Y31.348 Z19.116
G01 X66.289 Y31.348 Z18.910
G01 X66.432 Y31.348 Z20.360
G01 X67.004 Y31.348 
G01 X67.147 Y31.348 Z18.603
G01 X67.862 Y31.348 Z18.290
G01 X68.720 Y31.348 Z17.852
G01 X69.006 Y31.348 Z17.688
G01 X69.149 Y31.348 Z17.577
G01 X69.292 Y31.348 Z17.414
G01 X69.435 Y31.348 Z17.131
G01 X69.578 Y31.348 Z16.464
G01 X70.865 Y31.348 Z15.760
G01 X72.152 Y31.348 Z15.137
G01 X73.438 Y31.348 Z14.588
G01 X74.868 Y31.348 Z14.054
G01 X76.298 Y31.348 Z13.601
G01 X77.871 Y31.348 Z13.184
G01 X79.301 Y31.348 Z12.876
G01 X80.874 Y31.348 Z12.615
G01 X82.446 Y31.348 Z12.429
G01 X83.876 Y31.348 Z12.325
G01 X85.449 Y31.348 Z12.282
G01 X87.022 Y31.348 Z12.310
G01 X88.595 Y31.348 Z12.415
G01 X90.168 Y31.348 Z12.592
G01 X91.597 Y31.348 Z12.820
G01 X93.170 Y31.348 Z13.146
G01 X94.743 Y31.348 Z13.552
G01 X96.173 Y31.348 Z14.001
G01 X97.603 Y31.348 Z14.523
G01 X98.890 Y31.348 Z15.064
G01 X100.177 Y31.348 Z15.678
G01 X101.463 Y31.348 Z16.373
G01 X101.749 Y31.348 Z16.539
G01 X101.892 Y31.348 Z17.274
G01 X102.035 Y31.348 Z17.505
G01 X102.178 Y31.348 Z17.650
G01 X102.607 Y31.348 Z17.927
G01 X103.322 Y31.348 Z18.290
G01 X103.894 Y31.348 Z18.534
G01 X104.037 Y31.348 Z20.360
G01 X104.348 Y31.348 
G00 Z25.000
G00 X104.647 Y31.648  F8000.0
G01 Z20.360 F2000.0 M3
G01 X104.504 Y31.648 Z18.584 F4000.0
G01 X103.790 Y31.648 Z18.282
G01 X103.076 Y31.648 Z17.918
G01 X102.790 Y31.648 Z17.728
G01 X102.504 Y31.648 Z17.466
G01 X102.361 Y31.648 Z17.260
G01 X102.218 Y31.648 Z16.509
G01 X101.076 Y31.648 Z15.853
G01 X99.790 Y31.648 Z15.197
G01 X98.361 Y31.648 Z14.554
G01 X97.076 Y31.648 Z14.047
G01 X95.647 Y31.648 Z13.561
G01 X94.076 Y31.648 Z13.108
G01 X92.647 Y31.648 Z12.771
G01 X91.076 Y31.648 Z12.475
G01 X89.504 Y31.648 Z12.255
G01 X87.933 Y31.648 Z12.112
G01 X86.362 Y31.648 Z12.040
G01 X84.933 Y31.648 Z12.038
G01 X83.362 Y31.648 Z12.106
G01 X81.790 Y31.648 Z12.245
G01 X80.219 Y31.648 Z12.460
G01 X78.648 Y31.648 Z12.752
G01 X77.076 Y31.648 Z13.121
G01 X75.505 Y31.648 Z13.577
G01 X74.076 Y31.648 Z14.066
G01 X72.791 Y31.648 Z14.574
G01 X71.362 Y31.648 Z15.221
G01 X70.076 Y31.648 Z15.880
G01 X69.076 Y31.648 Z16.452
G01 X68.934 Y31.648 Z17.188
G01 X68.791 Y31.648 Z17.403
G01 X68.648 Y31.648 Z17.529
G01 X68.505 Y31.648 Z17.612
G01 X68.219 Y31.648 Z17.850
G01 X67.505 Y31.648 Z18.240
G01 X66.791 Y31.648 Z18.563
G01 X66.648 Y31.648 Z20.360
G01 X66.517 Y31.754 Z18.609
G01 X66.385 Y31.861 Z18.598
G01 X66.265 Y31.948 Z20.360
G00 Z25.000
G00 X66.204 Y31.648  F8000.0
G01 Z20.360 F2000.0 M3
G01 X66.061 Y31.648  F4000.0
G01 X65.917 Y31.648 Z18.882
G01 X64.623 Y31.648 Z19.258
G01 X63.760 Y31.648 Z19.447
G01 X62.609 Y31.648 Z19.622
G01 X61.315 Y31.648 Z19.718
G01 X60.308 Y31.648 Z19.717
G01 X59.302 Y31.648 Z19.647
G01 X58.295 Y31.648 Z19.500
G01 X57.576 Y31.648 Z19.343
G01 X56.713 Y31.648 Z19.071
G01 X56.282 Y31.648 Z18.902
G01 X56.138 Y31.648 Z20.360
G01 X56.043 Y31.748 Z18.839
G01 X55.948 Y31.848 Z20.360
G01 X55.853 Y31.948 
G01 X55.996 Y31.948 Z18.900
G01 X56.710 Y31.948 Z19.168
G01 X57.424 Y31.948 Z19.376
G01 X58.138 Y31.948 Z19.529
G01 X58.995 Y31.948 Z19.649
G01 X59.995 Y31.948 Z19.718
G01 X60.995 Y31.948 Z19.716
G01 X61.995 Y31.948 Z19.645
G01 X62.994 Y31.948 Z19.513
G01 X63.851 Y31.948 Z19.350
G01 X64.851 Y31.948 Z19.089
G01 X65.708 Y31.948 Z18.803
G01 X65.851 Y31.948 Z20.360
G01 X65.994 Y31.948 
G01 X65.906 Y32.082 
G01 X65.914 Y32.104 
G01 X65.973 Y32.107 
G01 X66.224 Y31.977 
G01 X66.265 Y31.948 
G01 X66.408 Y31.948 Z18.532
G01 X67.122 Y31.948 Z18.208
G01 X67.693 Y31.948 Z17.893
G01 X67.836 Y31.948 Z17.802
G01 X67.979 Y31.948 Z17.677
G01 X68.264 Y31.948 Z17.369
G01 X68.407 Y31.948 Z17.046
G01 X68.550 Y31.948 Z16.468
G01 X69.835 Y31.948 Z15.721
G01 X71.119 Y31.948 Z15.055
G01 X72.404 Y31.948 Z14.463
G01 X73.832 Y31.948 Z13.889
G01 X75.260 Y31.948 Z13.391
G01 X76.687 Y31.948 Z12.968
G01 X78.258 Y31.948 Z12.582
G01 X79.828 Y31.948 Z12.274
G01 X81.399 Y31.948 Z12.044
G01 X82.969 Y31.948 Z11.887
G01 X84.540 Y31.948 Z11.801
G01 X86.110 Y31.948 Z11.791
G01 X87.681 Y31.948 Z11.849
G01 X89.251 Y31.948 Z11.980
G01 X90.822 Y31.948 Z12.186
G01 X92.392 Y31.948 Z12.464
G01 X93.820 Y31.948 Z12.787
G01 X95.390 Y31.948 Z13.220
G01 X96.818 Y31.948 Z13.686
G01 X98.246 Y31.948 Z14.232
G01 X99.673 Y31.948 Z14.859
G01 X100.958 Y31.948 Z15.498
G01 X102.243 Y31.948 Z16.222
G01 X102.814 Y31.948 Z16.572
G01 X102.957 Y31.948 Z17.384
G01 X103.100 Y31.948 Z17.581
G01 X103.243 Y31.948 Z17.714
G01 X103.528 Y31.948 Z17.901
G01 X104.385 Y31.948 Z18.335
G01 X104.813 Y31.948 Z18.532
G01 X104.956 Y31.948 Z20.360
G01 X105.100 Y31.949 
G01 X105.232 Y32.016 
G01 X105.352 Y32.047 
G01 X105.432 Y32.037 
G01 X105.437 Y32.017 
G01 X105.376 Y31.948 
G00 Z25.000
G00 X66.408 Y31.948  F8000.0
G01 Z18.532 F2000.0 M3
G01 X67.122 Y31.948 Z18.208 F4000.0
G01 X67.693 Y31.948 Z17.893
G01 X67.836 Y31.948 Z17.802
G01 X67.979 Y31.948 Z17.677
G01 X68.264 Y31.948 Z17.369
G01 X68.407 Y31.948 Z17.046
G01 X68.550 Y31.948 Z16.468
G01 X69.835 Y31.948 Z15.721
G01 X71.119 Y31.948 Z15.055
G01 X72.404 Y31.948 Z14.463
G01 X73.832 Y31.948 Z13.889
G01 X75.260 Y31.948 Z13.391
G01 X76.687 Y31.948 Z12.968
G01 X78.258 Y31.948 Z12.582
G01 X79.828 Y31.948 Z12.274
G01 X81.399 Y31.948 Z12.044
G01 X82.969 Y31.948 Z11.887
G01 X84.540 Y31.948 Z11.801
G01 X86.110 Y31.948 Z11.791
G01 X87.681 Y31.948 Z11.849
G01 X89.251 Y31.948 Z11.980
G01 X90.822 Y31.948 Z12.186
G01 X92.392 Y31.948 Z12.464
G01 X93.820 Y31.948 Z12.787
G01 X95.390 Y31.948 Z13.220
G01 X96.818 Y31.948 Z13.686
G01 X98.246 Y31.948 Z14.232
G01 X99.673 Y31.948 Z14.859
G01 X100.958 Y31.948 Z15.498
G01 X102.243 Y31.948 Z16.222
G01 X102.814 Y31.948 Z16.572
G01 X102.957 Y31.948 Z17.384
G01 X103.100 Y31.948 Z17.581
G01 X103.243 Y31.948 Z17.714
G01 X103.528 Y31.948 Z17.901
G01 X104.385 Y31.948 Z18.335
G01 X104.813 Y31.948 Z18.532
G01 X104.956 Y31.948 Z20.360
G01 X105.100 Y31.949 
G01 X105.232 Y32.016 
G01 X105.352 Y32.047 
G01 X105.432 Y32.037 
G01 X105.437 Y32.017 
G01 X105.376 Y31.948 
G01 X105.519 Y31.948 
G01 X105.661 Y31.948 Z18.870
G01 X106.658 Y31.948 Z19.177
G01 X107.798 Y31.948 Z19.435
G01 X108.795 Y31.948 Z19.602
G01 X109.934 Y31.948 Z19.705
G01 X110.932 Y31.948 Z19.725
G01 X111.786 Y31.948 Z19.687
G01 X112.641 Y31.948 Z19.595
G01 X113.638 Y31.948 Z19.408
G01 X114.492 Y31.948 Z19.171
G01 X115.205 Y31.948 Z18.915
G01 X115.347 Y31.948 Z18.853
G01 X115.490 Y31.948 Z20.360
G01 X115.781 Y32.248 
G00 Z25.000
G00 X105.519 Y31.948  F8000.0
G01 Z20.360 F2000.0 M3
G01 X105.661 Y31.948 Z18.870 F4000.0
G01 X106.658 Y31.948 Z19.177
G01 X107.798 Y31.948 Z19.435
G01 X108.795 Y31.948 Z19.602
G01 X109.934 Y31.948 Z19.705
G01 X110.932 Y31.948 Z19.725
G01 X111.786 Y31.948 Z19.687
G01 X112.641 Y31.948 Z19.595
G01 X113.638 Y31.948 Z19.408
G01 X114.492 Y31.948 Z19.171
G01 X115.205 Y31.948 Z18.915
G01 X115.347 Y31.948 Z18.853
G01 X115.490 Y31.948 Z20.360
G00 Z25.000
G00 X115.639 Y32.248  F8000.0
G01 Z20.360 F2000.0 M3
G01 X115.496 Y32.248 Z18.904 F4000.0
G01 X114.925 Y32.248 Z19.130
G01 X114.069 Y32.248 Z19.378
G01 X113.070 Y32.248 Z19.575
G01 X112.214 Y32.248 Z19.677
G01 X111.358 Y32.248 Z19.724
G01 X110.359 Y32.248 Z19.709
G01 X109.217 Y32.248 Z19.611
G01 X108.218 Y32.248 Z19.447
G01 X107.362 Y32.248 Z19.250
G01 X106.506 Y32.248 Z19.012
G01 X106.078 Y32.248 Z18.870
G01 X105.935 Y32.248 Z20.360
G01 X105.650 Y32.248 
G01 X105.507 Y32.248 Z18.656
G01 X104.651 Y32.248 Z18.258
G01 X103.795 Y32.248 Z17.775
G01 X103.652 Y32.248 Z17.664
G01 X103.367 Y32.248 Z17.372
G01 X103.224 Y32.248 Z17.133
G01 X103.081 Y32.248 Z16.437
G01 X101.797 Y32.248 Z15.668
G01 X100.513 Y32.248 Z14.988
G01 X99.086 Y32.248 Z14.318
G01 X97.659 Y32.248 Z13.732
G01 X96.232 Y32.248 Z13.228
G01 X94.662 Y32.248 Z12.755
G01 X93.235 Y32.248 Z12.396
G01 X91.665 Y32.248 Z12.080
G01 X90.096 Y32.248 Z11.837
G01 X88.526 Y32.248 Z11.668
G01 X86.956 Y32.248 Z11.572
G01 X85.387 Y32.248 Z11.545
G01 X83.817 Y32.248 Z11.591
G01 X82.247 Y32.248 Z11.708
G01 X80.678 Y32.248 Z11.895
G01 X79.108 Y32.248 Z12.158
G01 X77.538 Y32.248 Z12.498
G01 X75.969 Y32.248 Z12.915
G01 X74.542 Y32.248 Z13.372
G01 X73.115 Y32.248 Z13.901
G01 X71.688 Y32.248 Z14.508
G01 X70.261 Y32.248 Z15.207
G01 X68.977 Y32.248 Z15.916
G01 X68.120 Y32.248 Z16.435
G01 X67.978 Y32.248 Z17.041
G01 X67.835 Y32.248 Z17.385
G01 X67.692 Y32.248 Z17.570
G01 X67.550 Y32.248 Z17.697
G01 X66.979 Y32.248 Z18.041
G01 X66.408 Y32.248 Z18.337
G01 X65.837 Y32.248 Z18.581
G01 X65.694 Y32.248 Z20.360
G01 X65.552 Y32.248 
G01 X65.409 Y32.459 
G01 X65.337 Y32.548 
G00 Z25.000
G00 X106.322 Y32.548  F8000.0
G01 Z18.810 F2000.0 M3
G01 X107.325 Y32.548 Z19.138 F4000.0
G01 X108.184 Y32.548 Z19.366
G01 X109.186 Y32.548 Z19.557
G01 X110.332 Y32.548 Z19.686
G01 X111.477 Y32.548 Z19.726
G01 X112.479 Y32.548 Z19.680
G01 X113.339 Y32.548 Z19.580
G01 X114.198 Y32.548 Z19.419
G01 X114.914 Y32.548 Z19.221
G01 X115.486 Y32.548 Z19.019
G01 X115.773 Y32.548 Z18.898
G01 X115.916 Y32.548 Z20.360
G01 X116.059 Y32.548 
G01 X116.324 Y32.848 
G01 X116.181 Y32.848 
G01 X116.038 Y32.848 Z18.897
G01 X115.323 Y32.848 Z19.176
G01 X114.466 Y32.848 Z19.424
G01 X113.608 Y32.848 Z19.585
G01 X112.751 Y32.848 Z19.684
G01 X111.750 Y32.848 Z19.727
G01 X110.750 Y32.848 Z19.693
G01 X109.607 Y32.848 Z19.567
G01 X108.606 Y32.848 Z19.381
G01 X107.749 Y32.848 Z19.160
G01 X106.891 Y32.848 Z18.869
G01 X106.606 Y32.848 Z18.763
G01 X106.463 Y32.848 Z20.360
G01 X106.643 Y33.045 
G01 X106.369 Y32.848 
G00 Z25.000
G00 X65.351 Y32.248  F8000.0
G01 Z20.360 F2000.0 M3
G01 X65.207 Y32.248 Z18.836 F4000.0
G01 X64.345 Y32.248 Z19.124
G01 X63.338 Y32.248 Z19.378
G01 X62.188 Y32.248 Z19.579
G01 X61.182 Y32.248 Z19.688
G01 X60.176 Y32.248 Z19.727
G01 X59.170 Y32.248 Z19.692
G01 X58.307 Y32.248 Z19.605
G01 X57.445 Y32.248 Z19.448
G01 X56.582 Y32.248 Z19.218
G01 X55.864 Y32.248 Z18.962
G01 X55.720 Y32.248 Z18.902
G01 X55.576 Y32.248 Z20.360
G00 Z25.000
G00 X65.480 Y32.548  F8000.0
G01 Z18.563 F2000.0 M3
G01 X66.482 Y32.548 Z18.067 F4000.0
G01 X66.768 Y32.548 Z17.901
G01 X67.054 Y32.548 Z17.688
G01 X67.484 Y32.548 Z17.293
G01 X67.627 Y32.548 Z17.033
G01 X67.770 Y32.548 Z16.363
G01 X69.058 Y32.548 Z15.579
G01 X70.345 Y32.548 Z14.884
G01 X71.776 Y32.548 Z14.200
G01 X73.207 Y32.548 Z13.600
G01 X74.638 Y32.548 Z13.083
G01 X76.212 Y32.548 Z12.596
G01 X77.643 Y32.548 Z12.226
G01 X79.217 Y32.548 Z11.895
G01 X80.791 Y32.548 Z11.638
G01 X82.365 Y32.548 Z11.458
G01 X83.939 Y32.548 Z11.348
G01 X85.513 Y32.548 Z11.307
G01 X87.087 Y32.548 Z11.340
G01 X88.661 Y32.548 Z11.441
G01 X90.092 Y32.548 Z11.596
G01 X91.666 Y32.548 Z11.837
G01 X93.240 Y32.548 Z12.152
G01 X94.671 Y32.548 Z12.508
G01 X96.245 Y32.548 Z12.977
G01 X97.676 Y32.548 Z13.478
G01 X99.107 Y32.548 Z14.060
G01 X100.538 Y32.548 Z14.723
G01 X101.682 Y32.548 Z15.320
G01 X102.970 Y32.548 Z16.072
G01 X103.543 Y32.548 Z16.434
G01 X103.686 Y32.548 Z17.139
G01 X103.829 Y32.548 Z17.359
G01 X104.115 Y32.548 Z17.646
G01 X104.401 Y32.548 Z17.869
G01 X104.973 Y32.548 Z18.213
G01 X105.689 Y32.548 Z18.557
G01 X105.832 Y32.548 Z20.360
G01 X105.975 Y32.548 
G01 X106.369 Y32.848 
G00 Z25.000
G00 X65.435 Y32.289  F8000.0
G01 Z20.360 F2000.0 M3
G01 X65.130 Y32.548  F4000.0
G01 X64.988 Y32.548 
G01 X64.846 Y32.548 Z18.826
G01 X64.133 Y32.548 Z19.073
G01 X63.136 Y32.548 Z19.338
G01 X61.997 Y32.548 Z19.557
G01 X61.000 Y32.548 Z19.678
G01 X59.861 Y32.548 Z19.727
G01 X58.864 Y32.548 Z19.693
G01 X58.151 Y32.548 Z19.622
G01 X57.297 Y32.548 Z19.478
G01 X56.442 Y32.548 Z19.261
G01 X55.730 Y32.548 Z19.020
G01 X55.303 Y32.548 Z18.842
G01 X55.212 Y32.648 Z18.842
G01 X55.120 Y32.748 Z20.360
G01 X55.029 Y32.848 
G01 X55.172 Y32.848 Z18.907
G01 X55.883 Y32.848 Z19.174
G01 X56.736 Y32.848 Z19.414
G01 X57.447 Y32.848 Z19.559
G01 X58.300 Y32.848 Z19.673
G01 X59.296 Y32.848 Z19.726
G01 X60.291 Y32.848 Z19.702
G01 X61.145 Y32.848 Z19.629
G01 X62.140 Y32.848 Z19.474
G01 X63.278 Y32.848 Z19.207
G01 X64.131 Y32.848 Z18.949
G01 X64.558 Y32.848 Z18.789
G01 X64.700 Y32.848 Z20.360
G01 X64.842 Y32.848 
G00 Z25.000
G00 X106.226 Y32.848  F8000.0
G01 Z20.360 F2000.0 M3
G01 X106.083 Y32.848 Z18.551 F4000.0
G01 X105.226 Y32.848 Z18.124
G01 X104.797 Y32.848 Z17.857
G01 X104.511 Y32.848 Z17.618
G01 X104.368 Y32.848 Z17.470
G01 X104.225 Y32.848 Z17.216
G01 X104.082 Y32.848 Z16.493
G01 X102.795 Y32.848 Z15.675
G01 X101.508 Y32.848 Z14.949
G01 X100.079 Y32.848 Z14.234
G01 X98.649 Y32.848 Z13.604
G01 X97.219 Y32.848 Z13.057
G01 X95.789 Y32.848 Z12.585
G01 X94.217 Y32.848 Z12.144
G01 X92.787 Y32.848 Z11.815
G01 X91.214 Y32.848 Z11.525
G01 X89.642 Y32.848 Z11.307
G01 X88.069 Y32.848 Z11.164
G01 X86.496 Y32.848 Z11.088
G01 X84.924 Y32.848 Z11.084
G01 X83.351 Y32.848 Z11.149
G01 X81.778 Y32.848 Z11.282
G01 X80.205 Y32.848 Z11.491
G01 X78.633 Y32.848 Z11.770
G01 X77.203 Y32.848 Z12.090
G01 X75.630 Y32.848 Z12.519
G01 X74.201 Y32.848 Z12.981
G01 X72.771 Y32.848 Z13.516
G01 X71.341 Y32.848 Z14.133
G01 X69.911 Y32.848 Z14.834
G01 X68.625 Y32.848 Z15.547
G01 X67.338 Y32.848 Z16.349
G01 X67.052 Y32.848 Z16.539
G01 X66.909 Y32.848 Z17.280
G01 X66.766 Y32.848 Z17.529
G01 X66.623 Y32.848 Z17.690
G01 X66.480 Y32.848 Z17.802
G01 X65.622 Y32.848 Z18.304
G01 X65.193 Y32.848 Z18.520
G01 X65.050 Y32.848 Z20.360
G01 X64.881 Y32.969 
G01 X64.797 Y32.996 
G01 X64.775 Y32.987 
G01 X64.773 Y32.961 
G01 X64.842 Y32.848 
G00 Z25.000
G00 X106.226 Y32.848  F8000.0
G01 Z20.360 F2000.0 M3
G01 X106.083 Y32.848 Z18.551 F4000.0
G01 X105.226 Y32.848 Z18.124
G01 X104.797 Y32.848 Z17.857
G01 X104.511 Y32.848 Z17.618
G01 X104.368 Y32.848 Z17.470
G01 X104.225 Y32.848 Z17.216
G01 X104.082 Y32.848 Z16.493
G01 X102.795 Y32.848 Z15.675
G01 X101.508 Y32.848 Z14.949
G01 X100.079 Y32.848 Z14.234
G01 X98.649 Y32.848 Z13.604
G01 X97.219 Y32.848 Z13.057
G01 X95.789 Y32.848 Z12.585
G01 X94.217 Y32.848 Z12.144
G01 X92.787 Y32.848 Z11.815
G01 X91.214 Y32.848 Z11.525
G01 X89.642 Y32.848 Z11.307
G01 X88.069 Y32.848 Z11.164
G01 X86.496 Y32.848 Z11.088
G01 X84.924 Y32.848 Z11.084
G01 X83.351 Y32.848 Z11.149
G01 X81.778 Y32.848 Z11.282
G01 X80.205 Y32.848 Z11.491
G01 X78.633 Y32.848 Z11.770
G01 X77.203 Y32.848 Z12.090
G01 X75.630 Y32.848 Z12.519
G01 X74.201 Y32.848 Z12.981
G01 X72.771 Y32.848 Z13.516
G01 X71.341 Y32.848 Z14.133
G01 X69.911 Y32.848 Z14.834
G01 X68.625 Y32.848 Z15.547
G01 X67.338 Y32.848 Z16.349
G01 X67.052 Y32.848 Z16.539
G01 X66.909 Y32.848 Z17.280
G01 X66.766 Y32.848 Z17.529
G01 X66.623 Y32.848 Z17.690
G01 X66.480 Y32.848 Z17.802
G01 X65.622 Y32.848 Z18.304
G01 X65.193 Y32.848 Z18.520
G01 X65.050 Y32.848 Z20.360
G01 X64.881 Y32.969 
G01 X64.797 Y32.996 
G01 X64.775 Y32.987 
G01 X64.773 Y32.961 
G01 X64.842 Y32.848 
G01 X64.700 Y32.848 
G01 X64.558 Y32.848 Z18.789
G01 X63.847 Y32.848 Z19.043
G01 X62.851 Y32.848 Z19.315
G01 X61.856 Y32.848 Z19.527
G01 X60.718 Y32.848 Z19.674
G01 X59.580 Y32.848 Z19.727
G01 X58.585 Y32.848 Z19.695
G01 X57.731 Y32.848 Z19.604
G01 X56.878 Y32.848 Z19.448
G01 X56.025 Y32.848 Z19.220
G01 X55.314 Y32.848 Z18.967
G01 X55.172 Y32.848 Z18.907
G01 X55.029 Y32.848 Z20.360
G01 X54.891 Y33.000 
G01 X54.471 Y32.991 
G01 X54.375 Y32.966 
G01 X54.310 Y32.929 
G01 X54.264 Y32.848 
G01 X54.121 Y32.848 Z18.857
G01 X53.406 Y32.848 Z19.083
G01 X52.261 Y32.848 Z19.360
G01 X51.403 Y32.848 Z19.508
G01 X50.115 Y32.848 Z19.647
G01 X48.828 Y32.848 Z19.714
G01 X47.540 Y32.848 Z19.723
G01 X46.110 Y32.848 Z19.673
G01 X44.250 Y32.848 Z19.548
G01 X41.246 Y32.848 Z19.256
G01 X38.385 Y32.848 Z18.986
G01 X36.239 Y32.848 Z18.844
G01 X34.093 Y32.848 Z18.802
G01 X32.090 Y32.848 Z18.854
G01 X29.515 Y32.848 Z19.046
G01 X26.225 Y32.848 Z19.374
G01 X23.364 Y32.848 Z19.625
G01 X21.361 Y32.848 Z19.716
G01 X19.930 Y32.848 Z19.719
G01 X18.786 Y32.848 Z19.672
G01 X17.355 Y32.848 Z19.525
G01 X16.211 Y32.848 Z19.336
G01 X15.495 Y32.848 Z19.173
G01 X14.637 Y32.848 Z18.908
G01 X14.494 Y32.848 Z20.360
G01 X14.280 Y32.998 
G01 X14.173 Y33.073 Z18.847
G01 X14.066 Y33.148 Z18.845
G00 Z25.000
G00 X54.121 Y32.848  F8000.0
G01 Z18.857 F2000.0 M3
G01 X53.406 Y32.848 Z19.083 F4000.0
G01 X52.261 Y32.848 Z19.360
G01 X51.403 Y32.848 Z19.508
G01 X50.115 Y32.848 Z19.647
G01 X48.828 Y32.848 Z19.714
G01 X47.540 Y32.848 Z19.723
G01 X46.110 Y32.848 Z19.673
G01 X44.250 Y32.848 Z19.548
G01 X41.246 Y32.848 Z19.256
G01 X38.385 Y32.848 Z18.986
G01 X36.239 Y32.848 Z18.844
G01 X34.093 Y32.848 Z18.802
G01 X32.090 Y32.848 Z18.854
G01 X29.515 Y32.848 Z19.046
G01 X26.225 Y32.848 Z19.374
G01 X23.364 Y32.848 Z19.625
G01 X21.361 Y32.848 Z19.716
G01 X19.930 Y32.848 Z19.719
G01 X18.786 Y32.848 Z19.672
G01 X17.355 Y32.848 Z19.525
G01 X16.211 Y32.848 Z19.336
G01 X15.495 Y32.848 Z19.173
G01 X14.637 Y32.848 Z18.908
G01 X14.494 Y32.848 Z20.360
G01 X14.280 Y32.998 
G01 X14.173 Y33.073 Z18.847
G01 X14.066 Y33.148 Z18.845
G01 X14.926 Y33.148 Z19.125
G01 X15.787 Y33.148 Z19.343
G01 X16.935 Y33.148 Z19.534
G01 X18.225 Y33.148 Z19.665
G01 X19.373 Y33.148 Z19.719
G01 X20.664 Y33.148 Z19.718
G01 X22.098 Y33.148 Z19.659
G01 X23.819 Y33.148 Z19.527
G01 X26.975 Y33.148 Z19.176
G01 X27.979 Y33.148 Z19.054
G01 X29.700 Y33.148 Z18.861
G01 X29.844 Y33.148 Z20.360
G01 X31.421 Y33.148 
G01 X32.500 Y33.067 
G01 X33.500 Y33.023 
G01 X33.643 Y33.016 Z18.706
G01 X33.504 Y33.030 Z20.360
G01 X32.398 Y33.139 
G01 X32.328 Y33.148 Z18.654
G01 X34.447 Y33.148 Z18.600
G01 X36.311 Y33.150 Z18.651
G01 X36.760 Y33.204 Z18.643
G01 X36.909 Y33.222 Z20.360
G01 X37.359 Y33.277 
G01 X37.508 Y33.295 Z18.645
G01 X37.816 Y33.343 Z18.635
G01 X37.970 Y33.367 Z20.360
G01 X38.278 Y33.419 
G01 X38.433 Y33.448 Z18.617
G00 Z25.000
G00 X37.676 Y33.148  F8000.0
G01 Z20.360 F2000.0 M3
G01 X38.819 Y33.148  F4000.0
G01 X38.961 Y33.148 Z18.869
G01 X41.247 Y33.148 Z19.128
G01 X44.389 Y33.148 Z19.487
G01 X46.531 Y33.148 Z19.661
G01 X48.102 Y33.148 Z19.722
G01 X49.387 Y33.148 Z19.713
G01 X50.530 Y33.148 Z19.654
G01 X51.530 Y33.148 Z19.556
G01 X52.672 Y33.148 Z19.364
G01 X53.815 Y33.148 Z19.090
G01 X54.529 Y33.148 Z18.882
G01 X54.815 Y33.148 Z18.898
G01 X55.814 Y33.148 Z19.241
G01 X56.671 Y33.148 Z19.465
G01 X57.671 Y33.148 Z19.634
G01 X58.528 Y33.148 Z19.709
G01 X59.385 Y33.148 Z19.725
G01 X60.385 Y33.148 Z19.674
G01 X61.384 Y33.148 Z19.551
G01 X62.241 Y33.148 Z19.380
G01 X63.098 Y33.148 Z19.151
G01 X63.955 Y33.148 Z18.874
G01 X64.098 Y33.148 Z20.360
G01 X64.384 Y33.148 
G00 Z25.000
G00 X37.689 Y33.171  F8000.0
G01 Z20.360 F2000.0 M3
G01 X38.925 Y33.391  F4000.0
G01 X39.191 Y33.448 
G01 X40.046 Y33.448 
G01 X40.189 Y33.448 Z18.839
G01 X44.467 Y33.448 Z19.412
G01 X46.606 Y33.448 Z19.622
G01 X48.032 Y33.448 Z19.703
G01 X49.458 Y33.448 Z19.724
G01 X50.742 Y33.448 Z19.674
G01 X51.740 Y33.448 Z19.585
G01 X53.024 Y33.448 Z19.381
G01 X54.307 Y33.448 Z19.080
G01 X54.450 Y33.448 Z19.059
G01 X55.020 Y33.448 Z19.094
G01 X56.161 Y33.448 Z19.411
G01 X56.874 Y33.448 Z19.558
G01 X57.872 Y33.448 Z19.685
G01 X58.870 Y33.448 Z19.727
G01 X59.869 Y33.448 Z19.688
G01 X60.724 Y33.448 Z19.598
G01 X61.580 Y33.448 Z19.455
G01 X62.578 Y33.448 Z19.208
G01 X63.576 Y33.448 Z18.872
G01 X63.719 Y33.448 Z20.360
G01 X64.004 Y33.448 
G00 Z25.000
G00 X64.707 Y33.148  F8000.0
G01 Z18.568 F2000.0 M3
G01 X65.421 Y33.148 Z18.203 F4000.0
G01 X65.993 Y33.148 Z17.854
G01 X66.421 Y33.148 Z17.477
G01 X66.564 Y33.148 Z17.278
G01 X66.707 Y33.148 Z16.478
G01 X67.850 Y33.148 Z15.733
G01 X69.135 Y33.148 Z14.981
G01 X70.421 Y33.148 Z14.310
G01 X71.850 Y33.148 Z13.647
G01 X73.278 Y33.148 Z13.070
G01 X74.850 Y33.148 Z12.520
G01 X76.278 Y33.148 Z12.095
G01 X77.850 Y33.148 Z11.706
G01 X79.421 Y33.148 Z11.390
G01 X80.993 Y33.148 Z11.151
G01 X82.564 Y33.148 Z10.982
G01 X84.136 Y33.148 Z10.882
G01 X85.850 Y33.148 Z10.854
G01 X87.564 Y33.148 Z10.906
G01 X89.136 Y33.148 Z11.028
G01 X90.707 Y33.148 Z11.219
G01 X92.279 Y33.148 Z11.481
G01 X93.850 Y33.148 Z11.821
G01 X95.421 Y33.148 Z12.236
G01 X96.850 Y33.148 Z12.685
G01 X98.279 Y33.148 Z13.207
G01 X99.707 Y33.148 Z13.803
G01 X100.993 Y33.148 Z14.415
G01 X102.279 Y33.148 Z15.100
G01 X103.564 Y33.148 Z15.866
G01 X104.422 Y33.148 Z16.427
G01 X104.564 Y33.148 Z17.237
G01 X104.707 Y33.148 Z17.464
G01 X104.850 Y33.148 Z17.610
G01 X105.422 Y33.148 Z17.997
G01 X105.993 Y33.148 Z18.311
G01 X106.707 Y33.148 Z18.641
G01 X106.850 Y33.148 Z20.360
G01 X106.769 Y33.018 
G01 X106.786 Y33.008 
G01 X106.875 Y33.044 
G01 X107.014 Y33.148 
G01 X107.157 Y33.148 Z18.834
G01 X108.013 Y33.148 Z19.133
G01 X108.869 Y33.148 Z19.361
G01 X109.726 Y33.148 Z19.531
G01 X110.868 Y33.148 Z19.678
G01 X112.010 Y33.148 Z19.727
G01 X113.009 Y33.148 Z19.688
G01 X113.865 Y33.148 Z19.590
G01 X114.579 Y33.148 Z19.458
G01 X115.435 Y33.148 Z19.226
G01 X116.291 Y33.148 Z18.902
G01 X116.434 Y33.148 Z20.360
G01 X116.577 Y33.148 
G01 X116.826 Y33.448 
G01 X116.684 Y33.448 Z18.845
G01 X115.975 Y33.448 Z19.131
G01 X115.265 Y33.448 Z19.353
G01 X114.414 Y33.448 Z19.546
G01 X113.421 Y33.448 Z19.680
