%
( smallBowlfix ) ( File created: Wednesday October 09 2024 - 08:31 PM)
( for LinuxCNC )
( Material Size) ( X= 170.000, Y= 120.000, Z= 20.000)
G90 (Incremental distance mode)
G17 G21 (Active Plane: XY)(Metric Mode)
G40 G49 G80(Tool Diameter, Length compensation & canned cycles OFF)
G64 P0.05 Q0.05(Path Blending)
M600
G90 (absolute distance mode)
G54 (Coordinate System)
S18000M3
G00 Z25.000
G4 P6
( Profile 1 )
G00 X34.307 Y24.625 Z25.000 F8000.0
G01 Z17.143 F2000.0 M3
G02 X-0.964 Y59.896 I0.000 J35.271
G02 X34.307 Y95.167 I35.271 J0.000
G01 X34.308 Y95.167  F4000.0
G01 X34.311 Y95.167 
G01 X34.312 Y95.167 
G02 X54.445 Y88.841 I-0.019 J-35.264
G02 X85.602 Y102.434 I31.169 J-28.940
G01 X85.603 Y102.434  
G01 X85.608 Y102.434 
G02 X117.620 Y87.884 I-0.018 J-42.529
G02 X136.902 Y93.884 I19.284 J-27.987
G02 X170.890 Y59.896 I0.000 J-33.988
G02 X136.902 Y25.907 I-33.988 J0.000
G02 X117.620 Y31.908 I0.002 J33.988
G02 X85.608 Y17.358 I-32.029 J27.979
G01 X85.603 Y17.358  
G01 X85.602 Y17.358 
G02 X54.445 Y30.950 I0.012 J42.532
G02 X34.312 Y24.625 I-20.152 J28.938
G01 X34.311 Y24.625  
G01 X34.308 Y24.625 
G01 X34.307 Y24.625 
G01 Z14.286 F2000.0 M3
G02 X-0.964 Y59.896 I0.000 J35.271
G02 X34.307 Y95.167 I35.271 J0.000
G01 X34.308 Y95.167  F4000.0
G01 X34.311 Y95.167 
G01 X34.312 Y95.167 
G02 X54.445 Y88.841 I-0.019 J-35.264
G02 X85.602 Y102.434 I31.169 J-28.940
G01 X85.603 Y102.434  
G01 X85.608 Y102.434 
G02 X117.620 Y87.884 I-0.018 J-42.529
G02 X136.902 Y93.884 I19.284 J-27.987
G02 X170.890 Y59.896 I0.000 J-33.988
G02 X136.902 Y25.907 I-33.988 J0.000
G02 X117.620 Y31.908 I0.002 J33.988
G02 X85.608 Y17.358 I-32.029 J27.979
G01 X85.603 Y17.358  
G01 X85.602 Y17.358 
G02 X54.445 Y30.950 I0.012 J42.532
G02 X34.312 Y24.625 I-20.152 J28.938
G01 X34.311 Y24.625  
G01 X34.308 Y24.625 
G01 X34.307 Y24.625 
G01 Z11.429 F2000.0 M3
G02 X-0.964 Y59.896 I0.000 J35.271
G02 X34.307 Y95.167 I35.271 J0.000
G01 X34.308 Y95.167  F4000.0
G01 X34.311 Y95.167 
G01 X34.312 Y95.167 
G02 X54.445 Y88.841 I-0.019 J-35.264
G02 X85.602 Y102.434 I31.169 J-28.940
G01 X85.603 Y102.434  
G01 X85.608 Y102.434 
G02 X117.620 Y87.884 I-0.018 J-42.529
G02 X136.902 Y93.884 I19.284 J-27.987
G02 X170.890 Y59.896 I0.000 J-33.988
G02 X136.902 Y25.907 I-33.988 J0.000
G02 X117.620 Y31.908 I0.002 J33.988
G02 X85.608 Y17.358 I-32.029 J27.979
G01 X85.603 Y17.358  
G01 X85.602 Y17.358 
G02 X54.445 Y30.950 I0.012 J42.532
G02 X34.312 Y24.625 I-20.152 J28.938
G01 X34.311 Y24.625  
G01 X34.308 Y24.625 
G01 X34.307 Y24.625 
G01 Z8.571 F2000.0 M3
G02 X-0.964 Y59.896 I0.000 J35.271
G02 X34.307 Y95.167 I35.271 J0.000
G01 X34.308 Y95.167  F4000.0
G01 X34.311 Y95.167 
G01 X34.312 Y95.167 
G02 X54.445 Y88.841 I-0.019 J-35.264
G02 X85.602 Y102.434 I31.169 J-28.940
G01 X85.603 Y102.434  
G01 X85.608 Y102.434 
G02 X117.620 Y87.884 I-0.018 J-42.529
G02 X136.902 Y93.884 I19.284 J-27.987
G02 X170.890 Y59.896 I0.000 J-33.988
G02 X136.902 Y25.907 I-33.988 J0.000
G02 X117.620 Y31.908 I0.002 J33.988
G02 X85.608 Y17.358 I-32.029 J27.979
G01 X85.603 Y17.358  
G01 X85.602 Y17.358 
G02 X54.445 Y30.950 I0.012 J42.532
G02 X34.312 Y24.625 I-20.152 J28.938
G01 X34.311 Y24.625  
G01 X34.308 Y24.625 
G01 X34.307 Y24.625 
G01 Z5.714 F2000.0 M3
G02 X-0.964 Y59.896 I0.000 J35.271
G02 X34.307 Y95.167 I35.271 J0.000
G01 X34.308 Y95.167  F4000.0
G01 X34.311 Y95.167 
G01 X34.312 Y95.167 
G02 X54.445 Y88.841 I-0.019 J-35.264
G02 X85.602 Y102.434 I31.169 J-28.940
G01 X85.603 Y102.434  
G01 X85.608 Y102.434 
G02 X117.620 Y87.884 I-0.018 J-42.529
G02 X136.902 Y93.884 I19.284 J-27.987
G02 X170.890 Y59.896 I0.000 J-33.988
G02 X136.902 Y25.907 I-33.988 J0.000
G02 X117.620 Y31.908 I0.002 J33.988
G02 X85.608 Y17.358 I-32.029 J27.979
G01 X85.603 Y17.358  
G01 X85.602 Y17.358 
G02 X54.445 Y30.950 I0.012 J42.532
G02 X34.312 Y24.625 I-20.152 J28.938
G01 X34.311 Y24.625  
G01 X34.308 Y24.625 
G01 X34.307 Y24.625 
G01 Z2.857 F2000.0 M3
G02 X-0.964 Y59.896 I0.000 J35.271
G02 X34.307 Y95.167 I35.271 J0.000
G01 X34.308 Y95.167  F4000.0
G01 X34.311 Y95.167 
G01 X34.312 Y95.167 
G02 X54.445 Y88.841 I-0.019 J-35.264
G02 X85.602 Y102.434 I31.169 J-28.940
G01 X85.603 Y102.434  
G01 X85.608 Y102.434 
G02 X117.620 Y87.884 I-0.018 J-42.529
G02 X136.902 Y93.884 I19.284 J-27.987
G02 X170.890 Y59.896 I0.000 J-33.988
G02 X136.902 Y25.907 I-33.988 J0.000
G02 X117.620 Y31.908 I0.002 J33.988
G02 X85.608 Y17.358 I-32.029 J27.979
G01 X85.603 Y17.358  
G01 X85.602 Y17.358 
G02 X54.445 Y30.950 I0.012 J42.532
G02 X34.312 Y24.625 I-20.152 J28.938
G01 X34.311 Y24.625  
G01 X34.308 Y24.625 
G01 X34.307 Y24.625 
G01 Z0.000 F2000.0 M3
G02 X-0.964 Y59.896 I0.000 J35.271
G02 X34.307 Y95.167 I35.271 J0.000
G01 X34.308 Y95.167  F4000.0
G01 X34.311 Y95.167 
G01 X34.312 Y95.167 
G02 X54.445 Y88.841 I-0.019 J-35.264
G02 X85.602 Y102.434 I31.169 J-28.940
G01 X85.603 Y102.434  
G01 X85.608 Y102.434 
G02 X117.620 Y87.884 I-0.018 J-42.529
G02 X136.902 Y93.884 I19.284 J-27.987
G02 X170.890 Y59.896 I0.000 J-33.988
G02 X136.902 Y25.907 I-33.988 J0.000
G02 X117.620 Y31.908 I0.002 J33.988
G02 X85.608 Y17.358 I-32.029 J27.979
G01 X85.603 Y17.358  
G01 X85.602 Y17.358 
G02 X54.445 Y30.950 I0.012 J42.532
G02 X34.312 Y24.625 I-20.152 J28.938
G01 X34.311 Y24.625  
G01 X34.308 Y24.625 
G01 X34.307 Y24.625 
G00 Z25.000
(Begin Footer)
G00 Z25.000
M30
M05
G53 G0 Z-10
G53 G0 X1350 Y1000
(End Footer)
%
