%
( snowmanface1 ) ( File created: Monday December 02 2024 - 08:03 PM)
( for LinuxCNC )
( Material Size) ( X= 1250.000, Y= 180.000, Z= 19.000)
G90 (Incremental distance mode)
G17 G21 (Active Plane: XY)(Metric Mode)
G40 G49 G80(Tool Diameter, Length compensation & canned cycles OFF)
G64 P0.05 Q0.05(Path Blending)
T2 M06 (TOOL USE End Mill 4 mm)
G90 (absolute distance mode)
G54 (Coordinate System)
S18000M3
G00 Z39.320
G4 P6
( face [1] )
G00 X331.182 Y89.309 Z24.080 F4000.0
G01 Z4.500 F1200.0 M3
G03 X330.838 Y90.102 I-1.709 J-0.271
G03 X330.136 Y90.644 I-1.411 J-1.100
G03 X329.335 Y90.784 I-0.690 J-1.598
G03 X328.541 Y90.540 I0.114 J-1.784
G03 X327.688 Y89.213 I0.890 J-1.510
G03 X328.248 Y87.724 I1.763 J-0.186
G03 X329.017 Y87.310 I1.192 J1.291
G03 X329.890 Y87.317 I0.424 J1.707
G03 X330.916 Y88.059 I-0.450 J1.702
G03 X331.182 Y89.309 I-1.493 J0.971
G00 Z24.080
G00 X355.644 Y90.030  F4000.0
G01 Z4.500 F1200.0 M3
G03 X355.300 Y90.823 I-1.709 J-0.271
G03 X354.598 Y91.365 I-1.411 J-1.100
G03 X353.797 Y91.504 I-0.690 J-1.598
G03 X353.003 Y91.260 I0.114 J-1.784
G03 X352.150 Y89.934 I0.890 J-1.510
G03 X352.711 Y88.445 I1.763 J-0.186
G03 X353.479 Y88.031 I1.192 J1.291
G03 X354.352 Y88.037 I0.424 J1.707
G03 X355.379 Y88.780 I-0.450 J1.702
G03 X355.644 Y90.030 I-1.493 J0.971
G00 Z24.080
G00 X383.003 Y90.836  F4000.0
G01 Z4.500 F1200.0 M3
G03 X382.659 Y91.628 I-1.709 J-0.271
G03 X381.957 Y92.171 I-1.411 J-1.100
G03 X381.156 Y92.310 I-0.690 J-1.598
G03 X380.362 Y92.066 I0.114 J-1.784
G03 X379.509 Y90.740 I0.890 J-1.510
G03 X380.069 Y89.251 I1.763 J-0.186
G03 X380.838 Y88.837 I1.192 J1.291
G03 X381.711 Y88.843 I0.424 J1.707
G03 X382.737 Y89.586 I-0.450 J1.702
G03 X383.003 Y90.836 I-1.493 J0.971
G00 Z24.080
G00 X407.465 Y91.556  F4000.0
G01 Z4.500 F1200.0 M3
G03 X407.121 Y92.349 I-1.709 J-0.271
G03 X406.419 Y92.892 I-1.411 J-1.100
G03 X405.618 Y93.031 I-0.690 J-1.598
G03 X404.824 Y92.787 I0.114 J-1.784
G03 X403.971 Y91.461 I0.890 J-1.510
G03 X404.532 Y89.972 I1.763 J-0.186
G03 X405.300 Y89.557 I1.192 J1.291
G03 X406.173 Y89.564 I0.424 J1.707
G03 X407.200 Y90.307 I-0.450 J1.702
G03 X407.465 Y91.556 I-1.493 J0.971
G00 Z24.080
G00 X431.927 Y92.277  F4000.0
G01 Z4.500 F1200.0 M3
G03 X431.583 Y93.070 I-1.709 J-0.271
G03 X430.881 Y93.612 I-1.411 J-1.100
G03 X430.080 Y93.751 I-0.690 J-1.598
G03 X429.287 Y93.508 I0.114 J-1.784
G03 X428.433 Y92.181 I0.890 J-1.510
G03 X428.994 Y90.692 I1.763 J-0.186
G03 X429.762 Y90.278 I1.192 J1.291
G03 X430.635 Y90.285 I0.424 J1.707
G03 X431.662 Y91.027 I-0.450 J1.702
G03 X431.927 Y92.277 I-1.493 J0.971
G00 Z24.080
G00 X471.235 Y94.706  F4000.0
G01 Z4.500 F1200.0 M3
G01 X471.288 Y94.733  F2000.0
G01 X471.312 Y94.785 
G01 X471.280 Y94.850 
G01 X471.221 Y94.869 
G01 X471.163 Y94.843 
G01 X471.145 Y94.767 
G01 X471.198 Y94.709 
G01 X471.235 Y94.706 
G00 Z24.080
G00 X472.880 Y101.007  F4000.0
G01 Z4.500 F1200.0 M3
G01 X472.933 Y101.033  F2000.0
G01 X472.957 Y101.085 
G01 X472.925 Y101.150 
G01 X472.866 Y101.169 
G01 X472.808 Y101.143 
G01 X472.790 Y101.068 
G01 X472.843 Y101.009 
G01 X472.880 Y101.007 
G00 Z24.080
G00 X475.793 Y106.830  F4000.0
G01 Z4.500 F1200.0 M3
G01 X475.846 Y106.856  F2000.0
G01 X475.870 Y106.909 
G01 X475.838 Y106.974 
G01 X475.779 Y106.993 
G01 X475.720 Y106.966 
G01 X475.703 Y106.891 
G01 X475.755 Y106.833 
G01 X475.793 Y106.830 
G00 Z24.080
G00 X484.515 Y92.034  F4000.0
G01 Z4.500 F1200.0 M3
G01 X484.921 Y91.721  F2000.0
G01 X485.054 Y90.567 
G01 X485.173 Y89.778 
G01 X485.507 Y87.832 
G01 X485.983 Y85.366 
G01 X486.235 Y82.394 
G01 X485.983 Y85.366 
G01 X486.027 Y86.840 
G01 X486.069 Y89.357 
G01 X486.068 Y91.008 
G01 X486.049 Y91.717 
G01 X486.415 Y92.028 
G01 X486.049 Y91.717 
G01 X485.613 Y91.749 
G01 X485.259 Y91.748 
G01 X484.921 Y91.721 
G01 X484.515 Y92.034 
G01 X482.720 Y93.320  
G01 X482.560 Y93.187  
G01 X482.466 Y93.016 
G01 X482.441 Y92.879 
G01 X482.476 Y92.088 
G01 X482.587 Y90.951 
G01 X482.806 Y89.396 
G01 X483.148 Y87.406 
G01 X483.524 Y85.419 
G01 X483.933 Y83.434 
G01 X484.370 Y81.454 
G01 X484.738 Y79.893 
G01 X485.131 Y78.340 
G01 X485.550 Y76.796 
G01 X485.998 Y75.263 
G01 X486.475 Y73.742 
G01 X487.178 Y71.705 
G01 X487.533 Y74.099 
G01 X487.829 Y76.610 
G01 X488.057 Y79.132 
G01 X488.228 Y81.678 
G01 X488.348 Y84.227 
G01 X488.424 Y86.784 
G01 X488.467 Y89.338 
G01 X488.465 Y91.040 
G01 X488.434 Y92.252 
G01 X488.362 Y93.210 
G01 X488.266 Y93.369 
G01 X488.200 Y93.433 
G01 X488.052 Y93.526 
G01 X487.564 Y93.766 
G01 X487.111 Y93.935 
G01 X486.547 Y94.070 
G01 X486.207 Y94.114 
G01 X485.684 Y94.147 
G01 X485.162 Y94.145 
G01 X484.654 Y94.106 
G01 X484.005 Y93.994 
G01 X483.541 Y93.831 
G01 X483.133 Y93.603 
G01 X482.896 Y93.429 
G01 X482.720 Y93.320 
G00 Z24.080
G00 X471.427 Y88.198  F4000.0
G01 Z4.500 F1200.0 M3
G01 X471.480 Y88.224  F2000.0
G01 X471.504 Y88.276 
G01 X471.471 Y88.341 
G01 X471.413 Y88.361 
G01 X471.354 Y88.334 
G01 X471.337 Y88.259 
G01 X471.389 Y88.200 
G01 X471.427 Y88.198 
G00 Z24.080
G00 X473.440 Y82.006  F4000.0
G01 Z4.500 F1200.0 M3
G01 X473.493 Y82.032  F2000.0
G01 X473.517 Y82.084 
G01 X473.485 Y82.149 
G01 X473.426 Y82.168 
G01 X473.367 Y82.142 
G01 X473.350 Y82.066 
G01 X473.402 Y82.008 
G01 X473.440 Y82.006 
G00 Z24.080
G00 X476.690 Y76.363  F4000.0
G01 Z4.500 F1200.0 M3
G01 X476.744 Y76.389  F2000.0
G01 X476.768 Y76.442 
G01 X476.735 Y76.507 
G01 X476.677 Y76.526 
G01 X476.618 Y76.499 
G01 X476.601 Y76.424 
G01 X476.653 Y76.366 
G01 X476.690 Y76.363 
G00 Z24.080
G00 X499.858 Y81.011  F4000.0
G01 Z4.500 F1200.0 M3
G01 X499.889 Y81.319  F2000.0
G01 X499.868 Y81.600 
G01 X499.769 Y81.960 
G01 X499.684 Y82.138 
G01 X499.545 Y82.350 
G01 X499.411 Y82.511 
G01 X499.152 Y82.746 
G01 X498.823 Y82.935 
G01 X498.477 Y83.040 
G01 X498.134 Y83.068 
G01 X497.920 Y83.055 
G01 X497.570 Y82.983 
G01 X497.229 Y82.830 
G01 X496.945 Y82.618 
G01 X496.725 Y82.368 
G01 X496.523 Y82.028 
G01 X496.433 Y81.791 
G01 X496.387 Y81.531 
G01 X496.376 Y81.336 
G01 X496.399 Y81.006 
G01 X496.488 Y80.673 
G01 X496.663 Y80.337 
G01 X496.843 Y80.111 
G01 X497.128 Y79.865 
G01 X497.299 Y79.764 
G01 X497.534 Y79.665 
G01 X497.736 Y79.605 
G01 X498.082 Y79.555 
G01 X498.456 Y79.582 
G01 X498.799 Y79.686 
G01 X499.094 Y79.849 
G01 X499.263 Y79.976 
G01 X499.511 Y80.224 
G01 X499.645 Y80.420 
G01 X499.773 Y80.698 
G01 X499.858 Y81.011 
G00 Z24.080
G00 X499.204 Y103.217  F4000.0
G01 Z4.500 F1200.0 M3
G01 X499.235 Y103.524  F2000.0
G01 X499.214 Y103.806 
G01 X499.115 Y104.165 
G01 X499.030 Y104.343 
G01 X498.891 Y104.556 
G01 X498.757 Y104.717 
G01 X498.498 Y104.952 
G01 X498.169 Y105.140 
G01 X497.822 Y105.246 
G01 X497.480 Y105.273 
G01 X497.265 Y105.261 
G01 X496.916 Y105.189 
G01 X496.575 Y105.036 
G01 X496.291 Y104.824 
G01 X496.071 Y104.573 
G01 X495.869 Y104.233 
G01 X495.779 Y103.996 
G01 X495.733 Y103.737 
G01 X495.722 Y103.541 
G01 X495.745 Y103.211 
G01 X495.834 Y102.879 
G01 X496.009 Y102.543 
G01 X496.189 Y102.316 
G01 X496.473 Y102.071 
G01 X496.644 Y101.970 
G01 X496.879 Y101.871 
G01 X497.081 Y101.811 
G01 X497.428 Y101.761 
G01 X497.802 Y101.788 
G01 X498.145 Y101.891 
G01 X498.440 Y102.055 
G01 X498.608 Y102.182 
G01 X498.857 Y102.429 
G01 X498.991 Y102.625 
G01 X499.119 Y102.903 
G01 X499.204 Y103.217 
G00 Z24.080
(Begin Footer)
G00 Z39.320
M30
M05
G53 G0 Z-10
G53 G0 X1350 Y1000
(End Footer)
%
