%
( snowman ) ( File created: Sunday December 08 2024 - 10:17 AM)
( for LinuxCNC )
( Material Size) ( X= 1250.000, Y= 180.000, Z= 19.000)
G90 (Incremental distance mode)
G17 G21 (Active Plane: XY)(Metric Mode)
G40 G49 G80(Tool Diameter, Length compensation & canned cycles OFF)
G64 P0.05 Q0.05(Path Blending)
T6 M06 (TOOL USE End Mill 1 mm)
G90 (absolute distance mode)
G54 (Coordinate System)
S19000M3
G00 Z39.320
G4 P6
( roundover [1] )
G00 X243.866 Y64.674 Z24.080 F7000.0
G01 Z15.500 F1200.0 M3
G01 X244.412 Y62.764  F3500.0
G01 X245.001 Y60.867 
G01 X245.633 Y58.986 
G01 X246.309 Y57.122 
G01 X247.031 Y55.278 
G01 X247.798 Y53.455 
G01 X248.611 Y51.655 
G01 X249.471 Y49.881 
G01 X250.379 Y48.134 
G01 X251.336 Y46.416 
G01 X251.915 Y45.433 
G01 X252.512 Y44.458 
G01 X253.128 Y43.494 
G01 X253.762 Y42.540 
G01 X254.414 Y41.597 
G01 X255.083 Y40.666 
G01 X255.770 Y39.748 
G01 X256.475 Y38.843 
G01 X257.197 Y37.952 
G01 X257.935 Y37.075 
G01 X258.690 Y36.214 
G01 X259.462 Y35.368 
G01 X260.249 Y34.539 
G01 X261.053 Y33.727 
G01 X261.872 Y32.933 
G01 X262.707 Y32.158 
G01 X263.728 Y31.253 
G01 X264.773 Y30.372 
G01 X265.843 Y29.516 
G01 X266.936 Y28.686 
G01 X268.050 Y27.883 
G01 X269.185 Y27.106 
G01 X270.340 Y26.357 
G01 X271.513 Y25.638 
G01 X272.704 Y24.948 
G01 X273.911 Y24.288 
G01 X275.134 Y23.660 
G01 X276.371 Y23.063 
G01 X277.621 Y22.499 
G01 X278.883 Y21.969 
G01 X280.155 Y21.473 
G01 X281.439 Y21.012 
G01 X282.348 Y20.709 
G01 X283.244 Y20.429 
G01 X284.127 Y20.170 
G01 X284.997 Y19.933 
G01 X285.853 Y19.716 
G01 X286.693 Y19.520 
G01 X288.336 Y19.182 
G01 X289.916 Y18.916 
G01 X291.435 Y18.714 
G01 X292.888 Y18.571 
G01 X294.275 Y18.480 
G01 X295.593 Y18.437 
G01 X296.838 Y18.435 
G01 X298.009 Y18.468 
G01 X299.104 Y18.531 
G01 X300.120 Y18.618 
G01 X301.054 Y18.722 
G01 X301.905 Y18.839 
G01 X302.669 Y18.961 
G01 X303.407 Y19.096 
G01 X304.144 Y19.248 
G01 X304.878 Y19.415 
G01 X305.609 Y19.599 
G01 X306.336 Y19.798 
G01 X307.060 Y20.013 
G01 X307.780 Y20.243 
G01 X308.495 Y20.488 
G01 X309.205 Y20.747 
G01 X309.909 Y21.022 
G01 X310.607 Y21.311 
G01 X311.298 Y21.614 
G01 X311.982 Y21.932 
G01 X312.659 Y22.263 
G01 X313.327 Y22.608 
G01 X313.985 Y22.965 
G01 X315.158 Y23.646 
G01 X316.305 Y24.369 
G01 X317.429 Y25.131 
G01 X318.530 Y25.931 
G01 X319.608 Y26.767 
G01 X320.664 Y27.637 
G01 X321.697 Y28.538 
G01 X322.707 Y29.467 
G01 X323.695 Y30.424 
G01 X324.661 Y31.405 
G01 X325.605 Y32.408 
G01 X326.526 Y33.431 
G01 X327.427 Y34.472 
G01 X328.305 Y35.529 
G01 X329.162 Y36.599 
G01 X329.998 Y37.680 
G01 X331.078 Y39.126 
G01 X331.847 Y40.195 
G01 X332.509 Y41.162 
G01 X332.675 Y41.436 
G01 X332.759 Y41.603 
G01 X332.841 Y41.801 
G01 X332.913 Y42.025 
G01 X332.970 Y42.276 
G01 X333.005 Y42.555 
G01 X333.012 Y42.860 
G01 X332.978 Y43.225 
G01 X332.906 Y43.549 
G01 X332.805 Y43.838 
G01 X332.684 Y44.096 
G01 X332.551 Y44.324 
G01 X332.415 Y44.523 
G01 X332.162 Y44.855 
G01 X331.639 Y45.557 
G01 X331.128 Y46.270 
G01 X330.630 Y46.993 
G01 X330.145 Y47.726 
G01 X329.673 Y48.467 
G01 X329.212 Y49.218 
G01 X328.332 Y50.739 
G01 X327.501 Y52.289 
G01 X326.720 Y53.863 
G01 X325.989 Y55.459 
G01 X325.306 Y57.072 
G01 X324.735 Y58.527 
G01 X324.197 Y59.996 
G01 X323.692 Y61.477 
G01 X323.219 Y62.969 
G01 X322.777 Y64.472 
G01 X322.365 Y65.984 
G01 X321.983 Y67.504 
G01 X321.629 Y69.032 
G01 X321.302 Y70.566 
G01 X321.002 Y72.106 
G01 X320.727 Y73.650 
G01 X320.478 Y75.197 
G01 X320.252 Y76.747 
G01 X320.050 Y78.298 
G01 X319.870 Y79.850 
G01 X319.711 Y81.401 
G01 X319.553 Y83.193 
G01 X319.423 Y84.989 
G01 X319.321 Y86.788 
G01 X319.246 Y88.590 
G01 X319.199 Y90.393 
G01 X319.181 Y92.197 
G01 X319.190 Y94.002 
G01 X319.227 Y95.807 
G01 X319.292 Y97.611 
G01 X319.386 Y99.414 
G01 X319.508 Y101.214 
G01 X319.659 Y103.012 
G01 X319.838 Y104.806 
G01 X320.046 Y106.596 
G01 X320.282 Y108.381 
G01 X320.547 Y110.160 
G01 X320.772 Y111.534 
G01 X321.003 Y112.852 
G01 X321.478 Y115.314 
G01 X321.963 Y117.552 
G01 X322.446 Y119.567 
G01 X322.917 Y121.360 
G01 X323.366 Y122.931 
G01 X323.781 Y124.283 
G01 X324.151 Y125.416 
G01 X324.525 Y126.495 
G01 X324.906 Y127.524 
G01 X325.291 Y128.504 
G01 X325.678 Y129.434 
G01 X326.066 Y130.317 
G01 X326.452 Y131.152 
G01 X326.835 Y131.939 
G01 X327.213 Y132.682 
G01 X327.942 Y134.024 
G01 X328.626 Y135.188 
G01 X329.250 Y136.175 
G01 X329.798 Y136.993 
G01 X330.645 Y138.169 
G01 X330.942 Y138.581 
G01 X331.128 Y138.873 
G01 X331.213 Y139.046 
G01 X331.305 Y139.282 
G01 X331.388 Y139.566 
G01 X331.447 Y139.890 
G01 X331.471 Y140.253 
G01 X331.465 Y140.433 
G01 X331.446 Y140.625 
G01 X331.412 Y140.823 
G01 X331.362 Y141.025 
G01 X331.292 Y141.232 
G01 X331.204 Y141.441 
G01 X331.025 Y141.779 
G01 X330.823 Y142.125 
G01 X330.356 Y142.906 
G01 X329.874 Y143.674 
G01 X329.375 Y144.431 
G01 X328.858 Y145.177 
G01 X328.325 Y145.911 
G01 X327.775 Y146.631 
G01 X327.208 Y147.338 
G01 X326.625 Y148.030 
G01 X326.112 Y148.611 
G01 X325.585 Y149.182 
G01 X325.045 Y149.742 
G01 X324.493 Y150.291 
G01 X323.928 Y150.829 
G01 X323.352 Y151.355 
G01 X322.765 Y151.869 
G01 X322.167 Y152.371 
G01 X321.558 Y152.860 
G01 X320.940 Y153.337 
G01 X320.312 Y153.800 
G01 X319.675 Y154.250 
G01 X319.029 Y154.686 
G01 X318.375 Y155.107 
G01 X317.713 Y155.515 
G01 X317.044 Y155.907 
G01 X316.342 Y156.299 
G01 X315.631 Y156.677 
G01 X314.911 Y157.041 
G01 X314.182 Y157.391 
G01 X313.444 Y157.727 
G01 X312.699 Y158.049 
G01 X311.947 Y158.357 
G01 X311.187 Y158.651 
G01 X310.421 Y158.931 
G01 X309.648 Y159.197 
G01 X308.870 Y159.448 
G01 X308.088 Y159.686 
G01 X306.504 Y160.120 
G01 X304.905 Y160.497 
G01 X303.293 Y160.819 
G01 X301.670 Y161.084 
G01 X300.041 Y161.293 
G01 X298.409 Y161.446 
G01 X296.777 Y161.543 
G01 X295.148 Y161.584 
G01 X293.525 Y161.569 
G01 X291.911 Y161.497 
G01 X290.960 Y161.429 
G01 X290.008 Y161.340 
G01 X289.056 Y161.231 
G01 X288.106 Y161.101 
G01 X287.158 Y160.952 
G01 X286.212 Y160.783 
G01 X285.270 Y160.595 
G01 X284.332 Y160.386 
G01 X283.398 Y160.158 
G01 X282.470 Y159.911 
G01 X281.547 Y159.644 
G01 X280.631 Y159.359 
G01 X279.723 Y159.054 
G01 X278.822 Y158.729 
G01 X277.929 Y158.386 
G01 X277.047 Y158.025 
G01 X276.037 Y157.583 
G01 X275.038 Y157.116 
G01 X274.049 Y156.624 
G01 X273.071 Y156.108 
G01 X272.104 Y155.569 
G01 X271.148 Y155.007 
G01 X270.205 Y154.422 
G01 X269.274 Y153.817 
G01 X268.357 Y153.191 
G01 X267.454 Y152.544 
G01 X266.564 Y151.879 
G01 X265.690 Y151.195 
G01 X264.831 Y150.494 
G01 X263.988 Y149.776 
G01 X263.162 Y149.041 
G01 X262.353 Y148.291 
G01 X261.501 Y147.468 
G01 X260.579 Y146.535 
G01 X259.595 Y145.490 
G01 X258.557 Y144.330 
G01 X257.474 Y143.054 
G01 X256.356 Y141.657 
G01 X255.210 Y140.137 
G01 X254.631 Y139.333 
G01 X254.048 Y138.495 
G01 X253.463 Y137.626 
G01 X252.876 Y136.725 
G01 X252.290 Y135.792 
G01 X251.704 Y134.826 
G01 X251.121 Y133.827 
G01 X250.541 Y132.795 
G01 X249.965 Y131.729 
G01 X249.395 Y130.629 
G01 X248.832 Y129.495 
G01 X248.276 Y128.327 
G01 X247.729 Y127.124 
G01 X247.192 Y125.886 
G01 X246.666 Y124.612 
G01 X246.153 Y123.302 
G01 X245.652 Y121.957 
G01 X245.166 Y120.575 
G01 X244.729 Y119.258 
G01 X244.313 Y117.932 
G01 X243.918 Y116.597 
G01 X243.546 Y115.255 
G01 X243.194 Y113.904 
G01 X242.864 Y112.547 
G01 X242.556 Y111.183 
G01 X242.268 Y109.813 
G01 X242.002 Y108.437 
G01 X241.756 Y107.057 
G01 X241.531 Y105.671 
G01 X241.327 Y104.281 
G01 X241.144 Y102.887 
G01 X240.981 Y101.490 
G01 X240.839 Y100.090 
G01 X240.717 Y98.688 
G01 X240.615 Y97.283 
G01 X240.534 Y95.878 
G01 X240.472 Y94.471 
G01 X240.431 Y93.063 
G01 X240.409 Y91.656 
G01 X240.407 Y90.249 
G01 X240.425 Y88.843 
G01 X240.463 Y87.438 
G01 X240.520 Y86.036 
G01 X240.596 Y84.635 
G01 X240.692 Y83.237 
G01 X240.806 Y81.843 
G01 X240.940 Y80.452 
G01 X241.093 Y79.065 
G01 X241.265 Y77.683 
G01 X241.455 Y76.307 
G01 X241.758 Y74.357 
G01 X242.099 Y72.410 
G01 X242.480 Y70.465 
G01 X242.901 Y68.527 
G01 X243.363 Y66.596 
G01 X243.866 Y64.674 
G01 Z15.000 F1200.0 M3
G01 X244.412 Y62.764  F3500.0
G01 X245.001 Y60.867 
G01 X245.633 Y58.986 
G01 X246.309 Y57.122 
G01 X247.031 Y55.278 
G01 X247.798 Y53.455 
G01 X248.611 Y51.655 
G01 X249.471 Y49.881 
G01 X250.379 Y48.134 
G01 X251.336 Y46.416 
G01 X251.915 Y45.433 
G01 X252.512 Y44.458 
G01 X253.128 Y43.494 
G01 X253.762 Y42.540 
G01 X254.414 Y41.597 
G01 X255.083 Y40.666 
G01 X255.770 Y39.748 
G01 X256.475 Y38.843 
G01 X257.197 Y37.952 
G01 X257.935 Y37.075 
G01 X258.690 Y36.214 
G01 X259.462 Y35.368 
G01 X260.249 Y34.539 
G01 X261.053 Y33.727 
G01 X261.872 Y32.933 
G01 X262.707 Y32.158 
G01 X263.728 Y31.253 
G01 X264.773 Y30.372 
G01 X265.843 Y29.516 
G01 X266.936 Y28.686 
G01 X268.050 Y27.883 
G01 X269.185 Y27.106 
G01 X270.340 Y26.357 
G01 X271.513 Y25.638 
G01 X272.704 Y24.948 
G01 X273.911 Y24.288 
G01 X275.134 Y23.660 
G01 X276.371 Y23.063 
G01 X277.621 Y22.499 
G01 X278.883 Y21.969 
G01 X280.155 Y21.473 
G01 X281.439 Y21.012 
G01 X282.348 Y20.709 
G01 X283.244 Y20.429 
G01 X284.127 Y20.170 
G01 X284.997 Y19.933 
G01 X285.853 Y19.716 
G01 X286.693 Y19.520 
G01 X288.336 Y19.182 
G01 X289.916 Y18.916 
G01 X291.435 Y18.714 
G01 X292.888 Y18.571 
G01 X294.275 Y18.480 
G01 X295.593 Y18.437 
G01 X296.838 Y18.435 
G01 X298.009 Y18.468 
G01 X299.104 Y18.531 
G01 X300.120 Y18.618 
G01 X301.054 Y18.722 
G01 X301.905 Y18.839 
G01 X302.669 Y18.961 
G01 X303.407 Y19.096 
G01 X304.144 Y19.248 
G01 X304.878 Y19.415 
G01 X305.609 Y19.599 
G01 X306.336 Y19.798 
G01 X307.060 Y20.013 
G01 X307.780 Y20.243 
G01 X308.495 Y20.488 
G01 X309.205 Y20.747 
G01 X309.909 Y21.022 
G01 X310.607 Y21.311 
G01 X311.298 Y21.614 
G01 X311.982 Y21.932 
G01 X312.659 Y22.263 
G01 X313.327 Y22.608 
G01 X313.985 Y22.965 
G01 X315.158 Y23.646 
G01 X316.305 Y24.369 
G01 X317.429 Y25.131 
G01 X318.530 Y25.931 
G01 X319.608 Y26.767 
G01 X320.664 Y27.637 
G01 X321.697 Y28.538 
G01 X322.707 Y29.467 
G01 X323.695 Y30.424 
G01 X324.661 Y31.405 
G01 X325.605 Y32.408 
G01 X326.526 Y33.431 
G01 X327.427 Y34.472 
G01 X328.305 Y35.529 
G01 X329.162 Y36.599 
G01 X329.998 Y37.680 
G01 X331.078 Y39.126 
G01 X331.847 Y40.195 
G01 X332.509 Y41.162 
G01 X332.675 Y41.436 
G01 X332.759 Y41.603 
G01 X332.841 Y41.801 
G01 X332.913 Y42.025 
G01 X332.970 Y42.276 
G01 X333.005 Y42.555 
G01 X333.012 Y42.860 
G01 X332.978 Y43.225 
G01 X332.906 Y43.549 
G01 X332.805 Y43.838 
G01 X332.684 Y44.096 
G01 X332.551 Y44.324 
G01 X332.415 Y44.523 
G01 X332.162 Y44.855 
G01 X331.639 Y45.557 
G01 X331.128 Y46.270 
G01 X330.630 Y46.993 
G01 X330.145 Y47.726 
G01 X329.673 Y48.467 
G01 X329.212 Y49.218 
G01 X328.332 Y50.739 
G01 X327.501 Y52.289 
G01 X326.720 Y53.863 
G01 X325.989 Y55.459 
G01 X325.306 Y57.072 
G01 X324.735 Y58.527 
G01 X324.197 Y59.996 
G01 X323.692 Y61.477 
G01 X323.219 Y62.969 
G01 X322.777 Y64.472 
G01 X322.365 Y65.984 
G01 X321.983 Y67.504 
G01 X321.629 Y69.032 
G01 X321.302 Y70.566 
G01 X321.002 Y72.106 
G01 X320.727 Y73.650 
G01 X320.478 Y75.197 
G01 X320.252 Y76.747 
G01 X320.050 Y78.298 
G01 X319.870 Y79.850 
G01 X319.711 Y81.401 
G01 X319.553 Y83.193 
G01 X319.423 Y84.989 
G01 X319.321 Y86.788 
G01 X319.246 Y88.590 
G01 X319.199 Y90.393 
G01 X319.181 Y92.197 
G01 X319.190 Y94.002 
G01 X319.227 Y95.807 
G01 X319.292 Y97.611 
G01 X319.386 Y99.414 
G01 X319.508 Y101.214 
G01 X319.659 Y103.012 
G01 X319.838 Y104.806 
G01 X320.046 Y106.596 
G01 X320.282 Y108.381 
G01 X320.547 Y110.160 
G01 X320.772 Y111.534 
G01 X321.003 Y112.852 
G01 X321.478 Y115.314 
G01 X321.963 Y117.552 
G01 X322.446 Y119.567 
G01 X322.917 Y121.360 
G01 X323.366 Y122.931 
G01 X323.781 Y124.283 
G01 X324.151 Y125.416 
G01 X324.525 Y126.495 
G01 X324.906 Y127.524 
G01 X325.291 Y128.504 
G01 X325.678 Y129.434 
G01 X326.066 Y130.317 
G01 X326.452 Y131.152 
G01 X326.835 Y131.939 
G01 X327.213 Y132.682 
G01 X327.942 Y134.024 
G01 X328.626 Y135.188 
G01 X329.250 Y136.175 
G01 X329.798 Y136.993 
G01 X330.645 Y138.169 
G01 X330.942 Y138.581 
G01 X331.128 Y138.873 
G01 X331.213 Y139.046 
G01 X331.305 Y139.282 
G01 X331.388 Y139.566 
G01 X331.447 Y139.890 
G01 X331.471 Y140.253 
G01 X331.465 Y140.433 
G01 X331.446 Y140.625 
G01 X331.412 Y140.823 
G01 X331.362 Y141.025 
G01 X331.292 Y141.232 
G01 X331.204 Y141.441 
G01 X331.025 Y141.779 
G01 X330.823 Y142.125 
G01 X330.356 Y142.906 
G01 X329.874 Y143.674 
G01 X329.375 Y144.431 
G01 X328.858 Y145.177 
G01 X328.325 Y145.911 
G01 X327.775 Y146.631 
G01 X327.208 Y147.338 
G01 X326.625 Y148.030 
G01 X326.112 Y148.611 
G01 X325.585 Y149.182 
G01 X325.045 Y149.742 
G01 X324.493 Y150.291 
G01 X323.928 Y150.829 
G01 X323.352 Y151.355 
G01 X322.765 Y151.869 
G01 X322.167 Y152.371 
G01 X321.558 Y152.860 
G01 X320.940 Y153.337 
G01 X320.312 Y153.800 
G01 X319.675 Y154.250 
G01 X319.029 Y154.686 
G01 X318.375 Y155.107 
G01 X317.713 Y155.515 
G01 X317.044 Y155.907 
G01 X316.342 Y156.299 
G01 X315.631 Y156.677 
G01 X314.911 Y157.041 
G01 X314.182 Y157.391 
G01 X313.444 Y157.727 
G01 X312.699 Y158.049 
G01 X311.947 Y158.357 
G01 X311.187 Y158.651 
G01 X310.421 Y158.931 
G01 X309.648 Y159.197 
G01 X308.870 Y159.448 
G01 X308.088 Y159.686 
G01 X306.504 Y160.120 
G01 X304.905 Y160.497 
G01 X303.293 Y160.819 
G01 X301.670 Y161.084 
G01 X300.041 Y161.293 
G01 X298.409 Y161.446 
G01 X296.777 Y161.543 
G01 X295.148 Y161.584 
G01 X293.525 Y161.569 
G01 X291.911 Y161.497 
G01 X290.960 Y161.429 
G01 X290.008 Y161.340 
G01 X289.056 Y161.231 
G01 X288.106 Y161.101 
G01 X287.158 Y160.952 
G01 X286.212 Y160.783 
G01 X285.270 Y160.595 
G01 X284.332 Y160.386 
G01 X283.398 Y160.158 
G01 X282.470 Y159.911 
G01 X281.547 Y159.644 
G01 X280.631 Y159.359 
G01 X279.723 Y159.054 
G01 X278.822 Y158.729 
G01 X277.929 Y158.386 
G01 X277.047 Y158.025 
G01 X276.037 Y157.583 
G01 X275.038 Y157.116 
G01 X274.049 Y156.624 
G01 X273.071 Y156.108 
G01 X272.104 Y155.569 
G01 X271.148 Y155.007 
G01 X270.205 Y154.422 
G01 X269.274 Y153.817 
G01 X268.357 Y153.191 
G01 X267.454 Y152.544 
G01 X266.564 Y151.879 
G01 X265.690 Y151.195 
G01 X264.831 Y150.494 
G01 X263.988 Y149.776 
G01 X263.162 Y149.041 
G01 X262.353 Y148.291 
G01 X261.501 Y147.468 
G01 X260.579 Y146.535 
G01 X259.595 Y145.490 
G01 X258.557 Y144.330 
G01 X257.474 Y143.054 
G01 X256.356 Y141.657 
G01 X255.210 Y140.137 
G01 X254.631 Y139.333 
G01 X254.048 Y138.495 
G01 X253.463 Y137.626 
G01 X252.876 Y136.725 
G01 X252.290 Y135.792 
G01 X251.704 Y134.826 
G01 X251.121 Y133.827 
G01 X250.541 Y132.795 
G01 X249.965 Y131.729 
G01 X249.395 Y130.629 
G01 X248.832 Y129.495 
G01 X248.276 Y128.327 
G01 X247.729 Y127.124 
G01 X247.192 Y125.886 
G01 X246.666 Y124.612 
G01 X246.153 Y123.302 
G01 X245.652 Y121.957 
G01 X245.166 Y120.575 
G01 X244.729 Y119.258 
G01 X244.313 Y117.932 
G01 X243.918 Y116.597 
G01 X243.546 Y115.255 
G01 X243.194 Y113.904 
G01 X242.864 Y112.547 
G01 X242.556 Y111.183 
G01 X242.268 Y109.813 
G01 X242.002 Y108.437 
G01 X241.756 Y107.057 
G01 X241.531 Y105.671 
G01 X241.327 Y104.281 
G01 X241.144 Y102.887 
G01 X240.981 Y101.490 
G01 X240.839 Y100.090 
G01 X240.717 Y98.688 
G01 X240.615 Y97.283 
G01 X240.534 Y95.878 
G01 X240.472 Y94.471 
G01 X240.431 Y93.063 
G01 X240.409 Y91.656 
G01 X240.407 Y90.249 
G01 X240.425 Y88.843 
G01 X240.463 Y87.438 
G01 X240.520 Y86.036 
G01 X240.596 Y84.635 
G01 X240.692 Y83.237 
G01 X240.806 Y81.843 
G01 X240.940 Y80.452 
G01 X241.093 Y79.065 
G01 X241.265 Y77.683 
G01 X241.455 Y76.307 
G01 X241.758 Y74.357 
G01 X242.099 Y72.410 
G01 X242.480 Y70.465 
G01 X242.901 Y68.527 
G01 X243.363 Y66.596 
G01 X243.866 Y64.674 
G00 Z24.080
G00 X329.673 Y77.061  F7000.0
G01 Z15.500 F1200.0 M3
G01 X329.871 Y75.809  F3500.0
G01 X330.087 Y74.558 
G01 X330.320 Y73.309 
G01 X330.573 Y72.063 
G01 X330.844 Y70.820 
G01 X331.137 Y69.582 
G01 X331.449 Y68.349 
G01 X331.784 Y67.123 
G01 X332.141 Y65.904 
G01 X332.521 Y64.693 
G01 X332.925 Y63.491 
G01 X333.353 Y62.299 
G01 X333.806 Y61.118 
G01 X334.285 Y59.949 
G01 X334.790 Y58.793 
G01 X335.323 Y57.650 
G01 X335.888 Y56.514 
G01 X336.460 Y55.439 
G01 X337.037 Y54.423 
G01 X337.614 Y53.465 
G01 X338.190 Y52.564 
G01 X338.761 Y51.718 
G01 X339.325 Y50.928 
G01 X339.879 Y50.190 
G01 X340.420 Y49.505 
G01 X340.946 Y48.870 
G01 X341.453 Y48.286 
G01 X341.938 Y47.751 
G01 X342.838 Y46.817 
G01 X343.620 Y46.064 
G01 X344.079 Y45.645 
G01 X344.599 Y45.190 
G01 X345.179 Y44.705 
G01 X345.821 Y44.195 
G01 X346.526 Y43.665 
G01 X347.295 Y43.121 
G01 X348.129 Y42.566 
G01 X349.029 Y42.007 
G01 X349.996 Y41.448 
G01 X351.032 Y40.894 
G01 X352.137 Y40.350 
G01 X353.312 Y39.821 
G01 X354.559 Y39.313 
G01 X355.879 Y38.830 
G01 X357.272 Y38.377 
G01 X358.743 Y37.959 
G01 X359.773 Y37.701 
G01 X360.816 Y37.467 
G01 X361.868 Y37.258 
G01 X362.929 Y37.077 
G01 X363.995 Y36.925 
G01 X365.066 Y36.803 
G01 X366.140 Y36.712 
G01 X367.214 Y36.654 
G01 X368.288 Y36.629 
G01 X369.360 Y36.640 
G01 X370.427 Y36.688 
G01 X371.489 Y36.773 
G01 X372.543 Y36.898 
G01 X373.588 Y37.063 
G01 X374.622 Y37.270 
G01 X375.645 Y37.520 
G01 X376.393 Y37.732 
G01 X377.278 Y38.019 
G01 X378.290 Y38.394 
G01 X378.836 Y38.617 
G01 X379.411 Y38.867 
G01 X380.012 Y39.147 
G01 X380.638 Y39.457 
G01 X381.287 Y39.799 
G01 X381.957 Y40.174 
G01 X382.648 Y40.586 
G01 X383.358 Y41.035 
G01 X384.086 Y41.523 
G01 X384.830 Y42.051 
G01 X385.679 Y42.692 
G01 X386.665 Y43.487 
G01 X387.780 Y44.441 
G01 X389.014 Y45.565 
G01 X389.669 Y46.191 
G01 X390.351 Y46.863 
G01 X391.057 Y47.580 
G01 X391.785 Y48.344 
G01 X392.535 Y49.156 
G01 X393.305 Y50.016 
G01 X394.094 Y50.926 
G01 X394.901 Y51.887 
G01 X395.722 Y52.894 
G01 X396.514 Y53.920 
G01 X396.888 Y54.438 
G01 X397.246 Y54.967 
G01 X397.585 Y55.504 
G01 X397.897 Y56.045 
G01 X398.061 Y56.387 
G01 X398.138 Y56.597 
G01 X398.207 Y56.844 
G01 X398.255 Y57.119 
G01 X398.276 Y57.421 
G01 X398.260 Y57.749 
G01 X398.199 Y58.109 
G01 X398.145 Y58.300 
G01 X398.052 Y58.545 
G01 X397.919 Y58.819 
G01 X397.741 Y59.107 
G01 X397.509 Y59.399 
G01 X397.381 Y59.530 
G01 X397.234 Y59.662 
G01 X397.071 Y59.786 
G01 X396.893 Y59.902 
G01 X396.698 Y60.008 
G01 X396.493 Y60.099 
G01 X396.136 Y60.210 
G01 X395.760 Y60.279 
G01 X394.920 Y60.356 
G01 X394.014 Y60.413 
G01 X393.143 Y60.447 
G01 X392.306 Y60.460 
G01 X391.505 Y60.453 
G01 X390.741 Y60.428 
G01 X390.012 Y60.387 
G01 X389.320 Y60.331 
G01 X388.667 Y60.264 
G01 X387.465 Y60.099 
G01 X386.416 Y59.906 
G01 X385.520 Y59.700 
G01 X384.778 Y59.496 
G01 X384.190 Y59.309 
G01 X383.604 Y59.106 
G01 X382.428 Y58.659 
G01 X381.246 Y58.194 
G01 X380.048 Y57.741 
G01 X379.269 Y57.478 
G01 X378.853 Y57.361 
G01 X378.427 Y57.266 
G01 X377.990 Y57.203 
G01 X377.543 Y57.181 
G01 X377.091 Y57.212 
G01 X376.638 Y57.307 
G01 X376.236 Y57.461 
G01 X375.865 Y57.669 
G01 X375.527 Y57.919 
G01 X375.221 Y58.202 
G01 X374.944 Y58.508 
G01 X374.695 Y58.831 
G01 X374.472 Y59.162 
G01 X374.273 Y59.498 
G01 X373.963 Y60.096 
G01 X373.690 Y60.710 
G01 X373.448 Y61.333 
G01 X373.232 Y61.965 
G01 X372.856 Y63.226 
G01 X372.514 Y64.483 
G01 X372.213 Y65.597 
G01 X372.015 Y66.288 
G01 X371.775 Y67.065 
G01 X371.485 Y67.926 
G01 X371.139 Y68.868 
G01 X370.727 Y69.888 
G01 X370.244 Y70.982 
G01 X369.525 Y72.459 
G01 X368.766 Y73.928 
G01 X368.008 Y75.410 
G01 X367.641 Y76.165 
G01 X367.290 Y76.929 
G01 X367.037 Y77.522 
G01 X366.798 Y78.135 
G01 X366.582 Y78.767 
G01 X366.402 Y79.414 
G01 X366.268 Y80.070 
G01 X366.221 Y80.409 
G01 X366.190 Y80.746 
G01 X366.176 Y81.084 
G01 X366.181 Y81.424 
G01 X366.207 Y81.765 
G01 X366.254 Y82.107 
G01 X366.330 Y82.459 
G01 X366.429 Y82.791 
G01 X366.548 Y83.102 
G01 X366.686 Y83.392 
G01 X366.838 Y83.661 
G01 X367.005 Y83.916 
G01 X367.351 Y84.345 
G01 X367.714 Y84.705 
G01 X368.068 Y84.994 
G01 X368.391 Y85.217 
G01 X368.668 Y85.383 
G01 X369.150 Y85.627 
G01 X369.649 Y85.832 
G01 X370.161 Y86.000 
G01 X370.682 Y86.132 
G01 X371.211 Y86.231 
G01 X371.747 Y86.300 
G01 X372.287 Y86.342 
G01 X372.829 Y86.358 
G01 X373.373 Y86.351 
G01 X373.916 Y86.323 
G01 X374.457 Y86.278 
G01 X374.997 Y86.215 
G01 X376.051 Y86.052 
G01 X377.073 Y85.851 
G01 X378.030 Y85.633 
G01 X378.982 Y85.396 
G01 X380.864 Y84.878 
G01 X382.731 Y84.316 
G01 X384.586 Y83.735 
G01 X389.820 Y82.067 
G01 X391.809 Y81.422 
G01 X392.898 Y81.035 
G01 X393.282 Y80.891 
G01 X393.547 Y80.803 
G01 X393.766 Y80.750 
G01 X393.980 Y80.716 
G01 X394.186 Y80.700 
G01 X394.377 Y80.698 
G01 X394.762 Y80.737 
G01 X395.106 Y80.818 
G01 X395.413 Y80.928 
G01 X395.679 Y81.055 
G01 X395.896 Y81.184 
G01 X396.056 Y81.299 
G01 X396.207 Y81.426 
G01 X396.385 Y81.605 
G01 X396.573 Y81.831 
G01 X396.756 Y82.101 
G01 X396.923 Y82.423 
G01 X396.990 Y82.588 
G01 X397.049 Y82.771 
G01 X397.097 Y82.964 
G01 X397.131 Y83.168 
G01 X397.151 Y83.383 
G01 X397.154 Y83.601 
G01 X397.095 Y84.148 
G01 X396.964 Y85.065 
G01 X396.766 Y86.538 
G01 X396.657 Y87.471 
G01 X396.556 Y88.532 
G01 X396.473 Y89.720 
G01 X396.416 Y91.035 
G01 X396.397 Y92.476 
G01 X396.424 Y94.042 
G01 X396.464 Y94.989 
G01 X396.529 Y96.106 
G01 X396.623 Y97.395 
G01 X396.747 Y98.856 
G01 X396.904 Y100.487 
G01 X397.097 Y102.290 
G01 X397.328 Y104.263 
G01 X397.601 Y106.405 
G01 X398.063 Y109.772 
G01 X398.312 Y111.457 
G01 X398.579 Y113.139 
G01 X398.867 Y114.818 
G01 X399.180 Y116.493 
G01 X399.522 Y118.164 
G01 X399.895 Y119.821 
G01 X399.986 Y120.239 
G01 X400.069 Y120.740 
G01 X400.127 Y121.322 
G01 X400.144 Y121.983 
G01 X400.132 Y122.331 
G01 X400.102 Y122.700 
G01 X400.052 Y123.082 
G01 X399.981 Y123.479 
G01 X399.885 Y123.887 
G01 X399.764 Y124.308 
G01 X399.613 Y124.740 
G01 X399.432 Y125.181 
G01 X399.183 Y125.703 
G01 X398.814 Y126.398 
G01 X398.316 Y127.257 
G01 X397.678 Y128.273 
G01 X397.085 Y129.163 
G01 X396.473 Y130.044 
G01 X395.842 Y130.911 
G01 X395.194 Y131.767 
G01 X394.529 Y132.609 
G01 X393.847 Y133.438 
G01 X393.150 Y134.253 
G01 X392.437 Y135.054 
G01 X391.798 Y135.744 
G01 X391.144 Y136.423 
G01 X390.475 Y137.090 
G01 X389.791 Y137.744 
G01 X389.092 Y138.383 
G01 X388.380 Y139.006 
G01 X387.653 Y139.613 
G01 X386.913 Y140.203 
G01 X386.160 Y140.774 
G01 X385.393 Y141.326 
G01 X384.614 Y141.856 
G01 X383.822 Y142.365 
G01 X383.019 Y142.852 
G01 X382.203 Y143.314 
G01 X381.376 Y143.752 
G01 X380.539 Y144.163 
G01 X379.338 Y144.698 
G01 X378.113 Y145.181 
G01 X376.864 Y145.611 
G01 X375.598 Y145.986 
G01 X374.316 Y146.306 
G01 X373.022 Y146.570 
G01 X371.719 Y146.776 
G01 X371.070 Y146.857 
G01 X370.417 Y146.923 
G01 X369.740 Y146.976 
G01 X369.064 Y147.015 
G01 X367.697 Y147.047 
G01 X366.326 Y147.021 
G01 X364.953 Y146.938 
G01 X363.579 Y146.800 
G01 X362.208 Y146.608 
G01 X360.841 Y146.365 
G01 X359.481 Y146.070 
G01 X358.132 Y145.727 
G01 X356.795 Y145.335 
G01 X355.474 Y144.898 
G01 X354.170 Y144.416 
G01 X352.887 Y143.891 
G01 X351.628 Y143.325 
G01 X350.394 Y142.719 
G01 X349.190 Y142.075 
G01 X347.897 Y141.323 
G01 X346.685 Y140.555 
G01 X345.550 Y139.776 
G01 X344.491 Y138.990 
G01 X343.506 Y138.201 
G01 X342.591 Y137.415 
G01 X341.744 Y136.636 
G01 X340.964 Y135.868 
G01 X340.248 Y135.117 
G01 X339.594 Y134.385 
G01 X338.999 Y133.679 
G01 X338.462 Y133.003 
G01 X337.979 Y132.361 
G01 X337.551 Y131.759 
G01 X336.838 Y130.683 
G01 X336.420 Y130.002 
G01 X336.019 Y129.308 
G01 X335.634 Y128.603 
G01 X335.267 Y127.888 
G01 X334.915 Y127.164 
G01 X334.578 Y126.431 
G01 X334.256 Y125.690 
G01 X333.950 Y124.944 
G01 X333.373 Y123.426 
G01 X332.848 Y121.890 
G01 X332.367 Y120.340 
G01 X331.926 Y118.780 
G01 X331.620 Y117.618 
G01 X331.329 Y116.449 
G01 X331.053 Y115.277 
G01 X330.792 Y114.100 
G01 X330.546 Y112.920 
G01 X330.314 Y111.738 
G01 X329.895 Y109.360 
G01 X329.533 Y106.974 
G01 X329.229 Y104.581 
G01 X328.981 Y102.182 
G01 X328.789 Y99.779 
G01 X328.701 Y98.361 
G01 X328.632 Y96.940 
G01 X328.581 Y95.517 
G01 X328.549 Y94.093 
G01 X328.536 Y92.668 
G01 X328.542 Y91.243 
G01 X328.567 Y89.818 
G01 X328.612 Y88.394 
G01 X328.675 Y86.970 
G01 X328.758 Y85.547 
G01 X328.861 Y84.127 
G01 X328.984 Y82.708 
G01 X329.126 Y81.291 
G01 X329.288 Y79.878 
G01 X329.471 Y78.468 
G01 X329.673 Y77.061 
G01 Z15.000 F1200.0 M3
G01 X329.871 Y75.809  F3500.0
G01 X330.087 Y74.558 
G01 X330.320 Y73.309 
G01 X330.573 Y72.063 
G01 X330.844 Y70.820 
G01 X331.137 Y69.582 
G01 X331.449 Y68.349 
G01 X331.784 Y67.123 
G01 X332.141 Y65.904 
G01 X332.521 Y64.693 
G01 X332.925 Y63.491 
G01 X333.353 Y62.299 
G01 X333.806 Y61.118 
G01 X334.285 Y59.949 
G01 X334.790 Y58.793 
G01 X335.323 Y57.650 
G01 X335.888 Y56.514 
G01 X336.460 Y55.439 
G01 X337.037 Y54.423 
G01 X337.614 Y53.465 
G01 X338.190 Y52.564 
G01 X338.761 Y51.718 
G01 X339.325 Y50.928 
G01 X339.879 Y50.190 
G01 X340.420 Y49.505 
G01 X340.946 Y48.870 
G01 X341.453 Y48.286 
G01 X341.938 Y47.751 
G01 X342.838 Y46.817 
G01 X343.620 Y46.064 
G01 X344.079 Y45.645 
G01 X344.599 Y45.190 
G01 X345.179 Y44.705 
G01 X345.821 Y44.195 
G01 X346.526 Y43.665 
G01 X347.295 Y43.121 
G01 X348.129 Y42.566 
G01 X349.029 Y42.007 
G01 X349.996 Y41.448 
G01 X351.032 Y40.894 
G01 X352.137 Y40.350 
G01 X353.312 Y39.821 
G01 X354.559 Y39.313 
G01 X355.879 Y38.830 
G01 X357.272 Y38.377 
G01 X358.743 Y37.959 
G01 X359.773 Y37.701 
G01 X360.816 Y37.467 
G01 X361.868 Y37.258 
G01 X362.929 Y37.077 
G01 X363.995 Y36.925 
G01 X365.066 Y36.803 
G01 X366.140 Y36.712 
G01 X367.214 Y36.654 
G01 X368.288 Y36.629 
G01 X369.360 Y36.640 
G01 X370.427 Y36.688 
G01 X371.489 Y36.773 
G01 X372.543 Y36.898 
G01 X373.588 Y37.063 
G01 X374.622 Y37.270 
G01 X375.645 Y37.520 
G01 X376.393 Y37.732 
G01 X377.278 Y38.019 
G01 X378.290 Y38.394 
G01 X378.836 Y38.617 
G01 X379.411 Y38.867 
G01 X380.012 Y39.147 
G01 X380.638 Y39.457 
G01 X381.287 Y39.799 
G01 X381.957 Y40.174 
G01 X382.648 Y40.586 
G01 X383.358 Y41.035 
G01 X384.086 Y41.523 
G01 X384.830 Y42.051 
G01 X385.679 Y42.692 
G01 X386.665 Y43.487 
G01 X387.780 Y44.441 
G01 X389.014 Y45.565 
G01 X389.669 Y46.191 
G01 X390.351 Y46.863 
G01 X391.057 Y47.580 
G01 X391.785 Y48.344 
G01 X392.535 Y49.156 
G01 X393.305 Y50.016 
G01 X394.094 Y50.926 
G01 X394.901 Y51.887 
G01 X395.722 Y52.894 
G01 X396.514 Y53.920 
G01 X396.888 Y54.438 
G01 X397.246 Y54.967 
G01 X397.585 Y55.504 
G01 X397.897 Y56.045 
G01 X398.061 Y56.387 
G01 X398.138 Y56.597 
G01 X398.207 Y56.844 
G01 X398.255 Y57.119 
G01 X398.276 Y57.421 
G01 X398.260 Y57.749 
G01 X398.199 Y58.109 
G01 X398.145 Y58.300 
G01 X398.052 Y58.545 
G01 X397.919 Y58.819 
G01 X397.741 Y59.107 
G01 X397.509 Y59.399 
G01 X397.381 Y59.530 
G01 X397.234 Y59.662 
G01 X397.071 Y59.786 
G01 X396.893 Y59.902 
G01 X396.698 Y60.008 
G01 X396.493 Y60.099 
G01 X396.136 Y60.210 
G01 X395.760 Y60.279 
G01 X394.920 Y60.356 
G01 X394.014 Y60.413 
G01 X393.143 Y60.447 
G01 X392.306 Y60.460 
G01 X391.505 Y60.453 
G01 X390.741 Y60.428 
G01 X390.012 Y60.387 
G01 X389.320 Y60.331 
G01 X388.667 Y60.264 
G01 X387.465 Y60.099 
G01 X386.416 Y59.906 
G01 X385.520 Y59.700 
G01 X384.778 Y59.496 
G01 X384.190 Y59.309 
G01 X383.604 Y59.106 
G01 X382.428 Y58.659 
G01 X381.246 Y58.194 
G01 X380.048 Y57.741 
G01 X379.269 Y57.478 
G01 X378.853 Y57.361 
G01 X378.427 Y57.266 
G01 X377.990 Y57.203 
G01 X377.543 Y57.181 
G01 X377.091 Y57.212 
G01 X376.638 Y57.307 
G01 X376.236 Y57.461 
G01 X375.865 Y57.669 
G01 X375.527 Y57.919 
G01 X375.221 Y58.202 
G01 X374.944 Y58.508 
G01 X374.695 Y58.831 
G01 X374.472 Y59.162 
G01 X374.273 Y59.498 
G01 X373.963 Y60.096 
G01 X373.690 Y60.710 
G01 X373.448 Y61.333 
G01 X373.232 Y61.965 
G01 X372.856 Y63.226 
G01 X372.514 Y64.483 
G01 X372.213 Y65.597 
G01 X372.015 Y66.288 
G01 X371.775 Y67.065 
G01 X371.485 Y67.926 
G01 X371.139 Y68.868 
G01 X370.727 Y69.888 
G01 X370.244 Y70.982 
G01 X369.525 Y72.459 
G01 X368.766 Y73.928 
G01 X368.008 Y75.410 
G01 X367.641 Y76.165 
G01 X367.290 Y76.929 
G01 X367.037 Y77.522 
G01 X366.798 Y78.135 
G01 X366.582 Y78.767 
G01 X366.402 Y79.414 
G01 X366.268 Y80.070 
G01 X366.221 Y80.409 
G01 X366.190 Y80.746 
G01 X366.176 Y81.084 
G01 X366.181 Y81.424 
G01 X366.207 Y81.765 
G01 X366.254 Y82.107 
G01 X366.330 Y82.459 
G01 X366.429 Y82.791 
G01 X366.548 Y83.102 
G01 X366.686 Y83.392 
G01 X366.838 Y83.661 
G01 X367.005 Y83.916 
G01 X367.351 Y84.345 
G01 X367.714 Y84.705 
G01 X368.068 Y84.994 
G01 X368.391 Y85.217 
G01 X368.668 Y85.383 
G01 X369.150 Y85.627 
G01 X369.649 Y85.832 
G01 X370.161 Y86.000 
G01 X370.682 Y86.132 
G01 X371.211 Y86.231 
G01 X371.747 Y86.300 
G01 X372.287 Y86.342 
G01 X372.829 Y86.358 
G01 X373.373 Y86.351 
G01 X373.916 Y86.323 
G01 X374.457 Y86.278 
G01 X374.997 Y86.215 
G01 X376.051 Y86.052 
G01 X377.073 Y85.851 
G01 X378.030 Y85.633 
G01 X378.982 Y85.396 
G01 X380.864 Y84.878 
G01 X382.731 Y84.316 
G01 X384.586 Y83.735 
G01 X389.820 Y82.067 
G01 X391.809 Y81.422 
G01 X392.898 Y81.035 
G01 X393.282 Y80.891 
G01 X393.547 Y80.803 
G01 X393.766 Y80.750 
G01 X393.980 Y80.716 
G01 X394.186 Y80.700 
G01 X394.377 Y80.698 
G01 X394.762 Y80.737 
G01 X395.106 Y80.818 
G01 X395.413 Y80.928 
G01 X395.679 Y81.055 
G01 X395.896 Y81.184 
G01 X396.056 Y81.299 
G01 X396.207 Y81.426 
G01 X396.385 Y81.605 
G01 X396.573 Y81.831 
G01 X396.756 Y82.101 
G01 X396.923 Y82.423 
G01 X396.990 Y82.588 
G01 X397.049 Y82.771 
G01 X397.097 Y82.964 
G01 X397.131 Y83.168 
G01 X397.151 Y83.383 
G01 X397.154 Y83.601 
G01 X397.095 Y84.148 
G01 X396.964 Y85.065 
G01 X396.766 Y86.538 
G01 X396.657 Y87.471 
G01 X396.556 Y88.532 
G01 X396.473 Y89.720 
G01 X396.416 Y91.035 
G01 X396.397 Y92.476 
G01 X396.424 Y94.042 
G01 X396.464 Y94.989 
G01 X396.529 Y96.106 
G01 X396.623 Y97.395 
G01 X396.747 Y98.856 
G01 X396.904 Y100.487 
G01 X397.097 Y102.290 
G01 X397.328 Y104.263 
G01 X397.601 Y106.405 
G01 X398.063 Y109.772 
G01 X398.312 Y111.457 
G01 X398.579 Y113.139 
G01 X398.867 Y114.818 
G01 X399.180 Y116.493 
G01 X399.522 Y118.164 
G01 X399.895 Y119.821 
G01 X399.986 Y120.239 
G01 X400.069 Y120.740 
G01 X400.127 Y121.322 
G01 X400.144 Y121.983 
G01 X400.132 Y122.331 
G01 X400.102 Y122.700 
G01 X400.052 Y123.082 
G01 X399.981 Y123.479 
G01 X399.885 Y123.887 
G01 X399.764 Y124.308 
G01 X399.613 Y124.740 
G01 X399.432 Y125.181 
G01 X399.183 Y125.703 
G01 X398.814 Y126.398 
G01 X398.316 Y127.257 
G01 X397.678 Y128.273 
G01 X397.085 Y129.163 
G01 X396.473 Y130.044 
G01 X395.842 Y130.911 
G01 X395.194 Y131.767 
G01 X394.529 Y132.609 
G01 X393.847 Y133.438 
G01 X393.150 Y134.253 
G01 X392.437 Y135.054 
G01 X391.798 Y135.744 
G01 X391.144 Y136.423 
G01 X390.475 Y137.090 
G01 X389.791 Y137.744 
G01 X389.092 Y138.383 
G01 X388.380 Y139.006 
G01 X387.653 Y139.613 
G01 X386.913 Y140.203 
G01 X386.160 Y140.774 
G01 X385.393 Y141.326 
G01 X384.614 Y141.856 
G01 X383.822 Y142.365 
G01 X383.019 Y142.852 
G01 X382.203 Y143.314 
G01 X381.376 Y143.752 
G01 X380.539 Y144.163 
G01 X379.338 Y144.698 
G01 X378.113 Y145.181 
G01 X376.864 Y145.611 
G01 X375.598 Y145.986 
G01 X374.316 Y146.306 
G01 X373.022 Y146.570 
G01 X371.719 Y146.776 
G01 X371.070 Y146.857 
G01 X370.417 Y146.923 
G01 X369.740 Y146.976 
G01 X369.064 Y147.015 
G01 X367.697 Y147.047 
G01 X366.326 Y147.021 
G01 X364.953 Y146.938 
G01 X363.579 Y146.800 
G01 X362.208 Y146.608 
G01 X360.841 Y146.365 
G01 X359.481 Y146.070 
G01 X358.132 Y145.727 
G01 X356.795 Y145.335 
G01 X355.474 Y144.898 
G01 X354.170 Y144.416 
G01 X352.887 Y143.891 
G01 X351.628 Y143.325 
G01 X350.394 Y142.719 
G01 X349.190 Y142.075 
G01 X347.897 Y141.323 
G01 X346.685 Y140.555 
G01 X345.550 Y139.776 
G01 X344.491 Y138.990 
G01 X343.506 Y138.201 
G01 X342.591 Y137.415 
G01 X341.744 Y136.636 
G01 X340.964 Y135.868 
G01 X340.248 Y135.117 
G01 X339.594 Y134.385 
G01 X338.999 Y133.679 
G01 X338.462 Y133.003 
G01 X337.979 Y132.361 
G01 X337.551 Y131.759 
G01 X336.838 Y130.683 
G01 X336.420 Y130.002 
G01 X336.019 Y129.308 
G01 X335.634 Y128.603 
G01 X335.267 Y127.888 
G01 X334.915 Y127.164 
G01 X334.578 Y126.431 
G01 X334.256 Y125.690 
G01 X333.950 Y124.944 
G01 X333.373 Y123.426 
G01 X332.848 Y121.890 
G01 X332.367 Y120.340 
G01 X331.926 Y118.780 
G01 X331.620 Y117.618 
G01 X331.329 Y116.449 
G01 X331.053 Y115.277 
G01 X330.792 Y114.100 
G01 X330.546 Y112.920 
G01 X330.314 Y111.738 
G01 X329.895 Y109.360 
G01 X329.533 Y106.974 
G01 X329.229 Y104.581 
G01 X328.981 Y102.182 
G01 X328.789 Y99.779 
G01 X328.701 Y98.361 
G01 X328.632 Y96.940 
G01 X328.581 Y95.517 
G01 X328.549 Y94.093 
G01 X328.536 Y92.668 
G01 X328.542 Y91.243 
G01 X328.567 Y89.818 
G01 X328.612 Y88.394 
G01 X328.675 Y86.970 
G01 X328.758 Y85.547 
G01 X328.861 Y84.127 
G01 X328.984 Y82.708 
G01 X329.126 Y81.291 
G01 X329.288 Y79.878 
G01 X329.471 Y78.468 
G01 X329.673 Y77.061 
G00 Z24.080
G00 X418.045 Y85.242  F7000.0
G01 Z15.500 F1200.0 M3
G03 X419.042 Y78.220 I89.744 J9.160
G03 X420.234 Y73.228 I46.708 J8.517
G03 X422.115 Y68.291 I33.598 J9.972
G03 X424.236 Y64.707 I19.877 J9.343
G03 X428.340 Y60.545 I15.905 J11.579
G03 X431.055 Y58.821 I12.430 J16.580
G03 X436.725 Y56.623 I12.108 J22.814
G03 X445.789 Y55.600 I8.171 J31.748
G03 X453.913 Y56.957 I-0.813 J29.861
G03 X463.066 Y62.034 I-7.784 J24.824
G03 X467.167 Y66.363 I-18.760 J21.873
G03 X470.775 Y72.082 I-29.280 J22.470
G03 X473.489 Y78.771 I-37.640 J19.172
G03 X475.560 Y92.439 I-44.289 J13.700
G01 X475.525 Y94.216  F3500.0
G01 X475.420 Y95.968 
G03 X473.408 Y105.867 I-42.013 J-3.386
G03 X467.273 Y117.212 I-35.137 J-11.669
G03 X461.642 Y122.800 I-26.313 J-20.881
G03 X455.367 Y126.518 I-17.529 J-22.433
G03 X444.511 Y128.631 I-10.287 J-23.904
G03 X438.400 Y127.824 I0.618 J-28.212
G03 X426.990 Y122.324 I7.296 J-29.721
G03 X422.547 Y117.860 I14.840 J-19.214
G03 X419.451 Y112.232 I17.060 J-13.050
G03 X418.393 Y108.605 I25.683 J-9.458
G03 X417.713 Y104.000 I33.498 J-7.304
G03 X417.445 Y96.558 I86.734 J-6.850
G03 X417.619 Y90.741 I126.009 J0.858
G03 X418.045 Y85.242 I113.064 J5.998
G01 Z15.000 F1200.0 M3
G03 X419.042 Y78.220 I89.744 J9.160
G03 X420.234 Y73.228 I46.708 J8.517
G03 X422.115 Y68.291 I33.598 J9.972
G03 X424.236 Y64.707 I19.877 J9.343
G03 X428.340 Y60.545 I15.905 J11.579
G03 X431.055 Y58.821 I12.430 J16.580
G03 X436.725 Y56.623 I12.108 J22.814
G03 X445.789 Y55.600 I8.171 J31.748
G03 X453.913 Y56.957 I-0.813 J29.861
G03 X463.066 Y62.034 I-7.784 J24.824
G03 X467.167 Y66.363 I-18.760 J21.873
G03 X470.775 Y72.082 I-29.280 J22.470
G03 X473.489 Y78.771 I-37.640 J19.172
G03 X475.560 Y92.439 I-44.289 J13.700
G01 X475.525 Y94.216  F3500.0
G01 X475.420 Y95.968 
G03 X473.408 Y105.867 I-42.013 J-3.386
G03 X467.273 Y117.212 I-35.137 J-11.669
G03 X461.642 Y122.800 I-26.313 J-20.881
G03 X455.367 Y126.518 I-17.529 J-22.433
G03 X444.511 Y128.631 I-10.287 J-23.904
G03 X438.400 Y127.824 I0.618 J-28.212
G03 X426.990 Y122.324 I7.296 J-29.721
G03 X422.547 Y117.860 I14.840 J-19.214
G03 X419.451 Y112.232 I17.060 J-13.050
G03 X418.393 Y108.605 I25.683 J-9.458
G03 X417.713 Y104.000 I33.498 J-7.304
G03 X417.445 Y96.558 I86.734 J-6.850
G03 X417.619 Y90.741 I126.009 J0.858
G03 X418.045 Y85.242 I113.064 J5.998
G00 Z24.080
G00 X418.870 Y55.346  F7000.0
G01 Z15.500 F1200.0 M3
G01 X418.664 Y55.335  F3500.0
G01 X418.444 Y55.305 
G01 X417.863 Y55.195 
G01 X417.189 Y55.098 
G01 X416.275 Y55.005 
G01 X414.475 Y54.882 
G01 X412.975 Y54.823 
G01 X411.773 Y54.809 
G01 X410.872 Y54.824 
G01 X410.436 Y54.846 
G01 X410.021 Y54.868 
G01 X409.626 Y54.870 
G01 X409.449 Y54.857 
G01 X409.274 Y54.833 
G01 X409.067 Y54.790 
G01 X408.882 Y54.736 
G01 X408.525 Y54.591 
G01 X408.222 Y54.418 
G01 X407.961 Y54.225 
G01 X407.741 Y54.021 
G01 X407.566 Y53.826 
G01 X407.307 Y53.465 
G01 X406.560 Y52.243 
G01 X405.526 Y50.593 
G01 X404.890 Y49.619 
G01 X404.168 Y48.556 
G01 X403.356 Y47.406 
G01 X402.447 Y46.173 
G01 X401.559 Y45.023 
G01 X400.678 Y43.938 
G01 X399.808 Y42.918 
G01 X398.951 Y41.962 
G01 X398.111 Y41.066 
G01 X397.289 Y40.230 
G01 X396.488 Y39.452 
G01 X395.712 Y38.731 
G01 X394.962 Y38.063 
G01 X394.241 Y37.448 
G01 X393.551 Y36.883 
G01 X392.895 Y36.367 
G01 X391.701 Y35.477 
G01 X390.674 Y34.762 
G01 X389.805 Y34.189 
G01 X388.921 Y33.636 
G01 X388.021 Y33.105 
G01 X387.108 Y32.595 
G01 X386.182 Y32.106 
G01 X385.243 Y31.640 
G01 X384.293 Y31.196 
G01 X383.333 Y30.774 
G01 X382.362 Y30.376 
G01 X381.383 Y30.001 
G01 X380.396 Y29.650 
G01 X379.401 Y29.323 
G01 X378.399 Y29.021 
G01 X377.392 Y28.744 
G01 X376.380 Y28.492 
G01 X375.364 Y28.266 
G01 X374.416 Y28.079 
G01 X373.462 Y27.915 
G01 X372.504 Y27.773 
G01 X371.541 Y27.654 
G01 X370.574 Y27.557 
G01 X369.605 Y27.482 
G01 X368.634 Y27.429 
G01 X367.662 Y27.399 
G01 X366.689 Y27.390 
G01 X365.717 Y27.404 
G01 X364.746 Y27.440 
G01 X363.776 Y27.498 
G01 X362.809 Y27.578 
G01 X361.845 Y27.680 
G01 X360.886 Y27.803 
G01 X359.930 Y27.949 
G01 X358.819 Y28.148 
G01 X357.711 Y28.378 
G01 X356.608 Y28.638 
G01 X355.510 Y28.929 
G01 X354.419 Y29.248 
G01 X353.335 Y29.597 
G01 X352.260 Y29.973 
G01 X351.195 Y30.378 
G01 X350.141 Y30.810 
G01 X349.098 Y31.269 
G01 X348.069 Y31.753 
G01 X347.053 Y32.264 
G01 X346.051 Y32.800 
G01 X345.066 Y33.361 
G01 X344.097 Y33.946 
G01 X343.145 Y34.555 
G01 X342.961 Y34.682 
G01 X342.734 Y34.827 
G01 X342.444 Y34.979 
G01 X342.283 Y35.046 
G01 X342.097 Y35.109 
G01 X341.902 Y35.159 
G01 X341.649 Y35.202 
G01 X341.351 Y35.225 
G01 X341.019 Y35.216 
G01 X340.655 Y35.163 
G01 X340.479 Y35.121 
G01 X340.294 Y35.061 
G01 X340.106 Y34.986 
G01 X339.917 Y34.894 
G01 X339.728 Y34.782 
G01 X339.540 Y34.649 
G01 X339.401 Y34.534 
G01 X339.272 Y34.409 
G01 X339.010 Y34.109 
G01 X338.496 Y33.412 
G01 X337.620 Y32.233 
G01 X336.722 Y31.061 
G01 X335.802 Y29.902 
G01 X334.860 Y28.757 
G01 X333.897 Y27.629 
G01 X332.912 Y26.518 
G01 X331.905 Y25.427 
G01 X330.875 Y24.357 
G01 X329.822 Y23.310 
G01 X328.747 Y22.287 
G01 X327.648 Y21.291 
G01 X326.526 Y20.324 
G01 X325.380 Y19.386 
G01 X324.211 Y18.480 
G01 X323.017 Y17.608 
G01 X321.799 Y16.770 
G01 X320.440 Y15.899 
G01 X319.049 Y15.072 
G01 X317.629 Y14.293 
G01 X316.182 Y13.563 
G01 X314.710 Y12.884 
G01 X313.216 Y12.257 
G01 X311.702 Y11.685 
G01 X310.172 Y11.170 
G01 X309.349 Y10.918 
G01 X308.434 Y10.658 
G01 X307.425 Y10.396 
G01 X306.326 Y10.139 
G01 X305.137 Y9.894 
G01 X303.860 Y9.668 
G01 X302.497 Y9.468 
G01 X301.049 Y9.301 
G01 X299.519 Y9.173 
G01 X297.908 Y9.092 
G01 X296.220 Y9.065 
G01 X295.343 Y9.074 
G01 X294.450 Y9.098 
G01 X293.537 Y9.139 
G01 X292.605 Y9.199 
G01 X291.656 Y9.276 
G01 X290.687 Y9.373 
G01 X289.701 Y9.491 
G01 X288.696 Y9.629 
G01 X287.674 Y9.790 
G01 X286.633 Y9.973 
G01 X284.898 Y10.325 
G01 X283.170 Y10.733 
G01 X281.452 Y11.196 
G01 X279.745 Y11.711 
G01 X278.052 Y12.278 
G01 X276.374 Y12.896 
G01 X274.713 Y13.563 
G01 X273.071 Y14.277 
G01 X271.450 Y15.038 
G01 X269.851 Y15.844 
G01 X268.276 Y16.693 
G01 X266.728 Y17.585 
G01 X265.207 Y18.518 
G01 X263.716 Y19.491 
G01 X262.256 Y20.503 
G01 X260.830 Y21.551 
G01 X259.812 Y22.338 
G01 X258.810 Y23.148 
G01 X257.823 Y23.978 
G01 X256.853 Y24.829 
G01 X255.899 Y25.700 
G01 X254.963 Y26.590 
G01 X254.043 Y27.499 
G01 X253.142 Y28.426 
G01 X252.258 Y29.370 
G01 X251.393 Y30.330 
G01 X250.547 Y31.307 
G01 X249.720 Y32.299 
G01 X248.912 Y33.306 
G01 X248.124 Y34.326 
G01 X247.356 Y35.360 
G01 X246.609 Y36.407 
G01 X245.829 Y37.546 
G01 X245.071 Y38.700 
G01 X244.335 Y39.870 
G01 X243.620 Y41.055 
G01 X242.928 Y42.254 
G01 X242.256 Y43.467 
G01 X241.606 Y44.693 
G01 X240.976 Y45.932 
G01 X240.368 Y47.182 
G01 X239.781 Y48.444 
G01 X239.214 Y49.716 
G01 X238.667 Y50.999 
G01 X238.141 Y52.292 
G01 X237.635 Y53.593 
G01 X237.149 Y54.903 
G01 X236.683 Y56.221 
G01 X236.236 Y57.546 
G01 X235.809 Y58.878 
G01 X235.401 Y60.216 
G01 X235.012 Y61.560 
G01 X234.643 Y62.909 
G01 X234.292 Y64.263 
G01 X233.960 Y65.620 
G01 X233.647 Y66.981 
G01 X233.352 Y68.345 
G01 X233.076 Y69.710 
G01 X232.817 Y71.078 
G01 X232.577 Y72.446 
G01 X232.354 Y73.815 
G01 X232.149 Y75.184 
G01 X231.961 Y76.553 
G01 X231.791 Y77.920 
G01 X231.635 Y79.320 
G01 X231.496 Y80.724 
G01 X231.375 Y82.132 
G01 X231.273 Y83.543 
G01 X231.189 Y84.957 
G01 X231.122 Y86.374 
G01 X231.074 Y87.792 
G01 X231.045 Y89.213 
G01 X231.033 Y90.634 
G01 X231.041 Y92.057 
G01 X231.066 Y93.480 
G01 X231.111 Y94.903 
G01 X231.174 Y96.326 
G01 X231.255 Y97.748 
G01 X231.356 Y99.169 
G01 X231.476 Y100.588 
G01 X231.614 Y102.006 
G01 X231.772 Y103.421 
G01 X231.949 Y104.834 
G01 X232.144 Y106.244 
G01 X232.360 Y107.650 
G01 X232.594 Y109.052 
G01 X232.848 Y110.450 
G01 X233.122 Y111.844 
G01 X233.415 Y113.232 
G01 X233.728 Y114.615 
G01 X234.061 Y115.992 
G01 X234.413 Y117.362 
G01 X234.785 Y118.726 
G01 X235.178 Y120.083 
G01 X235.590 Y121.433 
G01 X236.023 Y122.775 
G01 X236.657 Y124.625 
G01 X237.335 Y126.466 
G01 X238.054 Y128.296 
G01 X238.816 Y130.111 
G01 X239.619 Y131.911 
G01 X240.464 Y133.694 
G01 X241.351 Y135.457 
G01 X242.280 Y137.199 
G01 X243.250 Y138.918 
G01 X244.261 Y140.611 
G01 X245.313 Y142.278 
G01 X246.407 Y143.915 
G01 X247.541 Y145.522 
G01 X248.717 Y147.095 
G01 X249.933 Y148.634 
G01 X251.189 Y150.136 
G01 X252.101 Y151.173 
G01 X253.035 Y152.192 
G01 X253.992 Y153.193 
G01 X254.971 Y154.175 
G01 X255.971 Y155.138 
G01 X256.992 Y156.079 
G01 X258.034 Y156.999 
G01 X259.096 Y157.896 
G01 X260.177 Y158.769 
G01 X261.277 Y159.618 
G01 X262.395 Y160.442 
G01 X263.530 Y161.238 
G01 X264.684 Y162.008 
G01 X265.853 Y162.749 
G01 X267.039 Y163.461 
G01 X268.240 Y164.142 
G01 X269.281 Y164.701 
G01 X270.336 Y165.237 
G01 X271.403 Y165.750 
G01 X272.482 Y166.241 
G01 X273.572 Y166.709 
G01 X274.673 Y167.153 
G01 X275.784 Y167.574 
G01 X276.904 Y167.971 
G01 X278.032 Y168.345 
G01 X279.168 Y168.694 
G01 X280.310 Y169.018 
G01 X281.458 Y169.318 
G01 X282.611 Y169.592 
G01 X283.769 Y169.841 
G01 X284.930 Y170.065 
G01 X286.095 Y170.263 
G01 X287.644 Y170.485 
G01 X289.203 Y170.663 
G01 X290.770 Y170.797 
G01 X292.343 Y170.887 
G01 X293.921 Y170.932 
G01 X295.501 Y170.934 
G01 X297.081 Y170.892 
G01 X298.661 Y170.807 
G01 X300.237 Y170.678 
G01 X301.809 Y170.506 
G01 X303.374 Y170.290 
G01 X304.931 Y170.032 
G01 X306.478 Y169.731 
G01 X308.013 Y169.387 
G01 X309.534 Y169.000 
G01 X311.038 Y168.571 
G01 X312.110 Y168.236 
G01 X313.176 Y167.878 
G01 X314.235 Y167.495 
G01 X315.287 Y167.090 
G01 X316.332 Y166.661 
G01 X317.367 Y166.209 
G01 X318.393 Y165.734 
G01 X319.408 Y165.236 
G01 X320.411 Y164.715 
G01 X321.402 Y164.172 
G01 X322.380 Y163.607 
G01 X323.343 Y163.019 
G01 X324.292 Y162.409 
G01 X325.224 Y161.778 
G01 X326.140 Y161.124 
G01 X327.038 Y160.449 
G01 X327.758 Y159.881 
G01 X328.466 Y159.298 
G01 X329.163 Y158.699 
G01 X329.849 Y158.087 
G01 X330.522 Y157.459 
G01 X331.183 Y156.819 
G01 X331.831 Y156.165 
G01 X332.466 Y155.498 
G01 X333.089 Y154.819 
G01 X333.697 Y154.128 
G01 X334.292 Y153.425 
G01 X334.873 Y152.712 
G01 X335.440 Y151.988 
G01 X335.992 Y151.254 
G01 X336.529 Y150.510 
G01 X337.051 Y149.757 
G01 X337.285 Y149.404 
G01 X337.512 Y149.074 
G01 X337.629 Y148.926 
G01 X337.791 Y148.753 
G01 X337.996 Y148.568 
G01 X338.242 Y148.385 
G01 X338.530 Y148.217 
G01 X338.868 Y148.073 
G01 X339.041 Y148.018 
G01 X339.233 Y147.972 
G01 X339.437 Y147.938 
G01 X339.646 Y147.919 
G01 X340.004 Y147.922 
G01 X340.322 Y147.963 
G01 X340.609 Y148.034 
G01 X340.866 Y148.127 
G01 X341.095 Y148.233 
G01 X341.294 Y148.343 
G01 X341.627 Y148.557 
G01 X342.844 Y149.338 
G01 X344.093 Y150.086 
G01 X345.366 Y150.796 
G01 X346.660 Y151.467 
G01 X347.974 Y152.098 
G01 X349.306 Y152.689 
G01 X350.655 Y153.237 
G01 X352.017 Y153.743 
G01 X353.021 Y154.085 
G01 X354.034 Y154.403 
G01 X355.055 Y154.698 
G01 X356.085 Y154.970 
G01 X357.122 Y155.218 
G01 X358.166 Y155.441 
G01 X359.215 Y155.641 
G01 X360.269 Y155.815 
G01 X361.326 Y155.964 
G01 X362.387 Y156.087 
G01 X363.449 Y156.185 
G01 X364.513 Y156.257 
G01 X365.577 Y156.302 
G01 X366.641 Y156.320 
G01 X367.703 Y156.310 
G01 X368.763 Y156.274 
G01 X369.704 Y156.217 
G01 X370.645 Y156.138 
G01 X371.584 Y156.036 
G01 X372.523 Y155.913 
G01 X373.459 Y155.767 
G01 X374.392 Y155.600 
G01 X375.321 Y155.411 
G01 X376.247 Y155.201 
G01 X377.167 Y154.971 
G01 X378.082 Y154.720 
G01 X378.990 Y154.449 
G01 X379.892 Y154.158 
G01 X380.786 Y153.847 
G01 X381.671 Y153.517 
G01 X382.548 Y153.168 
G01 X383.415 Y152.800 
G01 X384.263 Y152.418 
G01 X385.103 Y152.016 
G01 X385.936 Y151.595 
G01 X386.761 Y151.157 
G01 X387.577 Y150.700 
G01 X388.386 Y150.225 
G01 X389.186 Y149.734 
G01 X389.976 Y149.225 
G01 X390.758 Y148.701 
G01 X391.531 Y148.160 
G01 X392.293 Y147.604 
G01 X393.046 Y147.033 
G01 X393.788 Y146.448 
G01 X394.520 Y145.848 
G01 X395.242 Y145.234 
G01 X395.952 Y144.608 
G01 X396.651 Y143.968 
G01 X397.339 Y143.316 
G01 X398.014 Y142.651 
G01 X398.678 Y141.976 
G01 X399.329 Y141.288 
G01 X399.968 Y140.590 
G01 X400.594 Y139.882 
G01 X401.207 Y139.164 
G01 X401.806 Y138.436 
G01 X402.392 Y137.699 
G01 X402.964 Y136.953 
G01 X403.521 Y136.199 
G01 X404.064 Y135.437 
G01 X404.593 Y134.668 
G01 X405.106 Y133.891 
G01 X405.605 Y133.107 
G01 X406.368 Y131.850 
G01 X406.905 Y130.913 
G01 X407.353 Y130.088 
G01 X407.457 Y129.935 
G01 X407.610 Y129.747 
G01 X407.806 Y129.544 
G01 X408.045 Y129.340 
G01 X408.327 Y129.150 
G01 X408.662 Y128.981 
G01 X408.834 Y128.915 
G01 X409.026 Y128.857 
G01 X409.231 Y128.811 
G01 X409.439 Y128.780 
G01 X409.786 Y128.770 
G01 X410.296 Y128.787 
G01 X410.964 Y128.811 
G01 X411.773 Y128.815 
G01 X412.832 Y128.787 
G01 X413.803 Y128.743 
G01 X414.690 Y128.686 
G01 X415.495 Y128.617 
G01 X416.842 Y128.457 
G01 X417.835 Y128.288 
G01 X418.028 Y128.256 
G01 X418.251 Y128.236 
G01 X418.511 Y128.234 
G01 X418.801 Y128.259 
G01 X419.111 Y128.320 
G01 X419.444 Y128.427 
G01 X419.603 Y128.495 
G01 X419.771 Y128.581 
G01 X419.940 Y128.682 
G01 X420.109 Y128.801 
G01 X420.819 Y129.375 
G01 X421.345 Y129.796 
G01 X421.993 Y130.291 
G01 X423.099 Y131.080 
G01 X424.237 Y131.833 
G01 X425.406 Y132.547 
G01 X426.602 Y133.221 
G01 X427.824 Y133.856 
G01 X429.069 Y134.449 
G01 X430.336 Y135.000 
G01 X431.620 Y135.507 
G01 X432.922 Y135.971 
G01 X434.237 Y136.390 
G01 X435.564 Y136.763 
G01 X436.902 Y137.089 
G01 X438.246 Y137.367 
G01 X439.596 Y137.596 
G01 X440.949 Y137.776 
G01 X442.302 Y137.904 
G01 X443.235 Y137.962 
G01 X444.170 Y137.996 
G01 X445.108 Y138.004 
G01 X446.047 Y137.988 
G01 X446.986 Y137.947 
G01 X447.925 Y137.882 
G01 X448.863 Y137.792 
G01 X449.798 Y137.678 
G01 X450.730 Y137.540 
G01 X451.658 Y137.378 
G01 X452.581 Y137.192 
G01 X453.497 Y136.982 
G01 X454.407 Y136.748 
G01 X455.308 Y136.491 
G01 X456.201 Y136.210 
G01 X457.084 Y135.905 
G01 X458.063 Y135.536 
G01 X459.032 Y135.137 
G01 X459.991 Y134.708 
G01 X460.938 Y134.252 
G01 X461.873 Y133.768 
G01 X462.796 Y133.258 
G01 X463.704 Y132.723 
G01 X464.599 Y132.163 
G01 X465.478 Y131.580 
G01 X466.342 Y130.973 
G01 X467.188 Y130.345 
G01 X468.018 Y129.696 
G01 X468.829 Y129.026 
G01 X469.621 Y128.337 
G01 X470.394 Y127.630 
G01 X471.146 Y126.905 
G01 X471.937 Y126.101 
G01 X472.709 Y125.274 
G01 X473.459 Y124.426 
G01 X474.188 Y123.558 
G01 X474.896 Y122.670 
G01 X475.581 Y121.764 
G01 X476.244 Y120.841 
G01 X476.885 Y119.901 
G01 X477.502 Y118.946 
G01 X478.096 Y117.977 
G01 X478.666 Y116.994 
G01 X479.211 Y115.998 
G01 X479.732 Y114.991 
G01 X480.228 Y113.973 
G01 X480.698 Y112.945 
G01 X481.142 Y111.909 
G01 X481.545 Y110.906 
G01 X481.924 Y109.892 
G01 X482.281 Y108.869 
G01 X482.615 Y107.837 
G01 X482.927 Y106.797 
G01 X483.216 Y105.750 
G01 X483.482 Y104.696 
G01 X483.726 Y103.636 
G01 X483.947 Y102.572 
G01 X484.145 Y101.503 
G01 X484.321 Y100.431 
G01 X484.474 Y99.356 
G01 X484.605 Y98.279 
G01 X484.713 Y97.201 
G01 X484.799 Y96.123 
G01 X484.862 Y95.044 
G01 X484.909 Y93.733 
G01 X484.923 Y92.418 
G01 X484.906 Y91.101 
G01 X484.856 Y89.783 
G01 X484.775 Y88.465 
G01 X484.662 Y87.149 
G01 X484.519 Y85.834 
G01 X484.344 Y84.524 
G01 X484.138 Y83.217 
G01 X483.902 Y81.916 
G01 X483.636 Y80.622 
G01 X483.340 Y79.335 
G01 X483.013 Y78.058 
G01 X482.658 Y76.790 
G01 X482.272 Y75.532 
G01 X481.858 Y74.288 
G01 X481.522 Y73.346 
G01 X481.175 Y72.429 
G01 X480.819 Y71.537 
G01 X480.453 Y70.669 
G01 X480.080 Y69.826 
G01 X479.699 Y69.007 
G01 X479.311 Y68.212 
G01 X478.917 Y67.439 
G01 X478.117 Y65.969 
G01 X477.302 Y64.589 
G01 X476.480 Y63.299 
G01 X475.657 Y62.099 
G01 X474.840 Y60.986 
G01 X474.034 Y59.958 
G01 X473.247 Y59.014 
G01 X472.484 Y58.152 
G01 X471.752 Y57.370 
G01 X471.058 Y56.667 
G01 X470.407 Y56.041 
G01 X469.806 Y55.489 
G01 X469.099 Y54.873 
G01 X468.373 Y54.274 
G01 X467.631 Y53.693 
G01 X466.872 Y53.132 
G01 X466.098 Y52.589 
G01 X465.309 Y52.067 
G01 X464.506 Y51.565 
G01 X463.691 Y51.084 
G01 X462.863 Y50.624 
G01 X462.024 Y50.185 
G01 X461.174 Y49.769 
G01 X460.314 Y49.376 
G01 X459.446 Y49.006 
G01 X458.569 Y48.660 
G01 X457.685 Y48.338 
G01 X456.795 Y48.041 
G01 X455.931 Y47.778 
G01 X455.058 Y47.535 
G01 X454.176 Y47.313 
G01 X453.286 Y47.112 
G01 X452.389 Y46.932 
G01 X451.485 Y46.772 
G01 X450.575 Y46.633 
G01 X449.661 Y46.515 
G01 X448.742 Y46.417 
G01 X447.819 Y46.340 
G01 X446.893 Y46.284 
G01 X445.965 Y46.248 
G01 X445.036 Y46.233 
G01 X444.106 Y46.239 
G01 X443.175 Y46.265 
G01 X442.246 Y46.311 
G01 X441.318 Y46.379 
G01 X440.391 Y46.467 
G01 X439.468 Y46.575 
G01 X438.548 Y46.704 
G01 X437.633 Y46.854 
G01 X436.722 Y47.024 
G01 X435.817 Y47.215 
G01 X434.918 Y47.427 
G01 X434.027 Y47.659 
G01 X433.143 Y47.911 
G01 X432.268 Y48.185 
G01 X431.403 Y48.479 
G01 X430.547 Y48.793 
G01 X429.702 Y49.129 
G01 X428.869 Y49.485 
G01 X428.048 Y49.861 
G01 X427.356 Y50.199 
G01 X426.698 Y50.540 
G01 X425.489 Y51.217 
G01 X424.410 Y51.884 
G01 X423.457 Y52.527 
G01 X422.625 Y53.135 
G01 X421.907 Y53.695 
G01 X420.813 Y54.611 
G01 X420.653 Y54.740 
G01 X420.453 Y54.879 
G01 X420.210 Y55.020 
G01 X419.928 Y55.150 
G01 X419.609 Y55.256 
G01 X419.248 Y55.327 
G01 X419.067 Y55.343 
G01 X418.870 Y55.346 
G01 Z15.000 F1200.0 M3
G01 X418.664 Y55.335  F3500.0
G01 X418.444 Y55.305 
G01 X417.863 Y55.195 
G01 X417.189 Y55.098 
G01 X416.275 Y55.005 
G01 X414.475 Y54.882 
G01 X412.975 Y54.823 
G01 X411.773 Y54.809 
G01 X410.872 Y54.824 
G01 X410.436 Y54.846 
G01 X410.021 Y54.868 
G01 X409.626 Y54.870 
G01 X409.449 Y54.857 
G01 X409.274 Y54.833 
G01 X409.067 Y54.790 
G01 X408.882 Y54.736 
G01 X408.525 Y54.591 
G01 X408.222 Y54.418 
G01 X407.961 Y54.225 
G01 X407.741 Y54.021 
G01 X407.566 Y53.826 
G01 X407.307 Y53.465 
G01 X406.560 Y52.243 
G01 X405.526 Y50.593 
G01 X404.890 Y49.619 
G01 X404.168 Y48.556 
G01 X403.356 Y47.406 
G01 X402.447 Y46.173 
G01 X401.559 Y45.023 
G01 X400.678 Y43.938 
G01 X399.808 Y42.918 
G01 X398.951 Y41.962 
G01 X398.111 Y41.066 
G01 X397.289 Y40.230 
G01 X396.488 Y39.452 
G01 X395.712 Y38.731 
G01 X394.962 Y38.063 
G01 X394.241 Y37.448 
G01 X393.551 Y36.883 
G01 X392.895 Y36.367 
G01 X391.701 Y35.477 
G01 X390.674 Y34.762 
G01 X389.805 Y34.189 
G01 X388.921 Y33.636 
G01 X388.021 Y33.105 
G01 X387.108 Y32.595 
G01 X386.182 Y32.106 
G01 X385.243 Y31.640 
G01 X384.293 Y31.196 
G01 X383.333 Y30.774 
G01 X382.362 Y30.376 
G01 X381.383 Y30.001 
G01 X380.396 Y29.650 
G01 X379.401 Y29.323 
G01 X378.399 Y29.021 
G01 X377.392 Y28.744 
G01 X376.380 Y28.492 
G01 X375.364 Y28.266 
G01 X374.416 Y28.079 
G01 X373.462 Y27.915 
G01 X372.504 Y27.773 
G01 X371.541 Y27.654 
G01 X370.574 Y27.557 
G01 X369.605 Y27.482 
G01 X368.634 Y27.429 
G01 X367.662 Y27.399 
G01 X366.689 Y27.390 
G01 X365.717 Y27.404 
G01 X364.746 Y27.440 
G01 X363.776 Y27.498 
G01 X362.809 Y27.578 
G01 X361.845 Y27.680 
G01 X360.886 Y27.803 
G01 X359.930 Y27.949 
G01 X358.819 Y28.148 
G01 X357.711 Y28.378 
G01 X356.608 Y28.638 
G01 X355.510 Y28.929 
G01 X354.419 Y29.248 
G01 X353.335 Y29.597 
G01 X352.260 Y29.973 
G01 X351.195 Y30.378 
G01 X350.141 Y30.810 
G01 X349.098 Y31.269 
G01 X348.069 Y31.753 
G01 X347.053 Y32.264 
G01 X346.051 Y32.800 
G01 X345.066 Y33.361 
G01 X344.097 Y33.946 
G01 X343.145 Y34.555 
G01 X342.961 Y34.682 
G01 X342.734 Y34.827 
G01 X342.444 Y34.979 
G01 X342.283 Y35.046 
G01 X342.097 Y35.109 
G01 X341.902 Y35.159 
G01 X341.649 Y35.202 
G01 X341.351 Y35.225 
G01 X341.019 Y35.216 
G01 X340.655 Y35.163 
G01 X340.479 Y35.121 
G01 X340.294 Y35.061 
G01 X340.106 Y34.986 
G01 X339.917 Y34.894 
G01 X339.728 Y34.782 
G01 X339.540 Y34.649 
G01 X339.401 Y34.534 
G01 X339.272 Y34.409 
G01 X339.010 Y34.109 
G01 X338.496 Y33.412 
G01 X337.620 Y32.233 
G01 X336.722 Y31.061 
G01 X335.802 Y29.902 
G01 X334.860 Y28.757 
G01 X333.897 Y27.629 
G01 X332.912 Y26.518 
G01 X331.905 Y25.427 
G01 X330.875 Y24.357 
G01 X329.822 Y23.310 
G01 X328.747 Y22.287 
G01 X327.648 Y21.291 
G01 X326.526 Y20.324 
G01 X325.380 Y19.386 
G01 X324.211 Y18.480 
G01 X323.017 Y17.608 
G01 X321.799 Y16.770 
G01 X320.440 Y15.899 
G01 X319.049 Y15.072 
G01 X317.629 Y14.293 
G01 X316.182 Y13.563 
G01 X314.710 Y12.884 
G01 X313.216 Y12.257 
G01 X311.702 Y11.685 
G01 X310.172 Y11.170 
G01 X309.349 Y10.918 
G01 X308.434 Y10.658 
G01 X307.425 Y10.396 
G01 X306.326 Y10.139 
G01 X305.137 Y9.894 
G01 X303.860 Y9.668 
G01 X302.497 Y9.468 
G01 X301.049 Y9.301 
G01 X299.519 Y9.173 
G01 X297.908 Y9.092 
G01 X296.220 Y9.065 
G01 X295.343 Y9.074 
G01 X294.450 Y9.098 
G01 X293.537 Y9.139 
G01 X292.605 Y9.199 
G01 X291.656 Y9.276 
G01 X290.687 Y9.373 
G01 X289.701 Y9.491 
G01 X288.696 Y9.629 
G01 X287.674 Y9.790 
G01 X286.633 Y9.973 
G01 X284.898 Y10.325 
G01 X283.170 Y10.733 
G01 X281.452 Y11.196 
G01 X279.745 Y11.711 
G01 X278.052 Y12.278 
G01 X276.374 Y12.896 
G01 X274.713 Y13.563 
G01 X273.071 Y14.277 
G01 X271.450 Y15.038 
G01 X269.851 Y15.844 
G01 X268.276 Y16.693 
G01 X266.728 Y17.585 
G01 X265.207 Y18.518 
G01 X263.716 Y19.491 
G01 X262.256 Y20.503 
G01 X260.830 Y21.551 
G01 X259.812 Y22.338 
G01 X258.810 Y23.148 
G01 X257.823 Y23.978 
G01 X256.853 Y24.829 
G01 X255.899 Y25.700 
G01 X254.963 Y26.590 
G01 X254.043 Y27.499 
G01 X253.142 Y28.426 
G01 X252.258 Y29.370 
G01 X251.393 Y30.330 
G01 X250.547 Y31.307 
G01 X249.720 Y32.299 
G01 X248.912 Y33.306 
G01 X248.124 Y34.326 
G01 X247.356 Y35.360 
G01 X246.609 Y36.407 
G01 X245.829 Y37.546 
G01 X245.071 Y38.700 
G01 X244.335 Y39.870 
G01 X243.620 Y41.055 
G01 X242.928 Y42.254 
G01 X242.256 Y43.467 
G01 X241.606 Y44.693 
G01 X240.976 Y45.932 
G01 X240.368 Y47.182 
G01 X239.781 Y48.444 
G01 X239.214 Y49.716 
G01 X238.667 Y50.999 
G01 X238.141 Y52.292 
G01 X237.635 Y53.593 
G01 X237.149 Y54.903 
G01 X236.683 Y56.221 
G01 X236.236 Y57.546 
G01 X235.809 Y58.878 
G01 X235.401 Y60.216 
G01 X235.012 Y61.560 
G01 X234.643 Y62.909 
G01 X234.292 Y64.263 
G01 X233.960 Y65.620 
G01 X233.647 Y66.981 
G01 X233.352 Y68.345 
G01 X233.076 Y69.710 
G01 X232.817 Y71.078 
G01 X232.577 Y72.446 
G01 X232.354 Y73.815 
G01 X232.149 Y75.184 
G01 X231.961 Y76.553 
G01 X231.791 Y77.920 
G01 X231.635 Y79.320 
G01 X231.496 Y80.724 
G01 X231.375 Y82.132 
G01 X231.273 Y83.543 
G01 X231.189 Y84.957 
G01 X231.122 Y86.374 
G01 X231.074 Y87.792 
G01 X231.045 Y89.213 
G01 X231.033 Y90.634 
G01 X231.041 Y92.057 
G01 X231.066 Y93.480 
G01 X231.111 Y94.903 
G01 X231.174 Y96.326 
G01 X231.255 Y97.748 
G01 X231.356 Y99.169 
G01 X231.476 Y100.588 
G01 X231.614 Y102.006 
G01 X231.772 Y103.421 
G01 X231.949 Y104.834 
G01 X232.144 Y106.244 
G01 X232.360 Y107.650 
G01 X232.594 Y109.052 
G01 X232.848 Y110.450 
G01 X233.122 Y111.844 
G01 X233.415 Y113.232 
G01 X233.728 Y114.615 
G01 X234.061 Y115.992 
G01 X234.413 Y117.362 
G01 X234.785 Y118.726 
G01 X235.178 Y120.083 
G01 X235.590 Y121.433 
G01 X236.023 Y122.775 
G01 X236.657 Y124.625 
G01 X237.335 Y126.466 
G01 X238.054 Y128.296 
G01 X238.816 Y130.111 
G01 X239.619 Y131.911 
G01 X240.464 Y133.694 
G01 X241.351 Y135.457 
G01 X242.280 Y137.199 
G01 X243.250 Y138.918 
G01 X244.261 Y140.611 
G01 X245.313 Y142.278 
G01 X246.407 Y143.915 
G01 X247.541 Y145.522 
G01 X248.717 Y147.095 
G01 X249.933 Y148.634 
G01 X251.189 Y150.136 
G01 X252.101 Y151.173 
G01 X253.035 Y152.192 
G01 X253.992 Y153.193 
G01 X254.971 Y154.175 
G01 X255.971 Y155.138 
G01 X256.992 Y156.079 
G01 X258.034 Y156.999 
G01 X259.096 Y157.896 
G01 X260.177 Y158.769 
G01 X261.277 Y159.618 
G01 X262.395 Y160.442 
G01 X263.530 Y161.238 
G01 X264.684 Y162.008 
G01 X265.853 Y162.749 
G01 X267.039 Y163.461 
G01 X268.240 Y164.142 
G01 X269.281 Y164.701 
G01 X270.336 Y165.237 
G01 X271.403 Y165.750 
G01 X272.482 Y166.241 
G01 X273.572 Y166.709 
G01 X274.673 Y167.153 
G01 X275.784 Y167.574 
G01 X276.904 Y167.971 
G01 X278.032 Y168.345 
G01 X279.168 Y168.694 
G01 X280.310 Y169.018 
G01 X281.458 Y169.318 
G01 X282.611 Y169.592 
G01 X283.769 Y169.841 
G01 X284.930 Y170.065 
G01 X286.095 Y170.263 
G01 X287.644 Y170.485 
G01 X289.203 Y170.663 
G01 X290.770 Y170.797 
G01 X292.343 Y170.887 
G01 X293.921 Y170.932 
G01 X295.501 Y170.934 
G01 X297.081 Y170.892 
G01 X298.661 Y170.807 
G01 X300.237 Y170.678 
G01 X301.809 Y170.506 
G01 X303.374 Y170.290 
G01 X304.931 Y170.032 
G01 X306.478 Y169.731 
G01 X308.013 Y169.387 
G01 X309.534 Y169.000 
G01 X311.038 Y168.571 
G01 X312.110 Y168.236 
G01 X313.176 Y167.878 
G01 X314.235 Y167.495 
G01 X315.287 Y167.090 
G01 X316.332 Y166.661 
G01 X317.367 Y166.209 
G01 X318.393 Y165.734 
G01 X319.408 Y165.236 
G01 X320.411 Y164.715 
G01 X321.402 Y164.172 
G01 X322.380 Y163.607 
G01 X323.343 Y163.019 
G01 X324.292 Y162.409 
G01 X325.224 Y161.778 
G01 X326.140 Y161.124 
G01 X327.038 Y160.449 
G01 X327.758 Y159.881 
G01 X328.466 Y159.298 
G01 X329.163 Y158.699 
G01 X329.849 Y158.087 
G01 X330.522 Y157.459 
G01 X331.183 Y156.819 
G01 X331.831 Y156.165 
G01 X332.466 Y155.498 
G01 X333.089 Y154.819 
G01 X333.697 Y154.128 
G01 X334.292 Y153.425 
G01 X334.873 Y152.712 
G01 X335.440 Y151.988 
G01 X335.992 Y151.254 
G01 X336.529 Y150.510 
G01 X337.051 Y149.757 
G01 X337.285 Y149.404 
G01 X337.512 Y149.074 
G01 X337.629 Y148.926 
G01 X337.791 Y148.753 
G01 X337.996 Y148.568 
G01 X338.242 Y148.385 
G01 X338.530 Y148.217 
G01 X338.868 Y148.073 
G01 X339.041 Y148.018 
G01 X339.233 Y147.972 
G01 X339.437 Y147.938 
G01 X339.646 Y147.919 
G01 X340.004 Y147.922 
G01 X340.322 Y147.963 
G01 X340.609 Y148.034 
G01 X340.866 Y148.127 
G01 X341.095 Y148.233 
G01 X341.294 Y148.343 
G01 X341.627 Y148.557 
G01 X342.844 Y149.338 
G01 X344.093 Y150.086 
G01 X345.366 Y150.796 
G01 X346.660 Y151.467 
G01 X347.974 Y152.098 
G01 X349.306 Y152.689 
G01 X350.655 Y153.237 
G01 X352.017 Y153.743 
G01 X353.021 Y154.085 
G01 X354.034 Y154.403 
G01 X355.055 Y154.698 
G01 X356.085 Y154.970 
G01 X357.122 Y155.218 
G01 X358.166 Y155.441 
G01 X359.215 Y155.641 
G01 X360.269 Y155.815 
G01 X361.326 Y155.964 
G01 X362.387 Y156.087 
G01 X363.449 Y156.185 
G01 X364.513 Y156.257 
G01 X365.577 Y156.302 
G01 X366.641 Y156.320 
G01 X367.703 Y156.310 
G01 X368.763 Y156.274 
G01 X369.704 Y156.217 
G01 X370.645 Y156.138 
G01 X371.584 Y156.036 
G01 X372.523 Y155.913 
G01 X373.459 Y155.767 
G01 X374.392 Y155.600 
G01 X375.321 Y155.411 
G01 X376.247 Y155.201 
G01 X377.167 Y154.971 
G01 X378.082 Y154.720 
G01 X378.990 Y154.449 
G01 X379.892 Y154.158 
G01 X380.786 Y153.847 
G01 X381.671 Y153.517 
G01 X382.548 Y153.168 
G01 X383.415 Y152.800 
G01 X384.263 Y152.418 
G01 X385.103 Y152.016 
G01 X385.936 Y151.595 
G01 X386.761 Y151.157 
G01 X387.577 Y150.700 
G01 X388.386 Y150.225 
G01 X389.186 Y149.734 
G01 X389.976 Y149.225 
G01 X390.758 Y148.701 
G01 X391.531 Y148.160 
G01 X392.293 Y147.604 
G01 X393.046 Y147.033 
G01 X393.788 Y146.448 
G01 X394.520 Y145.848 
G01 X395.242 Y145.234 
G01 X395.952 Y144.608 
G01 X396.651 Y143.968 
G01 X397.339 Y143.316 
G01 X398.014 Y142.651 
G01 X398.678 Y141.976 
G01 X399.329 Y141.288 
G01 X399.968 Y140.590 
G01 X400.594 Y139.882 
G01 X401.207 Y139.164 
G01 X401.806 Y138.436 
G01 X402.392 Y137.699 
G01 X402.964 Y136.953 
G01 X403.521 Y136.199 
G01 X404.064 Y135.437 
G01 X404.593 Y134.668 
G01 X405.106 Y133.891 
G01 X405.605 Y133.107 
G01 X406.368 Y131.850 
G01 X406.905 Y130.913 
G01 X407.353 Y130.088 
G01 X407.457 Y129.935 
G01 X407.610 Y129.747 
G01 X407.806 Y129.544 
G01 X408.045 Y129.340 
G01 X408.327 Y129.150 
G01 X408.662 Y128.981 
G01 X408.834 Y128.915 
G01 X409.026 Y128.857 
G01 X409.231 Y128.811 
G01 X409.439 Y128.780 
G01 X409.786 Y128.770 
G01 X410.296 Y128.787 
G01 X410.964 Y128.811 
G01 X411.773 Y128.815 
G01 X412.832 Y128.787 
G01 X413.803 Y128.743 
G01 X414.690 Y128.686 
G01 X415.495 Y128.617 
G01 X416.842 Y128.457 
G01 X417.835 Y128.288 
G01 X418.028 Y128.256 
G01 X418.251 Y128.236 
G01 X418.511 Y128.234 
G01 X418.801 Y128.259 
G01 X419.111 Y128.320 
G01 X419.444 Y128.427 
G01 X419.603 Y128.495 
G01 X419.771 Y128.581 
G01 X419.940 Y128.682 
G01 X420.109 Y128.801 
G01 X420.819 Y129.375 
G01 X421.345 Y129.796 
G01 X421.993 Y130.291 
G01 X423.099 Y131.080 
G01 X424.237 Y131.833 
G01 X425.406 Y132.547 
G01 X426.602 Y133.221 
G01 X427.824 Y133.856 
G01 X429.069 Y134.449 
G01 X430.336 Y135.000 
G01 X431.620 Y135.507 
G01 X432.922 Y135.971 
G01 X434.237 Y136.390 
G01 X435.564 Y136.763 
G01 X436.902 Y137.089 
G01 X438.246 Y137.367 
G01 X439.596 Y137.596 
G01 X440.949 Y137.776 
G01 X442.302 Y137.904 
G01 X443.235 Y137.962 
G01 X444.170 Y137.996 
G01 X445.108 Y138.004 
G01 X446.047 Y137.988 
G01 X446.986 Y137.947 
G01 X447.925 Y137.882 
G01 X448.863 Y137.792 
G01 X449.798 Y137.678 
G01 X450.730 Y137.540 
G01 X451.658 Y137.378 
G01 X452.581 Y137.192 
G01 X453.497 Y136.982 
G01 X454.407 Y136.748 
G01 X455.308 Y136.491 
G01 X456.201 Y136.210 
G01 X457.084 Y135.905 
G01 X458.063 Y135.536 
G01 X459.032 Y135.137 
G01 X459.991 Y134.708 
G01 X460.938 Y134.252 
G01 X461.873 Y133.768 
G01 X462.796 Y133.258 
G01 X463.704 Y132.723 
G01 X464.599 Y132.163 
G01 X465.478 Y131.580 
G01 X466.342 Y130.973 
G01 X467.188 Y130.345 
G01 X468.018 Y129.696 
G01 X468.829 Y129.026 
G01 X469.621 Y128.337 
G01 X470.394 Y127.630 
G01 X471.146 Y126.905 
G01 X471.937 Y126.101 
G01 X472.709 Y125.274 
G01 X473.459 Y124.426 
G01 X474.188 Y123.558 
G01 X474.896 Y122.670 
G01 X475.581 Y121.764 
G01 X476.244 Y120.841 
G01 X476.885 Y119.901 
G01 X477.502 Y118.946 
G01 X478.096 Y117.977 
G01 X478.666 Y116.994 
G01 X479.211 Y115.998 
G01 X479.732 Y114.991 
G01 X480.228 Y113.973 
G01 X480.698 Y112.945 
G01 X481.142 Y111.909 
G01 X481.545 Y110.906 
G01 X481.924 Y109.892 
G01 X482.281 Y108.869 
G01 X482.615 Y107.837 
G01 X482.927 Y106.797 
G01 X483.216 Y105.750 
G01 X483.482 Y104.696 
G01 X483.726 Y103.636 
G01 X483.947 Y102.572 
G01 X484.145 Y101.503 
G01 X484.321 Y100.431 
G01 X484.474 Y99.356 
G01 X484.605 Y98.279 
G01 X484.713 Y97.201 
G01 X484.799 Y96.123 
G01 X484.862 Y95.044 
G01 X484.909 Y93.733 
G01 X484.923 Y92.418 
G01 X484.906 Y91.101 
G01 X484.856 Y89.783 
G01 X484.775 Y88.465 
G01 X484.662 Y87.149 
G01 X484.519 Y85.834 
G01 X484.344 Y84.524 
G01 X484.138 Y83.217 
G01 X483.902 Y81.916 
G01 X483.636 Y80.622 
G01 X483.340 Y79.335 
G01 X483.013 Y78.058 
G01 X482.658 Y76.790 
G01 X482.272 Y75.532 
G01 X481.858 Y74.288 
G01 X481.522 Y73.346 
G01 X481.175 Y72.429 
G01 X480.819 Y71.537 
G01 X480.453 Y70.669 
G01 X480.080 Y69.826 
G01 X479.699 Y69.007 
G01 X479.311 Y68.212 
G01 X478.917 Y67.439 
G01 X478.117 Y65.969 
G01 X477.302 Y64.589 
G01 X476.480 Y63.299 
G01 X475.657 Y62.099 
G01 X474.840 Y60.986 
G01 X474.034 Y59.958 
G01 X473.247 Y59.014 
G01 X472.484 Y58.152 
G01 X471.752 Y57.370 
G01 X471.058 Y56.667 
G01 X470.407 Y56.041 
G01 X469.806 Y55.489 
G01 X469.099 Y54.873 
G01 X468.373 Y54.274 
G01 X467.631 Y53.693 
G01 X466.872 Y53.132 
G01 X466.098 Y52.589 
G01 X465.309 Y52.067 
G01 X464.506 Y51.565 
G01 X463.691 Y51.084 
G01 X462.863 Y50.624 
G01 X462.024 Y50.185 
G01 X461.174 Y49.769 
G01 X460.314 Y49.376 
G01 X459.446 Y49.006 
G01 X458.569 Y48.660 
G01 X457.685 Y48.338 
G01 X456.795 Y48.041 
G01 X455.931 Y47.778 
G01 X455.058 Y47.535 
G01 X454.176 Y47.313 
G01 X453.286 Y47.112 
G01 X452.389 Y46.932 
G01 X451.485 Y46.772 
G01 X450.575 Y46.633 
G01 X449.661 Y46.515 
G01 X448.742 Y46.417 
G01 X447.819 Y46.340 
G01 X446.893 Y46.284 
G01 X445.965 Y46.248 
G01 X445.036 Y46.233 
G01 X444.106 Y46.239 
G01 X443.175 Y46.265 
G01 X442.246 Y46.311 
G01 X441.318 Y46.379 
G01 X440.391 Y46.467 
G01 X439.468 Y46.575 
G01 X438.548 Y46.704 
G01 X437.633 Y46.854 
G01 X436.722 Y47.024 
G01 X435.817 Y47.215 
G01 X434.918 Y47.427 
G01 X434.027 Y47.659 
G01 X433.143 Y47.911 
G01 X432.268 Y48.185 
G01 X431.403 Y48.479 
G01 X430.547 Y48.793 
G01 X429.702 Y49.129 
G01 X428.869 Y49.485 
G01 X428.048 Y49.861 
G01 X427.356 Y50.199 
G01 X426.698 Y50.540 
G01 X425.489 Y51.217 
G01 X424.410 Y51.884 
G01 X423.457 Y52.527 
G01 X422.625 Y53.135 
G01 X421.907 Y53.695 
G01 X420.813 Y54.611 
G01 X420.653 Y54.740 
G01 X420.453 Y54.879 
G01 X420.210 Y55.020 
G01 X419.928 Y55.150 
G01 X419.609 Y55.256 
G01 X419.248 Y55.327 
G01 X419.067 Y55.343 
G01 X418.870 Y55.346 
G00 Z24.080
G00 Z39.320
M05
M1
( bowl [1] )
T22 M6( TOOL USE Radiused End Mill Tip 0.25 - 3/4 Fine )
S18000 M03
( bowl [1] )
( bowl [1] )
G00 X288.645 Y94.159 Z24.080 F7000.0
G01 Z19.000 F300.0 M3
G01 Z18.723 
G01 Z18.484 
G01 Z18.244 
G01 Z18.004 
G01 Z17.750 
G01 Z17.466 
G01 Z17.128 
G01 Z16.790 
G01 Z16.500 
G01 Z16.224 
G01 Z15.984 
G01 Z15.744 
G01 Z15.504 
G01 Z15.250 
G01 Z14.966 
G01 Z14.628 
G01 Z14.290 
G01 Z14.001 
G01 Z13.724 
G01 Z13.485 
G01 Z13.245 
G01 Z13.005 
G01 Z12.751 
G01 Z12.467 
G01 Z12.129 
G01 Z12.000 
G01 Z11.871 
G01 Z11.533 
G01 Z11.249 
G01 Z10.995 
G01 Z10.755 
G01 Z10.515 
G01 Z10.276 
G01 Z9.999 
G01 Z9.710 
G01 Z9.372 
G01 Z9.034 
G01 Z8.750 
G01 Z8.496 
G01 Z8.256 
G01 Z8.016 
G01 Z7.776 
G01 Z7.500 
G01 Z7.210 
G01 Z6.872 
G01 Z6.534 
G01 Z6.250 
G01 Z5.996 
G01 Z5.756 
G01 Z5.516 
G01 Z5.277 
G01 Z5.000 
G01 X288.567 Y92.183  F3500.0
G01 X288.553 Y90.474 
G01 X288.586 Y88.761 
G01 X288.668 Y87.048 
G01 X288.806 Y85.238 
G01 X288.722 Y87.265 
G01 X288.660 Y89.677 
G01 X288.635 Y92.092 
G01 X288.645 Y94.159 
G01 X292.171 Y114.772  
G01 X291.590 Y113.677  
G01 X291.035 Y112.534 
G01 X290.482 Y111.289 
G01 X289.938 Y109.936 
G01 X289.403 Y108.458 
G01 X288.940 Y107.023 
G01 X288.512 Y105.530 
G01 X288.125 Y103.989 
G01 X287.779 Y102.404 
G01 X287.477 Y100.779 
G01 X287.221 Y99.119 
G01 X287.011 Y97.429 
G01 X286.849 Y95.713 
G01 X286.736 Y93.977 
G01 X286.672 Y92.225 
G01 X286.658 Y90.463 
G01 X286.692 Y88.697 
G01 X286.776 Y86.931 
G01 X286.909 Y85.172 
G01 X287.089 Y83.425 
G01 X287.309 Y81.746 
G01 X287.508 Y80.463 
G01 X287.722 Y79.243 
G01 X287.958 Y78.040 
G01 X288.215 Y76.858 
G01 X288.492 Y75.698 
G01 X288.789 Y74.564 
G01 X289.105 Y73.458 
G01 X289.439 Y72.383 
G01 X289.789 Y71.341 
G01 X290.155 Y70.334 
G01 X290.534 Y69.363 
G01 X290.926 Y68.432 
G01 X291.329 Y67.541 
G01 X291.741 Y66.691 
G01 X292.161 Y65.884 
G01 X292.821 Y64.715 
G01 X293.209 Y64.091 
G01 X292.984 Y65.245 
G01 X292.603 Y67.391 
G01 X292.260 Y69.519 
G01 X291.953 Y71.627 
G01 X291.680 Y73.715 
G01 X291.440 Y75.783 
G01 X291.228 Y77.854 
G01 X291.022 Y80.201 
G01 X290.850 Y82.573 
G01 X290.715 Y84.950 
G01 X290.616 Y87.329 
G01 X290.555 Y89.712 
G01 X290.530 Y92.097 
G01 X290.542 Y94.484 
G01 X290.591 Y96.873 
G01 X290.678 Y99.262 
G01 X290.802 Y101.653 
G01 X290.964 Y104.044 
G01 X291.164 Y106.435 
G01 X291.403 Y108.825 
G01 X291.680 Y111.214 
G01 X291.996 Y113.601 
G01 X292.171 Y114.772 
G01 X295.415 Y122.293  
G01 X294.586 Y121.441  
G01 X293.718 Y120.443 
G01 X293.235 Y119.839 
G01 X292.452 Y118.789 
G01 X291.629 Y117.566 
G01 X290.774 Y116.153 
G01 X290.192 Y115.098 
G01 X289.608 Y113.947 
G01 X289.026 Y112.694 
G01 X288.451 Y111.334 
G01 X287.888 Y109.861 
G01 X287.365 Y108.332 
G01 X286.899 Y106.804 
G01 X286.476 Y105.227 
G01 X286.095 Y103.605 
G01 X285.759 Y101.942 
G01 X285.470 Y100.243 
G01 X285.229 Y98.511 
G01 X285.038 Y96.752 
G01 X284.896 Y94.970 
G01 X284.804 Y93.172 
G01 X284.764 Y91.361 
G01 X284.774 Y89.543 
G01 X284.835 Y87.724 
G01 X284.947 Y85.908 
G01 X285.108 Y84.102 
G01 X285.318 Y82.311 
G01 X285.639 Y80.154 
G01 X285.859 Y78.897 
G01 X286.102 Y77.657 
G01 X286.367 Y76.436 
G01 X286.654 Y75.238 
G01 X286.961 Y74.064 
G01 X287.289 Y72.917 
G01 X287.635 Y71.800 
G01 X288.000 Y70.716 
G01 X288.381 Y69.665 
G01 X288.778 Y68.651 
G01 X289.189 Y67.674 
G01 X289.613 Y66.737 
G01 X290.047 Y65.840 
G01 X290.492 Y64.986 
G01 X291.196 Y63.739 
G01 X291.992 Y62.492 
G01 X292.834 Y61.322 
G01 X293.703 Y60.249 
G01 X294.575 Y59.292 
G01 X295.402 Y58.489 
G01 X296.135 Y57.856 
G01 X296.650 Y57.450 
G01 X296.222 Y59.149 
G01 X295.720 Y61.312 
G01 X295.263 Y63.460 
G01 X294.847 Y65.593 
G01 X294.471 Y67.708 
G01 X294.133 Y69.806 
G01 X293.830 Y71.886 
G01 X293.561 Y73.947 
G01 X293.324 Y75.989 
G01 X293.115 Y78.034 
G01 X292.911 Y80.353 
G01 X292.741 Y82.696 
G01 X292.608 Y85.043 
G01 X292.510 Y87.393 
G01 X292.449 Y89.746 
G01 X292.425 Y92.102 
G01 X292.437 Y94.459 
G01 X292.485 Y96.819 
G01 X292.571 Y99.179 
G01 X292.694 Y101.540 
G01 X292.854 Y103.901 
G01 X293.051 Y106.262 
G01 X293.287 Y108.622 
G01 X293.561 Y110.980 
G01 X293.873 Y113.337 
G01 X294.217 Y115.648 
G01 X294.515 Y117.469 
G01 X294.834 Y119.289 
G01 X295.415 Y122.293 
G01 X298.352 Y126.741  
G01 X297.639 Y126.362  
G01 X296.746 Y125.808 
G01 X295.817 Y125.143 
G01 X294.888 Y124.384 
G01 X293.971 Y123.533 
G01 X293.190 Y122.723 
G01 X292.255 Y121.648 
G01 X291.738 Y121.002 
G01 X290.905 Y119.884 
G01 X290.033 Y118.588 
G01 X289.129 Y117.095 
G01 X288.517 Y115.984 
G01 X287.904 Y114.775 
G01 X287.294 Y113.463 
G01 X286.693 Y112.042 
G01 X286.106 Y110.505 
G01 X285.561 Y108.915 
G01 X285.078 Y107.326 
G01 X284.638 Y105.690 
G01 X284.243 Y104.009 
G01 X283.896 Y102.289 
G01 X283.598 Y100.532 
G01 X283.349 Y98.744 
G01 X283.151 Y96.930 
G01 X283.005 Y95.094 
G01 X282.911 Y93.241 
G01 X282.869 Y91.377 
G01 X282.880 Y89.506 
G01 X282.942 Y87.634 
G01 X283.057 Y85.766 
G01 X283.223 Y83.908 
G01 X283.439 Y82.065 
G01 X283.769 Y79.845 
G01 X283.996 Y78.552 
G01 X284.246 Y77.274 
G01 X284.520 Y76.015 
G01 X284.816 Y74.777 
G01 X285.134 Y73.563 
G01 X285.473 Y72.376 
G01 X285.832 Y71.218 
G01 X286.211 Y70.090 
G01 X286.608 Y68.997 
G01 X287.022 Y67.938 
G01 X287.452 Y66.916 
G01 X287.896 Y65.933 
G01 X288.354 Y64.990 
G01 X288.823 Y64.087 
G01 X289.572 Y62.764 
G01 X290.424 Y61.429 
G01 X291.328 Y60.172 
G01 X292.265 Y59.014 
G01 X293.215 Y57.973 
G01 X294.128 Y57.086 
G01 X294.932 Y56.391 
G01 X295.766 Y55.741 
G01 X296.644 Y55.124 
G01 X297.554 Y54.551 
G01 X298.479 Y54.030 
G01 X299.403 Y53.569 
G01 X299.744 Y53.416 
G01 X299.190 Y55.298 
G01 X298.603 Y57.452 
G01 X298.064 Y59.594 
G01 X297.570 Y61.724 
G01 X297.120 Y63.839 
G01 X296.710 Y65.940 
G01 X296.340 Y68.025 
G01 X296.006 Y70.093 
G01 X295.707 Y72.145 
G01 X295.442 Y74.179 
G01 X295.208 Y76.194 
G01 X295.001 Y78.213 
G01 X294.800 Y80.504 
G01 X294.632 Y82.818 
G01 X294.500 Y85.136 
G01 X294.404 Y87.457 
G01 X294.344 Y89.781 
G01 X294.320 Y92.107 
G01 X294.332 Y94.435 
G01 X294.380 Y96.765 
G01 X294.464 Y99.095 
G01 X294.585 Y101.426 
G01 X294.743 Y103.758 
G01 X294.939 Y106.088 
G01 X295.171 Y108.418 
G01 X295.441 Y110.747 
G01 X295.750 Y113.073 
G01 X296.090 Y115.355 
G01 X296.384 Y117.153 
G01 X296.698 Y118.946 
G01 X297.300 Y122.065 
G01 X297.944 Y125.042 
G01 X298.352 Y126.741 
G01 X301.038 Y129.592  
G01 X300.053 Y129.378  
G01 X299.220 Y129.137 
G01 X298.451 Y128.861 
G01 X297.637 Y128.502 
G01 X296.697 Y128.006 
G01 X295.695 Y127.385 
G01 X294.665 Y126.648 
G01 X293.644 Y125.814 
G01 X292.638 Y124.880 
G01 X291.794 Y124.004 
G01 X291.311 Y123.465 
G01 X290.793 Y122.853 
G01 X290.242 Y122.165 
G01 X289.359 Y120.979 
G01 X288.436 Y119.609 
G01 X287.804 Y118.584 
G01 X287.164 Y117.466 
G01 X286.521 Y116.250 
G01 X285.880 Y114.932 
G01 X285.247 Y113.505 
G01 X284.627 Y111.965 
G01 X284.024 Y110.297 
G01 X283.501 Y108.679 
G01 X283.022 Y107.006 
G01 X282.590 Y105.288 
G01 X282.206 Y103.529 
G01 X281.872 Y101.732 
G01 X281.590 Y99.903 
G01 X281.360 Y98.046 
G01 X281.182 Y96.165 
G01 X281.058 Y94.265 
G01 X280.989 Y92.352 
G01 X280.973 Y90.431 
G01 X281.010 Y88.506 
G01 X281.102 Y86.583 
G01 X281.246 Y84.667 
G01 X281.443 Y82.763 
G01 X281.684 Y80.920 
G01 X281.899 Y79.537 
G01 X282.132 Y78.206 
G01 X282.390 Y76.890 
G01 X282.672 Y75.593 
G01 X282.977 Y74.316 
G01 X283.306 Y73.063 
G01 X283.656 Y71.835 
G01 X284.029 Y70.635 
G01 X284.422 Y69.465 
G01 X284.835 Y68.328 
G01 X285.266 Y67.225 
G01 X285.715 Y66.158 
G01 X286.180 Y65.129 
G01 X286.660 Y64.139 
G01 X287.154 Y63.189 
G01 X287.947 Y61.788 
G01 X288.545 Y60.832 
G01 X289.172 Y59.908 
G01 X289.822 Y59.022 
G01 X290.489 Y58.181 
G01 X291.169 Y57.390 
G01 X291.854 Y56.654 
G01 X292.855 Y55.682 
G01 X293.730 Y54.926 
G01 X294.638 Y54.218 
G01 X295.594 Y53.547 
G01 X296.583 Y52.923 
G01 X297.591 Y52.355 
G01 X298.602 Y51.852 
G01 X299.601 Y51.417 
G01 X300.635 Y51.030 
G01 X301.570 Y50.738 
G01 X302.307 Y50.548 
G01 X302.684 Y50.471 
G01 X302.316 Y51.552 
G01 X301.639 Y53.687 
G01 X301.013 Y55.815 
G01 X300.436 Y57.933 
G01 X299.906 Y60.040 
G01 X299.420 Y62.135 
G01 X298.976 Y64.218 
G01 X298.573 Y66.287 
G01 X298.208 Y68.341 
G01 X297.879 Y70.381 
G01 X297.585 Y72.404 
G01 X297.323 Y74.411 
G01 X297.092 Y76.400 
G01 X296.888 Y78.393 
G01 X296.689 Y80.655 
G01 X296.523 Y82.940 
G01 X296.393 Y85.229 
G01 X296.298 Y87.521 
G01 X296.239 Y89.815 
G01 X296.215 Y92.112 
G01 X296.226 Y94.411 
G01 X296.274 Y96.711 
G01 X296.357 Y99.012 
G01 X296.477 Y101.313 
G01 X296.633 Y103.614 
G01 X296.826 Y105.915 
G01 X297.055 Y108.215 
G01 X297.322 Y110.513 
G01 X297.626 Y112.809 
G01 X297.962 Y115.063 
G01 X298.252 Y116.837 
G01 X298.562 Y118.603 
G01 X299.156 Y121.685 
G01 X299.792 Y124.621 
G01 X300.438 Y127.313 
G01 X301.038 Y129.592 
G01 X303.615 Y131.709  
G01 X302.445 Y131.675  
G01 X301.570 Y131.591 
G01 X300.572 Y131.434 
G01 X299.585 Y131.215 
G01 X298.636 Y130.940 
G01 X297.752 Y130.623 
G01 X296.814 Y130.209 
G01 X295.755 Y129.650 
G01 X294.644 Y128.961 
G01 X293.890 Y128.435 
G01 X293.139 Y127.860 
G01 X292.400 Y127.243 
G01 X291.688 Y126.597 
G01 X290.873 Y125.791 
G01 X289.882 Y124.710 
G01 X289.330 Y124.058 
G01 X288.745 Y123.328 
G01 X287.812 Y122.074 
G01 X286.840 Y120.630 
G01 X286.176 Y119.553 
G01 X285.504 Y118.381 
G01 X284.831 Y117.108 
G01 X284.161 Y115.731 
G01 X283.501 Y114.244 
G01 X282.857 Y112.641 
G01 X282.231 Y110.910 
G01 X281.688 Y109.231 
G01 X281.192 Y107.498 
G01 X280.745 Y105.721 
G01 X280.349 Y103.904 
G01 X280.004 Y102.050 
G01 X279.713 Y100.164 
G01 X279.476 Y98.251 
G01 X279.293 Y96.315 
G01 X279.166 Y94.361 
G01 X279.094 Y92.395 
G01 X279.078 Y90.420 
G01 X279.117 Y88.442 
G01 X279.210 Y86.467 
G01 X279.359 Y84.498 
G01 X279.561 Y82.543 
G01 X279.809 Y80.645 
G01 X280.029 Y79.228 
G01 X280.269 Y77.860 
G01 X280.534 Y76.507 
G01 X280.824 Y75.172 
G01 X281.139 Y73.856 
G01 X281.478 Y72.562 
G01 X281.840 Y71.294 
G01 X282.226 Y70.052 
G01 X282.633 Y68.840 
G01 X283.061 Y67.659 
G01 X283.510 Y66.512 
G01 X283.978 Y65.400 
G01 X284.464 Y64.325 
G01 X284.967 Y63.289 
G01 X285.485 Y62.291 
G01 X286.322 Y60.812 
G01 X286.957 Y59.798 
G01 X287.623 Y58.815 
G01 X288.315 Y57.872 
G01 X289.028 Y56.974 
G01 X289.756 Y56.127 
G01 X290.494 Y55.335 
G01 X291.234 Y54.602 
G01 X292.058 Y53.857 
G01 X293.012 Y53.074 
G01 X294.022 Y52.326 
G01 X295.074 Y51.625 
G01 X296.156 Y50.980 
G01 X297.252 Y50.399 
G01 X298.347 Y49.888 
G01 X299.426 Y49.451 
G01 X300.336 Y49.132 
G01 X301.393 Y48.822 
G01 X301.901 Y48.697 
G01 X302.628 Y48.548 
G01 X303.669 Y48.390 
G01 X304.535 Y48.318 
G01 X305.466 Y48.312 
G01 X304.833 Y50.041 
G01 X304.116 Y52.144 
G01 X303.451 Y54.241 
G01 X302.836 Y56.331 
G01 X302.269 Y58.413 
G01 X301.748 Y60.485 
G01 X301.270 Y62.547 
G01 X300.833 Y64.596 
G01 X300.436 Y66.634 
G01 X300.076 Y68.658 
G01 X299.752 Y70.668 
G01 X299.462 Y72.663 
G01 X299.203 Y74.643 
G01 X298.976 Y76.606 
G01 X298.774 Y78.572 
G01 X298.578 Y80.807 
G01 X298.414 Y83.062 
G01 X298.286 Y85.322 
G01 X298.192 Y87.584 
G01 X298.134 Y89.850 
G01 X298.110 Y92.117 
G01 X298.121 Y94.386 
G01 X298.168 Y96.657 
G01 X298.251 Y98.928 
G01 X298.369 Y101.200 
G01 X298.523 Y103.471 
G01 X298.713 Y105.742 
G01 X298.939 Y108.011 
G01 X299.203 Y110.279 
G01 X299.503 Y112.545 
G01 X299.835 Y114.770 
G01 X300.120 Y116.520 
G01 X300.425 Y118.260 
G01 X301.013 Y121.305 
G01 X301.640 Y124.199 
G01 X302.276 Y126.851 
G01 X302.909 Y129.257 
G01 X303.615 Y131.709 
G01 X306.140 Y133.435  
G01 X305.074 Y133.548  
G01 X304.396 Y133.589 
G01 X303.727 Y133.605 
G01 X303.071 Y133.599 
G01 X302.071 Y133.548 
G01 X300.964 Y133.421 
G01 X299.849 Y133.222 
G01 X298.756 Y132.955 
G01 X297.710 Y132.629 
G01 X296.758 Y132.263 
G01 X295.990 Y131.916 
G01 X295.212 Y131.517 
G01 X294.409 Y131.057 
G01 X293.592 Y130.538 
G01 X292.771 Y129.965 
G01 X291.956 Y129.341 
G01 X291.156 Y128.673 
G01 X290.385 Y127.973 
G01 X289.510 Y127.107 
G01 X288.453 Y125.955 
G01 X287.867 Y125.263 
G01 X287.249 Y124.491 
G01 X286.265 Y123.169 
G01 X285.244 Y121.651 
G01 X284.547 Y120.522 
G01 X283.844 Y119.295 
G01 X283.141 Y117.966 
G01 X282.443 Y116.530 
G01 X281.756 Y114.982 
G01 X281.086 Y113.318 
G01 X280.438 Y111.523 
G01 X279.876 Y109.783 
G01 X279.362 Y107.990 
G01 X278.900 Y106.154 
G01 X278.491 Y104.278 
G01 X278.136 Y102.367 
G01 X277.836 Y100.425 
G01 X277.592 Y98.457 
G01 X277.404 Y96.466 
G01 X277.273 Y94.458 
G01 X277.199 Y92.437 
G01 X277.183 Y90.409 
G01 X277.223 Y88.379 
G01 X277.319 Y86.350 
G01 X277.471 Y84.330 
G01 X277.678 Y82.322 
G01 X277.934 Y80.370 
G01 X278.160 Y78.919 
G01 X278.406 Y77.514 
G01 X278.678 Y76.124 
G01 X278.977 Y74.750 
G01 X279.301 Y73.395 
G01 X279.650 Y72.062 
G01 X280.024 Y70.753 
G01 X280.422 Y69.469 
G01 X280.844 Y68.215 
G01 X281.288 Y66.991 
G01 X281.754 Y65.800 
G01 X282.241 Y64.643 
G01 X282.748 Y63.522 
G01 X283.273 Y62.438 
G01 X283.816 Y61.393 
G01 X284.698 Y59.837 
G01 X285.369 Y58.763 
G01 X286.074 Y57.723 
G01 X286.809 Y56.722 
G01 X287.567 Y55.767 
G01 X288.344 Y54.863 
G01 X289.133 Y54.015 
G01 X289.929 Y53.227 
G01 X290.819 Y52.423 
G01 X291.846 Y51.579 
G01 X292.932 Y50.775 
G01 X294.063 Y50.022 
G01 X295.227 Y49.328 
G01 X296.407 Y48.702 
G01 X297.591 Y48.150 
G01 X298.762 Y47.676 
G01 X299.753 Y47.329 
G01 X300.911 Y46.990 
G01 X301.494 Y46.846 
G01 X302.279 Y46.685 
G01 X302.888 Y46.582 
G01 X303.969 Y46.456 
G01 X304.874 Y46.411 
G01 X305.609 Y46.421 
G01 X306.403 Y46.486 
G01 X307.012 Y46.589 
G01 X307.627 Y46.750 
G01 X308.049 Y46.893 
G01 X307.376 Y48.606 
G01 X306.620 Y50.672 
G01 X305.916 Y52.736 
G01 X305.264 Y54.795 
G01 X304.660 Y56.848 
G01 X304.103 Y58.893 
G01 X303.590 Y60.930 
G01 X303.120 Y62.958 
G01 X302.690 Y64.975 
G01 X302.299 Y66.981 
G01 X301.945 Y68.975 
G01 X301.625 Y70.955 
G01 X301.339 Y72.922 
G01 X301.084 Y74.875 
G01 X300.859 Y76.812 
G01 X300.661 Y78.752 
G01 X300.467 Y80.958 
G01 X300.306 Y83.185 
G01 X300.179 Y85.415 
G01 X300.086 Y87.648 
G01 X300.028 Y89.884 
G01 X300.005 Y92.122 
G01 X300.016 Y94.362 
G01 X300.062 Y96.603 
G01 X300.144 Y98.845 
G01 X300.260 Y101.087 
G01 X300.412 Y103.328 
G01 X300.600 Y105.569 
G01 X300.824 Y107.808 
G01 X301.083 Y110.045 
G01 X301.379 Y112.280 
G01 X301.707 Y114.478 
G01 X301.989 Y116.204 
G01 X302.289 Y117.917 
G01 X302.870 Y120.925 
G01 X303.487 Y123.777 
G01 X304.114 Y126.389 
G01 X304.736 Y128.756 
G01 X305.340 Y130.872 
G01 X306.140 Y133.435 
G01 X308.635 Y134.897  
G01 X308.158 Y135.010  
G01 X307.438 Y135.153 
G01 X306.705 Y135.273 
G01 X305.963 Y135.368 
G01 X305.219 Y135.438 
G01 X304.476 Y135.482 
G01 X303.742 Y135.501 
G01 X303.021 Y135.494 
G01 X301.914 Y135.436 
G01 X300.689 Y135.296 
G01 X299.458 Y135.076 
G01 X298.249 Y134.781 
G01 X297.088 Y134.419 
G01 X296.019 Y134.008 
G01 X295.167 Y133.623 
G01 X294.308 Y133.183 
G01 X293.430 Y132.679 
G01 X292.541 Y132.115 
G01 X291.653 Y131.494 
G01 X290.773 Y130.821 
G01 X289.911 Y130.102 
G01 X289.082 Y129.350 
G01 X288.146 Y128.423 
G01 X287.606 Y127.850 
G01 X287.024 Y127.199 
G01 X286.404 Y126.468 
G01 X285.752 Y125.653 
G01 X284.718 Y124.264 
G01 X284.008 Y123.226 
G01 X283.284 Y122.094 
G01 X282.552 Y120.863 
G01 X281.817 Y119.530 
G01 X281.087 Y118.090 
G01 X280.366 Y116.539 
G01 X279.661 Y114.873 
G01 X278.978 Y113.084 
G01 X278.348 Y111.244 
G01 X277.791 Y109.414 
G01 X277.287 Y107.540 
G01 X276.837 Y105.625 
G01 X276.443 Y103.673 
G01 X276.106 Y101.689 
G01 X275.826 Y99.677 
G01 X275.604 Y97.642 
G01 X275.441 Y95.587 
G01 X275.335 Y93.518 
G01 X275.289 Y91.439 
G01 X275.301 Y89.357 
G01 X275.371 Y87.274 
G01 X275.498 Y85.197 
G01 X275.683 Y83.130 
G01 X275.923 Y81.078 
G01 X276.290 Y78.610 
G01 X276.543 Y77.168 
G01 X276.822 Y75.741 
G01 X277.129 Y74.328 
G01 X277.462 Y72.935 
G01 X277.822 Y71.561 
G01 X278.208 Y70.211 
G01 X278.619 Y68.887 
G01 X279.055 Y67.590 
G01 X279.515 Y66.322 
G01 X279.998 Y65.087 
G01 X280.504 Y63.885 
G01 X281.031 Y62.718 
G01 X281.579 Y61.587 
G01 X282.147 Y60.495 
G01 X283.073 Y58.861 
G01 X283.781 Y57.729 
G01 X284.526 Y56.631 
G01 X285.302 Y55.573 
G01 X286.106 Y54.560 
G01 X286.931 Y53.600 
G01 X287.773 Y52.696 
G01 X288.625 Y51.853 
G01 X289.580 Y50.989 
G01 X290.681 Y50.085 
G01 X291.843 Y49.225 
G01 X293.052 Y48.419 
G01 X294.297 Y47.677 
G01 X295.562 Y47.006 
G01 X296.834 Y46.413 
G01 X298.098 Y45.901 
G01 X299.171 Y45.526 
G01 X300.429 Y45.157 
G01 X301.088 Y44.995 
G01 X301.931 Y44.822 
G01 X302.606 Y44.708 
G01 X303.233 Y44.625 
G01 X304.350 Y44.532 
G01 X305.288 Y44.516 
G01 X306.049 Y44.548 
G01 X306.871 Y44.637 
G01 X307.601 Y44.779 
G01 X308.383 Y45.003 
G01 X309.176 Y45.302 
G01 X309.926 Y45.659 
G01 X310.481 Y45.980 
G01 X309.955 Y47.222 
G01 X309.148 Y49.278 
G01 X308.407 Y51.304 
G01 X307.716 Y53.328 
G01 X307.076 Y55.349 
G01 X306.483 Y57.364 
G01 X305.936 Y59.374 
G01 X305.432 Y61.376 
G01 X304.970 Y63.369 
G01 X304.547 Y65.354 
G01 X304.162 Y67.328 
G01 X303.813 Y69.291 
G01 X303.498 Y71.243 
G01 X303.216 Y73.181 
G01 X302.965 Y75.107 
G01 X302.743 Y77.018 
G01 X302.547 Y78.931 
G01 X302.356 Y81.110 
G01 X302.197 Y83.307 
G01 X302.072 Y85.508 
G01 X301.980 Y87.712 
G01 X301.923 Y89.919 
G01 X301.900 Y92.127 
G01 X301.911 Y94.338 
G01 X301.957 Y96.549 
G01 X302.037 Y98.761 
G01 X302.152 Y100.973 
G01 X302.302 Y103.185 
G01 X302.487 Y105.396 
G01 X302.708 Y107.605 
G01 X302.964 Y109.812 
G01 X303.256 Y112.016 
G01 X303.579 Y114.185 
G01 X304.153 Y117.574 
G01 X304.726 Y120.545 
G01 X305.335 Y123.355 
G01 X305.952 Y125.926 
G01 X306.564 Y128.255 
G01 X307.157 Y130.334 
G01 X307.716 Y132.156 
G01 X308.234 Y133.743 
G01 X308.635 Y134.897 
G01 X311.110 Y136.145  
G01 X310.180 Y136.447  
G01 X309.327 Y136.681 
G01 X308.561 Y136.862 
G01 X307.777 Y137.018 
G01 X306.979 Y137.149 
G01 X306.172 Y137.252 
G01 X305.363 Y137.328 
G01 X304.556 Y137.376 
G01 X303.757 Y137.396 
G01 X302.970 Y137.389 
G01 X301.758 Y137.325 
G01 X300.414 Y137.171 
G01 X299.066 Y136.930 
G01 X297.742 Y136.607 
G01 X296.466 Y136.209 
G01 X295.279 Y135.753 
G01 X294.344 Y135.330 
G01 X293.404 Y134.849 
G01 X292.450 Y134.302 
G01 X291.490 Y133.692 
G01 X290.534 Y133.024 
G01 X289.590 Y132.302 
G01 X288.667 Y131.532 
G01 X287.779 Y130.726 
G01 X286.783 Y129.739 
G01 X286.210 Y129.131 
G01 X285.595 Y128.444 
G01 X284.942 Y127.673 
G01 X284.256 Y126.816 
G01 X283.172 Y125.359 
G01 X282.428 Y124.273 
G01 X281.671 Y123.089 
G01 X280.907 Y121.805 
G01 X280.142 Y120.416 
G01 X279.383 Y118.919 
G01 X278.634 Y117.308 
G01 X277.903 Y115.580 
G01 X277.196 Y113.729 
G01 X276.544 Y111.826 
G01 X275.969 Y109.936 
G01 X275.449 Y108.002 
G01 X274.986 Y106.029 
G01 X274.580 Y104.019 
G01 X274.233 Y101.979 
G01 X273.946 Y99.910 
G01 X273.718 Y97.819 
G01 X273.549 Y95.710 
G01 X273.442 Y93.587 
G01 X273.394 Y91.455 
G01 X273.406 Y89.319 
G01 X273.478 Y87.184 
G01 X273.609 Y85.054 
G01 X273.798 Y82.935 
G01 X274.044 Y80.831 
G01 X274.184 Y79.819 
G01 X274.420 Y78.301 
G01 X274.679 Y76.823 
G01 X274.966 Y75.357 
G01 X275.281 Y73.907 
G01 X275.624 Y72.474 
G01 X275.994 Y71.061 
G01 X276.392 Y69.670 
G01 X276.816 Y68.304 
G01 X277.266 Y66.965 
G01 X277.741 Y65.654 
G01 X278.242 Y64.374 
G01 X278.767 Y63.127 
G01 X279.315 Y61.914 
G01 X279.886 Y60.737 
G01 X280.478 Y59.597 
G01 X281.127 Y58.432 
G01 X281.816 Y57.286 
G01 X282.581 Y56.112 
G01 X283.383 Y54.975 
G01 X284.217 Y53.882 
G01 X285.079 Y52.838 
G01 X285.963 Y51.849 
G01 X286.865 Y50.919 
G01 X287.761 Y50.069 
G01 X288.920 Y49.067 
G01 X290.128 Y48.125 
G01 X291.392 Y47.237 
G01 X292.701 Y46.412 
G01 X294.040 Y45.658 
G01 X295.397 Y44.982 
G01 X296.757 Y44.390 
G01 X298.155 Y43.867 
G01 X299.507 Y43.444 
G01 X300.681 Y43.144 
G01 X301.583 Y42.959 
G01 X302.323 Y42.834 
G01 X303.015 Y42.742 
G01 X303.660 Y42.678 
G01 X304.808 Y42.621 
G01 X305.771 Y42.634 
G01 X306.550 Y42.689 
G01 X307.376 Y42.799 
G01 X308.274 Y42.994 
G01 X308.979 Y43.203 
G01 X309.687 Y43.463 
G01 X310.375 Y43.764 
G01 X310.939 Y44.053 
G01 X311.871 Y44.615 
G01 X312.807 Y45.274 
G01 X312.841 Y45.300 
G01 X312.656 Y45.704 
G01 X311.710 Y47.938 
G01 X310.920 Y49.950 
G01 X310.193 Y51.936 
G01 X309.517 Y53.920 
G01 X308.888 Y55.902 
G01 X308.307 Y57.881 
G01 X307.769 Y59.854 
G01 X307.274 Y61.821 
G01 X306.820 Y63.781 
G01 X306.404 Y65.733 
G01 X306.025 Y67.675 
G01 X305.682 Y69.608 
G01 X305.372 Y71.530 
G01 X305.094 Y73.440 
G01 X304.846 Y75.338 
G01 X304.627 Y77.223 
G01 X304.434 Y79.111 
G01 X304.245 Y81.261 
G01 X304.088 Y83.429 
G01 X303.964 Y85.601 
G01 X303.874 Y87.776 
G01 X303.818 Y89.953 
G01 X303.795 Y92.132 
G01 X303.806 Y94.313 
G01 X303.851 Y96.495 
G01 X303.930 Y98.678 
G01 X304.044 Y100.860 
G01 X304.192 Y103.042 
G01 X304.374 Y105.222 
G01 X304.592 Y107.401 
G01 X304.844 Y109.578 
G01 X305.132 Y111.752 
G01 X305.452 Y113.893 
G01 X306.017 Y117.231 
G01 X306.583 Y120.165 
G01 X307.182 Y122.934 
G01 X307.790 Y125.464 
G01 X308.392 Y127.754 
G01 X308.974 Y129.796 
G01 X309.523 Y131.584 
G01 X310.030 Y133.138 
G01 X310.559 Y134.660 
G01 X311.110 Y136.145 
G01 X313.562 Y137.188  
G01 X312.504 Y137.646  
G01 X311.390 Y138.053 
G01 X310.705 Y138.268 
G01 X309.796 Y138.517 
G01 X308.964 Y138.714 
G01 X308.115 Y138.883 
G01 X307.252 Y139.024 
G01 X306.382 Y139.136 
G01 X305.508 Y139.218 
G01 X304.636 Y139.269 
G01 X303.772 Y139.291 
G01 X302.920 Y139.283 
G01 X301.601 Y139.214 
G01 X300.628 Y139.112 
G01 X299.650 Y138.969 
G01 X298.675 Y138.784 
G01 X297.710 Y138.560 
G01 X296.764 Y138.297 
G01 X295.843 Y137.999 
G01 X294.955 Y137.668 
G01 X294.025 Y137.273 
G01 X293.013 Y136.784 
G01 X291.986 Y136.228 
G01 X290.954 Y135.604 
G01 X289.925 Y134.918 
G01 X288.908 Y134.174 
G01 X287.911 Y133.377 
G01 X286.943 Y132.535 
G01 X285.975 Y131.618 
G01 X285.419 Y131.055 
G01 X284.814 Y130.413 
G01 X284.166 Y129.689 
G01 X283.479 Y128.878 
G01 X282.759 Y127.979 
G01 X281.625 Y126.454 
G01 X280.848 Y125.319 
G01 X280.058 Y124.084 
G01 X279.263 Y122.747 
G01 X278.467 Y121.303 
G01 X277.678 Y119.748 
G01 X276.902 Y118.078 
G01 X276.145 Y116.288 
G01 X275.414 Y114.374 
G01 X274.741 Y112.408 
G01 X274.147 Y110.458 
G01 X273.611 Y108.465 
G01 X273.134 Y106.433 
G01 X272.717 Y104.366 
G01 X272.361 Y102.268 
G01 X272.065 Y100.144 
G01 X271.831 Y97.997 
G01 X271.658 Y95.833 
G01 X271.548 Y93.656 
G01 X271.499 Y91.471 
G01 X271.511 Y89.282 
G01 X271.585 Y87.094 
G01 X271.719 Y84.912 
G01 X271.913 Y82.740 
G01 X272.166 Y80.585 
G01 X272.309 Y79.544 
G01 X272.551 Y77.992 
G01 X272.816 Y76.477 
G01 X273.110 Y74.974 
G01 X273.434 Y73.485 
G01 X273.786 Y72.013 
G01 X274.167 Y70.561 
G01 X274.575 Y69.129 
G01 X275.012 Y67.721 
G01 X275.477 Y66.339 
G01 X275.968 Y64.985 
G01 X276.486 Y63.661 
G01 X277.030 Y62.369 
G01 X277.599 Y61.110 
G01 X278.192 Y59.886 
G01 X278.810 Y58.699 
G01 X279.483 Y57.490 
G01 X280.209 Y56.281 
G01 X281.012 Y55.048 
G01 X281.855 Y53.854 
G01 X282.733 Y52.704 
G01 X283.642 Y51.603 
G01 X284.576 Y50.558 
G01 X285.532 Y49.572 
G01 X286.487 Y48.665 
G01 X287.102 Y48.121 
G01 X287.717 Y47.602 
G01 X288.350 Y47.096 
G01 X289.000 Y46.602 
G01 X289.664 Y46.123 
G01 X290.341 Y45.660 
G01 X291.031 Y45.213 
G01 X291.730 Y44.784 
G01 X292.438 Y44.374 
G01 X293.153 Y43.983 
G01 X293.872 Y43.613 
G01 X294.596 Y43.264 
G01 X295.321 Y42.937 
G01 X296.046 Y42.633 
G01 X296.769 Y42.351 
G01 X298.005 Y41.919 
G01 X299.465 Y41.491 
G01 X300.275 Y41.293 
G01 X301.234 Y41.096 
G01 X302.041 Y40.960 
G01 X302.797 Y40.859 
G01 X303.505 Y40.789 
G01 X304.165 Y40.746 
G01 X305.339 Y40.726 
G01 X306.318 Y40.767 
G01 X307.428 Y40.888 
G01 X308.218 Y41.032 
G01 X309.027 Y41.236 
G01 X309.849 Y41.498 
G01 X310.663 Y41.816 
G01 X311.447 Y42.180 
G01 X311.867 Y42.401 
G01 X312.418 Y42.721 
G01 X312.908 Y43.029 
G01 X313.417 Y43.375 
G01 X313.945 Y43.758 
G01 X314.490 Y44.181 
G01 X315.176 Y44.753 
G01 X314.390 Y46.468 
G01 X313.465 Y48.653 
G01 X312.692 Y50.622 
G01 X311.980 Y52.567 
G01 X311.317 Y54.512 
G01 X310.701 Y56.456 
G01 X310.130 Y58.397 
G01 X309.602 Y60.334 
G01 X309.116 Y62.266 
G01 X308.669 Y64.192 
G01 X308.261 Y66.111 
G01 X307.888 Y68.022 
G01 X307.550 Y69.925 
G01 X307.245 Y71.817 
G01 X306.971 Y73.699 
G01 X306.727 Y75.570 
G01 X306.511 Y77.429 
G01 X306.320 Y79.290 
G01 X306.134 Y81.412 
G01 X305.979 Y83.551 
G01 X305.857 Y85.694 
G01 X305.768 Y87.839 
G01 X305.712 Y89.987 
G01 X305.690 Y92.137 
G01 X305.701 Y94.289 
G01 X305.745 Y96.441 
G01 X305.823 Y98.594 
G01 X305.935 Y100.747 
G01 X306.081 Y102.899 
G01 X306.261 Y105.049 
G01 X306.476 Y107.198 
G01 X306.725 Y109.344 
G01 X307.009 Y111.488 
G01 X307.324 Y113.600 
G01 X307.880 Y116.888 
G01 X308.439 Y119.785 
G01 X309.030 Y122.512 
G01 X309.628 Y125.002 
G01 X310.219 Y127.253 
G01 X310.792 Y129.259 
G01 X311.329 Y131.012 
G01 X311.826 Y132.533 
G01 X312.343 Y134.020 
G01 X312.879 Y135.470 
G01 X313.562 Y137.188 
G01 X315.985 Y138.045  
G01 X315.046 Y138.569  
G01 X313.971 Y139.084 
G01 X312.808 Y139.560 
G01 X311.569 Y139.986 
G01 X310.264 Y140.354 
G01 X309.367 Y140.566 
G01 X308.453 Y140.748 
G01 X307.526 Y140.899 
G01 X306.591 Y141.019 
G01 X305.652 Y141.107 
G01 X304.716 Y141.163 
G01 X303.787 Y141.186 
G01 X302.869 Y141.178 
G01 X301.445 Y141.102 
G01 X300.392 Y140.993 
G01 X299.336 Y140.838 
G01 X298.283 Y140.638 
G01 X297.242 Y140.396 
G01 X296.219 Y140.112 
G01 X295.221 Y139.789 
G01 X294.256 Y139.430 
G01 X293.244 Y138.999 
G01 X292.149 Y138.471 
G01 X291.044 Y137.872 
G01 X289.938 Y137.204 
G01 X288.840 Y136.472 
G01 X287.757 Y135.679 
G01 X286.697 Y134.833 
G01 X285.669 Y133.938 
G01 X284.643 Y132.965 
G01 X284.055 Y132.371 
G01 X283.418 Y131.695 
G01 X282.737 Y130.934 
G01 X282.016 Y130.084 
G01 X281.262 Y129.142 
G01 X280.078 Y127.549 
G01 X279.268 Y126.365 
G01 X278.446 Y125.080 
G01 X277.619 Y123.689 
G01 X276.792 Y122.189 
G01 X275.974 Y120.576 
G01 X275.170 Y118.847 
G01 X274.387 Y116.996 
G01 X273.632 Y115.018 
G01 X272.938 Y112.991 
G01 X272.325 Y110.980 
G01 X271.773 Y108.927 
G01 X271.283 Y106.836 
G01 X270.854 Y104.712 
G01 X270.488 Y102.557 
G01 X270.184 Y100.377 
G01 X269.944 Y98.175 
G01 X269.767 Y95.957 
G01 X269.654 Y93.726 
G01 X269.604 Y91.487 
G01 X269.617 Y89.245 
G01 X269.692 Y87.004 
G01 X269.829 Y84.769 
G01 X270.028 Y82.546 
G01 X270.287 Y80.338 
G01 X270.435 Y79.269 
G01 X270.681 Y77.683 
G01 X270.953 Y76.131 
G01 X271.255 Y74.591 
G01 X271.586 Y73.064 
G01 X271.948 Y71.553 
G01 X272.339 Y70.060 
G01 X272.759 Y68.588 
G01 X273.209 Y67.139 
G01 X273.688 Y65.714 
G01 X274.195 Y64.317 
G01 X274.730 Y62.949 
G01 X275.293 Y61.611 
G01 X275.883 Y60.306 
G01 X276.499 Y59.036 
G01 X277.141 Y57.800 
G01 X277.838 Y56.549 
G01 X278.603 Y55.276 
G01 X279.444 Y53.985 
G01 X280.327 Y52.733 
G01 X281.249 Y51.525 
G01 X282.204 Y50.368 
G01 X283.189 Y49.267 
G01 X284.199 Y48.225 
G01 X285.214 Y47.262 
G01 X285.863 Y46.687 
G01 X286.515 Y46.137 
G01 X287.185 Y45.601 
G01 X287.872 Y45.079 
G01 X288.575 Y44.572 
G01 X289.291 Y44.082 
G01 X290.020 Y43.610 
G01 X290.759 Y43.156 
G01 X291.508 Y42.722 
G01 X292.265 Y42.309 
G01 X293.028 Y41.917 
G01 X293.795 Y41.547 
G01 X294.564 Y41.200 
G01 X295.335 Y40.876 
G01 X296.105 Y40.576 
G01 X297.422 Y40.116 
G01 X298.476 Y39.797 
G01 X299.868 Y39.442 
G01 X300.886 Y39.233 
G01 X301.758 Y39.086 
G01 X302.580 Y38.976 
G01 X303.351 Y38.900 
G01 X304.072 Y38.854 
G01 X304.743 Y38.831 
G01 X305.934 Y38.847 
G01 X306.921 Y38.916 
G01 X308.017 Y39.063 
G01 X308.926 Y39.250 
G01 X309.858 Y39.506 
G01 X310.792 Y39.826 
G01 X311.708 Y40.205 
G01 X312.585 Y40.634 
G01 X313.399 Y41.099 
G01 X313.945 Y41.443 
G01 X314.506 Y41.824 
G01 X315.083 Y42.243 
G01 X315.673 Y42.700 
G01 X316.275 Y43.196 
G01 X316.887 Y43.730 
G01 X317.501 Y44.295 
G01 X317.111 Y45.081 
G01 X316.124 Y47.233 
G01 X315.220 Y49.369 
G01 X314.464 Y51.294 
G01 X313.767 Y53.199 
G01 X313.117 Y55.104 
G01 X312.513 Y57.010 
G01 X311.953 Y58.913 
G01 X311.435 Y60.814 
G01 X310.958 Y62.712 
G01 X310.519 Y64.604 
G01 X310.117 Y66.490 
G01 X309.751 Y68.370 
G01 X309.418 Y70.241 
G01 X309.118 Y72.105 
G01 X308.848 Y73.959 
G01 X308.608 Y75.802 
G01 X308.395 Y77.635 
G01 X308.207 Y79.470 
G01 X308.023 Y81.564 
G01 X307.870 Y83.674 
G01 X307.750 Y85.787 
G01 X307.662 Y87.903 
G01 X307.607 Y90.022 
G01 X307.585 Y92.143 
G01 X307.596 Y94.265 
G01 X307.640 Y96.387 
G01 X307.717 Y98.511 
G01 X307.827 Y100.633 
G01 X307.971 Y102.755 
G01 X308.148 Y104.876 
G01 X308.360 Y106.995 
G01 X308.606 Y109.111 
G01 X308.886 Y111.224 
G01 X309.196 Y113.308 
G01 X309.744 Y116.544 
G01 X310.296 Y119.405 
G01 X310.878 Y122.090 
G01 X311.465 Y124.540 
G01 X312.047 Y126.752 
G01 X312.609 Y128.721 
G01 X313.136 Y130.440 
G01 X313.622 Y131.928 
G01 X314.127 Y133.380 
G01 X314.650 Y134.795 
G01 X315.184 Y136.153 
G01 X315.985 Y138.045 
G01 X318.375 Y138.731  
G01 X317.639 Y139.243  
G01 X316.651 Y139.852 
G01 X315.535 Y140.445 
G01 X314.327 Y140.995 
G01 X313.036 Y141.494 
G01 X311.757 Y141.910 
G01 X310.732 Y142.190 
G01 X309.770 Y142.418 
G01 X308.791 Y142.613 
G01 X307.799 Y142.775 
G01 X306.800 Y142.903 
G01 X305.797 Y142.997 
G01 X304.796 Y143.057 
G01 X303.802 Y143.082 
G01 X302.819 Y143.072 
G01 X301.288 Y142.991 
G01 X300.157 Y142.873 
G01 X299.022 Y142.707 
G01 X297.892 Y142.493 
G01 X296.773 Y142.232 
G01 X295.673 Y141.927 
G01 X294.599 Y141.579 
G01 X293.556 Y141.191 
G01 X292.462 Y140.726 
G01 X291.285 Y140.158 
G01 X290.102 Y139.516 
G01 X288.922 Y138.804 
G01 X287.754 Y138.025 
G01 X286.605 Y137.185 
G01 X285.483 Y136.288 
G01 X284.396 Y135.341 
G01 X283.310 Y134.313 
G01 X282.692 Y133.687 
G01 X282.022 Y132.977 
G01 X281.308 Y132.178 
G01 X280.554 Y131.289 
G01 X279.766 Y130.305 
G01 X278.531 Y128.643 
G01 X277.688 Y127.412 
G01 X276.833 Y126.075 
G01 X275.974 Y124.631 
G01 X275.117 Y123.075 
G01 X274.270 Y121.405 
G01 X273.438 Y119.616 
G01 X272.629 Y117.703 
G01 X271.849 Y115.663 
G01 X271.134 Y113.573 
G01 X270.504 Y111.502 
G01 X269.936 Y109.390 
G01 X269.431 Y107.240 
G01 X268.991 Y105.058 
G01 X268.615 Y102.847 
G01 X268.304 Y100.610 
G01 X268.057 Y98.353 
G01 X267.876 Y96.080 
G01 X267.760 Y93.795 
G01 X267.709 Y91.502 
G01 X267.722 Y89.207 
G01 X267.799 Y86.914 
G01 X267.940 Y84.627 
G01 X268.143 Y82.351 
G01 X268.408 Y80.091 
G01 X268.560 Y78.994 
G01 X268.811 Y77.374 
G01 X269.089 Y75.785 
G01 X269.399 Y74.207 
G01 X269.739 Y72.642 
G01 X270.109 Y71.092 
G01 X270.511 Y69.560 
G01 X270.943 Y68.047 
G01 X271.406 Y66.556 
G01 X271.899 Y65.089 
G01 X272.421 Y63.648 
G01 X272.974 Y62.236 
G01 X273.556 Y60.853 
G01 X274.166 Y59.503 
G01 X274.805 Y58.185 
G01 X275.472 Y56.902 
G01 X276.193 Y55.607 
G01 X276.996 Y54.271 
G01 X277.875 Y52.922 
G01 X278.799 Y51.612 
G01 X279.764 Y50.347 
G01 X280.767 Y49.133 
G01 X281.802 Y47.975 
G01 X282.866 Y46.878 
G01 X283.940 Y45.859 
G01 X284.624 Y45.253 
G01 X285.312 Y44.673 
G01 X286.020 Y44.107 
G01 X286.745 Y43.556 
G01 X287.485 Y43.022 
G01 X288.241 Y42.505 
G01 X289.009 Y42.007 
G01 X289.789 Y41.529 
G01 X290.579 Y41.071 
G01 X291.377 Y40.635 
G01 X292.183 Y40.221 
G01 X292.993 Y39.830 
G01 X293.808 Y39.462 
G01 X294.624 Y39.119 
G01 X295.440 Y38.801 
G01 X296.839 Y38.313 
G01 X297.961 Y37.973 
G01 X299.462 Y37.591 
G01 X300.537 Y37.370 
G01 X301.475 Y37.212 
G01 X302.362 Y37.094 
G01 X303.196 Y37.012 
G01 X303.980 Y36.961 
G01 X304.711 Y36.937 
G01 X306.015 Y36.953 
G01 X307.107 Y37.030 
G01 X307.985 Y37.139 
G01 X309.021 Y37.328 
G01 X310.065 Y37.590 
G01 X311.115 Y37.926 
G01 X312.149 Y38.329 
G01 X313.149 Y38.793 
G01 X313.723 Y39.096 
G01 X314.380 Y39.477 
G01 X314.981 Y39.856 
G01 X315.596 Y40.273 
G01 X316.221 Y40.727 
G01 X316.856 Y41.220 
G01 X317.500 Y41.750 
G01 X318.151 Y42.318 
G01 X318.808 Y42.922 
G01 X319.809 Y43.908 
G01 X318.821 Y45.897 
G01 X317.858 Y47.997 
G01 X316.975 Y50.085 
G01 X316.236 Y51.966 
G01 X315.554 Y53.830 
G01 X314.917 Y55.696 
G01 X314.326 Y57.563 
G01 X313.777 Y59.430 
G01 X313.269 Y61.295 
G01 X312.800 Y63.157 
G01 X312.369 Y65.015 
G01 X311.974 Y66.869 
G01 X311.614 Y68.717 
G01 X311.287 Y70.558 
G01 X310.991 Y72.392 
G01 X310.725 Y74.218 
G01 X310.488 Y76.034 
G01 X310.279 Y77.841 
G01 X310.093 Y79.649 
G01 X309.912 Y81.715 
G01 X309.761 Y83.796 
G01 X309.643 Y85.880 
G01 X309.556 Y87.967 
G01 X309.502 Y90.056 
G01 X309.480 Y92.148 
G01 X309.491 Y94.240 
G01 X309.534 Y96.334 
G01 X309.610 Y98.427 
G01 X309.719 Y100.520 
G01 X309.861 Y102.612 
G01 X310.036 Y104.703 
G01 X310.244 Y106.791 
G01 X310.486 Y108.877 
G01 X310.762 Y110.960 
G01 X311.069 Y113.015 
G01 X311.608 Y116.201 
G01 X312.153 Y119.024 
G01 X312.725 Y121.669 
G01 X313.303 Y124.078 
G01 X313.875 Y126.251 
G01 X314.426 Y128.183 
G01 X314.943 Y129.868 
G01 X315.418 Y131.323 
G01 X315.910 Y132.741 
G01 X316.421 Y134.119 
G01 X316.941 Y135.442 
G01 X317.468 Y136.709 
G01 X318.000 Y137.921 
G01 X318.375 Y138.731 
G01 X320.739 Y139.277  
G01 X319.744 Y140.076  
G01 X318.683 Y140.825 
G01 X317.593 Y141.496 
G01 X316.373 Y142.145 
G01 X315.062 Y142.742 
G01 X313.670 Y143.280 
G01 X312.282 Y143.731 
G01 X311.200 Y144.027 
G01 X310.173 Y144.270 
G01 X309.129 Y144.478 
G01 X308.073 Y144.650 
G01 X307.009 Y144.787 
G01 X305.942 Y144.887 
G01 X304.876 Y144.950 
G01 X303.817 Y144.977 
G01 X302.768 Y144.967 
G01 X301.675 Y144.919 
G01 X300.527 Y144.823 
G01 X299.314 Y144.671 
G01 X298.103 Y144.468 
G01 X296.900 Y144.214 
G01 X295.713 Y143.911 
G01 X294.548 Y143.561 
G01 X293.412 Y143.166 
G01 X292.323 Y142.733 
G01 X291.051 Y142.158 
G01 X289.790 Y141.512 
G01 X288.532 Y140.791 
G01 X287.285 Y139.999 
G01 X286.058 Y139.142 
G01 X284.857 Y138.223 
G01 X283.691 Y137.250 
G01 X282.568 Y136.231 
G01 X281.328 Y135.003 
G01 X280.627 Y134.259 
G01 X279.879 Y133.423 
G01 X279.091 Y132.494 
G01 X278.269 Y131.468 
G01 X277.381 Y130.289 
G01 X276.548 Y129.111 
G01 X275.665 Y127.778 
G01 X274.775 Y126.336 
G01 X273.885 Y124.782 
G01 X273.002 Y123.113 
G01 X272.133 Y121.325 
G01 X271.285 Y119.414 
G01 X270.465 Y117.376 
G01 X270.067 Y116.308 
G01 X269.331 Y114.155 
G01 X268.682 Y112.024 
G01 X268.098 Y109.852 
G01 X267.580 Y107.644 
G01 X267.128 Y105.404 
G01 X266.742 Y103.136 
G01 X266.423 Y100.843 
G01 X266.171 Y98.531 
G01 X265.985 Y96.203 
G01 X265.867 Y93.864 
G01 X265.814 Y91.518 
G01 X265.827 Y89.170 
G01 X265.906 Y86.824 
G01 X266.050 Y84.485 
G01 X266.258 Y82.157 
G01 X266.529 Y79.845 
G01 X266.685 Y78.719 
G01 X266.941 Y77.065 
G01 X267.226 Y75.440 
G01 X267.543 Y73.824 
G01 X267.891 Y72.221 
G01 X268.271 Y70.632 
G01 X268.683 Y69.059 
G01 X269.127 Y67.506 
G01 X269.602 Y65.973 
G01 X270.109 Y64.464 
G01 X270.648 Y62.980 
G01 X271.218 Y61.523 
G01 X271.819 Y60.095 
G01 X272.450 Y58.699 
G01 X273.112 Y57.334 
G01 X273.803 Y56.004 
G01 X274.548 Y54.666 
G01 X275.390 Y53.266 
G01 X276.306 Y51.858 
G01 X277.271 Y50.490 
G01 X278.280 Y49.169 
G01 X279.330 Y47.898 
G01 X280.415 Y46.684 
G01 X281.533 Y45.531 
G01 X282.666 Y44.455 
G01 X283.385 Y43.819 
G01 X284.110 Y43.208 
G01 X284.854 Y42.612 
G01 X285.617 Y42.033 
G01 X286.396 Y41.471 
G01 X287.190 Y40.928 
G01 X287.998 Y40.404 
G01 X288.818 Y39.901 
G01 X289.649 Y39.419 
G01 X290.490 Y38.960 
G01 X291.338 Y38.524 
G01 X292.192 Y38.112 
G01 X293.051 Y37.725 
G01 X293.913 Y37.363 
G01 X294.776 Y37.026 
G01 X296.256 Y36.510 
G01 X297.445 Y36.150 
G01 X298.581 Y35.851 
G01 X300.189 Y35.507 
G01 X301.193 Y35.338 
G01 X302.144 Y35.211 
G01 X303.042 Y35.123 
G01 X303.887 Y35.068 
G01 X304.678 Y35.042 
G01 X305.415 Y35.040 
G01 X306.723 Y35.096 
G01 X307.806 Y35.202 
G01 X309.039 Y35.397 
G01 X310.196 Y35.662 
G01 X311.361 Y36.007 
G01 X312.514 Y36.429 
G01 X313.637 Y36.922 
G01 X314.652 Y37.444 
G01 X315.361 Y37.856 
G01 X316.018 Y38.270 
G01 X316.685 Y38.722 
G01 X317.359 Y39.212 
G01 X318.040 Y39.740 
G01 X318.726 Y40.305 
G01 X319.416 Y40.907 
G01 X320.108 Y41.544 
G01 X320.802 Y42.215 
G01 X321.496 Y42.920 
G01 X322.125 Y43.588 
G01 X321.541 Y44.677 
G01 X320.532 Y46.713 
G01 X319.593 Y48.761 
G01 X318.730 Y50.800 
G01 X318.008 Y52.638 
G01 X317.340 Y54.462 
G01 X316.718 Y56.289 
G01 X316.138 Y58.117 
G01 X315.600 Y59.946 
G01 X315.102 Y61.775 
G01 X314.642 Y63.602 
G01 X314.219 Y65.427 
G01 X313.831 Y67.248 
G01 X313.477 Y69.064 
G01 X313.155 Y70.875 
G01 X312.864 Y72.679 
G01 X312.603 Y74.477 
