%
( snowmanface2 ) ( File created: Monday December 02 2024 - 08:46 PM)
( for LinuxCNC )
( Material Size) ( X= 1250.000, Y= 180.000, Z= 19.000)
G90 (Incremental distance mode)
G17 G21 (Active Plane: XY)(Metric Mode)
G40 G49 G80(Tool Diameter, Length compensation & canned cycles OFF)
G64 P0.05 Q0.05(Path Blending)
T2 M06 (TOOL USE End Mill 4 mm)
G90 (absolute distance mode)
G54 (Coordinate System)
S18000M3
G00 Z39.320
G4 P6
( Array Toolpath 1 )
G00 X586.182 Y89.309 Z24.080 F4000.0
G01 Z4.000 F1200.0 M3
G03 X585.838 Y90.102 I-1.709 J-0.271
G03 X585.136 Y90.644 I-1.411 J-1.100
G03 X584.335 Y90.784 I-0.690 J-1.598
G03 X583.541 Y90.540 I0.114 J-1.784
G03 X582.688 Y89.213 I0.890 J-1.510
G03 X583.248 Y87.724 I1.763 J-0.186
G03 X584.017 Y87.310 I1.192 J1.291
G03 X584.890 Y87.317 I0.424 J1.707
G03 X585.916 Y88.059 I-0.450 J1.702
G03 X586.182 Y89.309 I-1.493 J0.971
G00 Z24.080
G00 X610.644 Y90.030  F4000.0
G01 Z4.000 F1200.0 M3
G03 X610.300 Y90.823 I-1.709 J-0.271
G03 X609.598 Y91.365 I-1.411 J-1.100
G03 X608.797 Y91.504 I-0.690 J-1.598
G03 X608.003 Y91.260 I0.114 J-1.784
G03 X607.150 Y89.934 I0.890 J-1.510
G03 X607.711 Y88.445 I1.763 J-0.186
G03 X608.479 Y88.031 I1.192 J1.291
G03 X609.352 Y88.037 I0.424 J1.707
G03 X610.379 Y88.780 I-0.450 J1.702
G03 X610.644 Y90.030 I-1.493 J0.971
G00 Z24.080
G00 X638.003 Y90.836  F4000.0
G01 Z4.000 F1200.0 M3
G03 X637.659 Y91.628 I-1.709 J-0.271
G03 X636.957 Y92.171 I-1.411 J-1.100
G03 X636.156 Y92.310 I-0.690 J-1.598
G03 X635.362 Y92.066 I0.114 J-1.784
G03 X634.509 Y90.740 I0.890 J-1.510
G03 X635.069 Y89.251 I1.763 J-0.186
G03 X635.838 Y88.837 I1.192 J1.291
G03 X636.711 Y88.843 I0.424 J1.707
G03 X637.737 Y89.586 I-0.450 J1.702
G03 X638.003 Y90.836 I-1.493 J0.971
G00 Z24.080
G00 X662.465 Y91.556  F4000.0
G01 Z4.000 F1200.0 M3
G03 X662.121 Y92.349 I-1.709 J-0.271
G03 X661.419 Y92.892 I-1.411 J-1.100
G03 X660.618 Y93.031 I-0.690 J-1.598
G03 X659.825 Y92.787 I0.114 J-1.784
G03 X658.971 Y91.461 I0.890 J-1.510
G03 X659.532 Y89.972 I1.763 J-0.186
G03 X660.300 Y89.557 I1.192 J1.291
G03 X661.173 Y89.564 I0.424 J1.707
G03 X662.200 Y90.307 I-0.450 J1.702
G03 X662.465 Y91.556 I-1.493 J0.971
G00 Z24.080
G00 X686.927 Y92.277  F4000.0
G01 Z4.000 F1200.0 M3
G03 X686.583 Y93.070 I-1.709 J-0.271
G03 X685.881 Y93.612 I-1.411 J-1.100
G03 X685.080 Y93.751 I-0.690 J-1.598
G03 X684.287 Y93.508 I0.114 J-1.784
G03 X683.433 Y92.181 I0.890 J-1.510
G03 X683.994 Y90.692 I1.763 J-0.186
G03 X684.762 Y90.278 I1.192 J1.291
G03 X685.635 Y90.285 I0.424 J1.707
G03 X686.662 Y91.027 I-0.450 J1.702
G03 X686.927 Y92.277 I-1.493 J0.971
G00 Z24.080
G00 X726.235 Y94.706  F4000.0
G01 Z4.000 F1200.0 M3
G01 X726.288 Y94.733  F2000.0
G01 X726.312 Y94.785 
G01 X726.280 Y94.850 
G01 X726.221 Y94.869 
G01 X726.162 Y94.843 
G01 X726.145 Y94.767 
G01 X726.198 Y94.709 
G01 X726.235 Y94.706 
G00 Z24.080
G00 X727.880 Y101.007  F4000.0
G01 Z4.000 F1200.0 M3
G01 X727.933 Y101.033  F2000.0
G01 X727.958 Y101.085 
G01 X727.925 Y101.150 
G01 X727.866 Y101.169 
G01 X727.808 Y101.143 
G01 X727.790 Y101.068 
G01 X727.843 Y101.009 
G01 X727.880 Y101.007 
G00 Z24.080
G00 X730.793 Y106.830  F4000.0
G01 Z4.000 F1200.0 M3
G01 X730.846 Y106.856  F2000.0
G01 X730.870 Y106.909 
G01 X730.838 Y106.974 
G01 X730.779 Y106.993 
G01 X730.720 Y106.966 
G01 X730.703 Y106.891 
G01 X730.755 Y106.833 
G01 X730.793 Y106.830 
G00 Z24.080
G00 X739.515 Y92.034  F4000.0
G01 Z4.000 F1200.0 M3
G01 X739.921 Y91.721  F2000.0
G01 X740.054 Y90.567 
G01 X740.173 Y89.778 
G01 X740.507 Y87.832 
G01 X740.983 Y85.366 
G01 X741.235 Y82.394 
G01 X740.983 Y85.366 
G01 X741.027 Y86.840 
G01 X741.069 Y89.357 
G01 X741.068 Y91.008 
G01 X741.049 Y91.717 
G01 X741.415 Y92.028 
G01 X741.049 Y91.717 
G01 X740.613 Y91.749 
G01 X740.259 Y91.748 
G01 X739.921 Y91.721 
G01 X739.515 Y92.034 
G01 X737.720 Y93.320  
G01 X737.560 Y93.187  
G01 X737.466 Y93.016 
G01 X737.440 Y92.879 
G01 X737.476 Y92.088 
G01 X737.587 Y90.951 
G01 X737.806 Y89.396 
G01 X738.148 Y87.406 
G01 X738.524 Y85.419 
G01 X738.933 Y83.434 
G01 X739.370 Y81.454 
G01 X739.738 Y79.893 
G01 X740.131 Y78.340 
G01 X740.550 Y76.796 
G01 X740.998 Y75.263 
G01 X741.475 Y73.742 
G01 X742.178 Y71.705 
G01 X742.533 Y74.099 
G01 X742.829 Y76.610 
G01 X743.057 Y79.132 
G01 X743.228 Y81.678 
G01 X743.348 Y84.227 
G01 X743.424 Y86.784 
G01 X743.467 Y89.338 
G01 X743.465 Y91.040 
G01 X743.433 Y92.252 
G01 X743.362 Y93.210 
G01 X743.266 Y93.369 
G01 X743.200 Y93.433 
G01 X743.052 Y93.526 
G01 X742.564 Y93.766 
G01 X742.111 Y93.935 
G01 X741.547 Y94.070 
G01 X741.207 Y94.114 
G01 X740.684 Y94.147 
G01 X740.162 Y94.145 
G01 X739.654 Y94.106 
G01 X739.005 Y93.994 
G01 X738.541 Y93.831 
G01 X738.133 Y93.603 
G01 X737.896 Y93.429 
G01 X737.720 Y93.320 
G00 Z24.080
G00 X726.427 Y88.198  F4000.0
G01 Z4.000 F1200.0 M3
G01 X726.480 Y88.224  F2000.0
G01 X726.504 Y88.276 
G01 X726.471 Y88.341 
G01 X726.413 Y88.361 
G01 X726.354 Y88.334 
G01 X726.337 Y88.259 
G01 X726.389 Y88.200 
G01 X726.427 Y88.198 
G00 Z24.080
G00 X728.440 Y82.006  F4000.0
G01 Z4.000 F1200.0 M3
G01 X728.493 Y82.032  F2000.0
G01 X728.517 Y82.084 
G01 X728.485 Y82.149 
G01 X728.426 Y82.168 
G01 X728.367 Y82.142 
G01 X728.350 Y82.066 
G01 X728.402 Y82.008 
G01 X728.440 Y82.006 
G00 Z24.080
G00 X731.690 Y76.363  F4000.0
G01 Z4.000 F1200.0 M3
G01 X731.744 Y76.389  F2000.0
G01 X731.768 Y76.442 
G01 X731.735 Y76.507 
G01 X731.677 Y76.526 
G01 X731.618 Y76.499 
G01 X731.601 Y76.424 
G01 X731.653 Y76.366 
G01 X731.690 Y76.363 
G00 Z24.080
G00 X754.858 Y81.011  F4000.0
G01 Z4.000 F1200.0 M3
G01 X754.889 Y81.319  F2000.0
G01 X754.868 Y81.600 
G01 X754.769 Y81.960 
G01 X754.684 Y82.138 
G01 X754.545 Y82.350 
G01 X754.411 Y82.511 
G01 X754.152 Y82.746 
G01 X753.823 Y82.935 
G01 X753.477 Y83.040 
G01 X753.134 Y83.068 
G01 X752.920 Y83.055 
G01 X752.570 Y82.983 
G01 X752.229 Y82.830 
G01 X751.945 Y82.618 
G01 X751.725 Y82.368 
G01 X751.523 Y82.028 
G01 X751.433 Y81.791 
G01 X751.387 Y81.531 
G01 X751.376 Y81.336 
G01 X751.399 Y81.006 
G01 X751.488 Y80.673 
G01 X751.663 Y80.337 
G01 X751.843 Y80.111 
G01 X752.128 Y79.865 
G01 X752.299 Y79.764 
G01 X752.534 Y79.665 
G01 X752.736 Y79.605 
G01 X753.082 Y79.555 
G01 X753.456 Y79.582 
G01 X753.799 Y79.686 
G01 X754.094 Y79.849 
G01 X754.263 Y79.976 
G01 X754.511 Y80.224 
G01 X754.645 Y80.420 
G01 X754.773 Y80.698 
G01 X754.858 Y81.011 
G00 Z24.080
G00 X754.204 Y103.217  F4000.0
G01 Z4.000 F1200.0 M3
G01 X754.235 Y103.524  F2000.0
G01 X754.214 Y103.806 
G01 X754.115 Y104.165 
G01 X754.030 Y104.343 
G01 X753.891 Y104.556 
G01 X753.757 Y104.717 
G01 X753.498 Y104.952 
G01 X753.169 Y105.140 
G01 X752.823 Y105.246 
G01 X752.480 Y105.273 
G01 X752.265 Y105.261 
G01 X751.916 Y105.189 
G01 X751.575 Y105.036 
G01 X751.291 Y104.824 
G01 X751.071 Y104.573 
G01 X750.869 Y104.233 
G01 X750.779 Y103.996 
G01 X750.733 Y103.737 
G01 X750.722 Y103.541 
G01 X750.745 Y103.211 
G01 X750.834 Y102.879 
G01 X751.009 Y102.543 
G01 X751.189 Y102.316 
G01 X751.473 Y102.071 
G01 X751.644 Y101.970 
G01 X751.879 Y101.871 
G01 X752.081 Y101.811 
G01 X752.428 Y101.761 
G01 X752.802 Y101.788 
G01 X753.145 Y101.891 
G01 X753.440 Y102.055 
G01 X753.608 Y102.182 
G01 X753.857 Y102.429 
G01 X753.991 Y102.625 
G01 X754.119 Y102.903 
G01 X754.204 Y103.217 
G00 Z24.080
G00 X851.072 Y89.309  F4000.0
G01 Z4.000 F1200.0 M3
G03 X850.728 Y90.102 I-1.709 J-0.271
G03 X850.026 Y90.644 I-1.411 J-1.100
G03 X849.225 Y90.784 I-0.690 J-1.598
G03 X848.431 Y90.540 I0.114 J-1.784
G03 X847.578 Y89.213 I0.890 J-1.510
G03 X848.138 Y87.724 I1.763 J-0.186
G03 X848.907 Y87.310 I1.192 J1.291
G03 X849.780 Y87.317 I0.424 J1.707
G03 X850.806 Y88.059 I-0.450 J1.702
G03 X851.072 Y89.309 I-1.493 J0.971
G00 Z24.080
G00 X875.535 Y90.030  F4000.0
G01 Z4.000 F1200.0 M3
G03 X875.190 Y90.823 I-1.709 J-0.271
G03 X874.489 Y91.365 I-1.411 J-1.100
G03 X873.687 Y91.504 I-0.690 J-1.598
G03 X872.894 Y91.260 I0.114 J-1.784
G03 X872.040 Y89.934 I0.890 J-1.510
G03 X872.601 Y88.445 I1.763 J-0.186
G03 X873.369 Y88.031 I1.192 J1.291
G03 X874.243 Y88.037 I0.424 J1.707
G03 X875.269 Y88.780 I-0.450 J1.702
G03 X875.535 Y90.030 I-1.493 J0.971
G00 Z24.080
G00 X902.893 Y90.836  F4000.0
G01 Z4.000 F1200.0 M3
G03 X902.549 Y91.628 I-1.709 J-0.271
G03 X901.847 Y92.171 I-1.411 J-1.100
G03 X901.046 Y92.310 I-0.690 J-1.598
G03 X900.252 Y92.066 I0.114 J-1.784
G03 X899.399 Y90.740 I0.890 J-1.510
G03 X899.959 Y89.251 I1.763 J-0.186
G03 X900.728 Y88.837 I1.192 J1.291
G03 X901.601 Y88.843 I0.424 J1.707
G03 X902.627 Y89.586 I-0.450 J1.702
G03 X902.893 Y90.836 I-1.493 J0.971
G00 Z24.080
G00 X927.356 Y91.556  F4000.0
G01 Z4.000 F1200.0 M3
G03 X927.011 Y92.349 I-1.709 J-0.271
G03 X926.310 Y92.892 I-1.411 J-1.100
G03 X925.508 Y93.031 I-0.690 J-1.598
G03 X924.715 Y92.787 I0.114 J-1.784
G03 X923.861 Y91.461 I0.890 J-1.510
G03 X924.422 Y89.972 I1.763 J-0.186
G03 X925.190 Y89.557 I1.192 J1.291
G03 X926.064 Y89.564 I0.424 J1.707
G03 X927.090 Y90.307 I-0.450 J1.702
G03 X927.356 Y91.556 I-1.493 J0.971
G00 Z24.080
G00 X951.818 Y92.277  F4000.0
G01 Z4.000 F1200.0 M3
G03 X951.473 Y93.070 I-1.709 J-0.271
G03 X950.772 Y93.612 I-1.411 J-1.100
G03 X949.970 Y93.751 I-0.690 J-1.598
G03 X949.177 Y93.508 I0.114 J-1.784
G03 X948.323 Y92.181 I0.890 J-1.510
G03 X948.884 Y90.692 I1.763 J-0.186
G03 X949.652 Y90.278 I1.192 J1.291
G03 X950.526 Y90.285 I0.424 J1.707
G03 X951.552 Y91.027 I-0.450 J1.702
G03 X951.818 Y92.277 I-1.493 J0.971
G00 Z24.080
G00 X991.125 Y94.706  F4000.0
G01 Z4.000 F1200.0 M3
G01 X991.178 Y94.733  F2000.0
G01 X991.203 Y94.785 
G01 X991.170 Y94.850 
G01 X991.111 Y94.869 
G01 X991.053 Y94.843 
G01 X991.035 Y94.767 
G01 X991.088 Y94.709 
G01 X991.125 Y94.706 
G00 Z24.080
G00 X992.770 Y101.007  F4000.0
G01 Z4.000 F1200.0 M3
G01 X992.823 Y101.033  F2000.0
G01 X992.848 Y101.085 
G01 X992.815 Y101.150 
G01 X992.756 Y101.169 
G01 X992.698 Y101.143 
G01 X992.680 Y101.068 
G01 X992.733 Y101.009 
G01 X992.770 Y101.007 
G00 Z24.080
G00 X995.683 Y106.830  F4000.0
G01 Z4.000 F1200.0 M3
G01 X995.736 Y106.856  F2000.0
G01 X995.760 Y106.909 
G01 X995.728 Y106.974 
G01 X995.669 Y106.993 
G01 X995.611 Y106.966 
G01 X995.593 Y106.891 
G01 X995.646 Y106.833 
G01 X995.683 Y106.830 
G00 Z24.080
G00 X1004.405 Y92.034  F4000.0
G01 Z4.000 F1200.0 M3
G01 X1004.811 Y91.721  F2000.0
G01 X1004.944 Y90.567 
G01 X1005.063 Y89.778 
G01 X1005.397 Y87.832 
G01 X1005.873 Y85.366 
G01 X1006.126 Y82.394 
G01 X1005.873 Y85.366 
G01 X1005.918 Y86.840 
G01 X1005.959 Y89.357 
G01 X1005.958 Y91.008 
G01 X1005.939 Y91.717 
G01 X1006.305 Y92.028 
G01 X1005.939 Y91.717 
G01 X1005.503 Y91.749 
G01 X1005.149 Y91.748 
G01 X1004.811 Y91.721 
G01 X1004.405 Y92.034 
G01 X1002.610 Y93.320  
G01 X1002.450 Y93.187  
G01 X1002.356 Y93.016 
G01 X1002.331 Y92.879 
G01 X1002.366 Y92.088 
G01 X1002.477 Y90.951 
G01 X1002.696 Y89.396 
G01 X1003.038 Y87.406 
G01 X1003.414 Y85.419 
G01 X1003.823 Y83.434 
G01 X1004.260 Y81.454 
G01 X1004.629 Y79.893 
G01 X1005.021 Y78.340 
G01 X1005.440 Y76.796 
G01 X1005.888 Y75.263 
G01 X1006.365 Y73.742 
G01 X1007.069 Y71.705 
G01 X1007.424 Y74.099 
G01 X1007.719 Y76.610 
G01 X1007.948 Y79.132 
G01 X1008.118 Y81.678 
G01 X1008.238 Y84.227 
G01 X1008.315 Y86.784 
G01 X1008.357 Y89.338 
G01 X1008.356 Y91.040 
G01 X1008.324 Y92.252 
G01 X1008.252 Y93.210 
G01 X1008.157 Y93.369 
G01 X1008.090 Y93.433 
G01 X1007.942 Y93.526 
G01 X1007.454 Y93.766 
G01 X1007.002 Y93.935 
G01 X1006.437 Y94.070 
G01 X1006.097 Y94.114 
G01 X1005.574 Y94.147 
G01 X1005.052 Y94.145 
G01 X1004.544 Y94.106 
G01 X1003.895 Y93.994 
G01 X1003.431 Y93.831 
G01 X1003.023 Y93.603 
G01 X1002.786 Y93.429 
G01 X1002.610 Y93.320 
G00 Z24.080
G00 X991.317 Y88.198  F4000.0
G01 Z4.000 F1200.0 M3
G01 X991.370 Y88.224  F2000.0
G01 X991.394 Y88.276 
G01 X991.362 Y88.341 
G01 X991.303 Y88.361 
G01 X991.244 Y88.334 
G01 X991.227 Y88.259 
G01 X991.279 Y88.200 
G01 X991.317 Y88.198 
G00 Z24.080
G00 X993.330 Y82.006  F4000.0
G01 Z4.000 F1200.0 M3
G01 X993.383 Y82.032  F2000.0
G01 X993.407 Y82.084 
G01 X993.375 Y82.149 
G01 X993.316 Y82.168 
G01 X993.257 Y82.142 
G01 X993.240 Y82.066 
G01 X993.292 Y82.008 
G01 X993.330 Y82.006 
G00 Z24.080
G00 X996.581 Y76.363  F4000.0
G01 Z4.000 F1200.0 M3
G01 X996.634 Y76.389  F2000.0
G01 X996.658 Y76.442 
G01 X996.625 Y76.507 
G01 X996.567 Y76.526 
G01 X996.508 Y76.499 
G01 X996.491 Y76.424 
G01 X996.543 Y76.366 
G01 X996.581 Y76.363 
G00 Z24.080
G00 X1019.749 Y81.011  F4000.0
G01 Z4.000 F1200.0 M3
G01 X1019.779 Y81.319  F2000.0
G01 X1019.758 Y81.600 
G01 X1019.659 Y81.960 
G01 X1019.574 Y82.138 
G01 X1019.436 Y82.350 
G01 X1019.302 Y82.511 
G01 X1019.043 Y82.746 
G01 X1018.713 Y82.935 
G01 X1018.367 Y83.040 
G01 X1018.024 Y83.068 
G01 X1017.810 Y83.055 
G01 X1017.460 Y82.983 
G01 X1017.119 Y82.830 
G01 X1016.835 Y82.618 
G01 X1016.615 Y82.368 
G01 X1016.413 Y82.028 
G01 X1016.323 Y81.791 
G01 X1016.277 Y81.531 
G01 X1016.266 Y81.336 
G01 X1016.289 Y81.006 
G01 X1016.378 Y80.673 
G01 X1016.553 Y80.337 
G01 X1016.733 Y80.111 
G01 X1017.018 Y79.865 
G01 X1017.189 Y79.764 
G01 X1017.424 Y79.665 
G01 X1017.626 Y79.605 
G01 X1017.972 Y79.555 
G01 X1018.346 Y79.582 
G01 X1018.689 Y79.686 
G01 X1018.984 Y79.849 
G01 X1019.153 Y79.976 
G01 X1019.401 Y80.224 
G01 X1019.535 Y80.420 
G01 X1019.663 Y80.698 
G01 X1019.749 Y81.011 
G00 Z24.080
G00 X1019.094 Y103.217  F4000.0
G01 Z4.000 F1200.0 M3
G01 X1019.125 Y103.524  F2000.0
G01 X1019.104 Y103.806 
G01 X1019.005 Y104.165 
G01 X1018.920 Y104.343 
G01 X1018.781 Y104.556 
G01 X1018.647 Y104.717 
G01 X1018.388 Y104.952 
G01 X1018.059 Y105.140 
G01 X1017.713 Y105.246 
G01 X1017.370 Y105.273 
G01 X1017.156 Y105.261 
G01 X1016.806 Y105.189 
G01 X1016.465 Y105.036 
G01 X1016.181 Y104.824 
G01 X1015.961 Y104.573 
G01 X1015.759 Y104.233 
G01 X1015.669 Y103.996 
G01 X1015.623 Y103.737 
G01 X1015.612 Y103.541 
G01 X1015.635 Y103.211 
G01 X1015.724 Y102.879 
G01 X1015.899 Y102.543 
G01 X1016.079 Y102.316 
G01 X1016.364 Y102.071 
G01 X1016.535 Y101.970 
G01 X1016.770 Y101.871 
G01 X1016.972 Y101.811 
G01 X1017.318 Y101.761 
G01 X1017.692 Y101.788 
G01 X1018.035 Y101.891 
G01 X1018.330 Y102.055 
G01 X1018.499 Y102.182 
G01 X1018.747 Y102.429 
G01 X1018.881 Y102.625 
G01 X1019.009 Y102.903 
G01 X1019.094 Y103.217 
G00 Z24.080
G00 Z39.320
M05
M1
( cutout [1] )
T21 M6( TOOL USE End Mill 6 mm  )
S18000 M03
( cutout [1] )
G00 X528.141 Y74.830 Z24.080 F6000.0
G01 Z14.250 F750.0 M3
G01 X527.949 Y76.229  F3000.0
G01 X527.775 Y77.627 
G01 X527.615 Y79.059 
G01 X527.473 Y80.495 
G01 X527.350 Y81.935 
G01 X527.245 Y83.378 
G01 X527.159 Y84.824 
G01 X527.091 Y86.273 
G01 X527.042 Y87.724 
G01 X527.011 Y89.177 
G01 X527.000 Y90.631 
G01 X527.007 Y92.086 
G01 X527.034 Y93.541 
G01 X527.079 Y94.997 
G01 X527.143 Y96.453 
G01 X527.227 Y97.908 
G01 X527.330 Y99.362 
G01 X527.453 Y100.815 
G01 X527.594 Y102.266 
G01 X527.756 Y103.715 
G01 X527.937 Y105.161 
G01 X528.137 Y106.605 
G01 X528.358 Y108.045 
G01 X528.598 Y109.482 
G01 X528.859 Y110.915 
G01 X529.139 Y112.343 
G01 X529.439 Y113.766 
G01 X529.760 Y115.184 
G01 X530.101 Y116.596 
G01 X530.463 Y118.003 
G01 X530.845 Y119.403 
G01 X531.248 Y120.796 
G01 X531.671 Y122.182 
G01 X532.117 Y123.564 
G01 X532.768 Y125.463 
G01 X533.465 Y127.356 
G01 X534.204 Y129.237 
G01 X534.988 Y131.104 
G01 X535.814 Y132.956 
G01 X536.684 Y134.791 
G01 X537.598 Y136.607 
G01 X538.554 Y138.401 
G01 X539.554 Y140.173 
G01 X540.597 Y141.920 
G01 X541.683 Y143.639 
G01 X542.813 Y145.331 
G01 X543.985 Y146.991 
G01 X545.201 Y148.619 
G01 X546.460 Y150.212 
G01 X547.758 Y151.764 
G01 X548.707 Y152.843 
G01 X549.677 Y153.901 
G01 X550.669 Y154.939 
G01 X551.685 Y155.959 
G01 X552.724 Y156.958 
G01 X553.784 Y157.936 
G01 X554.867 Y158.891 
G01 X555.970 Y159.823 
G01 X557.094 Y160.732 
G01 X558.238 Y161.615 
G01 X559.402 Y162.472 
G01 X560.585 Y163.302 
G01 X561.787 Y164.104 
G01 X563.008 Y164.877 
G01 X564.246 Y165.620 
G01 X565.499 Y166.331 
G01 X566.590 Y166.917 
G01 X567.693 Y167.477 
G01 X568.810 Y168.015 
G01 X569.938 Y168.528 
G01 X571.078 Y169.017 
G01 X572.229 Y169.481 
G01 X573.390 Y169.921 
G01 X574.560 Y170.336 
G01 X575.739 Y170.726 
G01 X576.925 Y171.091 
G01 X578.119 Y171.430 
G01 X579.319 Y171.743 
G01 X580.525 Y172.030 
G01 X581.736 Y172.291 
G01 X582.951 Y172.525 
G01 X584.175 Y172.733 
G01 X585.791 Y172.965 
G01 X587.422 Y173.151 
G01 X589.059 Y173.291 
G01 X590.703 Y173.385 
G01 X592.350 Y173.432 
G01 X593.999 Y173.434 
G01 X595.649 Y173.390 
G01 X597.297 Y173.301 
G01 X598.942 Y173.167 
G01 X600.582 Y172.987 
G01 X602.216 Y172.762 
G01 X603.842 Y172.493 
G01 X605.457 Y172.178 
G01 X607.061 Y171.818 
G01 X608.651 Y171.414 
G01 X610.221 Y170.967 
G01 X611.349 Y170.614 
G01 X612.465 Y170.238 
G01 X613.576 Y169.838 
G01 X614.679 Y169.413 
G01 X615.773 Y168.963 
G01 X616.859 Y168.489 
G01 X617.935 Y167.991 
G01 X619.000 Y167.468 
G01 X620.054 Y166.922 
G01 X621.095 Y166.351 
G01 X622.123 Y165.756 
G01 X623.137 Y165.138 
G01 X624.136 Y164.496 
G01 X625.119 Y163.830 
G01 X626.084 Y163.141 
G01 X627.030 Y162.430 
G01 X627.793 Y161.828 
G01 X628.542 Y161.212 
G01 X629.278 Y160.580 
G01 X630.001 Y159.933 
G01 X630.711 Y159.272 
G01 X631.407 Y158.596 
G01 X632.091 Y157.907 
G01 X632.760 Y157.205 
G01 X633.415 Y156.489 
G01 X634.056 Y155.762 
G01 X634.682 Y155.022 
G01 X635.294 Y154.272 
G01 X635.890 Y153.510 
G01 X636.471 Y152.737 
G01 X637.036 Y151.954 
G01 X637.588 Y151.159 
G01 X637.824 Y150.802 
G01 X637.988 Y150.563 
G01 X637.991 Y150.560 
G01 X638.013 Y150.536 
G01 X638.048 Y150.505 
G01 X638.087 Y150.476 
G01 X638.123 Y150.455 
G01 X638.194 Y150.424 
G01 X638.196 Y150.424 
G01 X638.218 Y150.420 
G01 X638.300 Y150.421 
G01 X638.326 Y150.424 
G01 X638.350 Y150.430 
G01 X638.383 Y150.442 
G01 X638.430 Y150.464 
G01 X638.478 Y150.491 
G01 X638.743 Y150.660 
G01 X639.993 Y151.463 
G01 X641.308 Y152.250 
G01 X642.647 Y152.998 
G01 X644.010 Y153.704 
G01 X645.393 Y154.368 
G01 X646.795 Y154.990 
G01 X648.215 Y155.568 
G01 X649.646 Y156.099 
G01 X650.710 Y156.461 
G01 X651.778 Y156.797 
G01 X652.856 Y157.108 
G01 X653.942 Y157.395 
G01 X655.037 Y157.656 
G01 X656.138 Y157.892 
G01 X657.245 Y158.102 
G01 X658.357 Y158.286 
G01 X659.474 Y158.444 
G01 X660.594 Y158.574 
G01 X661.718 Y158.677 
G01 X662.843 Y158.753 
G01 X663.970 Y158.801 
G01 X665.097 Y158.820 
G01 X666.224 Y158.810 
G01 X667.347 Y158.771 
G01 X668.350 Y158.711 
G01 X669.351 Y158.627 
G01 X670.349 Y158.519 
G01 X671.345 Y158.387 
G01 X672.338 Y158.233 
G01 X673.328 Y158.055 
G01 X674.313 Y157.855 
G01 X675.293 Y157.633 
G01 X676.268 Y157.389 
G01 X677.237 Y157.123 
G01 X678.198 Y156.836 
G01 X679.153 Y156.528 
G01 X680.099 Y156.199 
G01 X681.037 Y155.850 
G01 X681.966 Y155.480 
G01 X682.884 Y155.090 
G01 X683.782 Y154.685 
G01 X684.672 Y154.260 
G01 X685.553 Y153.815 
G01 X686.425 Y153.351 
G01 X687.287 Y152.869 
G01 X688.140 Y152.368 
G01 X688.983 Y151.850 
G01 X689.816 Y151.315 
G01 X690.638 Y150.763 
G01 X691.450 Y150.194 
G01 X692.252 Y149.610 
G01 X693.042 Y149.011 
G01 X693.821 Y148.396 
G01 X694.589 Y147.767 
G01 X695.345 Y147.124 
G01 X696.090 Y146.467 
G01 X696.822 Y145.797 
G01 X697.542 Y145.114 
G01 X698.249 Y144.419 
G01 X698.944 Y143.711 
G01 X699.625 Y142.992 
G01 X700.294 Y142.262 
G01 X700.948 Y141.521 
G01 X701.589 Y140.770 
G01 X702.216 Y140.008 
G01 X702.829 Y139.237 
G01 X703.427 Y138.457 
G01 X704.011 Y137.668 
G01 X704.580 Y136.871 
G01 X705.133 Y136.065 
G01 X705.671 Y135.252 
G01 X706.195 Y134.427 
G01 X706.988 Y133.120 
G01 X707.555 Y132.131 
G01 X707.946 Y131.411 
G01 X707.952 Y131.404 
G01 X707.986 Y131.368 
G01 X708.025 Y131.335 
G01 X708.061 Y131.311 
G01 X708.130 Y131.276 
G01 X708.137 Y131.275 
G01 X708.248 Y131.271 
G01 X708.676 Y131.286 
G01 X709.381 Y131.311 
G01 X710.266 Y131.315 
G01 X711.387 Y131.286 
G01 X712.407 Y131.240 
G01 X713.344 Y131.179 
G01 X714.215 Y131.104 
G01 X715.665 Y130.933 
G01 X716.717 Y130.753 
G01 X716.812 Y130.738 
G01 X716.840 Y130.735 
G01 X716.879 Y130.735 
G01 X716.919 Y130.738 
G01 X716.954 Y130.745 
G01 X717.021 Y130.767 
G01 X717.023 Y130.768 
G01 X717.043 Y130.780 
G01 X717.071 Y130.800 
G01 X717.719 Y131.323 
G01 X718.272 Y131.765 
G01 X718.974 Y132.302 
G01 X720.149 Y133.141 
G01 X721.363 Y133.943 
G01 X722.607 Y134.703 
G01 X723.879 Y135.420 
G01 X725.177 Y136.094 
G01 X726.500 Y136.724 
G01 X727.844 Y137.309 
G01 X729.208 Y137.848 
G01 X730.589 Y138.340 
G01 X731.986 Y138.785 
G01 X733.397 Y139.181 
G01 X734.819 Y139.528 
G01 X736.250 Y139.824 
G01 X737.689 Y140.069 
G01 X739.133 Y140.260 
G01 X740.572 Y140.397 
G01 X741.579 Y140.460 
G01 X742.581 Y140.495 
G01 X743.585 Y140.504 
G01 X744.589 Y140.487 
G01 X745.594 Y140.443 
G01 X746.598 Y140.373 
G01 X747.600 Y140.278 
G01 X748.599 Y140.156 
G01 X749.595 Y140.008 
G01 X750.587 Y139.835 
G01 X751.574 Y139.636 
G01 X752.554 Y139.411 
G01 X753.528 Y139.161 
G01 X754.493 Y138.886 
G01 X755.451 Y138.584 
G01 X756.400 Y138.257 
G01 X757.447 Y137.862 
G01 X758.485 Y137.434 
G01 X759.510 Y136.976 
G01 X760.521 Y136.489 
G01 X761.519 Y135.973 
G01 X762.502 Y135.430 
G01 X763.469 Y134.860 
G01 X764.420 Y134.265 
G01 X765.355 Y133.644 
G01 X766.272 Y133.000 
G01 X767.171 Y132.333 
G01 X768.051 Y131.644 
G01 X768.912 Y130.934 
G01 X769.753 Y130.203 
G01 X770.572 Y129.452 
G01 X771.371 Y128.682 
G01 X772.209 Y127.830 
G01 X773.026 Y126.955 
G01 X773.819 Y126.059 
G01 X774.590 Y125.141 
G01 X775.337 Y124.204 
G01 X776.060 Y123.248 
G01 X776.759 Y122.275 
G01 X777.434 Y121.284 
G01 X778.085 Y120.278 
G01 X778.710 Y119.257 
G01 X779.310 Y118.221 
G01 X779.885 Y117.173 
G01 X780.433 Y116.112 
G01 X780.955 Y115.040 
G01 X781.450 Y113.958 
G01 X781.918 Y112.867 
G01 X782.342 Y111.809 
G01 X782.742 Y110.742 
G01 X783.118 Y109.666 
G01 X783.469 Y108.581 
G01 X783.796 Y107.488 
G01 X784.100 Y106.388 
G01 X784.379 Y105.282 
G01 X784.635 Y104.171 
G01 X784.867 Y103.054 
G01 X785.075 Y101.934 
G01 X785.259 Y100.810 
G01 X785.420 Y99.683 
G01 X785.557 Y98.555 
G01 X785.670 Y97.425 
G01 X785.760 Y96.295 
G01 X785.826 Y95.161 
G01 X785.875 Y93.791 
G01 X785.890 Y92.415 
G01 X785.872 Y91.037 
G01 X785.820 Y89.659 
G01 X785.735 Y88.282 
G01 X785.617 Y86.906 
G01 X785.467 Y85.533 
G01 X785.285 Y84.164 
G01 X785.070 Y82.800 
G01 X784.824 Y81.441 
G01 X784.546 Y80.090 
G01 X784.236 Y78.746 
G01 X783.895 Y77.411 
G01 X783.523 Y76.085 
G01 X783.120 Y74.771 
G01 X782.688 Y73.473 
G01 X782.335 Y72.483 
G01 X781.972 Y71.523 
G01 X781.598 Y70.588 
G01 X781.215 Y69.678 
G01 X780.823 Y68.793 
G01 X780.422 Y67.932 
G01 X780.015 Y67.097 
G01 X779.595 Y66.274 
G01 X778.759 Y64.736 
G01 X777.900 Y63.281 
G01 X777.033 Y61.920 
G01 X776.163 Y60.652 
G01 X775.298 Y59.474 
G01 X774.445 Y58.386 
G01 X773.610 Y57.384 
G01 X772.800 Y56.469 
G01 X772.021 Y55.637 
G01 X771.281 Y54.888 
G01 X770.586 Y54.219 
G01 X769.939 Y53.626 
G01 X769.183 Y52.967 
G01 X768.406 Y52.325 
G01 X767.612 Y51.704 
G01 X766.800 Y51.103 
G01 X765.972 Y50.523 
G01 X765.129 Y49.965 
G01 X764.271 Y49.428 
G01 X763.400 Y48.914 
G01 X762.515 Y48.423 
G01 X761.618 Y47.954 
G01 X760.710 Y47.510 
G01 X759.791 Y47.089 
G01 X758.862 Y46.693 
G01 X757.923 Y46.323 
G01 X756.976 Y45.978 
G01 X756.022 Y45.659 
G01 X755.097 Y45.377 
G01 X754.164 Y45.118 
G01 X753.223 Y44.881 
G01 X752.274 Y44.667 
G01 X751.319 Y44.475 
G01 X750.358 Y44.305 
G01 X749.391 Y44.158 
G01 X748.420 Y44.032 
G01 X747.444 Y43.928 
G01 X746.465 Y43.847 
G01 X745.484 Y43.787 
G01 X744.500 Y43.749 
G01 X743.516 Y43.733 
G01 X742.530 Y43.739 
G01 X741.544 Y43.767 
G01 X740.559 Y43.816 
G01 X739.576 Y43.887 
G01 X738.594 Y43.980 
G01 X737.615 Y44.095 
G01 X736.639 Y44.232 
G01 X735.668 Y44.391 
G01 X734.701 Y44.572 
G01 X733.739 Y44.775 
G01 X732.784 Y45.000 
G01 X731.835 Y45.247 
G01 X730.893 Y45.516 
G01 X729.960 Y45.808 
G01 X729.036 Y46.122 
G01 X728.121 Y46.458 
G01 X727.216 Y46.817 
G01 X726.323 Y47.199 
G01 X725.444 Y47.602 
G01 X724.699 Y47.966 
G01 X723.979 Y48.339 
G01 X722.688 Y49.062 
G01 X721.520 Y49.784 
G01 X720.487 Y50.481 
G01 X719.585 Y51.140 
G01 X718.802 Y51.751 
G01 X717.694 Y52.678 
G01 X717.619 Y52.738 
G01 X717.573 Y52.770 
G01 X717.523 Y52.799 
G01 X717.476 Y52.821 
G01 X717.440 Y52.833 
G01 X717.379 Y52.845 
G01 X717.371 Y52.844 
G01 X717.311 Y52.836 
G01 X716.740 Y52.728 
G01 X715.961 Y52.616 
G01 X714.953 Y52.513 
G01 X713.076 Y52.386 
G01 X711.505 Y52.324 
G01 X710.234 Y52.309 
G01 X709.256 Y52.325 
G01 X708.773 Y52.349 
G01 X708.416 Y52.368 
G01 X708.174 Y52.369 
G01 X708.171 Y52.369 
G01 X708.169 Y52.369 
G01 X708.158 Y52.366 
G01 X708.086 Y52.337 
G01 X708.058 Y52.321 
G01 X708.026 Y52.298 
G01 X707.990 Y52.264 
G01 X707.984 Y52.257 
G01 X707.858 Y52.083 
G01 X707.152 Y50.928 
G01 X706.098 Y49.245 
G01 X705.437 Y48.233 
G01 X704.690 Y47.133 
G01 X703.850 Y45.944 
G01 X702.910 Y44.667 
G01 X701.985 Y43.470 
G01 X701.066 Y42.338 
G01 X700.157 Y41.273 
G01 X699.261 Y40.272 
G01 X698.380 Y39.334 
G01 X697.518 Y38.457 
G01 X696.678 Y37.640 
G01 X695.861 Y36.881 
G01 X695.071 Y36.178 
G01 X694.311 Y35.529 
G01 X693.583 Y34.934 
G01 X692.881 Y34.381 
G01 X691.630 Y33.449 
G01 X690.544 Y32.692 
G01 X689.622 Y32.084 
G01 X688.685 Y31.500 
G01 X687.734 Y30.937 
G01 X686.768 Y30.398 
G01 X685.788 Y29.881 
G01 X684.796 Y29.388 
G01 X683.792 Y28.918 
G01 X682.776 Y28.473 
G01 X681.751 Y28.052 
G01 X680.715 Y27.656 
G01 X679.671 Y27.284 
G01 X678.619 Y26.939 
G01 X677.559 Y26.619 
G01 X676.492 Y26.326 
G01 X675.420 Y26.059 
G01 X674.344 Y25.819 
G01 X673.336 Y25.621 
G01 X672.324 Y25.446 
G01 X671.307 Y25.296 
G01 X670.286 Y25.169 
G01 X669.262 Y25.066 
G01 X668.236 Y24.987 
G01 X667.208 Y24.931 
G01 X666.179 Y24.899 
G01 X665.149 Y24.890 
G01 X664.120 Y24.905 
G01 X663.092 Y24.943 
G01 X662.065 Y25.004 
G01 X661.041 Y25.088 
G01 X660.020 Y25.196 
G01 X659.004 Y25.328 
G01 X657.988 Y25.483 
G01 X656.812 Y25.693 
G01 X655.637 Y25.937 
G01 X654.468 Y26.213 
G01 X653.305 Y26.520 
G01 X652.151 Y26.858 
G01 X651.005 Y27.227 
G01 X649.869 Y27.625 
G01 X648.744 Y28.052 
G01 X647.630 Y28.509 
G01 X646.529 Y28.993 
G01 X645.441 Y29.505 
G01 X644.368 Y30.045 
G01 X643.310 Y30.611 
G01 X642.268 Y31.204 
G01 X641.244 Y31.822 
G01 X640.228 Y32.472 
G01 X640.043 Y32.600 
G01 X639.945 Y32.662 
G01 X639.856 Y32.709 
G01 X639.848 Y32.712 
G01 X639.813 Y32.718 
G01 X639.756 Y32.722 
G01 X639.698 Y32.720 
G01 X639.608 Y32.708 
G01 X639.605 Y32.707 
G01 X639.590 Y32.700 
G01 X639.573 Y32.692 
G01 X639.553 Y32.680 
G01 X639.541 Y32.672 
G01 X639.427 Y32.542 
G01 X638.972 Y31.925 
G01 X638.083 Y30.727 
G01 X637.159 Y29.523 
G01 X636.213 Y28.331 
G01 X635.243 Y27.152 
G01 X634.250 Y25.988 
G01 X633.232 Y24.840 
G01 X632.190 Y23.712 
G01 X631.124 Y22.603 
G01 X630.032 Y21.517 
G01 X628.914 Y20.455 
G01 X627.771 Y19.418 
G01 X626.601 Y18.409 
G01 X625.405 Y17.430 
G01 X624.181 Y16.482 
G01 X622.930 Y15.568 
G01 X621.649 Y14.688 
G01 X620.221 Y13.771 
G01 X618.756 Y12.901 
G01 X617.260 Y12.081 
G01 X615.736 Y11.311 
G01 X614.184 Y10.595 
G01 X612.608 Y9.934 
G01 X611.009 Y9.330 
G01 X609.404 Y8.790 
G01 X608.523 Y8.520 
G01 X607.556 Y8.246 
G01 X606.491 Y7.969 
G01 X605.329 Y7.697 
G01 X604.073 Y7.439 
G01 X602.726 Y7.200 
G01 X601.289 Y6.989 
G01 X599.764 Y6.813 
G01 X598.153 Y6.679 
G01 X596.458 Y6.593 
G01 X594.695 Y6.565 
G01 X593.763 Y6.574 
G01 X592.825 Y6.600 
G01 X591.868 Y6.643 
G01 X590.891 Y6.705 
G01 X589.896 Y6.786 
G01 X588.881 Y6.888 
G01 X587.849 Y7.011 
G01 X586.798 Y7.156 
G01 X585.730 Y7.324 
G01 X584.634 Y7.517 
G01 X582.829 Y7.883 
G01 X581.025 Y8.309 
G01 X579.232 Y8.791 
G01 X577.453 Y9.329 
G01 X575.690 Y9.919 
G01 X573.943 Y10.562 
G01 X572.216 Y11.256 
G01 X570.508 Y11.999 
G01 X568.823 Y12.789 
G01 X567.161 Y13.627 
G01 X565.525 Y14.510 
G01 X563.917 Y15.436 
G01 X562.337 Y16.406 
G01 X560.787 Y17.416 
G01 X559.270 Y18.468 
G01 X557.792 Y19.554 
G01 X556.728 Y20.377 
G01 X555.686 Y21.219 
G01 X554.660 Y22.082 
G01 X553.652 Y22.966 
G01 X552.662 Y23.871 
G01 X551.689 Y24.795 
G01 X550.735 Y25.738 
G01 X549.800 Y26.700 
G01 X548.883 Y27.679 
G01 X547.986 Y28.675 
G01 X547.109 Y29.688 
G01 X546.251 Y30.716 
G01 X545.414 Y31.759 
G01 X544.597 Y32.817 
G01 X543.802 Y33.889 
G01 X543.027 Y34.974 
G01 X542.219 Y36.153 
G01 X541.435 Y37.348 
G01 X540.673 Y38.559 
G01 X539.934 Y39.784 
G01 X539.218 Y41.024 
G01 X538.525 Y42.276 
G01 X537.854 Y43.541 
G01 X537.205 Y44.819 
G01 X536.577 Y46.108 
G01 X535.972 Y47.407 
G01 X535.388 Y48.718 
G01 X534.826 Y50.038 
G01 X534.285 Y51.367 
G01 X533.765 Y52.705 
G01 X533.265 Y54.051 
G01 X532.786 Y55.405 
G01 X532.328 Y56.765 
G01 X531.889 Y58.132 
G01 X531.471 Y59.505 
G01 X531.073 Y60.883 
G01 X530.694 Y62.266 
G01 X530.335 Y63.652 
G01 X529.995 Y65.043 
G01 X529.674 Y66.436 
G01 X529.372 Y67.832 
G01 X529.089 Y69.230 
G01 X528.824 Y70.629 
G01 X528.578 Y72.029 
G01 X528.350 Y73.430 
G01 X528.141 Y74.830 
G01 Z9.500 F750.0 M3
G01 X527.949 Y76.229  F3000.0
G01 X527.775 Y77.627 
G01 X527.615 Y79.059 
G01 X527.473 Y80.495 
G01 X527.350 Y81.935 
G01 X527.245 Y83.378 
G01 X527.159 Y84.824 
G01 X527.091 Y86.273 
G01 X527.042 Y87.724 
G01 X527.011 Y89.177 
G01 X527.000 Y90.631 
G01 X527.007 Y92.086 
G01 X527.034 Y93.541 
G01 X527.079 Y94.997 
G01 X527.143 Y96.453 
G01 X527.227 Y97.908 
G01 X527.330 Y99.362 
G01 X527.453 Y100.815 
G01 X527.594 Y102.266 
G01 X527.756 Y103.715 
G01 X527.937 Y105.161 
G01 X528.137 Y106.605 
G01 X528.358 Y108.045 
G01 X528.598 Y109.482 
G01 X528.859 Y110.915 
G01 X529.139 Y112.343 
G01 X529.439 Y113.766 
G01 X529.760 Y115.184 
G01 X530.101 Y116.596 
G01 X530.463 Y118.003 
G01 X530.845 Y119.403 
G01 X531.248 Y120.796 
G01 X531.671 Y122.182 
G01 X532.117 Y123.564 
G01 X532.768 Y125.463 
G01 X533.465 Y127.356 
G01 X534.204 Y129.237 
G01 X534.988 Y131.104 
G01 X535.814 Y132.956 
G01 X536.684 Y134.791 
G01 X537.598 Y136.607 
G01 X538.554 Y138.401 
G01 X539.554 Y140.173 
G01 X540.597 Y141.920 
G01 X541.683 Y143.639 
G01 X542.813 Y145.331 
G01 X543.985 Y146.991 
G01 X545.201 Y148.619 
G01 X546.460 Y150.212 
G01 X547.758 Y151.764 
G01 X548.707 Y152.843 
G01 X549.677 Y153.901 
G01 X550.669 Y154.939 
G01 X551.685 Y155.959 
G01 X552.724 Y156.958 
G01 X553.784 Y157.936 
G01 X554.867 Y158.891 
G01 X555.970 Y159.823 
G01 X557.094 Y160.732 
G01 X558.238 Y161.615 
G01 X559.402 Y162.472 
G01 X560.585 Y163.302 
G01 X561.787 Y164.104 
G01 X563.008 Y164.877 
G01 X564.246 Y165.620 
G01 X565.499 Y166.331 
G01 X566.590 Y166.917 
G01 X567.693 Y167.477 
G01 X568.810 Y168.015 
G01 X569.938 Y168.528 
G01 X571.078 Y169.017 
G01 X572.229 Y169.481 
G01 X573.390 Y169.921 
G01 X574.560 Y170.336 
G01 X575.739 Y170.726 
G01 X576.925 Y171.091 
G01 X578.119 Y171.430 
G01 X579.319 Y171.743 
G01 X580.525 Y172.030 
G01 X581.736 Y172.291 
G01 X582.951 Y172.525 
G01 X584.175 Y172.733 
G01 X585.791 Y172.965 
G01 X587.422 Y173.151 
G01 X589.059 Y173.291 
G01 X590.703 Y173.385 
G01 X592.350 Y173.432 
G01 X593.999 Y173.434 
G01 X595.649 Y173.390 
G01 X597.297 Y173.301 
G01 X598.942 Y173.167 
G01 X600.582 Y172.987 
G01 X602.216 Y172.762 
G01 X603.842 Y172.493 
G01 X605.457 Y172.178 
G01 X607.061 Y171.818 
G01 X608.651 Y171.414 
G01 X610.221 Y170.967 
G01 X611.349 Y170.614 
G01 X612.465 Y170.238 
G01 X613.576 Y169.838 
G01 X614.679 Y169.413 
G01 X615.773 Y168.963 
G01 X616.859 Y168.489 
G01 X617.935 Y167.991 
G01 X619.000 Y167.468 
G01 X620.054 Y166.922 
G01 X621.095 Y166.351 
G01 X622.123 Y165.756 
G01 X623.137 Y165.138 
G01 X624.136 Y164.496 
G01 X625.119 Y163.830 
G01 X626.084 Y163.141 
G01 X627.030 Y162.430 
G01 X627.793 Y161.828 
G01 X628.542 Y161.212 
G01 X629.278 Y160.580 
G01 X630.001 Y159.933 
G01 X630.711 Y159.272 
G01 X631.407 Y158.596 
G01 X632.091 Y157.907 
G01 X632.760 Y157.205 
G01 X633.415 Y156.489 
G01 X634.056 Y155.762 
G01 X634.682 Y155.022 
G01 X635.294 Y154.272 
G01 X635.890 Y153.510 
G01 X636.471 Y152.737 
G01 X637.036 Y151.954 
G01 X637.588 Y151.159 
G01 X637.824 Y150.802 
G01 X637.988 Y150.563 
G01 X637.991 Y150.560 
G01 X638.013 Y150.536 
G01 X638.048 Y150.505 
G01 X638.087 Y150.476 
G01 X638.123 Y150.455 
G01 X638.194 Y150.424 
G01 X638.196 Y150.424 
G01 X638.218 Y150.420 
G01 X638.300 Y150.421 
G01 X638.326 Y150.424 
G01 X638.350 Y150.430 
G01 X638.383 Y150.442 
G01 X638.430 Y150.464 
G01 X638.478 Y150.491 
G01 X638.743 Y150.660 
G01 X639.993 Y151.463 
G01 X641.308 Y152.250 
G01 X642.647 Y152.998 
G01 X644.010 Y153.704 
G01 X645.393 Y154.368 
G01 X646.795 Y154.990 
G01 X648.215 Y155.568 
G01 X649.646 Y156.099 
G01 X650.710 Y156.461 
G01 X651.778 Y156.797 
G01 X652.856 Y157.108 
G01 X653.942 Y157.395 
G01 X655.037 Y157.656 
G01 X656.138 Y157.892 
G01 X657.245 Y158.102 
G01 X658.357 Y158.286 
G01 X659.474 Y158.444 
G01 X660.594 Y158.574 
G01 X661.718 Y158.677 
G01 X662.843 Y158.753 
G01 X663.970 Y158.801 
G01 X665.097 Y158.820 
G01 X666.224 Y158.810 
G01 X667.347 Y158.771 
G01 X668.350 Y158.711 
G01 X669.351 Y158.627 
G01 X670.349 Y158.519 
G01 X671.345 Y158.387 
G01 X672.338 Y158.233 
G01 X673.328 Y158.055 
G01 X674.313 Y157.855 
G01 X675.293 Y157.633 
G01 X676.268 Y157.389 
G01 X677.237 Y157.123 
G01 X678.198 Y156.836 
G01 X679.153 Y156.528 
G01 X680.099 Y156.199 
G01 X681.037 Y155.850 
G01 X681.966 Y155.480 
G01 X682.884 Y155.090 
G01 X683.782 Y154.685 
G01 X684.672 Y154.260 
G01 X685.553 Y153.815 
G01 X686.425 Y153.351 
G01 X687.287 Y152.869 
G01 X688.140 Y152.368 
G01 X688.983 Y151.850 
G01 X689.816 Y151.315 
G01 X690.638 Y150.763 
G01 X691.450 Y150.194 
G01 X692.252 Y149.610 
G01 X693.042 Y149.011 
G01 X693.821 Y148.396 
G01 X694.589 Y147.767 
G01 X695.345 Y147.124 
G01 X696.090 Y146.467 
G01 X696.822 Y145.797 
G01 X697.542 Y145.114 
G01 X698.249 Y144.419 
G01 X698.944 Y143.711 
G01 X699.625 Y142.992 
G01 X700.294 Y142.262 
G01 X700.948 Y141.521 
G01 X701.589 Y140.770 
G01 X702.216 Y140.008 
G01 X702.829 Y139.237 
G01 X703.427 Y138.457 
G01 X704.011 Y137.668 
G01 X704.580 Y136.871 
G01 X705.133 Y136.065 
G01 X705.671 Y135.252 
G01 X706.195 Y134.427 
G01 X706.988 Y133.120 
G01 X707.555 Y132.131 
G01 X707.946 Y131.411 
G01 X707.952 Y131.404 
G01 X707.986 Y131.368 
G01 X708.025 Y131.335 
G01 X708.061 Y131.311 
G01 X708.130 Y131.276 
G01 X708.137 Y131.275 
G01 X708.248 Y131.271 
G01 X708.676 Y131.286 
G01 X709.381 Y131.311 
G01 X710.266 Y131.315 
G01 X711.387 Y131.286 
G01 X712.407 Y131.240 
G01 X713.344 Y131.179 
G01 X714.215 Y131.104 
G01 X715.665 Y130.933 
G01 X716.717 Y130.753 
G01 X716.812 Y130.738 
G01 X716.840 Y130.735 
G01 X716.879 Y130.735 
G01 X716.919 Y130.738 
G01 X716.954 Y130.745 
G01 X717.021 Y130.767 
G01 X717.023 Y130.768 
G01 X717.043 Y130.780 
G01 X717.071 Y130.800 
G01 X717.719 Y131.323 
G01 X718.272 Y131.765 
G01 X718.974 Y132.302 
G01 X720.149 Y133.141 
G01 X721.363 Y133.943 
G01 X722.607 Y134.703 
G01 X723.879 Y135.420 
G01 X725.177 Y136.094 
G01 X726.500 Y136.724 
G01 X727.844 Y137.309 
G01 X729.208 Y137.848 
G01 X730.589 Y138.340 
G01 X731.986 Y138.785 
G01 X733.397 Y139.181 
G01 X734.819 Y139.528 
G01 X736.250 Y139.824 
G01 X737.689 Y140.069 
G01 X739.133 Y140.260 
G01 X740.572 Y140.397 
G01 X741.579 Y140.460 
G01 X742.581 Y140.495 
G01 X743.585 Y140.504 
G01 X744.589 Y140.487 
G01 X745.594 Y140.443 
G01 X746.598 Y140.373 
G01 X747.600 Y140.278 
G01 X748.599 Y140.156 
G01 X749.595 Y140.008 
G01 X750.587 Y139.835 
G01 X751.574 Y139.636 
G01 X752.554 Y139.411 
G01 X753.528 Y139.161 
G01 X754.493 Y138.886 
G01 X755.451 Y138.584 
G01 X756.400 Y138.257 
G01 X757.447 Y137.862 
G01 X758.485 Y137.434 
G01 X759.510 Y136.976 
G01 X760.521 Y136.489 
G01 X761.519 Y135.973 
G01 X762.502 Y135.430 
G01 X763.469 Y134.860 
G01 X764.420 Y134.265 
G01 X765.355 Y133.644 
G01 X766.272 Y133.000 
G01 X767.171 Y132.333 
G01 X768.051 Y131.644 
G01 X768.912 Y130.934 
G01 X769.753 Y130.203 
G01 X770.572 Y129.452 
G01 X771.371 Y128.682 
G01 X772.209 Y127.830 
G01 X773.026 Y126.955 
G01 X773.819 Y126.059 
G01 X774.590 Y125.141 
G01 X775.337 Y124.204 
G01 X776.060 Y123.248 
G01 X776.759 Y122.275 
G01 X777.434 Y121.284 
G01 X778.085 Y120.278 
G01 X778.710 Y119.257 
G01 X779.310 Y118.221 
G01 X779.885 Y117.173 
G01 X780.433 Y116.112 
G01 X780.955 Y115.040 
G01 X781.450 Y113.958 
G01 X781.918 Y112.867 
G01 X782.342 Y111.809 
G01 X782.742 Y110.742 
G01 X783.118 Y109.666 
G01 X783.469 Y108.581 
G01 X783.796 Y107.488 
G01 X784.100 Y106.388 
G01 X784.379 Y105.282 
G01 X784.635 Y104.171 
G01 X784.867 Y103.054 
G01 X785.075 Y101.934 
G01 X785.259 Y100.810 
G01 X785.420 Y99.683 
G01 X785.557 Y98.555 
G01 X785.670 Y97.425 
G01 X785.760 Y96.295 
G01 X785.826 Y95.161 
G01 X785.875 Y93.791 
G01 X785.890 Y92.415 
G01 X785.872 Y91.037 
G01 X785.820 Y89.659 
G01 X785.735 Y88.282 
G01 X785.617 Y86.906 
G01 X785.467 Y85.533 
G01 X785.285 Y84.164 
G01 X785.070 Y82.800 
G01 X784.824 Y81.441 
G01 X784.546 Y80.090 
G01 X784.236 Y78.746 
G01 X783.895 Y77.411 
G01 X783.523 Y76.085 
G01 X783.120 Y74.771 
G01 X782.688 Y73.473 
G01 X782.335 Y72.483 
G01 X781.972 Y71.523 
G01 X781.598 Y70.588 
G01 X781.215 Y69.678 
G01 X780.823 Y68.793 
G01 X780.422 Y67.932 
G01 X780.015 Y67.097 
G01 X779.595 Y66.274 
G01 X778.759 Y64.736 
G01 X777.900 Y63.281 
G01 X777.033 Y61.920 
G01 X776.163 Y60.652 
G01 X775.298 Y59.474 
G01 X774.445 Y58.386 
G01 X773.610 Y57.384 
G01 X772.800 Y56.469 
G01 X772.021 Y55.637 
G01 X771.281 Y54.888 
G01 X770.586 Y54.219 
G01 X769.939 Y53.626 
G01 X769.183 Y52.967 
G01 X768.406 Y52.325 
G01 X767.612 Y51.704 
G01 X766.800 Y51.103 
G01 X765.972 Y50.523 
G01 X765.129 Y49.965 
G01 X764.271 Y49.428 
G01 X763.400 Y48.914 
G01 X762.515 Y48.423 
G01 X761.618 Y47.954 
G01 X760.710 Y47.510 
G01 X759.791 Y47.089 
G01 X758.862 Y46.693 
G01 X757.923 Y46.323 
G01 X756.976 Y45.978 
G01 X756.022 Y45.659 
G01 X755.097 Y45.377 
G01 X754.164 Y45.118 
G01 X753.223 Y44.881 
G01 X752.274 Y44.667 
G01 X751.319 Y44.475 
G01 X750.358 Y44.305 
G01 X749.391 Y44.158 
G01 X748.420 Y44.032 
G01 X747.444 Y43.928 
G01 X746.465 Y43.847 
G01 X745.484 Y43.787 
G01 X744.500 Y43.749 
G01 X743.516 Y43.733 
G01 X742.530 Y43.739 
G01 X741.544 Y43.767 
G01 X740.559 Y43.816 
G01 X739.576 Y43.887 
G01 X738.594 Y43.980 
G01 X737.615 Y44.095 
G01 X736.639 Y44.232 
G01 X735.668 Y44.391 
G01 X734.701 Y44.572 
G01 X733.739 Y44.775 
G01 X732.784 Y45.000 
G01 X731.835 Y45.247 
G01 X730.893 Y45.516 
G01 X729.960 Y45.808 
G01 X729.036 Y46.122 
G01 X728.121 Y46.458 
G01 X727.216 Y46.817 
G01 X726.323 Y47.199 
G01 X725.444 Y47.602 
G01 X724.699 Y47.966 
G01 X723.979 Y48.339 
G01 X722.688 Y49.062 
G01 X721.520 Y49.784 
G01 X720.487 Y50.481 
G01 X719.585 Y51.140 
G01 X718.802 Y51.751 
G01 X717.694 Y52.678 
G01 X717.619 Y52.738 
G01 X717.573 Y52.770 
G01 X717.523 Y52.799 
G01 X717.476 Y52.821 
G01 X717.440 Y52.833 
G01 X717.379 Y52.845 
G01 X717.371 Y52.844 
G01 X717.311 Y52.836 
G01 X716.740 Y52.728 
G01 X715.961 Y52.616 
G01 X714.953 Y52.513 
G01 X713.076 Y52.386 
G01 X711.505 Y52.324 
G01 X710.234 Y52.309 
G01 X709.256 Y52.325 
G01 X708.773 Y52.349 
G01 X708.416 Y52.368 
G01 X708.174 Y52.369 
G01 X708.171 Y52.369 
G01 X708.169 Y52.369 
G01 X708.158 Y52.366 
G01 X708.086 Y52.337 
G01 X708.058 Y52.321 
G01 X708.026 Y52.298 
G01 X707.990 Y52.264 
G01 X707.984 Y52.257 
G01 X707.858 Y52.083 
G01 X707.152 Y50.928 
G01 X706.098 Y49.245 
G01 X705.437 Y48.233 
G01 X704.690 Y47.133 
G01 X703.850 Y45.944 
G01 X702.910 Y44.667 
G01 X701.985 Y43.470 
G01 X701.066 Y42.338 
G01 X700.157 Y41.273 
G01 X699.261 Y40.272 
G01 X698.380 Y39.334 
G01 X697.518 Y38.457 
G01 X696.678 Y37.640 
G01 X695.861 Y36.881 
G01 X695.071 Y36.178 
G01 X694.311 Y35.529 
G01 X693.583 Y34.934 
G01 X692.881 Y34.381 
G01 X691.630 Y33.449 
G01 X690.544 Y32.692 
G01 X689.622 Y32.084 
G01 X688.685 Y31.500 
G01 X687.734 Y30.937 
G01 X686.768 Y30.398 
G01 X685.788 Y29.881 
G01 X684.796 Y29.388 
G01 X683.792 Y28.918 
G01 X682.776 Y28.473 
G01 X681.751 Y28.052 
G01 X680.715 Y27.656 
G01 X679.671 Y27.284 
G01 X678.619 Y26.939 
G01 X677.559 Y26.619 
G01 X676.492 Y26.326 
G01 X675.420 Y26.059 
G01 X674.344 Y25.819 
G01 X673.336 Y25.621 
G01 X672.324 Y25.446 
G01 X671.307 Y25.296 
G01 X670.286 Y25.169 
G01 X669.262 Y25.066 
G01 X668.236 Y24.987 
G01 X667.208 Y24.931 
G01 X666.179 Y24.899 
G01 X665.149 Y24.890 
G01 X664.120 Y24.905 
G01 X663.092 Y24.943 
G01 X662.065 Y25.004 
G01 X661.041 Y25.088 
G01 X660.020 Y25.196 
G01 X659.004 Y25.328 
G01 X657.988 Y25.483 
G01 X656.812 Y25.693 
G01 X655.637 Y25.937 
G01 X654.468 Y26.213 
G01 X653.305 Y26.520 
G01 X652.151 Y26.858 
G01 X651.005 Y27.227 
G01 X649.869 Y27.625 
G01 X648.744 Y28.052 
G01 X647.630 Y28.509 
G01 X646.529 Y28.993 
G01 X645.441 Y29.505 
G01 X644.368 Y30.045 
G01 X643.310 Y30.611 
G01 X642.268 Y31.204 
G01 X641.244 Y31.822 
G01 X640.228 Y32.472 
G01 X640.043 Y32.600 
G01 X639.945 Y32.662 
G01 X639.856 Y32.709 
G01 X639.848 Y32.712 
G01 X639.813 Y32.718 
G01 X639.756 Y32.722 
G01 X639.698 Y32.720 
G01 X639.608 Y32.708 
G01 X639.605 Y32.707 
G01 X639.590 Y32.700 
G01 X639.573 Y32.692 
G01 X639.553 Y32.680 
G01 X639.541 Y32.672 
G01 X639.427 Y32.542 
G01 X638.972 Y31.925 
G01 X638.083 Y30.727 
G01 X637.159 Y29.523 
G01 X636.213 Y28.331 
G01 X635.243 Y27.152 
G01 X634.250 Y25.988 
G01 X633.232 Y24.840 
G01 X632.190 Y23.712 
G01 X631.124 Y22.603 
G01 X630.032 Y21.517 
G01 X628.914 Y20.455 
G01 X627.771 Y19.418 
G01 X626.601 Y18.409 
G01 X625.405 Y17.430 
G01 X624.181 Y16.482 
G01 X622.930 Y15.568 
G01 X621.649 Y14.688 
G01 X620.221 Y13.771 
G01 X618.756 Y12.901 
G01 X617.260 Y12.081 
G01 X615.736 Y11.311 
G01 X614.184 Y10.595 
G01 X612.608 Y9.934 
G01 X611.009 Y9.330 
G01 X609.404 Y8.790 
G01 X608.523 Y8.520 
G01 X607.556 Y8.246 
G01 X606.491 Y7.969 
G01 X605.329 Y7.697 
G01 X604.073 Y7.439 
G01 X602.726 Y7.200 
G01 X601.289 Y6.989 
G01 X599.764 Y6.813 
G01 X598.153 Y6.679 
G01 X596.458 Y6.593 
G01 X594.695 Y6.565 
G01 X593.763 Y6.574 
G01 X592.825 Y6.600 
G01 X591.868 Y6.643 
G01 X590.891 Y6.705 
G01 X589.896 Y6.786 
G01 X588.881 Y6.888 
G01 X587.849 Y7.011 
G01 X586.798 Y7.156 
G01 X585.730 Y7.324 
G01 X584.634 Y7.517 
G01 X582.829 Y7.883 
G01 X581.025 Y8.309 
G01 X579.232 Y8.791 
G01 X577.453 Y9.329 
G01 X575.690 Y9.919 
G01 X573.943 Y10.562 
G01 X572.216 Y11.256 
G01 X570.508 Y11.999 
G01 X568.823 Y12.789 
G01 X567.161 Y13.627 
G01 X565.525 Y14.510 
G01 X563.917 Y15.436 
G01 X562.337 Y16.406 
G01 X560.787 Y17.416 
G01 X559.270 Y18.468 
G01 X557.792 Y19.554 
G01 X556.728 Y20.377 
G01 X555.686 Y21.219 
G01 X554.660 Y22.082 
G01 X553.652 Y22.966 
G01 X552.662 Y23.871 
G01 X551.689 Y24.795 
G01 X550.735 Y25.738 
G01 X549.800 Y26.700 
G01 X548.883 Y27.679 
G01 X547.986 Y28.675 
G01 X547.109 Y29.688 
G01 X546.251 Y30.716 
G01 X545.414 Y31.759 
G01 X544.597 Y32.817 
G01 X543.802 Y33.889 
G01 X543.027 Y34.974 
G01 X542.219 Y36.153 
G01 X541.435 Y37.348 
G01 X540.673 Y38.559 
G01 X539.934 Y39.784 
G01 X539.218 Y41.024 
G01 X538.525 Y42.276 
G01 X537.854 Y43.541 
G01 X537.205 Y44.819 
G01 X536.577 Y46.108 
G01 X535.972 Y47.407 
G01 X535.388 Y48.718 
G01 X534.826 Y50.038 
G01 X534.285 Y51.367 
G01 X533.765 Y52.705 
G01 X533.265 Y54.051 
G01 X532.786 Y55.405 
G01 X532.328 Y56.765 
G01 X531.889 Y58.132 
G01 X531.471 Y59.505 
G01 X531.073 Y60.883 
G01 X530.694 Y62.266 
G01 X530.335 Y63.652 
G01 X529.995 Y65.043 
G01 X529.674 Y66.436 
G01 X529.372 Y67.832 
G01 X529.089 Y69.230 
G01 X528.824 Y70.629 
G01 X528.578 Y72.029 
G01 X528.350 Y73.430 
G01 X528.141 Y74.830 
G01 Z4.750 F750.0 M3
G01 X527.949 Y76.229  F3000.0
G01 X527.775 Y77.627 
G01 X527.615 Y79.059 
G01 X527.473 Y80.495 
G01 X527.350 Y81.935 
G01 X527.245 Y83.378 
G01 X527.159 Y84.824 
G01 X527.091 Y86.273 
G01 X527.042 Y87.724 
G01 X527.011 Y89.177 
G01 X527.000 Y90.631 
G01 X527.007 Y92.086 
G01 X527.034 Y93.541 
G01 X527.079 Y94.997 
G01 X527.143 Y96.453 
G01 X527.227 Y97.908 
G01 X527.330 Y99.362 
G01 X527.453 Y100.815 
G01 X527.594 Y102.266 
G01 X527.756 Y103.715 
G01 X527.937 Y105.161 
G01 X528.137 Y106.605 
G01 X528.358 Y108.045 
G01 X528.598 Y109.482 
G01 X528.859 Y110.915 
G01 X529.139 Y112.343 
G01 X529.439 Y113.766 
G01 X529.760 Y115.184 
G01 X530.101 Y116.596 
G01 X530.463 Y118.003 
G01 X530.845 Y119.403 
G01 X531.248 Y120.796 
G01 X531.671 Y122.182 
G01 X532.117 Y123.564 
G01 X532.768 Y125.463 
G01 X533.465 Y127.356 
G01 X534.204 Y129.237 
G01 X534.988 Y131.104 
G01 X535.814 Y132.956 
G01 X536.684 Y134.791 
G01 X537.598 Y136.607 
G01 X538.554 Y138.401 
G01 X539.554 Y140.173 
G01 X540.597 Y141.920 
G01 X541.683 Y143.639 
G01 X542.813 Y145.331 
G01 X543.985 Y146.991 
G01 X545.201 Y148.619 
G01 X546.460 Y150.212 
G01 X547.758 Y151.764 
G01 X548.707 Y152.843 
G01 X549.677 Y153.901 
G01 X550.669 Y154.939 
G01 X551.685 Y155.959 
G01 X552.724 Y156.958 
G01 X553.784 Y157.936 
G01 X554.867 Y158.891 
G01 X555.970 Y159.823 
G01 X557.094 Y160.732 
G01 X558.238 Y161.615 
G01 X559.402 Y162.472 
G01 X560.585 Y163.302 
G01 X561.787 Y164.104 
G01 X563.008 Y164.877 
G01 X564.246 Y165.620 
G01 X565.499 Y166.331 
G01 X566.590 Y166.917 
G01 X567.693 Y167.477 
G01 X568.810 Y168.015 
G01 X569.938 Y168.528 
G01 X571.078 Y169.017 
G01 X572.229 Y169.481 
G01 X573.390 Y169.921 
G01 X574.560 Y170.336 
G01 X575.739 Y170.726 
G01 X576.925 Y171.091 
G01 X578.119 Y171.430 
G01 X579.319 Y171.743 
G01 X580.525 Y172.030 
G01 X581.736 Y172.291 
G01 X582.951 Y172.525 
G01 X584.175 Y172.733 
G01 X585.791 Y172.965 
G01 X587.422 Y173.151 
G01 X589.059 Y173.291 
G01 X590.703 Y173.385 
G01 X592.350 Y173.432 
G01 X593.999 Y173.434 
G01 X595.649 Y173.390 
G01 X597.297 Y173.301 
G01 X598.942 Y173.167 
G01 X600.582 Y172.987 
G01 X602.216 Y172.762 
G01 X603.842 Y172.493 
G01 X605.457 Y172.178 
G01 X607.061 Y171.818 
G01 X608.651 Y171.414 
G01 X610.221 Y170.967 
G01 X611.349 Y170.614 
G01 X612.465 Y170.238 
G01 X613.576 Y169.838 
G01 X614.679 Y169.413 
G01 X615.773 Y168.963 
G01 X616.859 Y168.489 
G01 X617.935 Y167.991 
G01 X619.000 Y167.468 
G01 X620.054 Y166.922 
G01 X621.095 Y166.351 
G01 X622.123 Y165.756 
G01 X623.137 Y165.138 
G01 X624.136 Y164.496 
G01 X625.119 Y163.830 
G01 X626.084 Y163.141 
G01 X627.030 Y162.430 
G01 X627.793 Y161.828 
G01 X628.542 Y161.212 
G01 X629.278 Y160.580 
G01 X630.001 Y159.933 
G01 X630.711 Y159.272 
G01 X631.407 Y158.596 
G01 X632.091 Y157.907 
G01 X632.760 Y157.205 
G01 X633.415 Y156.489 
G01 X634.056 Y155.762 
G01 X634.682 Y155.022 
G01 X635.294 Y154.272 
G01 X635.890 Y153.510 
G01 X636.471 Y152.737 
G01 X637.036 Y151.954 
G01 X637.588 Y151.159 
G01 X637.824 Y150.802 
G01 X637.988 Y150.563 
G01 X637.991 Y150.560 
G01 X638.013 Y150.536 
G01 X638.048 Y150.505 
G01 X638.087 Y150.476 
G01 X638.123 Y150.455 
G01 X638.194 Y150.424 
G01 X638.196 Y150.424 
G01 X638.218 Y150.420 
G01 X638.300 Y150.421 
G01 X638.326 Y150.424 
G01 X638.350 Y150.430 
G01 X638.383 Y150.442 
G01 X638.430 Y150.464 
G01 X638.478 Y150.491 
G01 X638.743 Y150.660 
G01 X639.993 Y151.463 
G01 X641.308 Y152.250 
G01 X642.647 Y152.998 
G01 X644.010 Y153.704 
G01 X645.393 Y154.368 
G01 X646.795 Y154.990 
G01 X648.215 Y155.568 
G01 X649.646 Y156.099 
G01 X650.710 Y156.461 
G01 X651.778 Y156.797 
G01 X652.856 Y157.108 
G01 X653.942 Y157.395 
G01 X655.037 Y157.656 
G01 X656.138 Y157.892 
G01 X657.245 Y158.102 
G01 X658.357 Y158.286 
G01 X659.474 Y158.444 
G01 X660.594 Y158.574 
G01 X661.718 Y158.677 
G01 X662.843 Y158.753 
G01 X663.970 Y158.801 
G01 X665.097 Y158.820 
G01 X666.224 Y158.810 
G01 X667.347 Y158.771 
G01 X668.350 Y158.711 
G01 X669.351 Y158.627 
G01 X670.349 Y158.519 
G01 X671.345 Y158.387 
G01 X672.338 Y158.233 
G01 X673.328 Y158.055 
G01 X674.313 Y157.855 
G01 X675.293 Y157.633 
G01 X676.268 Y157.389 
G01 X677.237 Y157.123 
G01 X678.198 Y156.836 
G01 X679.153 Y156.528 
G01 X680.099 Y156.199 
G01 X681.037 Y155.850 
G01 X681.966 Y155.480 
G01 X682.884 Y155.090 
G01 X683.782 Y154.685 
G01 X684.672 Y154.260 
G01 X685.553 Y153.815 
G01 X686.425 Y153.351 
G01 X687.287 Y152.869 
G01 X688.140 Y152.368 
G01 X688.983 Y151.850 
G01 X689.816 Y151.315 
G01 X690.638 Y150.763 
G01 X691.450 Y150.194 
G01 X692.252 Y149.610 
G01 X693.042 Y149.011 
G01 X693.821 Y148.396 
G01 X694.589 Y147.767 
G01 X695.345 Y147.124 
G01 X696.090 Y146.467 
G01 X696.822 Y145.797 
G01 X697.542 Y145.114 
G01 X698.249 Y144.419 
G01 X698.944 Y143.711 
G01 X699.625 Y142.992 
G01 X700.294 Y142.262 
G01 X700.948 Y141.521 
G01 X701.589 Y140.770 
G01 X702.216 Y140.008 
G01 X702.829 Y139.237 
G01 X703.427 Y138.457 
G01 X704.011 Y137.668 
G01 X704.580 Y136.871 
G01 X705.133 Y136.065 
G01 X705.671 Y135.252 
G01 X706.195 Y134.427 
G01 X706.988 Y133.120 
G01 X707.555 Y132.131 
G01 X707.946 Y131.411 
G01 X707.952 Y131.404 
G01 X707.986 Y131.368 
G01 X708.025 Y131.335 
G01 X708.061 Y131.311 
G01 X708.130 Y131.276 
G01 X708.137 Y131.275 
G01 X708.248 Y131.271 
G01 X708.676 Y131.286 
G01 X709.381 Y131.311 
G01 X710.266 Y131.315 
G01 X711.387 Y131.286 
G01 X712.407 Y131.240 
G01 X713.344 Y131.179 
G01 X714.215 Y131.104 
G01 X715.665 Y130.933 
G01 X716.717 Y130.753 
G01 X716.812 Y130.738 
G01 X716.840 Y130.735 
G01 X716.879 Y130.735 
G01 X716.919 Y130.738 
G01 X716.954 Y130.745 
G01 X717.021 Y130.767 
G01 X717.023 Y130.768 
G01 X717.043 Y130.780 
G01 X717.071 Y130.800 
G01 X717.719 Y131.323 
G01 X718.272 Y131.765 
G01 X718.974 Y132.302 
G01 X720.149 Y133.141 
G01 X721.363 Y133.943 
G01 X722.607 Y134.703 
G01 X723.879 Y135.420 
G01 X725.177 Y136.094 
G01 X726.500 Y136.724 
G01 X727.844 Y137.309 
G01 X729.208 Y137.848 
G01 X730.589 Y138.340 
G01 X731.986 Y138.785 
G01 X733.397 Y139.181 
G01 X734.819 Y139.528 
G01 X736.250 Y139.824 
G01 X737.689 Y140.069 
G01 X739.133 Y140.260 
G01 X740.572 Y140.397 
G01 X741.579 Y140.460 
G01 X742.581 Y140.495 
G01 X743.585 Y140.504 
G01 X744.589 Y140.487 
G01 X745.594 Y140.443 
G01 X746.598 Y140.373 
G01 X747.600 Y140.278 
G01 X748.599 Y140.156 
G01 X749.595 Y140.008 
G01 X750.587 Y139.835 
G01 X751.574 Y139.636 
G01 X752.554 Y139.411 
G01 X753.528 Y139.161 
G01 X754.493 Y138.886 
G01 X755.451 Y138.584 
G01 X756.400 Y138.257 
G01 X757.447 Y137.862 
G01 X758.485 Y137.434 
G01 X759.510 Y136.976 
G01 X760.521 Y136.489 
G01 X761.519 Y135.973 
G01 X762.502 Y135.430 
G01 X763.469 Y134.860 
G01 X764.420 Y134.265 
G01 X765.355 Y133.644 
G01 X766.272 Y133.000 
G01 X767.171 Y132.333 
G01 X768.051 Y131.644 
G01 X768.912 Y130.934 
G01 X769.753 Y130.203 
G01 X770.572 Y129.452 
G01 X771.371 Y128.682 
G01 X772.209 Y127.830 
G01 X773.026 Y126.955 
G01 X773.819 Y126.059 
G01 X774.590 Y125.141 
G01 X775.337 Y124.204 
G01 X776.060 Y123.248 
G01 X776.759 Y122.275 
G01 X777.434 Y121.284 
G01 X778.085 Y120.278 
G01 X778.710 Y119.257 
G01 X779.310 Y118.221 
G01 X779.885 Y117.173 
G01 X780.433 Y116.112 
G01 X780.955 Y115.040 
G01 X781.450 Y113.958 
G01 X781.918 Y112.867 
G01 X782.342 Y111.809 
G01 X782.742 Y110.742 
G01 X783.118 Y109.666 
G01 X783.469 Y108.581 
G01 X783.796 Y107.488 
G01 X784.100 Y106.388 
G01 X784.379 Y105.282 
G01 X784.635 Y104.171 
G01 X784.867 Y103.054 
G01 X785.075 Y101.934 
G01 X785.259 Y100.810 
G01 X785.420 Y99.683 
G01 X785.557 Y98.555 
G01 X785.670 Y97.425 
G01 X785.760 Y96.295 
G01 X785.826 Y95.161 
G01 X785.875 Y93.791 
G01 X785.890 Y92.415 
G01 X785.872 Y91.037 
G01 X785.820 Y89.659 
G01 X785.735 Y88.282 
G01 X785.617 Y86.906 
G01 X785.467 Y85.533 
G01 X785.285 Y84.164 
G01 X785.070 Y82.800 
G01 X784.824 Y81.441 
G01 X784.546 Y80.090 
G01 X784.236 Y78.746 
G01 X783.895 Y77.411 
G01 X783.523 Y76.085 
G01 X783.120 Y74.771 
G01 X782.688 Y73.473 
G01 X782.335 Y72.483 
G01 X781.972 Y71.523 
G01 X781.598 Y70.588 
G01 X781.215 Y69.678 
G01 X780.823 Y68.793 
G01 X780.422 Y67.932 
G01 X780.015 Y67.097 
G01 X779.595 Y66.274 
G01 X778.759 Y64.736 
G01 X777.900 Y63.281 
G01 X777.033 Y61.920 
G01 X776.163 Y60.652 
G01 X775.298 Y59.474 
G01 X774.445 Y58.386 
G01 X773.610 Y57.384 
G01 X772.800 Y56.469 
G01 X772.021 Y55.637 
G01 X771.281 Y54.888 
G01 X770.586 Y54.219 
G01 X769.939 Y53.626 
G01 X769.183 Y52.967 
G01 X768.406 Y52.325 
G01 X767.612 Y51.704 
G01 X766.800 Y51.103 
G01 X765.972 Y50.523 
G01 X765.129 Y49.965 
G01 X764.271 Y49.428 
G01 X763.400 Y48.914 
G01 X762.515 Y48.423 
G01 X761.618 Y47.954 
G01 X760.710 Y47.510 
G01 X759.791 Y47.089 
G01 X758.862 Y46.693 
G01 X757.923 Y46.323 
G01 X756.976 Y45.978 
G01 X756.022 Y45.659 
G01 X755.097 Y45.377 
G01 X754.164 Y45.118 
G01 X753.223 Y44.881 
G01 X752.274 Y44.667 
G01 X751.319 Y44.475 
G01 X750.358 Y44.305 
G01 X749.391 Y44.158 
G01 X748.420 Y44.032 
G01 X747.444 Y43.928 
G01 X746.465 Y43.847 
G01 X745.484 Y43.787 
G01 X744.500 Y43.749 
G01 X743.516 Y43.733 
G01 X742.530 Y43.739 
G01 X741.544 Y43.767 
G01 X740.559 Y43.816 
G01 X739.576 Y43.887 
G01 X738.594 Y43.980 
G01 X737.615 Y44.095 
G01 X736.639 Y44.232 
G01 X735.668 Y44.391 
G01 X734.701 Y44.572 
G01 X733.739 Y44.775 
G01 X732.784 Y45.000 
G01 X731.835 Y45.247 
G01 X730.893 Y45.516 
G01 X729.960 Y45.808 
G01 X729.036 Y46.122 
G01 X728.121 Y46.458 
G01 X727.216 Y46.817 
G01 X726.323 Y47.199 
G01 X725.444 Y47.602 
G01 X724.699 Y47.966 
G01 X723.979 Y48.339 
G01 X722.688 Y49.062 
G01 X721.520 Y49.784 
G01 X720.487 Y50.481 
G01 X719.585 Y51.140 
G01 X718.802 Y51.751 
G01 X717.694 Y52.678 
G01 X717.619 Y52.738 
G01 X717.573 Y52.770 
G01 X717.523 Y52.799 
G01 X717.476 Y52.821 
G01 X717.440 Y52.833 
G01 X717.379 Y52.845 
G01 X717.371 Y52.844 
G01 X717.311 Y52.836 
G01 X716.740 Y52.728 
G01 X715.961 Y52.616 
G01 X714.953 Y52.513 
G01 X713.076 Y52.386 
G01 X711.505 Y52.324 
G01 X710.234 Y52.309 
G01 X709.256 Y52.325 
G01 X708.773 Y52.349 
G01 X708.416 Y52.368 
G01 X708.174 Y52.369 
G01 X708.171 Y52.369 
G01 X708.169 Y52.369 
G01 X708.158 Y52.366 
G01 X708.086 Y52.337 
G01 X708.058 Y52.321 
G01 X708.026 Y52.298 
G01 X707.990 Y52.264 
G01 X707.984 Y52.257 
G01 X707.858 Y52.083 
G01 X707.152 Y50.928 
G01 X706.098 Y49.245 
G01 X705.437 Y48.233 
G01 X704.690 Y47.133 
G01 X703.850 Y45.944 
G01 X702.910 Y44.667 
G01 X701.985 Y43.470 
G01 X701.066 Y42.338 
G01 X700.157 Y41.273 
G01 X699.261 Y40.272 
G01 X698.380 Y39.334 
G01 X697.518 Y38.457 
G01 X696.678 Y37.640 
G01 X695.861 Y36.881 
G01 X695.071 Y36.178 
G01 X694.311 Y35.529 
G01 X693.583 Y34.934 
G01 X692.881 Y34.381 
G01 X691.630 Y33.449 
G01 X690.544 Y32.692 
G01 X689.622 Y32.084 
G01 X688.685 Y31.500 
G01 X687.734 Y30.937 
G01 X686.768 Y30.398 
G01 X685.788 Y29.881 
G01 X684.796 Y29.388 
G01 X683.792 Y28.918 
G01 X682.776 Y28.473 
G01 X681.751 Y28.052 
G01 X680.715 Y27.656 
G01 X679.671 Y27.284 
G01 X678.619 Y26.939 
G01 X677.559 Y26.619 
G01 X676.492 Y26.326 
G01 X675.420 Y26.059 
G01 X674.344 Y25.819 
G01 X673.336 Y25.621 
G01 X672.324 Y25.446 
G01 X671.307 Y25.296 
G01 X670.286 Y25.169 
G01 X669.262 Y25.066 
G01 X668.236 Y24.987 
G01 X667.208 Y24.931 
G01 X666.179 Y24.899 
G01 X665.149 Y24.890 
G01 X664.120 Y24.905 
G01 X663.092 Y24.943 
G01 X662.065 Y25.004 
G01 X661.041 Y25.088 
G01 X660.020 Y25.196 
G01 X659.004 Y25.328 
G01 X657.988 Y25.483 
G01 X656.812 Y25.693 
G01 X655.637 Y25.937 
G01 X654.468 Y26.213 
G01 X653.305 Y26.520 
G01 X652.151 Y26.858 
G01 X651.005 Y27.227 
G01 X649.869 Y27.625 
G01 X648.744 Y28.052 
G01 X647.630 Y28.509 
G01 X646.529 Y28.993 
G01 X645.441 Y29.505 
G01 X644.368 Y30.045 
G01 X643.310 Y30.611 
G01 X642.268 Y31.204 
G01 X641.244 Y31.822 
G01 X640.228 Y32.472 
G01 X640.043 Y32.600 
G01 X639.945 Y32.662 
G01 X639.856 Y32.709 
G01 X639.848 Y32.712 
G01 X639.813 Y32.718 
G01 X639.756 Y32.722 
G01 X639.698 Y32.720 
G01 X639.608 Y32.708 
G01 X639.605 Y32.707 
G01 X639.590 Y32.700 
G01 X639.573 Y32.692 
G01 X639.553 Y32.680 
G01 X639.541 Y32.672 
G01 X639.427 Y32.542 
G01 X638.972 Y31.925 
G01 X638.083 Y30.727 
G01 X637.159 Y29.523 
G01 X636.213 Y28.331 
G01 X635.243 Y27.152 
G01 X634.250 Y25.988 
G01 X633.232 Y24.840 
G01 X632.190 Y23.712 
G01 X631.124 Y22.603 
G01 X630.032 Y21.517 
G01 X628.914 Y20.455 
G01 X627.771 Y19.418 
G01 X626.601 Y18.409 
G01 X625.405 Y17.430 
G01 X624.181 Y16.482 
G01 X622.930 Y15.568 
G01 X621.649 Y14.688 
G01 X620.221 Y13.771 
G01 X618.756 Y12.901 
G01 X617.260 Y12.081 
G01 X615.736 Y11.311 
G01 X614.184 Y10.595 
G01 X612.608 Y9.934 
G01 X611.009 Y9.330 
G01 X609.404 Y8.790 
G01 X608.523 Y8.520 
G01 X607.556 Y8.246 
G01 X606.491 Y7.969 
G01 X605.329 Y7.697 
G01 X604.073 Y7.439 
G01 X602.726 Y7.200 
G01 X601.289 Y6.989 
G01 X599.764 Y6.813 
G01 X598.153 Y6.679 
G01 X596.458 Y6.593 
G01 X594.695 Y6.565 
G01 X593.763 Y6.574 
G01 X592.825 Y6.600 
G01 X591.868 Y6.643 
G01 X590.891 Y6.705 
G01 X589.896 Y6.786 
G01 X588.881 Y6.888 
G01 X587.849 Y7.011 
G01 X586.798 Y7.156 
G01 X585.730 Y7.324 
G01 X584.634 Y7.517 
G01 X582.829 Y7.883 
G01 X581.025 Y8.309 
G01 X579.232 Y8.791 
G01 X577.453 Y9.329 
G01 X575.690 Y9.919 
G01 X573.943 Y10.562 
G01 X572.216 Y11.256 
G01 X570.508 Y11.999 
G01 X568.823 Y12.789 
G01 X567.161 Y13.627 
G01 X565.525 Y14.510 
G01 X563.917 Y15.436 
G01 X562.337 Y16.406 
G01 X560.787 Y17.416 
G01 X559.270 Y18.468 
G01 X557.792 Y19.554 
G01 X556.728 Y20.377 
G01 X555.686 Y21.219 
G01 X554.660 Y22.082 
G01 X553.652 Y22.966 
G01 X552.662 Y23.871 
G01 X551.689 Y24.795 
G01 X550.735 Y25.738 
G01 X549.800 Y26.700 
G01 X548.883 Y27.679 
G01 X547.986 Y28.675 
G01 X547.109 Y29.688 
G01 X546.251 Y30.716 
G01 X545.414 Y31.759 
G01 X544.597 Y32.817 
G01 X543.802 Y33.889 
G01 X543.027 Y34.974 
G01 X542.219 Y36.153 
G01 X541.435 Y37.348 
G01 X540.673 Y38.559 
G01 X539.934 Y39.784 
G01 X539.218 Y41.024 
G01 X538.525 Y42.276 
G01 X537.854 Y43.541 
G01 X537.205 Y44.819 
G01 X536.577 Y46.108 
G01 X535.972 Y47.407 
G01 X535.388 Y48.718 
G01 X534.826 Y50.038 
G01 X534.285 Y51.367 
G01 X533.765 Y52.705 
G01 X533.265 Y54.051 
G01 X532.786 Y55.405 
G01 X532.328 Y56.765 
G01 X531.889 Y58.132 
G01 X531.471 Y59.505 
G01 X531.073 Y60.883 
G01 X530.694 Y62.266 
G01 X530.335 Y63.652 
G01 X529.995 Y65.043 
G01 X529.674 Y66.436 
G01 X529.372 Y67.832 
G01 X529.089 Y69.230 
G01 X528.824 Y70.629 
G01 X528.578 Y72.029 
G01 X528.350 Y73.430 
G01 X528.141 Y74.830 
G01 Z0.000 F750.0 M3
G01 X527.949 Y76.229  F3000.0
G01 X527.775 Y77.627 
G01 X527.615 Y79.059 
G01 X527.473 Y80.495 
G01 X527.350 Y81.935 
G01 X527.245 Y83.378 
G01 X527.159 Y84.824 
G01 X527.091 Y86.273 
G01 X527.042 Y87.724 
G01 X527.011 Y89.177 
G01 X527.000 Y90.631 
G01 X527.007 Y92.086 
G01 X527.034 Y93.541 
G01 X527.079 Y94.997 
G01 X527.143 Y96.453 
G01 X527.227 Y97.908 
G01 X527.330 Y99.362 
G01 X527.453 Y100.815 
G01 X527.594 Y102.266 
G01 X527.756 Y103.715 
G01 X527.937 Y105.161 
G01 X528.137 Y106.605 
G01 X528.358 Y108.045 
G01 X528.598 Y109.482 
G01 X528.859 Y110.915 
G01 X529.139 Y112.343 
G01 X529.439 Y113.766 
G01 X529.760 Y115.184 
G01 X530.101 Y116.596 
G01 X530.463 Y118.003 
G01 X530.845 Y119.403 
G01 X531.248 Y120.796 
G01 X531.671 Y122.182 
G01 X532.117 Y123.564 
G01 X532.768 Y125.463 
G01 X533.465 Y127.356 
G01 X534.204 Y129.237 
G01 X534.988 Y131.104 
G01 X535.814 Y132.956 
G01 X536.684 Y134.791 
G01 X537.598 Y136.607 
G01 X538.554 Y138.401 
G01 X539.554 Y140.173 
G01 X540.597 Y141.920 
G01 X541.683 Y143.639 
G01 X542.813 Y145.331 
G01 X543.985 Y146.991 
G01 X545.201 Y148.619 
G01 X546.460 Y150.212 
G01 X547.758 Y151.764 
G01 X548.707 Y152.843 
G01 X549.677 Y153.901 
G01 X550.669 Y154.939 
G01 X551.685 Y155.959 
G01 X552.724 Y156.958 
G01 X553.784 Y157.936 
G01 X554.867 Y158.891 
G01 X555.970 Y159.823 
G01 X557.094 Y160.732 
G01 X558.238 Y161.615 
G01 X559.402 Y162.472 
G01 X560.585 Y163.302 
G01 X561.787 Y164.104 
G01 X563.008 Y164.877 
G01 X564.246 Y165.620 
G01 X565.499 Y166.331 
G01 X566.590 Y166.917 
G01 X567.693 Y167.477 
G01 X568.810 Y168.015 
G01 X569.938 Y168.528 
G01 X571.078 Y169.017 
G01 X572.229 Y169.481 
G01 X573.390 Y169.921 
G01 X574.560 Y170.336 
G01 X575.739 Y170.726 
G01 X576.925 Y171.091 
G01 X578.119 Y171.430 
G01 X579.319 Y171.743 
G01 X580.525 Y172.030 
G01 X581.736 Y172.291 
G01 X582.951 Y172.525 
G01 X584.175 Y172.733 
G01 X585.791 Y172.965 
G01 X587.422 Y173.151 
G01 X589.059 Y173.291 
G01 X590.703 Y173.385 
G01 X592.350 Y173.432 
G01 X593.999 Y173.434 
G01 X595.649 Y173.390 
G01 X597.297 Y173.301 
G01 X598.942 Y173.167 
G01 X600.582 Y172.987 
G01 X602.216 Y172.762 
G01 X603.842 Y172.493 
G01 X605.457 Y172.178 
G01 X607.061 Y171.818 
G01 X608.651 Y171.414 
G01 X610.221 Y170.967 
G01 X611.349 Y170.614 
G01 X612.465 Y170.238 
G01 X613.576 Y169.838 
G01 X614.679 Y169.413 
G01 X615.773 Y168.963 
G01 X616.859 Y168.489 
G01 X617.935 Y167.991 
G01 X619.000 Y167.468 
G01 X620.054 Y166.922 
G01 X621.095 Y166.351 
G01 X622.123 Y165.756 
G01 X623.137 Y165.138 
G01 X624.136 Y164.496 
G01 X625.119 Y163.830 
G01 X626.084 Y163.141 
G01 X627.030 Y162.430 
G01 X627.793 Y161.828 
G01 X628.542 Y161.212 
G01 X629.278 Y160.580 
G01 X630.001 Y159.933 
G01 X630.711 Y159.272 
G01 X631.407 Y158.596 
G01 X632.091 Y157.907 
G01 X632.760 Y157.205 
G01 X633.415 Y156.489 
G01 X634.056 Y155.762 
G01 X634.682 Y155.022 
G01 X635.294 Y154.272 
G01 X635.890 Y153.510 
G01 X636.471 Y152.737 
G01 X637.036 Y151.954 
G01 X637.588 Y151.159 
G01 X637.824 Y150.802 
G01 X637.988 Y150.563 
G01 X637.991 Y150.560 
G01 X638.013 Y150.536 
G01 X638.048 Y150.505 
G01 X638.087 Y150.476 
G01 X638.123 Y150.455 
G01 X638.194 Y150.424 
G01 X638.196 Y150.424 
G01 X638.218 Y150.420 
G01 X638.300 Y150.421 
G01 X638.326 Y150.424 
G01 X638.350 Y150.430 
G01 X638.383 Y150.442 
G01 X638.430 Y150.464 
G01 X638.478 Y150.491 
G01 X638.743 Y150.660 
G01 X639.993 Y151.463 
G01 X641.308 Y152.250 
G01 X642.647 Y152.998 
G01 X644.010 Y153.704 
G01 X645.393 Y154.368 
G01 X646.795 Y154.990 
G01 X648.215 Y155.568 
G01 X649.646 Y156.099 
G01 X650.710 Y156.461 
G01 X651.778 Y156.797 
G01 X652.856 Y157.108 
G01 X653.942 Y157.395 
G01 X655.037 Y157.656 
G01 X656.138 Y157.892 
G01 X657.245 Y158.102 
G01 X658.357 Y158.286 
G01 X659.474 Y158.444 
G01 X660.594 Y158.574 
G01 X661.718 Y158.677 
G01 X662.843 Y158.753 
G01 X663.970 Y158.801 
G01 X665.097 Y158.820 
G01 X666.224 Y158.810 
G01 X667.347 Y158.771 
G01 X668.350 Y158.711 
G01 X669.351 Y158.627 
G01 X670.349 Y158.519 
G01 X671.345 Y158.387 
G01 X672.338 Y158.233 
G01 X673.328 Y158.055 
G01 X674.313 Y157.855 
G01 X675.293 Y157.633 
G01 X676.268 Y157.389 
G01 X677.237 Y157.123 
G01 X678.198 Y156.836 
G01 X679.153 Y156.528 
G01 X680.099 Y156.199 
G01 X681.037 Y155.850 
G01 X681.966 Y155.480 
G01 X682.884 Y155.090 
G01 X683.782 Y154.685 
G01 X684.672 Y154.260 
G01 X685.553 Y153.815 
G01 X686.425 Y153.351 
G01 X687.287 Y152.869 
G01 X688.140 Y152.368 
G01 X688.983 Y151.850 
G01 X689.816 Y151.315 
G01 X690.638 Y150.763 
G01 X691.450 Y150.194 
G01 X692.252 Y149.610 
G01 X693.042 Y149.011 
G01 X693.821 Y148.396 
G01 X694.589 Y147.767 
G01 X695.345 Y147.124 
G01 X696.090 Y146.467 
G01 X696.822 Y145.797 
G01 X697.542 Y145.114 
G01 X698.249 Y144.419 
G01 X698.944 Y143.711 
G01 X699.625 Y142.992 
G01 X700.294 Y142.262 
G01 X700.948 Y141.521 
G01 X701.589 Y140.770 
G01 X702.216 Y140.008 
G01 X702.829 Y139.237 
G01 X703.427 Y138.457 
G01 X704.011 Y137.668 
G01 X704.580 Y136.871 
G01 X705.133 Y136.065 
G01 X705.671 Y135.252 
G01 X706.195 Y134.427 
G01 X706.988 Y133.120 
G01 X707.555 Y132.131 
G01 X707.946 Y131.411 
G01 X707.952 Y131.404 
G01 X707.986 Y131.368 
G01 X708.025 Y131.335 
G01 X708.061 Y131.311 
G01 X708.130 Y131.276 
G01 X708.137 Y131.275 
G01 X708.248 Y131.271 
G01 X708.676 Y131.286 
G01 X709.381 Y131.311 
G01 X710.266 Y131.315 
G01 X711.387 Y131.286 
G01 X712.407 Y131.240 
G01 X713.344 Y131.179 
G01 X714.215 Y131.104 
G01 X715.665 Y130.933 
G01 X716.717 Y130.753 
G01 X716.812 Y130.738 
G01 X716.840 Y130.735 
G01 X716.879 Y130.735 
G01 X716.919 Y130.738 
G01 X716.954 Y130.745 
G01 X717.021 Y130.767 
G01 X717.023 Y130.768 
G01 X717.043 Y130.780 
G01 X717.071 Y130.800 
G01 X717.719 Y131.323 
G01 X718.272 Y131.765 
G01 X718.974 Y132.302 
G01 X720.149 Y133.141 
G01 X721.363 Y133.943 
G01 X722.607 Y134.703 
G01 X723.879 Y135.420 
G01 X725.177 Y136.094 
G01 X726.500 Y136.724 
G01 X727.844 Y137.309 
G01 X729.208 Y137.848 
G01 X730.589 Y138.340 
G01 X731.986 Y138.785 
G01 X733.397 Y139.181 
G01 X734.819 Y139.528 
G01 X736.250 Y139.824 
G01 X737.689 Y140.069 
G01 X739.133 Y140.260 
G01 X740.572 Y140.397 
G01 X741.579 Y140.460 
G01 X742.581 Y140.495 
G01 X743.585 Y140.504 
G01 X744.589 Y140.487 
G01 X745.594 Y140.443 
G01 X746.598 Y140.373 
G01 X747.600 Y140.278 
G01 X748.599 Y140.156 
G01 X749.595 Y140.008 
G01 X750.587 Y139.835 
G01 X751.574 Y139.636 
G01 X752.554 Y139.411 
G01 X753.528 Y139.161 
G01 X754.493 Y138.886 
G01 X755.451 Y138.584 
G01 X756.400 Y138.257 
G01 X757.447 Y137.862 
G01 X758.485 Y137.434 
G01 X759.510 Y136.976 
G01 X760.521 Y136.489 
G01 X761.519 Y135.973 
G01 X762.502 Y135.430 
G01 X763.469 Y134.860 
G01 X764.420 Y134.265 
G01 X765.355 Y133.644 
G01 X766.272 Y133.000 
G01 X767.171 Y132.333 
G01 X768.051 Y131.644 
G01 X768.912 Y130.934 
G01 X769.753 Y130.203 
G01 X770.572 Y129.452 
G01 X771.371 Y128.682 
G01 X772.209 Y127.830 
G01 X773.026 Y126.955 
G01 X773.819 Y126.059 
G01 X774.590 Y125.141 
G01 X775.337 Y124.204 
G01 X776.060 Y123.248 
G01 X776.759 Y122.275 
G01 X777.434 Y121.284 
G01 X778.085 Y120.278 
G01 X778.710 Y119.257 
G01 X779.310 Y118.221 
G01 X779.885 Y117.173 
G01 X780.433 Y116.112 
G01 X780.955 Y115.040 
G01 X781.450 Y113.958 
G01 X781.918 Y112.867 
G01 X782.342 Y111.809 
G01 X782.742 Y110.742 
G01 X783.118 Y109.666 
G01 X783.469 Y108.581 
G01 X783.796 Y107.488 
G01 X784.100 Y106.388 
G01 X784.379 Y105.282 
G01 X784.635 Y104.171 
G01 X784.867 Y103.054 
G01 X785.075 Y101.934 
G01 X785.259 Y100.810 
G01 X785.420 Y99.683 
G01 X785.557 Y98.555 
G01 X785.670 Y97.425 
G01 X785.760 Y96.295 
G01 X785.826 Y95.161 
G01 X785.875 Y93.791 
G01 X785.890 Y92.415 
G01 X785.872 Y91.037 
G01 X785.820 Y89.659 
G01 X785.735 Y88.282 
G01 X785.617 Y86.906 
G01 X785.467 Y85.533 
G01 X785.285 Y84.164 
G01 X785.070 Y82.800 
G01 X784.824 Y81.441 
G01 X784.546 Y80.090 
G01 X784.236 Y78.746 
G01 X783.895 Y77.411 
G01 X783.523 Y76.085 
G01 X783.120 Y74.771 
G01 X782.688 Y73.473 
G01 X782.335 Y72.483 
G01 X781.972 Y71.523 
G01 X781.598 Y70.588 
G01 X781.215 Y69.678 
G01 X780.823 Y68.793 
G01 X780.422 Y67.932 
G01 X780.015 Y67.097 
G01 X779.595 Y66.274 
G01 X778.759 Y64.736 
G01 X777.900 Y63.281 
G01 X777.033 Y61.920 
G01 X776.163 Y60.652 
G01 X775.298 Y59.474 
G01 X774.445 Y58.386 
G01 X773.610 Y57.384 
G01 X772.800 Y56.469 
G01 X772.021 Y55.637 
G01 X771.281 Y54.888 
G01 X770.586 Y54.219 
G01 X769.939 Y53.626 
G01 X769.183 Y52.967 
G01 X768.406 Y52.325 
G01 X767.612 Y51.704 
G01 X766.800 Y51.103 
G01 X765.972 Y50.523 
G01 X765.129 Y49.965 
G01 X764.271 Y49.428 
G01 X763.400 Y48.914 
G01 X762.515 Y48.423 
G01 X761.618 Y47.954 
G01 X760.710 Y47.510 
G01 X759.791 Y47.089 
G01 X758.862 Y46.693 
G01 X757.923 Y46.323 
G01 X756.976 Y45.978 
G01 X756.022 Y45.659 
G01 X755.097 Y45.377 
G01 X754.164 Y45.118 
G01 X753.223 Y44.881 
G01 X752.274 Y44.667 
G01 X751.319 Y44.475 
G01 X750.358 Y44.305 
G01 X749.391 Y44.158 
G01 X748.420 Y44.032 
G01 X747.444 Y43.928 
G01 X746.465 Y43.847 
G01 X745.484 Y43.787 
G01 X744.500 Y43.749 
G01 X743.516 Y43.733 
G01 X742.530 Y43.739 
G01 X741.544 Y43.767 
G01 X740.559 Y43.816 
G01 X739.576 Y43.887 
G01 X738.594 Y43.980 
G01 X737.615 Y44.095 
G01 X736.639 Y44.232 
G01 X735.668 Y44.391 
G01 X734.701 Y44.572 
G01 X733.739 Y44.775 
G01 X732.784 Y45.000 
G01 X731.835 Y45.247 
G01 X730.893 Y45.516 
G01 X729.960 Y45.808 
G01 X729.036 Y46.122 
G01 X728.121 Y46.458 
G01 X727.216 Y46.817 
G01 X726.323 Y47.199 
G01 X725.444 Y47.602 
G01 X724.699 Y47.966 
G01 X723.979 Y48.339 
G01 X722.688 Y49.062 
G01 X721.520 Y49.784 
G01 X720.487 Y50.481 
G01 X719.585 Y51.140 
G01 X718.802 Y51.751 
G01 X717.694 Y52.678 
G01 X717.619 Y52.738 
G01 X717.573 Y52.770 
G01 X717.523 Y52.799 
G01 X717.476 Y52.821 
G01 X717.440 Y52.833 
G01 X717.379 Y52.845 
G01 X717.371 Y52.844 
G01 X717.311 Y52.836 
G01 X716.740 Y52.728 
G01 X715.961 Y52.616 
G01 X714.953 Y52.513 
G01 X713.076 Y52.386 
G01 X711.505 Y52.324 
G01 X710.234 Y52.309 
G01 X709.256 Y52.325 
G01 X708.773 Y52.349 
G01 X708.416 Y52.368 
G01 X708.174 Y52.369 
G01 X708.171 Y52.369 
G01 X708.169 Y52.369 
G01 X708.158 Y52.366 
G01 X708.086 Y52.337 
G01 X708.058 Y52.321 
G01 X708.026 Y52.298 
G01 X707.990 Y52.264 
G01 X707.984 Y52.257 
G01 X707.858 Y52.083 
G01 X707.152 Y50.928 
G01 X706.098 Y49.245 
G01 X705.437 Y48.233 
G01 X704.690 Y47.133 
G01 X703.850 Y45.944 
G01 X702.910 Y44.667 
G01 X701.985 Y43.470 
G01 X701.066 Y42.338 
G01 X700.157 Y41.273 
G01 X699.261 Y40.272 
G01 X698.380 Y39.334 
G01 X697.518 Y38.457 
G01 X696.678 Y37.640 
G01 X695.861 Y36.881 
G01 X695.071 Y36.178 
G01 X694.311 Y35.529 
G01 X693.583 Y34.934 
G01 X692.881 Y34.381 
G01 X691.630 Y33.449 
G01 X690.544 Y32.692 
G01 X689.622 Y32.084 
G01 X688.685 Y31.500 
G01 X687.734 Y30.937 
G01 X686.768 Y30.398 
G01 X685.788 Y29.881 
G01 X684.796 Y29.388 
G01 X683.792 Y28.918 
G01 X682.776 Y28.473 
G01 X681.751 Y28.052 
G01 X680.715 Y27.656 
G01 X679.671 Y27.284 
G01 X678.619 Y26.939 
G01 X677.559 Y26.619 
G01 X676.492 Y26.326 
G01 X675.420 Y26.059 
G01 X674.344 Y25.819 
G01 X673.336 Y25.621 
G01 X672.324 Y25.446 
G01 X671.307 Y25.296 
G01 X670.286 Y25.169 
G01 X669.262 Y25.066 
G01 X668.236 Y24.987 
G01 X667.208 Y24.931 
G01 X666.179 Y24.899 
G01 X665.149 Y24.890 
G01 X664.120 Y24.905 
G01 X663.092 Y24.943 
G01 X662.065 Y25.004 
G01 X661.041 Y25.088 
G01 X660.020 Y25.196 
G01 X659.004 Y25.328 
G01 X657.988 Y25.483 
G01 X656.812 Y25.693 
G01 X655.637 Y25.937 
G01 X654.468 Y26.213 
G01 X653.305 Y26.520 
G01 X652.151 Y26.858 
G01 X651.005 Y27.227 
G01 X649.869 Y27.625 
G01 X648.744 Y28.052 
G01 X647.630 Y28.509 
G01 X646.529 Y28.993 
G01 X645.441 Y29.505 
G01 X644.368 Y30.045 
G01 X643.310 Y30.611 
G01 X642.268 Y31.204 
G01 X641.244 Y31.822 
G01 X640.228 Y32.472 
G01 X640.043 Y32.600 
G01 X639.945 Y32.662 
G01 X639.856 Y32.709 
G01 X639.848 Y32.712 
G01 X639.813 Y32.718 
G01 X639.756 Y32.722 
G01 X639.698 Y32.720 
G01 X639.608 Y32.708 
G01 X639.605 Y32.707 
G01 X639.590 Y32.700 
G01 X639.573 Y32.692 
G01 X639.553 Y32.680 
G01 X639.541 Y32.672 
G01 X639.427 Y32.542 
G01 X638.972 Y31.925 
G01 X638.083 Y30.727 
G01 X637.159 Y29.523 
G01 X636.213 Y28.331 
G01 X635.243 Y27.152 
G01 X634.250 Y25.988 
G01 X633.232 Y24.840 
G01 X632.190 Y23.712 
G01 X631.124 Y22.603 
G01 X630.032 Y21.517 
G01 X628.914 Y20.455 
G01 X627.771 Y19.418 
G01 X626.601 Y18.409 
G01 X625.405 Y17.430 
G01 X624.181 Y16.482 
G01 X622.930 Y15.568 
G01 X621.649 Y14.688 
G01 X620.221 Y13.771 
G01 X618.756 Y12.901 
G01 X617.260 Y12.081 
G01 X615.736 Y11.311 
G01 X614.184 Y10.595 
G01 X612.608 Y9.934 
G01 X611.009 Y9.330 
G01 X609.404 Y8.790 
G01 X608.523 Y8.520 
G01 X607.556 Y8.246 
G01 X606.491 Y7.969 
G01 X605.329 Y7.697 
G01 X604.073 Y7.439 
G01 X602.726 Y7.200 
G01 X601.289 Y6.989 
G01 X599.764 Y6.813 
G01 X598.153 Y6.679 
G01 X596.458 Y6.593 
G01 X594.695 Y6.565 
G01 X593.763 Y6.574 
G01 X592.825 Y6.600 
G01 X591.868 Y6.643 
G01 X590.891 Y6.705 
G01 X589.896 Y6.786 
G01 X588.881 Y6.888 
G01 X587.849 Y7.011 
G01 X586.798 Y7.156 
G01 X585.730 Y7.324 
G01 X584.634 Y7.517 
G01 X582.829 Y7.883 
G01 X581.025 Y8.309 
G01 X579.232 Y8.791 
G01 X577.453 Y9.329 
G01 X575.690 Y9.919 
G01 X573.943 Y10.562 
G01 X572.216 Y11.256 
G01 X570.508 Y11.999 
G01 X568.823 Y12.789 
G01 X567.161 Y13.627 
G01 X565.525 Y14.510 
G01 X563.917 Y15.436 
G01 X562.337 Y16.406 
G01 X560.787 Y17.416 
G01 X559.270 Y18.468 
G01 X557.792 Y19.554 
G01 X556.728 Y20.377 
G01 X555.686 Y21.219 
G01 X554.660 Y22.082 
G01 X553.652 Y22.966 
G01 X552.662 Y23.871 
G01 X551.689 Y24.795 
G01 X550.735 Y25.738 
G01 X549.800 Y26.700 
G01 X548.883 Y27.679 
G01 X547.986 Y28.675 
G01 X547.109 Y29.688 
G01 X546.251 Y30.716 
G01 X545.414 Y31.759 
G01 X544.597 Y32.817 
G01 X543.802 Y33.889 
G01 X543.027 Y34.974 
G01 X542.219 Y36.153 
G01 X541.435 Y37.348 
G01 X540.673 Y38.559 
G01 X539.934 Y39.784 
G01 X539.218 Y41.024 
G01 X538.525 Y42.276 
G01 X537.854 Y43.541 
G01 X537.205 Y44.819 
G01 X536.577 Y46.108 
G01 X535.972 Y47.407 
G01 X535.388 Y48.718 
G01 X534.826 Y50.038 
G01 X534.285 Y51.367 
G01 X533.765 Y52.705 
G01 X533.265 Y54.051 
G01 X532.786 Y55.405 
G01 X532.328 Y56.765 
G01 X531.889 Y58.132 
G01 X531.471 Y59.505 
G01 X531.073 Y60.883 
G01 X530.694 Y62.266 
G01 X530.335 Y63.652 
G01 X529.995 Y65.043 
G01 X529.674 Y66.436 
G01 X529.372 Y67.832 
G01 X529.089 Y69.230 
G01 X528.824 Y70.629 
G01 X528.578 Y72.029 
G01 X528.350 Y73.430 
G01 X528.141 Y74.830 
G00 Z24.080
G00 X793.031 Y74.830  F6000.0
G01 Z14.250 F750.0 M3
G01 X792.839 Y76.229  F3000.0
G01 X792.665 Y77.627 
G01 X792.505 Y79.059 
G01 X792.363 Y80.495 
G01 X792.240 Y81.935 
G01 X792.135 Y83.378 
G01 X792.049 Y84.824 
G01 X791.981 Y86.273 
G01 X791.932 Y87.724 
G01 X791.902 Y89.177 
G01 X791.890 Y90.631 
G01 X791.897 Y92.086 
G01 X791.924 Y93.541 
G01 X791.969 Y94.997 
G01 X792.034 Y96.453 
G01 X792.117 Y97.908 
G01 X792.220 Y99.362 
G01 X792.343 Y100.815 
G01 X792.484 Y102.266 
G01 X792.646 Y103.715 
G01 X792.827 Y105.161 
G01 X793.027 Y106.605 
G01 X793.248 Y108.045 
G01 X793.488 Y109.482 
G01 X793.749 Y110.915 
G01 X794.029 Y112.343 
G01 X794.330 Y113.766 
G01 X794.650 Y115.184 
G01 X794.992 Y116.596 
G01 X795.353 Y118.003 
G01 X795.735 Y119.403 
G01 X796.138 Y120.796 
G01 X796.561 Y122.182 
G01 X797.007 Y123.564 
G01 X797.658 Y125.463 
G01 X798.355 Y127.356 
G01 X799.095 Y129.237 
G01 X799.878 Y131.104 
G01 X800.705 Y132.956 
G01 X801.575 Y134.791 
G01 X802.488 Y136.607 
G01 X803.444 Y138.401 
G01 X804.444 Y140.173 
G01 X805.487 Y141.920 
G01 X806.573 Y143.639 
G01 X807.703 Y145.331 
G01 X808.875 Y146.991 
G01 X810.091 Y148.619 
G01 X811.350 Y150.212 
G01 X812.648 Y151.764 
G01 X813.598 Y152.843 
G01 X814.567 Y153.901 
G01 X815.560 Y154.939 
G01 X816.576 Y155.959 
G01 X817.614 Y156.958 
G01 X818.674 Y157.936 
G01 X819.757 Y158.891 
G01 X820.860 Y159.823 
G01 X821.984 Y160.732 
G01 X823.128 Y161.615 
G01 X824.292 Y162.472 
G01 X825.475 Y163.302 
G01 X826.677 Y164.104 
G01 X827.898 Y164.877 
G01 X829.136 Y165.620 
G01 X830.389 Y166.331 
G01 X831.481 Y166.917 
G01 X832.584 Y167.477 
G01 X833.700 Y168.015 
G01 X834.828 Y168.528 
G01 X835.968 Y169.017 
G01 X837.119 Y169.481 
G01 X838.280 Y169.921 
G01 X839.450 Y170.336 
G01 X840.629 Y170.726 
G01 X841.816 Y171.091 
G01 X843.009 Y171.430 
G01 X844.210 Y171.743 
G01 X845.415 Y172.030 
G01 X846.626 Y172.291 
G01 X847.841 Y172.525 
G01 X849.065 Y172.733 
G01 X850.681 Y172.965 
G01 X852.312 Y173.151 
G01 X853.950 Y173.291 
G01 X855.593 Y173.385 
G01 X857.240 Y173.432 
G01 X858.889 Y173.434 
G01 X860.539 Y173.390 
G01 X862.187 Y173.301 
G01 X863.832 Y173.167 
G01 X865.473 Y172.987 
G01 X867.106 Y172.762 
G01 X868.732 Y172.493 
G01 X870.347 Y172.178 
G01 X871.951 Y171.818 
G01 X873.541 Y171.414 
G01 X875.111 Y170.967 
G01 X876.239 Y170.614 
G01 X877.356 Y170.238 
G01 X878.466 Y169.838 
G01 X879.569 Y169.413 
G01 X880.664 Y168.963 
G01 X881.749 Y168.489 
G01 X882.825 Y167.991 
G01 X883.891 Y167.468 
G01 X884.944 Y166.922 
G01 X885.986 Y166.351 
G01 X887.013 Y165.756 
G01 X888.027 Y165.138 
G01 X889.026 Y164.496 
G01 X890.009 Y163.830 
G01 X890.975 Y163.141 
G01 X891.920 Y162.430 
G01 X892.683 Y161.828 
G01 X893.432 Y161.212 
G01 X894.168 Y160.580 
G01 X894.891 Y159.933 
G01 X895.601 Y159.272 
G01 X896.298 Y158.596 
G01 X896.981 Y157.907 
G01 X897.650 Y157.205 
G01 X898.305 Y156.489 
G01 X898.946 Y155.762 
G01 X899.572 Y155.022 
G01 X900.184 Y154.272 
G01 X900.780 Y153.510 
G01 X901.361 Y152.737 
G01 X901.927 Y151.954 
G01 X902.478 Y151.159 
G01 X902.714 Y150.802 
G01 X902.878 Y150.563 
G01 X902.881 Y150.560 
G01 X902.903 Y150.536 
G01 X902.938 Y150.505 
G01 X902.977 Y150.476 
G01 X903.013 Y150.455 
G01 X903.084 Y150.424 
G01 X903.086 Y150.424 
G01 X903.108 Y150.420 
G01 X903.190 Y150.421 
G01 X903.216 Y150.424 
G01 X903.240 Y150.430 
G01 X903.273 Y150.442 
G01 X903.320 Y150.464 
G01 X903.368 Y150.491 
G01 X903.633 Y150.660 
G01 X904.883 Y151.463 
G01 X906.198 Y152.250 
G01 X907.538 Y152.998 
G01 X908.900 Y153.704 
G01 X910.283 Y154.368 
G01 X911.685 Y154.990 
G01 X913.106 Y155.568 
G01 X914.536 Y156.099 
G01 X915.600 Y156.461 
G01 X916.668 Y156.797 
G01 X917.746 Y157.108 
G01 X918.833 Y157.395 
G01 X919.927 Y157.656 
G01 X921.028 Y157.892 
G01 X922.135 Y158.102 
G01 X923.247 Y158.286 
G01 X924.364 Y158.444 
G01 X925.485 Y158.574 
G01 X926.608 Y158.677 
G01 X927.733 Y158.753 
G01 X928.860 Y158.801 
G01 X929.987 Y158.820 
G01 X931.114 Y158.810 
G01 X932.237 Y158.771 
G01 X933.240 Y158.711 
G01 X934.241 Y158.627 
G01 X935.239 Y158.519 
G01 X936.235 Y158.387 
G01 X937.229 Y158.233 
G01 X938.218 Y158.055 
G01 X939.203 Y157.855 
G01 X940.183 Y157.633 
G01 X941.158 Y157.389 
G01 X942.127 Y157.123 
G01 X943.089 Y156.836 
G01 X944.043 Y156.528 
G01 X944.989 Y156.199 
G01 X945.927 Y155.850 
G01 X946.856 Y155.480 
G01 X947.774 Y155.090 
G01 X948.673 Y154.685 
G01 X949.562 Y154.260 
G01 X950.443 Y153.815 
G01 X951.315 Y153.351 
G01 X952.177 Y152.869 
G01 X953.030 Y152.368 
G01 X953.873 Y151.850 
G01 X954.706 Y151.315 
G01 X955.528 Y150.763 
G01 X956.340 Y150.194 
G01 X957.142 Y149.610 
G01 X957.932 Y149.011 
G01 X958.712 Y148.396 
G01 X959.479 Y147.767 
G01 X960.236 Y147.124 
G01 X960.980 Y146.467 
G01 X961.712 Y145.797 
G01 X962.432 Y145.114 
G01 X963.139 Y144.419 
G01 X963.834 Y143.711 
G01 X964.516 Y142.992 
G01 X965.184 Y142.262 
G01 X965.839 Y141.521 
G01 X966.480 Y140.770 
G01 X967.107 Y140.008 
G01 X967.719 Y139.237 
G01 X968.318 Y138.457 
G01 X968.901 Y137.668 
G01 X969.470 Y136.871 
G01 X970.023 Y136.065 
G01 X970.561 Y135.252 
G01 X971.085 Y134.427 
G01 X971.878 Y133.120 
G01 X972.445 Y132.131 
G01 X972.836 Y131.411 
G01 X972.842 Y131.404 
G01 X972.876 Y131.368 
G01 X972.915 Y131.335 
G01 X972.951 Y131.311 
G01 X973.020 Y131.276 
G01 X973.027 Y131.275 
G01 X973.138 Y131.271 
G01 X973.566 Y131.286 
G01 X974.271 Y131.311 
G01 X975.156 Y131.315 
G01 X976.277 Y131.286 
G01 X977.297 Y131.240 
G01 X978.234 Y131.179 
G01 X979.105 Y131.104 
G01 X980.555 Y130.933 
G01 X981.607 Y130.753 
G01 X981.703 Y130.738 
G01 X981.730 Y130.735 
G01 X981.769 Y130.735 
G01 X981.809 Y130.738 
G01 X981.844 Y130.745 
G01 X981.911 Y130.767 
G01 X981.913 Y130.768 
G01 X981.933 Y130.780 
G01 X981.961 Y130.800 
G01 X982.609 Y131.323 
G01 X983.162 Y131.765 
G01 X983.865 Y132.302 
G01 X985.039 Y133.141 
G01 X986.253 Y133.943 
G01 X987.497 Y134.703 
G01 X988.769 Y135.420 
G01 X990.067 Y136.094 
G01 X991.390 Y136.724 
G01 X992.734 Y137.309 
G01 X994.098 Y137.848 
G01 X995.479 Y138.340 
G01 X996.876 Y138.785 
G01 X998.287 Y139.181 
G01 X999.709 Y139.528 
G01 X1001.141 Y139.824 
G01 X1002.579 Y140.069 
G01 X1004.023 Y140.260 
G01 X1005.462 Y140.397 
G01 X1006.469 Y140.460 
G01 X1007.471 Y140.495 
G01 X1008.475 Y140.504 
G01 X1009.480 Y140.487 
G01 X1010.484 Y140.443 
G01 X1011.488 Y140.373 
G01 X1012.490 Y140.278 
G01 X1013.489 Y140.156 
G01 X1014.485 Y140.008 
G01 X1015.477 Y139.835 
G01 X1016.464 Y139.636 
G01 X1017.444 Y139.411 
G01 X1018.418 Y139.161 
G01 X1019.384 Y138.886 
G01 X1020.341 Y138.584 
G01 X1021.290 Y138.257 
G01 X1022.337 Y137.862 
G01 X1023.375 Y137.434 
G01 X1024.400 Y136.976 
G01 X1025.412 Y136.489 
G01 X1026.409 Y135.973 
G01 X1027.392 Y135.430 
G01 X1028.359 Y134.860 
G01 X1029.310 Y134.265 
G01 X1030.245 Y133.644 
G01 X1031.162 Y133.000 
G01 X1032.061 Y132.333 
G01 X1032.941 Y131.644 
G01 X1033.802 Y130.934 
G01 X1034.643 Y130.203 
G01 X1035.463 Y129.452 
G01 X1036.261 Y128.682 
G01 X1037.099 Y127.830 
G01 X1037.916 Y126.955 
G01 X1038.709 Y126.059 
G01 X1039.480 Y125.141 
G01 X1040.227 Y124.204 
G01 X1040.950 Y123.248 
G01 X1041.650 Y122.275 
G01 X1042.325 Y121.284 
G01 X1042.975 Y120.278 
G01 X1043.600 Y119.257 
G01 X1044.200 Y118.221 
G01 X1044.775 Y117.173 
G01 X1045.323 Y116.112 
G01 X1045.845 Y115.040 
G01 X1046.341 Y113.958 
G01 X1046.808 Y112.867 
G01 X1047.233 Y111.809 
G01 X1047.632 Y110.742 
G01 X1048.008 Y109.666 
G01 X1048.359 Y108.581 
G01 X1048.687 Y107.488 
G01 X1048.990 Y106.388 
G01 X1049.269 Y105.282 
G01 X1049.525 Y104.171 
G01 X1049.757 Y103.054 
G01 X1049.965 Y101.934 
G01 X1050.149 Y100.810 
G01 X1050.310 Y99.683 
G01 X1050.447 Y98.555 
G01 X1050.560 Y97.425 
G01 X1050.650 Y96.295 
G01 X1050.716 Y95.161 
G01 X1050.765 Y93.791 
G01 X1050.780 Y92.415 
G01 X1050.762 Y91.037 
G01 X1050.710 Y89.659 
G01 X1050.625 Y88.282 
G01 X1050.508 Y86.906 
G01 X1050.357 Y85.533 
G01 X1050.175 Y84.164 
G01 X1049.960 Y82.800 
G01 X1049.714 Y81.441 
G01 X1049.436 Y80.090 
G01 X1049.126 Y78.746 
G01 X1048.785 Y77.411 
G01 X1048.413 Y76.085 
G01 X1048.010 Y74.771 
G01 X1047.578 Y73.473 
G01 X1047.225 Y72.483 
G01 X1046.862 Y71.523 
G01 X1046.488 Y70.588 
G01 X1046.105 Y69.678 
G01 X1045.713 Y68.793 
G01 X1045.313 Y67.932 
G01 X1044.905 Y67.097 
G01 X1044.485 Y66.274 
G01 X1043.649 Y64.736 
G01 X1042.790 Y63.281 
G01 X1041.923 Y61.920 
G01 X1041.053 Y60.652 
G01 X1040.189 Y59.474 
G01 X1039.335 Y58.386 
G01 X1038.500 Y57.384 
G01 X1037.690 Y56.469 
G01 X1036.911 Y55.637 
G01 X1036.171 Y54.888 
G01 X1035.476 Y54.219 
G01 X1034.829 Y53.626 
G01 X1034.073 Y52.967 
G01 X1033.296 Y52.325 
G01 X1032.502 Y51.704 
G01 X1031.690 Y51.103 
G01 X1030.862 Y50.523 
G01 X1030.019 Y49.965 
G01 X1029.161 Y49.428 
G01 X1028.290 Y48.914 
G01 X1027.406 Y48.423 
G01 X1026.509 Y47.954 
G01 X1025.600 Y47.510 
G01 X1024.681 Y47.089 
G01 X1023.752 Y46.693 
G01 X1022.813 Y46.323 
G01 X1021.866 Y45.978 
G01 X1020.912 Y45.659 
G01 X1019.987 Y45.377 
G01 X1019.054 Y45.118 
G01 X1018.113 Y44.881 
G01 X1017.164 Y44.667 
G01 X1016.209 Y44.475 
G01 X1015.248 Y44.305 
G01 X1014.281 Y44.158 
G01 X1013.310 Y44.032 
G01 X1012.334 Y43.928 
G01 X1011.356 Y43.847 
G01 X1010.374 Y43.787 
G01 X1009.391 Y43.749 
G01 X1008.406 Y43.733 
G01 X1007.420 Y43.739 
G01 X1006.435 Y43.767 
G01 X1005.450 Y43.816 
G01 X1004.466 Y43.887 
G01 X1003.484 Y43.980 
G01 X1002.505 Y44.095 
G01 X1001.530 Y44.232 
G01 X1000.558 Y44.391 
G01 X999.591 Y44.572 
G01 X998.629 Y44.775 
G01 X997.674 Y45.000 
G01 X996.725 Y45.247 
G01 X995.784 Y45.516 
G01 X994.850 Y45.808 
G01 X993.926 Y46.122 
G01 X993.011 Y46.458 
G01 X992.107 Y46.817 
G01 X991.213 Y47.199 
G01 X990.334 Y47.602 
G01 X989.589 Y47.966 
G01 X988.869 Y48.339 
G01 X987.578 Y49.062 
G01 X986.410 Y49.784 
G01 X985.377 Y50.481 
G01 X984.475 Y51.140 
G01 X983.692 Y51.751 
G01 X982.584 Y52.678 
G01 X982.509 Y52.738 
G01 X982.464 Y52.770 
G01 X982.413 Y52.799 
G01 X982.366 Y52.821 
G01 X982.330 Y52.833 
G01 X982.270 Y52.845 
G01 X982.261 Y52.844 
G01 X982.201 Y52.836 
G01 X981.631 Y52.728 
G01 X980.851 Y52.616 
G01 X979.843 Y52.513 
G01 X977.966 Y52.386 
G01 X976.395 Y52.324 
G01 X975.124 Y52.309 
G01 X974.146 Y52.325 
G01 X973.663 Y52.349 
G01 X973.306 Y52.368 
G01 X973.065 Y52.369 
G01 X973.061 Y52.369 
G01 X973.059 Y52.369 
G01 X973.048 Y52.366 
G01 X972.976 Y52.337 
G01 X972.948 Y52.321 
G01 X972.916 Y52.298 
G01 X972.880 Y52.264 
G01 X972.874 Y52.257 
G01 X972.749 Y52.083 
G01 X972.043 Y50.928 
G01 X970.988 Y49.245 
G01 X970.327 Y48.233 
G01 X969.581 Y47.133 
G01 X968.740 Y45.944 
G01 X967.800 Y44.667 
G01 X966.875 Y43.470 
G01 X965.956 Y42.338 
G01 X965.047 Y41.273 
G01 X964.151 Y40.272 
G01 X963.271 Y39.334 
G01 X962.409 Y38.457 
G01 X961.568 Y37.640 
G01 X960.751 Y36.881 
G01 X959.961 Y36.178 
G01 X959.201 Y35.529 
G01 X958.473 Y34.934 
G01 X957.771 Y34.381 
G01 X956.520 Y33.449 
G01 X955.434 Y32.692 
G01 X954.512 Y32.084 
G01 X953.576 Y31.500 
G01 X952.624 Y30.937 
G01 X951.658 Y30.398 
G01 X950.678 Y29.881 
G01 X949.686 Y29.388 
G01 X948.682 Y28.918 
G01 X947.667 Y28.473 
G01 X946.641 Y28.052 
G01 X945.605 Y27.656 
G01 X944.561 Y27.284 
G01 X943.509 Y26.939 
G01 X942.449 Y26.619 
G01 X941.383 Y26.326 
G01 X940.310 Y26.059 
G01 X939.234 Y25.819 
G01 X938.226 Y25.621 
G01 X937.214 Y25.446 
G01 X936.197 Y25.296 
G01 X935.177 Y25.169 
G01 X934.153 Y25.066 
G01 X933.126 Y24.987 
G01 X932.098 Y24.931 
G01 X931.069 Y24.899 
G01 X930.039 Y24.890 
G01 X929.010 Y24.905 
G01 X927.982 Y24.943 
G01 X926.955 Y25.004 
G01 X925.931 Y25.088 
G01 X924.911 Y25.196 
G01 X923.894 Y25.328 
G01 X922.878 Y25.483 
G01 X921.702 Y25.693 
G01 X920.527 Y25.937 
G01 X919.358 Y26.213 
G01 X918.196 Y26.520 
G01 X917.041 Y26.858 
G01 X915.896 Y27.227 
G01 X914.760 Y27.625 
G01 X913.634 Y28.052 
G01 X912.520 Y28.509 
G01 X911.419 Y28.993 
G01 X910.331 Y29.505 
G01 X909.258 Y30.045 
G01 X908.200 Y30.611 
G01 X907.158 Y31.204 
G01 X906.134 Y31.822 
G01 X905.118 Y32.472 
G01 X904.933 Y32.600 
G01 X904.836 Y32.662 
G01 X904.746 Y32.709 
G01 X904.738 Y32.712 
G01 X904.703 Y32.718 
G01 X904.646 Y32.722 
G01 X904.588 Y32.720 
G01 X904.498 Y32.708 
G01 X904.495 Y32.707 
G01 X904.480 Y32.700 
G01 X904.463 Y32.692 
G01 X904.443 Y32.680 
G01 X904.431 Y32.672 
G01 X904.318 Y32.542 
G01 X903.862 Y31.925 
G01 X902.973 Y30.727 
G01 X902.050 Y29.523 
G01 X901.103 Y28.331 
G01 X900.134 Y27.152 
G01 X899.140 Y25.988 
G01 X898.123 Y24.840 
G01 X897.081 Y23.712 
G01 X896.014 Y22.603 
G01 X894.922 Y21.517 
G01 X893.804 Y20.455 
G01 X892.661 Y19.418 
G01 X891.491 Y18.409 
G01 X890.295 Y17.430 
G01 X889.071 Y16.482 
G01 X887.820 Y15.568 
G01 X886.539 Y14.688 
G01 X885.111 Y13.771 
G01 X883.646 Y12.901 
G01 X882.150 Y12.081 
G01 X880.626 Y11.311 
G01 X879.074 Y10.595 
G01 X877.498 Y9.934 
G01 X875.899 Y9.330 
G01 X874.294 Y8.790 
G01 X873.413 Y8.520 
G01 X872.446 Y8.246 
G01 X871.381 Y7.969 
G01 X870.219 Y7.697 
G01 X868.964 Y7.439 
G01 X867.616 Y7.200 
G01 X866.179 Y6.989 
G01 X864.654 Y6.813 
G01 X863.043 Y6.679 
G01 X861.348 Y6.593 
G01 X859.585 Y6.565 
G01 X858.654 Y6.574 
G01 X857.715 Y6.600 
G01 X856.758 Y6.643 
G01 X855.781 Y6.705 
G01 X854.786 Y6.786 
G01 X853.772 Y6.888 
G01 X852.739 Y7.011 
G01 X851.688 Y7.156 
G01 X850.620 Y7.324 
G01 X849.524 Y7.517 
G01 X847.719 Y7.883 
G01 X845.915 Y8.309 
G01 X844.122 Y8.791 
G01 X842.343 Y9.329 
G01 X840.580 Y9.919 
G01 X838.833 Y10.562 
G01 X837.106 Y11.256 
G01 X835.398 Y11.999 
G01 X833.713 Y12.789 
G01 X832.052 Y13.627 
G01 X830.416 Y14.510 
G01 X828.807 Y15.436 
G01 X827.227 Y16.406 
G01 X825.678 Y17.416 
G01 X824.161 Y18.468 
G01 X822.682 Y19.554 
G01 X821.618 Y20.377 
G01 X820.576 Y21.219 
G01 X819.550 Y22.082 
G01 X818.542 Y22.966 
G01 X817.552 Y23.871 
G01 X816.579 Y24.795 
G01 X815.625 Y25.738 
G01 X814.690 Y26.700 
G01 X813.773 Y27.679 
G01 X812.876 Y28.675 
G01 X811.999 Y29.688 
G01 X811.141 Y30.716 
G01 X810.304 Y31.759 
G01 X809.487 Y32.817 
G01 X808.692 Y33.889 
G01 X807.917 Y34.974 
G01 X807.109 Y36.153 
G01 X806.325 Y37.348 
G01 X805.563 Y38.559 
G01 X804.824 Y39.784 
G01 X804.108 Y41.024 
G01 X803.415 Y42.276 
G01 X802.744 Y43.541 
G01 X802.095 Y44.819 
G01 X801.468 Y46.108 
G01 X800.862 Y47.407 
G01 X800.279 Y48.718 
G01 X799.716 Y50.038 
G01 X799.175 Y51.367 
G01 X798.655 Y52.705 
G01 X798.155 Y54.051 
G01 X797.676 Y55.405 
G01 X797.218 Y56.765 
G01 X796.779 Y58.132 
G01 X796.361 Y59.505 
G01 X795.963 Y60.883 
G01 X795.584 Y62.266 
G01 X795.225 Y63.652 
G01 X794.885 Y65.043 
G01 X794.564 Y66.436 
G01 X794.262 Y67.832 
G01 X793.979 Y69.230 
G01 X793.714 Y70.629 
G01 X793.468 Y72.029 
G01 X793.240 Y73.430 
G01 X793.031 Y74.830 
G01 Z9.500 F750.0 M3
G01 X792.839 Y76.229  F3000.0
G01 X792.665 Y77.627 
G01 X792.505 Y79.059 
G01 X792.363 Y80.495 
G01 X792.240 Y81.935 
G01 X792.135 Y83.378 
G01 X792.049 Y84.824 
G01 X791.981 Y86.273 
G01 X791.932 Y87.724 
G01 X791.902 Y89.177 
G01 X791.890 Y90.631 
G01 X791.897 Y92.086 
G01 X791.924 Y93.541 
G01 X791.969 Y94.997 
G01 X792.034 Y96.453 
G01 X792.117 Y97.908 
G01 X792.220 Y99.362 
G01 X792.343 Y100.815 
G01 X792.484 Y102.266 
G01 X792.646 Y103.715 
G01 X792.827 Y105.161 
G01 X793.027 Y106.605 
G01 X793.248 Y108.045 
G01 X793.488 Y109.482 
G01 X793.749 Y110.915 
G01 X794.029 Y112.343 
G01 X794.330 Y113.766 
G01 X794.650 Y115.184 
G01 X794.992 Y116.596 
G01 X795.353 Y118.003 
G01 X795.735 Y119.403 
G01 X796.138 Y120.796 
G01 X796.561 Y122.182 
G01 X797.007 Y123.564 
G01 X797.658 Y125.463 
G01 X798.355 Y127.356 
G01 X799.095 Y129.237 
G01 X799.878 Y131.104 
G01 X800.705 Y132.956 
G01 X801.575 Y134.791 
G01 X802.488 Y136.607 
G01 X803.444 Y138.401 
G01 X804.444 Y140.173 
G01 X805.487 Y141.920 
G01 X806.573 Y143.639 
G01 X807.703 Y145.331 
G01 X808.875 Y146.991 
G01 X810.091 Y148.619 
G01 X811.350 Y150.212 
G01 X812.648 Y151.764 
G01 X813.598 Y152.843 
G01 X814.567 Y153.901 
G01 X815.560 Y154.939 
G01 X816.576 Y155.959 
G01 X817.614 Y156.958 
G01 X818.674 Y157.936 
G01 X819.757 Y158.891 
G01 X820.860 Y159.823 
G01 X821.984 Y160.732 
G01 X823.128 Y161.615 
G01 X824.292 Y162.472 
G01 X825.475 Y163.302 
G01 X826.677 Y164.104 
G01 X827.898 Y164.877 
G01 X829.136 Y165.620 
G01 X830.389 Y166.331 
G01 X831.481 Y166.917 
G01 X832.584 Y167.477 
G01 X833.700 Y168.015 
G01 X834.828 Y168.528 
G01 X835.968 Y169.017 
G01 X837.119 Y169.481 
G01 X838.280 Y169.921 
G01 X839.450 Y170.336 
G01 X840.629 Y170.726 
G01 X841.816 Y171.091 
G01 X843.009 Y171.430 
G01 X844.210 Y171.743 
G01 X845.415 Y172.030 
G01 X846.626 Y172.291 
G01 X847.841 Y172.525 
G01 X849.065 Y172.733 
G01 X850.681 Y172.965 
G01 X852.312 Y173.151 
G01 X853.950 Y173.291 
G01 X855.593 Y173.385 
G01 X857.240 Y173.432 
G01 X858.889 Y173.434 
G01 X860.539 Y173.390 
G01 X862.187 Y173.301 
G01 X863.832 Y173.167 
G01 X865.473 Y172.987 
G01 X867.106 Y172.762 
G01 X868.732 Y172.493 
G01 X870.347 Y172.178 
G01 X871.951 Y171.818 
G01 X873.541 Y171.414 
G01 X875.111 Y170.967 
G01 X876.239 Y170.614 
G01 X877.356 Y170.238 
G01 X878.466 Y169.838 
G01 X879.569 Y169.413 
G01 X880.664 Y168.963 
G01 X881.749 Y168.489 
G01 X882.825 Y167.991 
G01 X883.891 Y167.468 
G01 X884.944 Y166.922 
G01 X885.986 Y166.351 
G01 X887.013 Y165.756 
G01 X888.027 Y165.138 
G01 X889.026 Y164.496 
G01 X890.009 Y163.830 
G01 X890.975 Y163.141 
G01 X891.920 Y162.430 
G01 X892.683 Y161.828 
G01 X893.432 Y161.212 
G01 X894.168 Y160.580 
G01 X894.891 Y159.933 
G01 X895.601 Y159.272 
G01 X896.298 Y158.596 
G01 X896.981 Y157.907 
G01 X897.650 Y157.205 
G01 X898.305 Y156.489 
G01 X898.946 Y155.762 
G01 X899.572 Y155.022 
G01 X900.184 Y154.272 
G01 X900.780 Y153.510 
G01 X901.361 Y152.737 
G01 X901.927 Y151.954 
G01 X902.478 Y151.159 
G01 X902.714 Y150.802 
G01 X902.878 Y150.563 
G01 X902.881 Y150.560 
G01 X902.903 Y150.536 
G01 X902.938 Y150.505 
G01 X902.977 Y150.476 
G01 X903.013 Y150.455 
G01 X903.084 Y150.424 
G01 X903.086 Y150.424 
G01 X903.108 Y150.420 
G01 X903.190 Y150.421 
G01 X903.216 Y150.424 
G01 X903.240 Y150.430 
G01 X903.273 Y150.442 
G01 X903.320 Y150.464 
G01 X903.368 Y150.491 
G01 X903.633 Y150.660 
G01 X904.883 Y151.463 
G01 X906.198 Y152.250 
G01 X907.538 Y152.998 
G01 X908.900 Y153.704 
G01 X910.283 Y154.368 
G01 X911.685 Y154.990 
G01 X913.106 Y155.568 
G01 X914.536 Y156.099 
G01 X915.600 Y156.461 
G01 X916.668 Y156.797 
G01 X917.746 Y157.108 
G01 X918.833 Y157.395 
G01 X919.927 Y157.656 
G01 X921.028 Y157.892 
G01 X922.135 Y158.102 
G01 X923.247 Y158.286 
G01 X924.364 Y158.444 
G01 X925.485 Y158.574 
G01 X926.608 Y158.677 
G01 X927.733 Y158.753 
G01 X928.860 Y158.801 
G01 X929.987 Y158.820 
G01 X931.114 Y158.810 
G01 X932.237 Y158.771 
G01 X933.240 Y158.711 
G01 X934.241 Y158.627 
G01 X935.239 Y158.519 
G01 X936.235 Y158.387 
G01 X937.229 Y158.233 
G01 X938.218 Y158.055 
G01 X939.203 Y157.855 
G01 X940.183 Y157.633 
G01 X941.158 Y157.389 
G01 X942.127 Y157.123 
G01 X943.089 Y156.836 
G01 X944.043 Y156.528 
G01 X944.989 Y156.199 
G01 X945.927 Y155.850 
G01 X946.856 Y155.480 
G01 X947.774 Y155.090 
G01 X948.673 Y154.685 
G01 X949.562 Y154.260 
G01 X950.443 Y153.815 
G01 X951.315 Y153.351 
G01 X952.177 Y152.869 
G01 X953.030 Y152.368 
G01 X953.873 Y151.850 
G01 X954.706 Y151.315 
G01 X955.528 Y150.763 
G01 X956.340 Y150.194 
G01 X957.142 Y149.610 
G01 X957.932 Y149.011 
G01 X958.712 Y148.396 
G01 X959.479 Y147.767 
G01 X960.236 Y147.124 
G01 X960.980 Y146.467 
G01 X961.712 Y145.797 
G01 X962.432 Y145.114 
G01 X963.139 Y144.419 
G01 X963.834 Y143.711 
G01 X964.516 Y142.992 
G01 X965.184 Y142.262 
G01 X965.839 Y141.521 
G01 X966.480 Y140.770 
G01 X967.107 Y140.008 
G01 X967.719 Y139.237 
G01 X968.318 Y138.457 
G01 X968.901 Y137.668 
G01 X969.470 Y136.871 
G01 X970.023 Y136.065 
G01 X970.561 Y135.252 
G01 X971.085 Y134.427 
G01 X971.878 Y133.120 
G01 X972.445 Y132.131 
G01 X972.836 Y131.411 
G01 X972.842 Y131.404 
G01 X972.876 Y131.368 
G01 X972.915 Y131.335 
G01 X972.951 Y131.311 
G01 X973.020 Y131.276 
G01 X973.027 Y131.275 
G01 X973.138 Y131.271 
G01 X973.566 Y131.286 
G01 X974.271 Y131.311 
G01 X975.156 Y131.315 
G01 X976.277 Y131.286 
G01 X977.297 Y131.240 
G01 X978.234 Y131.179 
G01 X979.105 Y131.104 
G01 X980.555 Y130.933 
G01 X981.607 Y130.753 
G01 X981.703 Y130.738 
G01 X981.730 Y130.735 
G01 X981.769 Y130.735 
G01 X981.809 Y130.738 
G01 X981.844 Y130.745 
G01 X981.911 Y130.767 
G01 X981.913 Y130.768 
G01 X981.933 Y130.780 
G01 X981.961 Y130.800 
G01 X982.609 Y131.323 
G01 X983.162 Y131.765 
G01 X983.865 Y132.302 
G01 X985.039 Y133.141 
G01 X986.253 Y133.943 
G01 X987.497 Y134.703 
G01 X988.769 Y135.420 
G01 X990.067 Y136.094 
G01 X991.390 Y136.724 
G01 X992.734 Y137.309 
G01 X994.098 Y137.848 
G01 X995.479 Y138.340 
G01 X996.876 Y138.785 
G01 X998.287 Y139.181 
G01 X999.709 Y139.528 
G01 X1001.141 Y139.824 
G01 X1002.579 Y140.069 
G01 X1004.023 Y140.260 
G01 X1005.462 Y140.397 
G01 X1006.469 Y140.460 
G01 X1007.471 Y140.495 
G01 X1008.475 Y140.504 
G01 X1009.480 Y140.487 
G01 X1010.484 Y140.443 
G01 X1011.488 Y140.373 
G01 X1012.490 Y140.278 
G01 X1013.489 Y140.156 
G01 X1014.485 Y140.008 
G01 X1015.477 Y139.835 
G01 X1016.464 Y139.636 
G01 X1017.444 Y139.411 
G01 X1018.418 Y139.161 
G01 X1019.384 Y138.886 
G01 X1020.341 Y138.584 
G01 X1021.290 Y138.257 
G01 X1022.337 Y137.862 
G01 X1023.375 Y137.434 
G01 X1024.400 Y136.976 
G01 X1025.412 Y136.489 
G01 X1026.409 Y135.973 
G01 X1027.392 Y135.430 
G01 X1028.359 Y134.860 
G01 X1029.310 Y134.265 
G01 X1030.245 Y133.644 
G01 X1031.162 Y133.000 
G01 X1032.061 Y132.333 
G01 X1032.941 Y131.644 
G01 X1033.802 Y130.934 
G01 X1034.643 Y130.203 
G01 X1035.463 Y129.452 
G01 X1036.261 Y128.682 
G01 X1037.099 Y127.830 
G01 X1037.916 Y126.955 
G01 X1038.709 Y126.059 
G01 X1039.480 Y125.141 
G01 X1040.227 Y124.204 
G01 X1040.950 Y123.248 
G01 X1041.650 Y122.275 
G01 X1042.325 Y121.284 
G01 X1042.975 Y120.278 
G01 X1043.600 Y119.257 
G01 X1044.200 Y118.221 
G01 X1044.775 Y117.173 
G01 X1045.323 Y116.112 
G01 X1045.845 Y115.040 
G01 X1046.341 Y113.958 
G01 X1046.808 Y112.867 
G01 X1047.233 Y111.809 
G01 X1047.632 Y110.742 
G01 X1048.008 Y109.666 
G01 X1048.359 Y108.581 
G01 X1048.687 Y107.488 
G01 X1048.990 Y106.388 
G01 X1049.269 Y105.282 
G01 X1049.525 Y104.171 
G01 X1049.757 Y103.054 
G01 X1049.965 Y101.934 
G01 X1050.149 Y100.810 
G01 X1050.310 Y99.683 
G01 X1050.447 Y98.555 
G01 X1050.560 Y97.425 
G01 X1050.650 Y96.295 
G01 X1050.716 Y95.161 
G01 X1050.765 Y93.791 
G01 X1050.780 Y92.415 
G01 X1050.762 Y91.037 
G01 X1050.710 Y89.659 
G01 X1050.625 Y88.282 
G01 X1050.508 Y86.906 
G01 X1050.357 Y85.533 
G01 X1050.175 Y84.164 
G01 X1049.960 Y82.800 
G01 X1049.714 Y81.441 
G01 X1049.436 Y80.090 
G01 X1049.126 Y78.746 
G01 X1048.785 Y77.411 
G01 X1048.413 Y76.085 
G01 X1048.010 Y74.771 
G01 X1047.578 Y73.473 
G01 X1047.225 Y72.483 
G01 X1046.862 Y71.523 
G01 X1046.488 Y70.588 
G01 X1046.105 Y69.678 
G01 X1045.713 Y68.793 
G01 X1045.313 Y67.932 
G01 X1044.905 Y67.097 
G01 X1044.485 Y66.274 
G01 X1043.649 Y64.736 
G01 X1042.790 Y63.281 
G01 X1041.923 Y61.920 
G01 X1041.053 Y60.652 
G01 X1040.189 Y59.474 
G01 X1039.335 Y58.386 
G01 X1038.500 Y57.384 
G01 X1037.690 Y56.469 
G01 X1036.911 Y55.637 
G01 X1036.171 Y54.888 
G01 X1035.476 Y54.219 
G01 X1034.829 Y53.626 
G01 X1034.073 Y52.967 
G01 X1033.296 Y52.325 
G01 X1032.502 Y51.704 
G01 X1031.690 Y51.103 
G01 X1030.862 Y50.523 
G01 X1030.019 Y49.965 
G01 X1029.161 Y49.428 
G01 X1028.290 Y48.914 
G01 X1027.406 Y48.423 
G01 X1026.509 Y47.954 
G01 X1025.600 Y47.510 
G01 X1024.681 Y47.089 
G01 X1023.752 Y46.693 
G01 X1022.813 Y46.323 
G01 X1021.866 Y45.978 
G01 X1020.912 Y45.659 
G01 X1019.987 Y45.377 
G01 X1019.054 Y45.118 
G01 X1018.113 Y44.881 
G01 X1017.164 Y44.667 
G01 X1016.209 Y44.475 
G01 X1015.248 Y44.305 
G01 X1014.281 Y44.158 
G01 X1013.310 Y44.032 
G01 X1012.334 Y43.928 
G01 X1011.356 Y43.847 
G01 X1010.374 Y43.787 
G01 X1009.391 Y43.749 
G01 X1008.406 Y43.733 
G01 X1007.420 Y43.739 
G01 X1006.435 Y43.767 
G01 X1005.450 Y43.816 
G01 X1004.466 Y43.887 
G01 X1003.484 Y43.980 
G01 X1002.505 Y44.095 
G01 X1001.530 Y44.232 
G01 X1000.558 Y44.391 
G01 X999.591 Y44.572 
G01 X998.629 Y44.775 
G01 X997.674 Y45.000 
G01 X996.725 Y45.247 
G01 X995.784 Y45.516 
G01 X994.850 Y45.808 
G01 X993.926 Y46.122 
G01 X993.011 Y46.458 
G01 X992.107 Y46.817 
G01 X991.213 Y47.199 
G01 X990.334 Y47.602 
G01 X989.589 Y47.966 
G01 X988.869 Y48.339 
G01 X987.578 Y49.062 
G01 X986.410 Y49.784 
G01 X985.377 Y50.481 
G01 X984.475 Y51.140 
G01 X983.692 Y51.751 
G01 X982.584 Y52.678 
G01 X982.509 Y52.738 
G01 X982.464 Y52.770 
G01 X982.413 Y52.799 
G01 X982.366 Y52.821 
G01 X982.330 Y52.833 
G01 X982.270 Y52.845 
G01 X982.261 Y52.844 
G01 X982.201 Y52.836 
G01 X981.631 Y52.728 
G01 X980.851 Y52.616 
G01 X979.843 Y52.513 
G01 X977.966 Y52.386 
G01 X976.395 Y52.324 
G01 X975.124 Y52.309 
G01 X974.146 Y52.325 
G01 X973.663 Y52.349 
G01 X973.306 Y52.368 
G01 X973.065 Y52.369 
G01 X973.061 Y52.369 
G01 X973.059 Y52.369 
G01 X973.048 Y52.366 
G01 X972.976 Y52.337 
G01 X972.948 Y52.321 
G01 X972.916 Y52.298 
G01 X972.880 Y52.264 
G01 X972.874 Y52.257 
G01 X972.749 Y52.083 
G01 X972.043 Y50.928 
G01 X970.988 Y49.245 
G01 X970.327 Y48.233 
G01 X969.581 Y47.133 
G01 X968.740 Y45.944 
G01 X967.800 Y44.667 
G01 X966.875 Y43.470 
G01 X965.956 Y42.338 
G01 X965.047 Y41.273 
G01 X964.151 Y40.272 
G01 X963.271 Y39.334 
G01 X962.409 Y38.457 
G01 X961.568 Y37.640 
G01 X960.751 Y36.881 
G01 X959.961 Y36.178 
G01 X959.201 Y35.529 
G01 X958.473 Y34.934 
G01 X957.771 Y34.381 
G01 X956.520 Y33.449 
G01 X955.434 Y32.692 
G01 X954.512 Y32.084 
G01 X953.576 Y31.500 
G01 X952.624 Y30.937 
G01 X951.658 Y30.398 
G01 X950.678 Y29.881 
G01 X949.686 Y29.388 
G01 X948.682 Y28.918 
G01 X947.667 Y28.473 
G01 X946.641 Y28.052 
G01 X945.605 Y27.656 
G01 X944.561 Y27.284 
G01 X943.509 Y26.939 
G01 X942.449 Y26.619 
G01 X941.383 Y26.326 
G01 X940.310 Y26.059 
G01 X939.234 Y25.819 
G01 X938.226 Y25.621 
G01 X937.214 Y25.446 
G01 X936.197 Y25.296 
G01 X935.177 Y25.169 
G01 X934.153 Y25.066 
G01 X933.126 Y24.987 
G01 X932.098 Y24.931 
G01 X931.069 Y24.899 
G01 X930.039 Y24.890 
G01 X929.010 Y24.905 
G01 X927.982 Y24.943 
G01 X926.955 Y25.004 
G01 X925.931 Y25.088 
G01 X924.911 Y25.196 
G01 X923.894 Y25.328 
G01 X922.878 Y25.483 
G01 X921.702 Y25.693 
G01 X920.527 Y25.937 
G01 X919.358 Y26.213 
G01 X918.196 Y26.520 
G01 X917.041 Y26.858 
G01 X915.896 Y27.227 
G01 X914.760 Y27.625 
G01 X913.634 Y28.052 
G01 X912.520 Y28.509 
G01 X911.419 Y28.993 
G01 X910.331 Y29.505 
G01 X909.258 Y30.045 
G01 X908.200 Y30.611 
G01 X907.158 Y31.204 
G01 X906.134 Y31.822 
G01 X905.118 Y32.472 
G01 X904.933 Y32.600 
G01 X904.836 Y32.662 
G01 X904.746 Y32.709 
G01 X904.738 Y32.712 
G01 X904.703 Y32.718 
G01 X904.646 Y32.722 
G01 X904.588 Y32.720 
G01 X904.498 Y32.708 
G01 X904.495 Y32.707 
G01 X904.480 Y32.700 
G01 X904.463 Y32.692 
G01 X904.443 Y32.680 
G01 X904.431 Y32.672 
G01 X904.318 Y32.542 
G01 X903.862 Y31.925 
G01 X902.973 Y30.727 
G01 X902.050 Y29.523 
G01 X901.103 Y28.331 
G01 X900.134 Y27.152 
G01 X899.140 Y25.988 
G01 X898.123 Y24.840 
G01 X897.081 Y23.712 
G01 X896.014 Y22.603 
G01 X894.922 Y21.517 
G01 X893.804 Y20.455 
G01 X892.661 Y19.418 
G01 X891.491 Y18.409 
G01 X890.295 Y17.430 
G01 X889.071 Y16.482 
G01 X887.820 Y15.568 
G01 X886.539 Y14.688 
G01 X885.111 Y13.771 
G01 X883.646 Y12.901 
G01 X882.150 Y12.081 
G01 X880.626 Y11.311 
G01 X879.074 Y10.595 
G01 X877.498 Y9.934 
G01 X875.899 Y9.330 
G01 X874.294 Y8.790 
G01 X873.413 Y8.520 
G01 X872.446 Y8.246 
G01 X871.381 Y7.969 
G01 X870.219 Y7.697 
G01 X868.964 Y7.439 
G01 X867.616 Y7.200 
G01 X866.179 Y6.989 
G01 X864.654 Y6.813 
G01 X863.043 Y6.679 
G01 X861.348 Y6.593 
G01 X859.585 Y6.565 
G01 X858.654 Y6.574 
G01 X857.715 Y6.600 
G01 X856.758 Y6.643 
G01 X855.781 Y6.705 
G01 X854.786 Y6.786 
G01 X853.772 Y6.888 
G01 X852.739 Y7.011 
G01 X851.688 Y7.156 
G01 X850.620 Y7.324 
G01 X849.524 Y7.517 
G01 X847.719 Y7.883 
G01 X845.915 Y8.309 
G01 X844.122 Y8.791 
G01 X842.343 Y9.329 
G01 X840.580 Y9.919 
G01 X838.833 Y10.562 
G01 X837.106 Y11.256 
G01 X835.398 Y11.999 
G01 X833.713 Y12.789 
G01 X832.052 Y13.627 
G01 X830.416 Y14.510 
G01 X828.807 Y15.436 
G01 X827.227 Y16.406 
G01 X825.678 Y17.416 
G01 X824.161 Y18.468 
G01 X822.682 Y19.554 
G01 X821.618 Y20.377 
G01 X820.576 Y21.219 
G01 X819.550 Y22.082 
G01 X818.542 Y22.966 
G01 X817.552 Y23.871 
G01 X816.579 Y24.795 
G01 X815.625 Y25.738 
G01 X814.690 Y26.700 
G01 X813.773 Y27.679 
G01 X812.876 Y28.675 
