%
( test roundover ) ( File created: Saturday November 23 2024 - 11:42 AM)
( for LinuxCNC )
( Material Size) ( X= 640.000, Y= 300.000, Z= 20.000)
G90 (Incremental distance mode)
G17 G21 (Active Plane: XY)(Metric Mode)
G40 G49 G80(Tool Diameter, Length compensation & canned cycles OFF)
G64 P0.05 Q0.05(Path Blending)
T6 M06 (TOOL USE End Mill 1 mm)
G90 (absolute distance mode)
G54 (Coordinate System)
S19000M3
G00 Z20.320
G4 P6
( Profile 2 )
G00 X2.500 Y3.000 Z5.080 F36000.0
G01 Z-4.000 F1200.0 M3
G01 X2.500 Y53.000  F18000.0
G02 X3.000 Y53.500 I0.500 J0.000
G01 X53.000 Y53.500  
G02 X53.500 Y53.000 I0.000 J-0.500
G01 X53.500 Y3.000  
G02 X53.000 Y2.500 I-0.500 J0.000
G01 X3.000 Y2.500  
G02 X2.500 Y3.000 I0.000 J0.500
G00 Z5.080
G00 Z20.320
M05
M1
( Profile 3 )
T2 M6( TOOL USE End Mill 4 mm )
S18000 M03
( Profile 3 )
( Profile 3 )
G00 X1.000 Y3.000 Z5.080 F7000.0
G01 Z-5.000 F1200.0 M3
G01 X1.000 Y53.000  F3500.0
G02 X3.000 Y55.000 I2.000 J0.000
G01 X53.000 Y55.000  
G02 X55.000 Y53.000 I0.000 J-2.000
G01 X55.000 Y3.000  
G02 X53.000 Y1.000 I-2.000 J0.000
G01 X3.000 Y1.000  
G02 X1.000 Y3.000 I0.000 J2.000
G01 Z-10.000 F1200.0 M3
G01 X1.000 Y53.000  F3500.0
G02 X3.000 Y55.000 I2.000 J0.000
G01 X53.000 Y55.000  
G02 X55.000 Y53.000 I0.000 J-2.000
G01 X55.000 Y3.000  
G02 X53.000 Y1.000 I-2.000 J0.000
G01 X3.000 Y1.000  
G02 X1.000 Y3.000 I0.000 J2.000
G01 Z-15.000 F1200.0 M3
G01 X1.000 Y53.000  F3500.0
G02 X3.000 Y55.000 I2.000 J0.000
G01 X53.000 Y55.000  
G02 X55.000 Y53.000 I0.000 J-2.000
G01 X55.000 Y3.000  
G02 X53.000 Y1.000 I-2.000 J0.000
G01 X3.000 Y1.000  
G02 X1.000 Y3.000 I0.000 J2.000
G01 Z-20.000 F1200.0 M3
G01 X1.000 Y53.000  F3500.0
G02 X3.000 Y55.000 I2.000 J0.000
G01 X53.000 Y55.000  
G02 X55.000 Y53.000 I0.000 J-2.000
G01 X55.000 Y3.000  
G02 X53.000 Y1.000 I-2.000 J0.000
G01 X3.000 Y1.000  
G02 X1.000 Y3.000 I0.000 J2.000
G00 Z5.080
(Begin Footer)
G00 Z20.320
M30
M05
G53 G0 Z-10
G53 G0 X1350 Y1000
(End Footer)
%
