%
( tjorn ) ( File created: Sunday December 08 2024 - 11:12 AM)
( for LinuxCNC )
( Material Size) ( X= 1200.000, Y= 230.000, Z= 24.000)
G90 (Incremental distance mode)
G17 G21 (Active Plane: XY)(Metric Mode)
G40 G49 G80(Tool Diameter, Length compensation & canned cycles OFF)
G64 P0.05 Q0.05(Path Blending)
T21 M06 (TOOL USE End Mill 6 mm )
G90 (absolute distance mode)
G54 (Coordinate System)
S18000M3
G00 Z44.320
G4 P6
( TjornBowl )
G00 X58.733 Y34.713 Z29.080 F6000.0
G01 Z24.000 F750.0 M3
G01 Z23.545 
G01 Z23.089 
G01 Z22.633 
G01 Z22.285 
G01 Z21.936 
G01 Z21.397 
G01 Z20.854 
G01 Z20.310 
G01 Z19.768 
G01 Z19.228 
G01 Z19.116 
G01 Z19.000 
G01 Z18.884 
G01 Z18.772 
G01 Z18.232 
G01 Z17.690 
G01 Z17.146 
G01 Z16.603 
G01 Z16.064 
G01 Z15.715 
G01 Z15.367 
G01 Z14.911 
G01 Z14.455 
G01 Z14.000 
G02 X60.428 Y39.898 I23.212 J-4.718
G02 X58.562 Y37.825 I-18.344 J14.637
G02 X50.158 Y31.140 I-18.424 J14.536
G01 X50.111 Y30.694  F3000.0
G02 X52.520 Y30.557 I-0.128 J-23.468
G02 X58.423 Y32.911 I18.657 J-38.204
G01 X58.733 Y34.713  
G01 X60.491 Y34.355  
G02 X72.087 Y49.542 I21.454 J-4.361
G02 X84.118 Y56.534 I16.755 J-14.982
G02 X107.674 Y48.794 I5.161 J-24.009
G02 X111.719 Y48.227 I-1.961 J-28.729
G02 X121.908 Y62.591 I28.954 J-9.742
G02 X141.622 Y67.173 I14.813 J-19.028
G02 X140.627 Y70.854 I25.036 J8.744
G02 X145.052 Y99.248 I21.286 J11.224
G02 X171.983 Y103.838 I16.766 J-17.074
G02 X176.156 Y104.478 I5.707 J-23.294
G02 X201.033 Y116.276 I20.867 J-11.872
G02 X224.307 Y98.680 I-5.283 J-31.177
G02 X229.414 Y113.957 I33.618 J-2.747
G02 X230.776 Y115.883 I19.282 J-12.190
G02 X241.659 Y135.700 I21.650 J1.007
G02 X235.709 Y141.950 I13.163 J18.490
G01 X230.966 Y141.766  
G02 X221.120 Y143.831 I-0.419 J22.514
G02 X215.735 Y143.991 I-1.402 J43.332
G02 X189.687 Y144.864 I-11.590 J43.233
G02 X167.046 Y156.628 I0.938 J29.476
G03 X166.610 Y156.902 I-0.574 J-0.431
G01 X165.869 Y157.060  
G02 X132.613 Y159.812 I-15.286 J17.594
G02 X124.858 Y163.908 I6.336 J21.384
G02 X108.972 Y169.786 I-0.563 J22.884
G02 X106.809 Y171.949 I19.700 J21.863
G02 X91.523 Y174.535 I-3.826 J23.854
G02 X79.414 Y192.439 I11.061 J20.529
G02 X69.913 Y192.549 I-4.501 J21.554
G02 X66.340 Y190.437 I-12.766 J17.514
G02 X66.200 Y174.569 I-20.495 J-7.754
G01 X65.186 Y172.215  
G02 X65.008 Y168.681 I-23.926 J-0.569
G02 X69.575 Y168.615 I1.666 J-42.953
G02 X91.233 Y163.774 I6.378 J-22.333
G02 X94.039 Y160.813 I-14.259 J-16.323
G01 X97.893 Y155.890  
G02 X102.462 Y143.835 I-17.065 J-13.361
G02 X104.559 Y129.418 I-26.175 J-11.168
G02 X104.013 Y113.308 I-22.557 J-7.299
G02 X88.085 Y92.768 I-21.670 J0.358
G02 X70.733 Y92.139 I-10.007 J36.418
G02 X57.780 Y100.169 I4.215 J21.260
G02 X49.342 Y90.336 I-19.915 J8.552
G01 X48.433 Y87.667  
G01 X48.209 Y87.103 
G02 X46.491 Y77.023 I-21.807 J-1.471
G02 X52.762 Y73.396 I-9.089 J-22.946
G02 X57.222 Y39.025 I-10.678 J-18.861
G02 X48.779 Y32.485 I-17.084 J13.336
G01 X48.455 Y32.345  
G02 X48.008 Y28.810 I-27.590 J1.687
G02 X52.838 Y28.711 I1.974 J-21.583
G02 X60.064 Y31.529 I18.339 J-36.358
G02 X60.491 Y34.355 I28.147 J-2.808
G01 X62.250 Y33.998  
G02 X73.200 Y48.090 I19.695 J-4.003
G02 X84.495 Y54.779 I15.642 J-13.530
G02 X106.810 Y47.044 I4.784 J-22.254
G02 X112.940 Y46.081 I-1.097 J-26.978
G02 X123.010 Y61.175 I27.733 J-7.596
G02 X143.972 Y64.671 I13.710 J-17.612
G01 X144.102 Y65.792  
G02 X142.339 Y71.458 I22.557 J10.125
G02 X146.309 Y97.968 I19.573 J10.621
G02 X171.793 Y101.935 I15.509 J-15.793
G02 X177.250 Y102.728 I5.897 J-21.390
G02 X200.734 Y114.507 I19.773 J-10.122
G02 X223.371 Y96.358 I-4.983 J-29.408
G02 X225.086 Y90.535 I-27.969 J-11.401
G02 X226.126 Y92.999 I18.792 J-6.483
G01 X226.092 Y93.372  
G02 X230.931 Y112.998 I31.832 J2.561
G02 X232.611 Y115.295 I17.765 J-11.231
G02 X244.076 Y134.930 I19.815 J1.595
G01 X244.716 Y135.893  
G02 X236.680 Y143.810 I10.107 J18.296
G02 X230.933 Y143.560 I-7.904 J115.788
G02 X221.491 Y145.640 I-0.385 J20.720
G02 X215.581 Y145.809 I-1.773 J41.522
G02 X190.011 Y146.651 I-11.435 J41.415
G01 X189.919 Y146.653  
G02 X168.481 Y157.706 I0.706 J27.687
G03 X166.956 Y158.663 I-2.009 J-1.509
G01 X165.377 Y159.037  
G02 X133.652 Y161.383 I-14.794 J15.617
G02 X125.482 Y165.729 I5.297 J19.812
G02 X110.173 Y171.119 I-1.187 J21.063
G02 X107.492 Y173.898 I18.499 J20.530
G02 X92.375 Y176.115 I-4.509 J21.905
G02 X81.063 Y194.727 I10.210 J18.949
G02 X69.516 Y194.502 I-6.150 J19.267
G02 X63.978 Y191.396 I-12.369 J15.562
G02 X64.533 Y175.233 I-18.133 J-8.713
G01 X63.378 Y172.587  
G02 X62.847 Y166.741 I-22.119 J-0.942
G02 X69.770 Y166.802 I3.827 J-41.012
G02 X90.052 Y162.423 I6.183 J-20.519
G02 X92.626 Y159.707 I-13.078 J-14.971
G01 X96.480 Y154.784  
G02 X100.687 Y143.417 I-15.652 J-12.255
G02 X102.729 Y129.234 I-24.400 J-10.751
G02 X102.221 Y113.668 I-20.726 J-7.115
G02 X87.609 Y94.498 I-19.879 J-0.002
G02 X71.082 Y93.899 I-9.532 J34.687
G02 X57.875 Y103.215 I3.866 J19.499
G01 X56.586 Y102.034  
G02 X47.815 Y91.512 I-18.720 J6.688
G02 X46.756 Y88.307 I-35.759 J10.039
G01 X46.385 Y87.403  
G02 X43.996 Y75.993 I-19.984 J-1.770
G02 X51.755 Y71.903 I-6.594 J-21.916
G02 X55.882 Y40.225 I-9.671 J-17.368
G02 X48.063 Y34.131 I-15.744 J12.136
G01 X46.707 Y33.557  
G02 X45.669 Y26.765 I-25.842 J0.475
G01 X45.626 Y26.622  
G02 X53.146 Y26.852 I4.356 J-19.396
G02 X61.756 Y30.123 I18.031 J-34.499
G02 X62.250 Y33.998 I26.455 J-1.402
G01 X64.009 Y33.640  
G02 X74.317 Y46.632 I17.936 J-3.646
G02 X84.872 Y53.025 I14.525 J-12.072
G02 X105.929 Y45.270 I4.407 J-20.500
G02 X114.240 Y43.785 I-0.215 J-25.205
G02 X124.112 Y59.759 I26.433 J-5.300
G02 X145.132 Y62.284 I12.608 J-16.196
G01 X145.641 Y62.705  
G02 X145.954 Y66.063 I28.839 J-0.989
G02 X144.054 Y72.064 I20.705 J9.854
G02 X147.567 Y96.688 I17.858 J10.015
G02 X171.602 Y100.008 I14.252 J-14.513
G02 X178.376 Y100.927 I6.089 J-19.463
G02 X200.434 Y112.737 I18.646 J-8.320
G02 X221.709 Y95.681 I-4.683 J-27.639
G02 X223.578 Y81.327 I-26.307 J-10.724
G01 X225.795 Y84.281  
G02 X227.971 Y92.655 I18.083 J-0.229
G01 X227.881 Y93.516  
G02 X232.448 Y112.039 I30.043 J2.417
G02 X234.475 Y114.701 I16.248 J-10.272
G02 X245.261 Y133.494 I17.951 J2.189
G03 X246.890 Y136.005 I-28.386 J20.200
G01 X246.775 Y136.859  
G02 X237.712 Y145.685 I8.047 J17.330
G02 X230.899 Y145.355 I-8.936 J113.912
G02 X221.874 Y147.456 I-0.352 J18.926
G02 X215.426 Y147.629 I-2.156 J39.707
G02 X190.330 Y148.441 I-11.281 J39.595
G01 X189.965 Y148.447  
G02 X169.915 Y158.784 I0.660 J25.893
G03 X167.302 Y160.424 I-3.444 J-2.587
G02 X164.877 Y161.067 I3.697 J18.819
G01 X164.272 Y160.463  
G02 X134.699 Y162.971 I-13.689 J14.191
G02 X126.115 Y167.576 I4.249 J18.225
G02 X111.374 Y172.453 I-1.820 J19.216
G02 X108.184 Y175.902 I17.297 J19.197
G02 X93.226 Y177.695 I-5.202 J19.901
G02 X82.997 Y197.431 I9.359 J17.369
G02 X69.109 Y196.501 I-8.085 J16.562
G02 X61.335 Y192.471 I-11.962 J13.563
G02 X62.866 Y175.898 I-15.490 J-9.789
G02 X61.561 Y172.952 I-39.815 J15.871
G02 X60.868 Y166.227 I-20.302 J-1.306
G01 X62.061 Y164.853  
G02 X69.971 Y164.986 I4.614 J-39.125
G02 X88.871 Y161.071 I5.981 J-18.703
G02 X91.213 Y158.600 I-11.897 J-13.619
G01 X95.067 Y153.678  
G02 X98.906 Y143.003 I-14.239 J-11.149
G02 X100.891 Y129.046 I-22.619 J-10.336
G02 X100.423 Y114.028 I-18.889 J-6.927
G02 X87.134 Y96.229 I-18.081 J-0.361
G02 X71.431 Y95.660 I-9.056 J32.957
G02 X58.878 Y105.103 I3.517 J17.739
G01 X57.544 Y105.490  
G02 X55.053 Y103.099 I-14.140 J12.234
G02 X46.281 Y92.715 I-17.188 J5.623
G02 X45.080 Y88.947 I-34.225 J8.836
G01 X44.551 Y87.704  
G02 X41.137 Y74.835 I-18.149 J-2.072
G02 X50.749 Y70.409 I-3.735 J-20.759
G02 X54.541 Y41.426 I-8.665 J-15.873
G02 X47.348 Y35.777 I-14.403 J10.936
G01 X44.906 Y34.767  
G02 X43.947 Y27.269 I-24.041 J-0.734
G01 X43.702 Y26.498  
G02 X44.047 Y24.309 I-17.657 J-3.906
G02 X53.443 Y24.977 I5.935 J-17.082
G02 X63.514 Y28.686 I17.734 J-32.623
G02 X64.009 Y33.640 I24.697 J0.035
G01 X65.767 Y33.283  
G02 X75.439 Y45.167 I16.178 J-3.288
G02 X85.249 Y51.270 I13.403 J-10.607
G02 X105.024 Y43.467 I4.030 J-18.745
G02 X115.661 Y41.258 I0.690 J-23.401
G02 X125.215 Y58.342 I25.012 J-2.773
G02 X145.081 Y60.323 I11.506 J-14.780
G01 X145.721 Y60.406  
G02 X147.419 Y61.806 I12.735 J-13.719
G02 X147.817 Y66.341 I27.061 J-0.090
G02 X145.773 Y72.673 I18.842 J9.576
G02 X148.824 Y95.407 I16.139 J9.406
G02 X171.406 Y98.050 I12.994 J-13.233
G02 X179.549 Y99.050 I6.284 J-17.505
G02 X200.134 Y110.968 I17.473 J-6.444
G02 X220.047 Y95.003 I-4.384 J-25.869
G02 X219.212 Y73.065 I-24.645 J-10.047
G03 X226.810 Y82.640 I-133.531 J113.764
G01 X227.592 Y83.681  
G02 X229.834 Y92.306 I16.285 J0.371
G01 X229.670 Y93.660  
G02 X233.965 Y111.080 I28.255 J2.273
G02 X236.378 Y114.096 I14.731 J-9.313
G02 X246.418 Y132.031 I16.048 J2.794
G03 X248.771 Y135.674 I-29.543 J21.663
G02 X248.477 Y138.081 I16.393 J3.220
G02 X238.821 Y147.579 I6.345 J16.108
G02 X230.866 Y147.149 I-10.045 J112.018
G02 X222.271 Y149.278 I-0.318 J17.131
G02 X215.271 Y149.453 I-2.553 J37.885
G02 X190.640 Y150.237 I-11.126 J37.771
G01 X190.011 Y150.241  
G02 X171.350 Y159.862 I0.615 J24.099
G03 X167.648 Y162.185 I-4.879 J-3.665
G02 X164.373 Y163.171 I3.351 J17.059
G01 X163.026 Y161.755  
G02 X135.759 Y164.580 I-12.443 J12.900
G02 X126.762 Y169.460 I3.190 J16.616
G02 X112.576 Y173.786 I-2.467 J17.332
G02 X108.889 Y177.981 I16.096 J17.864
G02 X94.077 Y179.275 I-5.906 J17.822
G02 X85.818 Y201.431 I8.507 J15.789
G02 X68.687 Y198.567 I-10.905 J12.562
G02 X59.521 Y193.948 I-11.540 J11.497
G01 X59.388 Y192.158  
G02 X61.199 Y176.562 I-13.543 J-9.475
G02 X59.734 Y173.307 I-38.148 J15.207
G02 X58.835 Y165.714 I-18.475 J-1.661
G02 X61.027 Y163.248 I-11.931 J-12.813
G01 X61.508 Y162.973  
G02 X70.182 Y163.165 I5.166 J-37.245
G02 X87.691 Y159.720 I5.771 J-16.883
G02 X89.800 Y157.494 I-10.717 J-12.268
G01 X93.654 Y152.571  
G02 X97.118 Y142.592 I-12.826 J-10.042
G02 X99.044 Y128.854 I-20.831 J-9.925
G02 X98.616 Y114.387 I-17.042 J-6.735
G02 X86.658 Y97.959 I-16.274 J-0.721
G02 X71.780 Y97.420 I-8.581 J31.227
G02 X60.122 Y106.649 I3.168 J15.979
G02 X56.941 Y107.602 I5.050 J22.646
G02 X53.507 Y104.173 I-13.537 J10.122
G02 X44.737 Y93.952 I-15.641 J4.549
G02 X43.403 Y89.587 I-32.680 J7.599
G01 X42.702 Y88.008  
G02 X37.406 Y73.374 I-16.300 J-2.376
G02 X49.742 Y68.913 I-0.004 J-19.297
G02 X53.199 Y42.627 I-7.658 J-14.377
G02 X46.632 Y37.422 I-13.061 J9.734
G01 X43.038 Y35.973  
G02 X42.224 Y27.774 I-22.172 J-1.941
G01 X41.833 Y26.602  
G02 X42.332 Y22.326 I-15.788 J-4.009
G01 X43.129 Y22.004  
G02 X53.725 Y23.080 I6.854 J-14.777
G02 X64.688 Y27.090 I17.452 J-30.727
G01 X65.334 Y27.630  
G02 X65.767 Y33.283 I22.877 J1.091
G01 X67.526 Y32.925  
G02 X76.568 Y43.691 I14.419 J-2.931
G02 X85.626 Y49.516 I12.274 J-9.131
G02 X104.087 Y41.621 I3.653 J-16.991
G02 X117.305 Y38.312 I1.626 J-21.556
G01 X117.303 Y38.609  
G02 X126.317 Y56.926 I23.370 J-0.124
G02 X144.784 Y58.455 I10.403 J-13.364
G01 X146.511 Y58.677  
G02 X148.992 Y60.718 I11.944 J-11.990
G01 X149.220 Y61.159  
G02 X149.695 Y66.626 I25.261 J0.557
G02 X147.519 Y73.133 I16.963 J9.291
G01 X147.418 Y73.417  
G02 X150.082 Y94.127 I14.494 J8.662
G02 X171.060 Y96.146 I11.737 J-11.952
G01 X171.207 Y96.048  
G02 X180.793 Y97.060 I6.483 J-15.503
G02 X199.834 Y109.199 I16.229 J-4.454
G02 X218.385 Y94.326 I-4.084 J-24.100
G02 X213.906 Y68.415 I-22.983 J-9.369
G02 X214.715 Y65.355 I-14.051 J-5.353
G03 X228.254 Y81.575 I-129.034 J121.473
G01 X229.414 Y83.104  
G02 X231.724 Y91.951 I14.464 J0.948
G01 X231.459 Y93.804  
G02 X235.482 Y110.121 I26.466 J2.129
G02 X238.339 Y113.478 I13.214 J-8.354
G02 X247.544 Y130.538 I14.087 J3.413
G03 X250.668 Y135.396 I-30.669 J23.156
G02 X250.259 Y139.357 I14.496 J3.497
G02 X240.030 Y149.498 I4.563 J14.832
G02 X230.833 Y148.943 I-11.255 J110.099
G02 X222.686 Y151.108 I-0.285 J15.337
G02 X215.117 Y151.280 I-2.968 J36.054
G02 X190.941 Y152.039 I-10.971 J35.944
G01 X190.057 Y152.035  
G02 X172.785 Y160.940 I0.569 J22.305
G03 X167.994 Y163.946 I-6.314 J-4.743
G02 X163.863 Y165.382 I3.005 J15.298
G02 X161.780 Y163.046 I-16.545 J12.657
G02 X136.836 Y166.220 I-11.197 J11.608
G02 X127.429 Y171.395 I2.113 J14.976
G02 X113.777 Y175.119 I-3.134 J15.397
G02 X109.611 Y180.170 I14.895 J16.531
G02 X94.928 Y180.854 I-6.628 J15.633
G02 X89.142 Y203.997 I7.656 J14.209
G01 X90.420 Y205.905  
G01 X88.780 Y205.750 
G03 X86.320 Y204.500 I0.221 J-3.482
G02 X68.242 Y200.737 I-11.407 J9.493
G02 X57.677 Y195.579 I-11.095 J9.327
G02 X57.504 Y191.692 I-15.239 J-1.268
G02 X59.532 Y177.227 I-11.659 J-9.009
G02 X57.894 Y173.650 I-36.481 J14.542
G02 X56.714 Y165.176 I-16.635 J-2.004
G02 X59.810 Y161.863 I-9.811 J-12.274
G01 X61.120 Y161.101  
G02 X70.404 Y161.340 I5.555 J-35.373
G02 X86.510 Y158.368 I5.549 J-15.057
G02 X88.387 Y156.388 I-9.536 J-10.916
G01 X92.241 Y151.465  
G02 X95.319 Y142.185 I-11.413 J-8.936
G02 X97.185 Y128.655 I-19.032 J-9.519
G02 X96.797 Y114.746 I-15.183 J-6.536
G02 X86.183 Y99.690 I-14.455 J-1.080
G02 X72.129 Y99.180 I-8.105 J29.496
G02 X61.409 Y108.220 I2.819 J14.218
G02 X56.280 Y109.821 I3.763 J21.074
G02 X51.941 Y105.258 I-12.877 J7.903
G02 X43.180 Y95.236 I-14.075 J3.463
G02 X41.726 Y90.227 I-31.123 J6.315
G02 X40.832 Y88.316 I-13.542 J5.169
G02 X32.604 Y72.329 I-14.431 J-2.683
G03 X31.011 Y71.272 I2.713 J-5.819
G01 X30.211 Y70.547  
G01 X31.064 Y70.392 
G02 X48.736 Y67.414 I6.338 J-16.315
G02 X51.855 Y43.829 I-6.652 J-12.878
G02 X45.917 Y39.068 I-11.718 J8.532
G02 X41.130 Y37.192 I-27.989 J64.379
G01 X41.085 Y37.177  
G02 X40.502 Y28.279 I-20.220 J-3.144
G01 X39.944 Y26.705  
G02 X40.458 Y21.057 I-13.899 J-4.113
G02 X43.152 Y20.015 I-4.359 J-15.269
G01 X43.160 Y20.015  
G02 X53.988 Y21.157 I6.823 J-12.789
G02 X65.514 Y25.415 I17.189 J-28.804
G02 X67.193 Y26.776 I9.943 J-10.547
G02 X67.526 Y32.925 I21.018 J1.945
G01 X69.284 Y32.568  
G02 X77.707 Y42.199 I12.660 J-2.573
G02 X86.003 Y47.761 I11.134 J-7.639
G02 X103.105 Y39.715 I3.275 J-15.236
G02 X119.765 Y34.047 I2.608 J-19.650
G01 X119.889 Y34.079  
G02 X119.098 Y38.599 I12.121 J4.452
G02 X127.420 Y55.510 I21.575 J-0.114
G02 X144.486 Y56.560 I9.301 J-11.947
G02 X147.312 Y56.920 I3.177 J-13.693
G02 X150.394 Y59.490 I11.144 J-10.233
G01 X151.029 Y60.722  
G02 X151.593 Y66.923 I23.451 J0.993
G02 X149.295 Y73.391 I15.066 J8.994
G03 X148.958 Y74.338 I-2.538 J-0.369
G02 X151.339 Y92.846 I12.954 J7.741
G02 X170.070 Y94.649 I10.479 J-10.672
G01 X171.022 Y93.992  
G02 X182.160 Y94.873 I6.668 J-13.447
G02 X199.534 Y107.429 I14.863 J-2.267
G02 X216.723 Y93.648 I-3.784 J-22.331
G02 X211.794 Y68.787 I-21.322 J-8.692
G02 X213.090 Y62.672 I-11.939 J-5.725
G01 X215.030 Y63.425  
G03 X215.922 Y64.019 I-0.841 J2.228
G03 X229.698 Y80.509 I-130.241 J122.809
G01 X231.266 Y82.556  
G02 X233.653 Y91.586 I12.612 J1.496
G02 X233.248 Y93.948 I12.932 J3.435
G02 X236.999 Y109.162 I24.677 J1.986
G02 X240.390 Y112.836 I11.697 J-7.395
G02 X248.635 Y129.011 I12.036 J4.054
G03 X252.584 Y135.179 I-31.760 J24.683
G02 X252.175 Y140.724 I12.580 J3.715
G02 X241.375 Y151.450 I2.647 J13.466
G02 X230.799 Y150.737 I-12.599 J108.147
G02 X223.125 Y152.950 I-0.252 J13.543
G02 X214.960 Y153.112 I-3.407 J34.212
G01 X214.851 Y153.077  
G02 X191.229 Y153.850 I-10.706 J34.148
G01 X190.102 Y153.829  
G02 X174.220 Y162.017 I0.523 J20.511
G03 X168.340 Y165.707 I-7.749 J-5.820
G02 X163.345 Y167.766 I2.659 J13.537
G02 X160.534 Y164.338 I-16.027 J10.273
G02 X137.938 Y167.904 I-9.951 J10.316
G02 X128.128 Y173.412 I1.011 J13.291
G02 X114.978 Y176.452 I-3.833 J13.380
G02 X110.361 Y182.530 I13.693 J15.197
G02 X95.780 Y182.434 I-7.378 J13.273
G02 X90.636 Y203.003 I6.805 J12.629
G01 X94.443 Y208.587  
G02 X88.667 Y207.541 I-7.392 J24.367
G03 X84.941 Y205.648 I0.335 J-5.273
G02 X68.637 Y202.556 I-10.028 J8.345
G01 X67.414 Y202.589  
G02 X56.012 Y197.414 I-10.268 J7.475
G01 X55.565 Y197.451  
G02 X55.575 Y191.213 I-13.126 J-3.141
G02 X57.865 Y177.891 I-9.730 J-8.530
G02 X56.037 Y173.977 I-34.814 J13.878
G02 X54.453 Y164.595 I-14.777 J-2.332
G02 X58.586 Y160.467 I-7.550 J-11.693
G02 X60.701 Y159.212 I-5.687 J-11.988
G02 X70.641 Y159.508 I5.973 J-33.483
G02 X85.329 Y157.016 I5.312 J-13.225
G02 X86.974 Y155.281 I-8.355 J-9.565
G01 X90.828 Y150.359  
G02 X93.507 Y141.785 I-10.000 J-7.830
G02 X95.324 Y128.510 I-17.220 J-9.119
G01 X95.337 Y128.388  
G02 X94.961 Y115.104 I-13.335 J-6.269
G02 X85.707 Y101.420 I-12.619 J-1.438
G02 X72.478 Y100.941 I-7.630 J27.766
G02 X62.759 Y109.831 I2.470 J12.458
G02 X55.526 Y112.218 I2.414 J19.464
G02 X50.549 Y106.490 I-12.122 J5.506
G03 X50.298 Y106.126 I0.305 J-0.480
G02 X41.605 Y96.584 I-12.432 J2.595
G02 X40.050 Y90.867 I-29.548 J4.967
G02 X38.932 Y88.629 I-11.865 J4.529
G02 X31.846 Y73.956 I-12.530 J-2.997
G03 X29.808 Y72.603 I3.472 J-7.446
G01 X27.014 Y70.056  
G01 X27.446 Y69.282 
G01 X31.264 Y68.536 
G02 X47.731 Y65.912 I6.138 J-14.459
G02 X50.511 Y45.033 I-5.647 J-11.376
G02 X45.201 Y40.714 I-10.373 J7.328
G02 X40.537 Y38.886 I-27.274 J62.733
G01 X39.024 Y38.361  
G02 X38.780 Y28.783 I-18.159 J-4.329
G02 X38.025 Y26.809 I-12.610 J3.695
G02 X38.407 Y19.682 I-11.980 J-4.217
G02 X42.721 Y18.219 I-2.308 J-13.894
G01 X43.615 Y18.215  
G02 X54.226 Y19.197 I6.368 J-10.989
G02 X66.364 Y23.735 I16.951 J-26.844
G02 X69.109 Y25.868 I9.092 J-8.867
G02 X69.284 Y32.568 I19.101 J2.853
G01 X71.043 Y32.210  
G02 X78.862 Y40.684 I10.902 J-2.216
G02 X86.381 Y46.007 I9.979 J-6.123
G02 X102.054 Y37.717 I2.898 J-13.482
G02 X119.229 Y31.996 I3.660 J-17.652
G02 X122.554 Y32.684 I3.948 J-10.701
G02 X120.892 Y38.590 I9.456 J5.847
G02 X128.522 Y54.094 I19.781 J-0.105
G02 X144.185 Y54.626 I8.198 J-10.531
G02 X148.127 Y55.121 I3.478 J-11.759
G02 X151.811 Y58.249 I10.329 J-8.434
G02 X152.851 Y60.271 I12.309 J-5.050
G02 X153.517 Y67.233 I21.630 J1.445
G02 X151.071 Y73.650 I13.142 J8.684
G03 X150.499 Y75.258 I-4.313 J-0.627
G02 X152.596 Y91.566 I11.413 J6.821
G02 X169.080 Y93.152 I9.222 J-9.391
G01 X170.868 Y91.862  
G02 X183.787 Y92.269 I6.823 J-11.317
G02 X199.234 Y105.660 I13.236 J0.337
G02 X215.062 Y92.971 I-3.484 J-20.561
G02 X209.912 Y69.458 I-19.660 J-8.014
G01 X209.564 Y69.126  
G02 X210.822 Y59.783 I-9.709 J-6.064
G02 X215.664 Y61.746 I42.629 J-98.168
G03 X217.227 Y62.788 I-1.474 J3.907
G03 X231.142 Y79.443 I-131.547 J124.040
G01 X233.158 Y82.046  
G02 X235.646 Y91.205 I10.720 J2.006
G02 X235.037 Y94.092 I10.939 J3.816
G02 X238.516 Y108.204 I22.888 J1.842
G02 X242.602 Y112.156 I10.180 J-6.436
G02 X249.686 Y127.446 I9.825 J4.734
G03 X254.521 Y135.030 I-32.811 J26.248
G02 X254.357 Y142.270 I10.643 J3.863
G02 X242.913 Y153.500 I0.466 J11.920
G01 X241.834 Y153.312  
G02 X230.766 Y152.532 I-13.058 J106.285
G02 X223.595 Y154.807 I-0.218 J11.749
G02 X214.763 Y154.955 I-3.877 J32.355
G01 X214.314 Y154.789  
G02 X191.499 Y155.672 I-10.169 J32.435
G01 X190.148 Y155.623  
G02 X175.655 Y163.095 I0.477 J18.717
G03 X168.685 Y167.467 I-9.184 J-6.898
G02 X162.810 Y170.471 I2.313 J11.776
G02 X159.288 Y165.629 I-15.492 J7.568
G02 X139.081 Y169.661 I-8.705 J9.025
G02 X128.879 Y175.569 I-0.132 J11.535
G02 X116.180 Y177.785 I-4.584 J11.223
G02 X111.510 Y184.318 I12.492 J13.864
G01 X111.163 Y185.201  
G02 X96.631 Y184.014 I-8.181 J10.602
G02 X92.131 Y202.010 I5.954 J11.049
G02 X97.804 Y210.230 I236.182 J-156.952
G02 X95.863 Y210.986 I4.780 J15.139
G02 X88.553 Y209.332 I-8.813 J21.967
G03 X83.561 Y206.796 I0.449 J-7.064
G02 X69.086 Y204.368 I-8.648 J7.197
G02 X66.524 Y204.496 I-0.689 J11.997
G02 X56.172 Y199.202 I-9.377 J5.568
G03 X53.012 Y199.326 I-2.808 J-31.301
G02 X53.574 Y190.712 I-10.573 J-5.015
G02 X56.198 Y178.556 I-7.729 J-8.030
G02 X54.157 Y174.285 I-33.147 J13.213
G02 X51.930 Y163.934 I-12.898 J-2.639
G02 X57.350 Y159.055 I-5.027 J-11.033
G02 X60.241 Y157.297 I-4.450 J-10.576
G02 X70.896 Y157.668 I6.433 J-31.568
G02 X84.149 Y155.665 I5.057 J-11.385
G02 X85.561 Y154.175 I-7.175 J-8.213
G01 X89.415 Y149.252  
G02 X91.675 Y141.394 I-8.587 J-6.723
G02 X93.570 Y128.893 I-15.388 J-8.728
G03 X93.713 Y127.625 I1.939 J-0.423
G02 X93.099 Y115.462 I-11.711 J-5.506
G02 X85.232 Y103.151 I-10.757 J-1.795
G02 X72.827 Y102.701 I-7.154 J26.035
G02 X64.208 Y111.502 I2.121 J10.697
G02 X54.587 Y114.961 I0.965 J17.792
G02 X49.586 Y108.004 I-11.183 J2.763
G03 X48.541 Y106.493 I1.269 J-1.994
G02 X40.003 Y98.027 I-10.676 J2.229
G02 X38.373 Y91.507 I-27.947 J3.524
G02 X36.982 Y88.951 I-10.189 J3.889
G02 X31.088 Y75.582 I-10.580 J-3.319
G03 X28.604 Y73.934 I4.230 J-9.072
G01 X24.647 Y70.314  
G02 X26.193 Y67.726 I-8.499 J-6.834
G03 X31.501 Y66.677 I18.128 J77.776
G02 X46.725 Y64.404 I5.900 J-12.600
G02 X49.163 Y46.240 I-4.641 J-9.869
G02 X44.486 Y42.360 I-9.026 J6.122
G02 X39.944 Y40.580 I-26.558 J61.087
G01 X36.826 Y39.507  
G02 X37.058 Y29.288 I-15.961 J-5.475
G02 X36.058 Y26.914 I-10.887 J3.190
G02 X35.972 Y18.077 I-10.013 J-4.322
G02 X42.273 Y16.415 I0.127 J-12.290
G01 X44.094 Y16.406  
G02 X54.427 Y17.186 I5.888 J-9.179
G02 X67.249 Y22.048 I16.750 J-24.832
G02 X71.120 Y24.874 I8.208 J-7.181
G02 X71.043 Y32.210 I17.091 J3.847
G01 X72.802 Y31.853  
G02 X80.043 Y39.129 I9.143 J-1.858
G02 X86.758 Y44.252 I8.798 J-4.569
G02 X100.868 Y35.617 I2.521 J-11.727
G01 X101.804 Y35.821  
G02 X118.703 Y29.801 I3.909 J-15.755
G02 X125.916 Y30.507 I4.474 J-8.506
G03 X127.701 Y30.263 I1.683 J5.658
G02 X122.687 Y38.580 I4.309 J8.268
G02 X129.624 Y52.678 I17.986 J-0.095
G02 X143.881 Y52.628 I7.096 J-9.115
G02 X148.966 Y53.254 I3.783 J-9.761
G02 X153.252 Y56.987 I9.490 J-6.567
G02 X154.690 Y59.798 I10.868 J-3.788
G02 X155.477 Y67.564 I19.790 J1.918
G02 X152.847 Y73.908 I11.182 J8.353
G03 X152.039 Y76.179 I-6.089 J-0.886
G02 X153.854 Y90.285 I9.873 J5.900
G02 X168.090 Y91.656 I7.965 J-8.111
G02 X170.760 Y89.622 I-13.913 J-21.033
G02 X185.213 Y89.137 I6.931 J-9.077
G01 X185.981 Y89.593  
G01 X185.914 Y89.850 
G02 X198.935 Y103.890 I11.108 J2.756
G02 X213.400 Y92.293 I-3.184 J-18.792
G02 X208.685 Y70.768 I-17.998 J-7.337
G01 X207.229 Y69.289  
G02 X205.721 Y55.397 I-7.374 J-6.227
G02 X216.297 Y60.067 I47.730 J-93.782
G03 X218.533 Y61.557 I-2.108 J5.586
G03 X232.585 Y78.377 I-132.852 J125.272
G01 X235.106 Y81.589  
G02 X237.752 Y90.797 I8.772 J2.463
G02 X236.825 Y94.236 I8.833 J4.224
G02 X240.033 Y107.245 I21.099 J1.698
G02 X245.163 Y111.389 I8.663 J-5.477
G02 X250.623 Y125.821 I7.263 J5.501
G01 X250.918 Y126.115  
G03 X256.483 Y134.966 I-34.043 J27.579
G02 X256.792 Y143.442 I8.681 J3.928
G01 X257.302 Y144.363  
G02 X244.878 Y156.144 I-2.480 J9.826
G02 X241.615 Y155.094 I-4.374 J7.992
G02 X230.733 Y154.326 I-12.839 J104.504
G02 X224.408 Y156.443 I-0.185 J9.954
G03 X223.719 Y156.631 I-0.569 J-0.726
G02 X215.021 Y156.730 I-4.001 J30.531
G01 X214.616 Y156.802  
G01 X214.375 Y156.763 
G01 X213.777 Y156.501 
G02 X191.746 Y157.510 I-9.632 J30.723
G02 X190.194 Y157.417 I-1.320 J9.015
G02 X177.090 Y164.173 I0.432 J16.923
G03 X169.031 Y169.228 I-10.619 J-7.976
G02 X162.232 Y174.017 I1.967 J10.015
G02 X158.042 Y166.921 I-14.914 J4.022
G02 X140.545 Y170.822 I-7.460 J7.733
G03 X139.536 Y171.473 I-0.948 J-0.362
G02 X129.947 Y177.475 I-0.587 J9.723
G03 X129.545 Y177.897 I-0.748 J-0.309
G02 X117.381 Y179.119 I-5.250 J8.895
G02 X113.161 Y185.023 I11.291 J12.531
G02 X112.140 Y188.688 I13.273 J5.670
G02 X97.482 Y185.594 I-9.157 J7.115
G02 X93.626 Y201.017 I5.102 J9.470
G02 X100.862 Y211.394 I234.687 J-155.958
G02 X95.927 Y212.961 I1.723 J13.975
G02 X88.439 Y211.123 I-8.877 J19.992
G03 X82.182 Y207.944 I0.563 J-8.855
G02 X69.545 Y206.208 I-7.269 J6.049
G02 X65.552 Y206.547 I-1.147 J10.157
G02 X56.333 Y200.989 I-8.405 J3.517
G03 X51.782 Y201.084 I-2.968 J-33.088
G03 X50.552 Y199.997 I6.785 J-8.911
G02 X51.441 Y190.173 I-8.113 J-5.686
G02 X54.531 Y179.220 I-5.596 J-7.491
G02 X52.249 Y174.566 I-31.480 J12.549
G02 X48.725 Y163.069 I-10.990 J-2.920
G02 X56.094 Y157.616 I-1.822 J-10.167
G02 X59.721 Y155.346 I-3.195 J-9.137
G02 X71.176 Y155.816 I6.953 J-29.618
G02 X82.968 Y154.313 I4.777 J-9.533
G02 X84.148 Y153.069 I-5.994 J-6.862
G01 X88.002 Y148.146  
G02 X89.813 Y141.017 I-7.174 J-5.617
G02 X91.817 Y129.275 I-13.526 J-8.350
G03 X92.089 Y126.861 I3.692 J-0.806
G02 X91.196 Y115.817 I-10.087 J-4.742
G02 X84.756 Y104.881 I-8.854 J-2.151
G02 X73.176 Y104.461 I-6.679 J24.305
G02 X65.854 Y112.837 I1.772 J8.937
G01 X65.830 Y113.284  
G02 X54.244 Y117.576 I-0.657 J16.010
G01 X53.065 Y118.836  
G02 X48.623 Y109.518 I-9.661 J-1.113
G03 X46.784 Y106.860 I2.232 J-3.508
G02 X38.360 Y99.624 I-8.919 J1.862
G02 X36.696 Y92.147 I-26.303 J1.927
G02 X34.946 Y89.289 I-8.512 J3.249
G02 X30.329 Y77.209 I-8.545 J-3.657
G03 X27.400 Y75.266 I4.988 J-10.699
G01 X22.090 Y70.387  
G02 X24.843 Y66.204 I-5.942 J-6.907
G03 X31.784 Y64.815 I19.479 J79.298
G02 X45.594 Y63.007 I5.618 J-10.738
G01 X45.877 Y62.819  
G02 X47.811 Y47.450 I-3.793 J-8.284
G02 X43.770 Y44.006 I-7.674 J4.912
G02 X39.350 Y42.274 I-25.843 J59.442
G01 X34.438 Y40.601  
G02 X35.336 Y29.792 I-13.573 J-6.569
G02 X34.008 Y27.020 I-9.165 J2.685
G02 X32.576 Y16.239 I-7.963 J-4.428
G01 X32.221 Y15.760  
G01 X33.864 Y16.043 
G02 X41.799 Y14.601 I2.235 J-10.255
G02 X44.608 Y14.583 I1.248 J-25.211
G02 X54.574 Y15.097 I5.375 J-7.357
G02 X68.182 Y20.352 I16.603 J-22.743
G02 X72.762 Y23.571 I7.275 J-5.485
G01 X72.903 Y23.795  
G03 X73.031 Y24.620 I-0.865 J0.557
G02 X72.802 Y31.853 I15.180 J4.101
G00 Z29.080
G00 X77.023 Y73.216  F6000.0
G01 Z24.000 F750.0 M3
G01 Z23.772 
G01 Z23.518 
G01 Z23.441 
G01 Z23.214 
G01 Z22.959 
G01 Z22.883 
G01 Z22.655 
G01 Z22.400 
G01 Z22.324 
G01 Z22.096 
G01 Z21.842 
G01 Z21.765 
G01 Z21.538 
G01 Z21.283 
G01 Z21.207 
G01 Z20.979 
G01 Z20.724 
G01 Z20.648 
G01 Z20.420 
G01 Z20.166 
G01 Z20.089 
G01 Z19.862 
G01 Z19.607 
G01 Z19.531 
G01 Z19.303 
G01 Z19.048 
G01 Z19.000 
G01 Z18.952 
G01 Z18.697 
G01 Z18.469 
G01 Z18.393 
G01 Z18.138 
G01 Z17.911 
G01 Z17.834 
G01 Z17.580 
G01 Z17.352 
G01 Z17.276 
G01 Z17.021 
G01 Z16.793 
G01 Z16.717 
G01 Z16.462 
G01 Z16.235 
G01 Z16.158 
G01 Z15.904 
G01 Z15.676 
G01 Z15.600 
G01 Z15.345 
G01 Z15.117 
G01 Z15.041 
G01 Z14.786 
G01 Z14.559 
G01 Z14.482 
G01 Z14.228 
G01 Z14.000 
G01 X77.897 Y73.472  F3000.0
G01 X76.878 Y73.485 
G01 X77.023 Y73.216 
G01 X76.121 Y71.033  
G02 X80.723 Y72.325 I12.720 J-36.473
G02 X105.918 Y69.678 I8.556 J-39.799
G02 X111.986 Y75.336 I34.755 J-31.193
G02 X121.714 Y80.927 I24.734 J-31.773
G02 X133.735 Y110.773 I40.199 J1.152
G02 X169.204 Y121.569 I28.083 J-28.598
G02 X181.461 Y129.627 I27.818 J-28.963
G02 X163.742 Y137.455 I9.165 J44.713
G02 X123.454 Y146.001 I-13.159 J37.199
G02 X119.451 Y148.051 I15.495 J35.194
G01 X118.222 Y148.225  
G01 X118.305 Y147.651 
G02 X120.865 Y130.979 I-42.018 J-14.985
G02 X119.995 Y110.062 I-38.862 J-8.860
G02 X92.364 Y77.194 I-37.653 J3.604
G02 X73.599 Y75.453 I-14.287 J51.992
G02 X76.121 Y71.033 I-31.515 J-20.917
G01 X75.184 Y68.767  
G02 X81.100 Y70.570 I13.657 J-34.207
G02 X106.382 Y67.479 I8.179 J-38.045
G02 X113.088 Y73.920 I34.291 J-28.994
G02 X123.565 Y79.714 I23.632 J-30.357
G02 X134.993 Y109.492 I38.348 J2.365
G02 X169.785 Y119.623 I26.826 J-27.318
G02 X188.914 Y130.104 I27.238 J-27.017
G01 X187.029 Y130.640  
G02 X164.035 Y139.475 I3.597 J43.700
G02 X124.463 Y147.520 I-13.452 J35.179
G02 X120.042 Y149.788 I14.486 J33.676
G02 X115.969 Y150.487 I4.253 J37.004
G02 X116.551 Y147.224 I-35.140 J-7.958
G02 X119.062 Y130.811 I-40.264 J-14.557
G02 X118.226 Y110.423 I-37.059 J-8.691
G02 X91.889 Y78.924 I-35.884 J3.243
G02 X69.640 Y77.748 I-13.811 J50.262
G02 X75.184 Y68.767 I-27.556 J-23.213
G00 Z29.080
G00 X103.919 Y76.231  F6000.0
G01 Z24.000 F750.0 M3
G01 Z23.832 
G01 Z23.081 
G01 Z22.658 
G01 Z22.235 
G01 Z22.067 
G01 Z21.316 
G01 Z20.893 
G01 Z20.470 
G01 Z20.302 
G01 Z19.551 
G01 Z19.000 
G01 Z18.449 
G01 Z17.698 
G01 Z17.530 
G01 Z17.107 
G01 Z16.684 
G01 Z15.933 
G01 Z15.765 
G01 Z15.342 
G01 Z14.919 
G01 Z14.168 
G01 Z14.000 
G01 X104.556 Y76.012  F3000.0
G01 X106.780 Y78.033 
G02 X103.919 Y76.231 I-24.438 J35.634
G00 Z29.080
G00 X116.374 Y84.427  F6000.0
G01 Z24.000 F750.0 M3
G01 Z23.264 
G01 Z22.546 
G01 Z21.827 
G01 Z21.108 
G01 Z20.288 
G01 Z19.467 
G01 Z19.000 
G01 Z18.533 
G01 Z17.712 
G01 Z16.891 
G01 Z16.173 
G01 Z15.454 
G01 Z14.736 
G01 Z14.000 
G01 X116.620 Y87.361  F3000.0
G02 X110.725 Y81.087 I-34.278 J26.306
G02 X116.374 Y84.427 I25.996 J-37.524
G01 X118.124 Y83.279  
G02 X131.221 Y113.333 I43.788 J-1.201
G02 X168.062 Y125.396 I30.598 J-31.159
G02 X172.251 Y128.666 I28.960 J-32.790
G02 X163.157 Y133.484 I18.374 J45.674
G02 X123.763 Y140.982 I-12.574 J41.170
G02 X124.467 Y131.315 I-47.476 J-8.316
G02 X123.530 Y109.340 I-42.464 J-9.196
G02 X98.989 Y75.746 I-41.187 J4.326
G02 X105.006 Y73.937 I-9.711 J-43.220
G02 X109.781 Y78.168 I35.667 J-35.452
G02 X118.124 Y83.279 I26.939 J-34.605
G01 X119.903 Y82.114  
G02 X132.478 Y112.053 I42.010 J-0.035
G02 X168.630 Y123.493 I29.340 J-29.879
G02 X176.338 Y129.106 I28.392 J-30.887
G02 X163.449 Y135.459 I14.288 J45.234
G02 X122.447 Y144.485 I-12.866 J39.195
G01 X120.971 Y145.185  
G02 X122.667 Y131.147 I-44.684 J-12.518
G02 X121.763 Y109.701 I-40.664 J-9.028
G02 X92.840 Y75.463 I-39.420 J3.965
G01 X91.009 Y74.993  
G02 X105.460 Y71.828 I-1.730 J-42.468
G02 X110.884 Y76.752 I35.213 J-33.343
G02 X119.903 Y82.114 I25.837 J-33.189
G00 Z29.080
G00 X202.881 Y53.897  F6000.0
G01 Z24.000 F750.0 M3
G01 Z23.813 
G01 Z23.115 
G01 Z22.415 
G01 Z21.715 
G01 Z21.015 
G01 Z20.317 
G01 Z19.736 
G01 Z19.490 
G01 Z19.244 
G01 Z19.000 
G01 Z18.755 
G01 Z18.509 
G01 Z18.263 
G01 Z17.682 
G01 Z16.984 
G01 Z16.284 
G01 Z15.584 
G01 Z14.884 
G01 Z14.186 
G01 Z14.000 
G01 X202.161 Y53.690  F3000.0
G02 X188.283 Y52.545 I-10.511 J42.723
G01 X188.538 Y50.231  
G02 X192.622 Y50.056 I1.663 J-8.958
G02 X196.673 Y50.250 I2.450 J-8.776
G01 X197.189 Y50.541  
G02 X202.881 Y53.897 I56.261 J-88.927
G00 Z29.080
G00 X216.973 Y129.516  F6000.0
G01 Z24.000 F750.0 M3
G01 Z23.234 
G01 Z22.468 
G01 Z21.872 
G01 Z21.276 
G01 Z20.681 
G01 Z20.189 
G01 Z19.696 
G01 Z19.633 
G01 Z19.278 
G01 Z19.000 
G01 Z18.722 
G01 Z18.367 
G01 Z18.304 
G01 Z17.811 
G01 Z17.319 
G01 Z16.724 
G01 Z16.128 
G01 Z15.532 
G01 Z14.766 
G01 Z14.000 
G02 X210.932 Y128.499 I-12.828 J57.708
G02 X217.470 Y125.624 I-15.182 J-43.400
G02 X218.631 Y129.384 I34.956 J-8.734
G01 X218.392 Y129.466  F3000.0
G01 X216.973 Y129.516 
G01 X216.818 Y131.321  
G02 X187.365 Y132.413 I-12.673 J55.903
G02 X164.328 Y141.523 I3.260 J41.926
G02 X125.473 Y149.040 I-13.746 J33.131
G02 X120.635 Y151.528 I13.476 J32.155
G02 X113.407 Y153.052 I3.660 J35.264
G02 X114.797 Y146.797 I-32.578 J-10.523
G02 X117.258 Y130.641 I-38.510 J-14.131
G02 X116.456 Y110.784 I-35.255 J-8.522
G02 X91.413 Y80.655 I-34.114 J2.883
G02 X68.290 Y79.817 I-13.336 J48.531
G02 X63.744 Y81.048 I6.658 J33.582
G02 X74.201 Y66.393 I-21.660 J-26.512
G02 X81.477 Y68.816 I14.641 J-31.833
G02 X106.853 Y65.221 I7.802 J-36.290
G02 X114.191 Y72.503 I33.820 J-26.735
G02 X125.465 Y78.469 I22.529 J-28.941
G02 X136.250 Y108.212 I36.448 J3.610
G02 X170.373 Y117.650 I25.568 J-26.037
G02 X203.132 Y128.662 I26.649 J-25.043
G02 X218.713 Y122.847 I-7.382 J-43.563
G02 X221.020 Y130.518 I33.713 J-5.957
G01 X218.718 Y131.255  
G01 X216.818 Y131.321 
G01 X216.664 Y133.127  
G02 X187.701 Y134.188 I-12.518 J54.098
G02 X164.622 Y143.606 I2.924 J40.152
G02 X126.484 Y150.564 I-14.039 J31.048
G02 X121.229 Y153.273 I12.464 J30.632
G02 X110.246 Y156.206 I3.066 J33.519
G02 X113.041 Y146.371 I-29.417 J-13.677
G02 X115.451 Y130.471 I-36.754 J-13.705
G02 X114.685 Y111.145 I-33.449 J-8.351
G02 X90.938 Y82.385 I-32.343 J2.522
G02 X68.639 Y81.577 I-12.860 J46.801
G02 X59.725 Y84.751 I6.309 J31.822
G01 X58.990 Y84.101  
G01 X58.856 Y82.305 
G02 X73.153 Y63.869 I-16.772 J-27.769
G02 X81.854 Y67.061 I15.688 J-29.309
G02 X107.333 Y62.888 I7.424 J-34.536
G02 X115.293 Y71.087 I33.340 J-24.403
G02 X127.427 Y77.183 I21.427 J-27.525
G02 X137.508 Y106.931 I34.486 J4.895
G02 X170.972 Y115.643 I24.311 J-24.757
G02 X202.832 Y126.892 I26.050 J-23.037
G02 X220.115 Y119.787 I-7.082 J-41.794
G02 X223.579 Y131.732 I32.311 J-2.896
G02 X219.047 Y133.044 I6.968 J32.548
G01 X216.664 Y133.127  
G01 X216.509 Y134.933  
G02 X188.036 Y135.963 I-12.364 J52.291
G02 X164.916 Y145.731 I2.590 J38.376
G02 X127.498 Y152.091 I-14.333 J28.923
G02 X121.825 Y155.024 I11.451 J29.104
G02 X104.873 Y161.532 I2.469 J31.768
G01 X104.958 Y161.422  
G02 X111.284 Y145.946 I-24.130 J-18.893
G02 X113.643 Y130.299 I-34.997 J-13.279
G02 X112.912 Y111.506 I-31.641 J-8.180
G02 X90.462 Y84.115 I-30.570 J2.161
G02 X68.988 Y83.337 I-12.385 J45.070
G02 X59.446 Y86.962 I5.960 J30.061
G02 X57.224 Y84.963 I-21.580 J21.760
G02 X56.949 Y81.472 I-30.822 J0.669
G01 X57.796 Y80.848  
G02 X72.013 Y61.128 I-15.712 J-26.312
G02 X82.232 Y65.307 I16.828 J-26.568
G02 X107.824 Y60.460 I7.047 J-32.781
G02 X116.396 Y69.671 I32.849 J-21.975
G02 X129.469 Y75.845 I20.325 J-26.108
G02 X138.765 Y105.651 I32.443 J6.234
G02 X171.583 Y113.595 I23.053 J-23.476
G02 X202.533 Y125.123 I25.440 J-20.989
G02 X220.803 Y117.041 I-6.782 J-40.024
G01 X221.830 Y118.752  
G01 X221.837 Y118.763 
G02 X226.395 Y133.064 I30.589 J-1.873
G02 X219.379 Y134.836 I4.152 J31.216
G01 X216.509 Y134.933  
G01 X216.354 Y136.742  
G02 X188.369 Y137.740 I-12.209 J50.483
G02 X165.210 Y147.907 I2.256 J36.600
G02 X128.514 Y153.623 I-14.627 J26.747
G02 X122.424 Y156.781 I10.435 J27.573
G02 X104.167 Y164.453 I1.871 J30.011
G01 X104.130 Y164.487  
G02 X100.199 Y164.590 I-1.147 J31.316
G01 X103.545 Y160.316  
G02 X109.525 Y145.521 I-22.717 J-17.787
G02 X111.833 Y130.126 I-33.238 J-12.855
G02 X111.138 Y111.866 I-29.831 J-8.007
G02 X89.987 Y85.846 I-28.796 J1.800
G02 X69.337 Y85.098 I-11.909 J43.340
G02 X59.157 Y89.251 I5.611 J28.301
G02 X55.436 Y85.837 I-21.292 J19.470
G02 X55.003 Y80.633 I-29.034 J-0.205
G01 X56.789 Y79.359  
G02 X70.723 Y58.035 I-14.705 J-24.823
G02 X82.609 Y63.552 I18.119 J-23.475
G02 X108.329 Y57.907 I6.670 J-31.027
G02 X117.498 Y68.255 I32.344 J-19.422
G02 X131.619 Y74.437 I19.222 J-24.692
G02 X140.022 Y104.370 I30.293 J7.642
G02 X172.209 Y111.496 I21.796 J-22.196
G02 X202.233 Y123.354 I24.814 J-18.890
G02 X221.349 Y114.256 I-6.482 J-38.255
G02 X223.347 Y117.793 I36.575 J-18.323
G01 X223.604 Y118.193  
G02 X229.647 Y134.597 I28.822 J-1.303
G02 X219.716 Y136.629 I0.900 J29.683
G01 X216.354 Y136.742  
G01 X216.199 Y138.551  
G02 X188.701 Y139.518 I-12.054 J48.673
G02 X165.505 Y150.149 I1.924 J34.821
G02 X129.533 Y155.159 I-14.922 J24.505
G02 X123.026 Y158.546 I9.416 J26.036
G02 X105.368 Y165.786 I1.269 J28.246
G01 X104.793 Y166.316  
G02 X95.423 Y167.244 I-1.811 J29.487
G02 X98.278 Y164.132 I-18.449 J-19.792
G01 X102.132 Y159.210  
G02 X107.763 Y145.098 I-21.304 J-16.681
G02 X110.020 Y129.952 I-31.476 J-12.431
G02 X109.361 Y112.227 I-28.018 J-7.833
G02 X89.511 Y87.576 I-27.019 J1.440
G02 X69.686 Y86.858 I-11.434 J41.609
G02 X58.855 Y91.647 I5.262 J26.541
G02 X53.892 Y86.921 I-20.989 J17.074
G01 X53.636 Y86.209  
G02 X53.005 Y79.776 I-27.234 J-0.576
G02 X55.782 Y77.869 I-15.603 J-25.699
G02 X69.140 Y54.258 I-13.698 J-23.334
G02 X82.986 Y61.798 I19.702 J-19.698
G02 X108.855 Y55.180 I6.293 J-29.272
G02 X118.600 Y66.839 I31.818 J-16.695
G02 X133.923 Y72.928 I18.120 J-23.276
G02 X141.280 Y103.090 I27.990 J9.151
G02 X172.542 Y109.456 I20.539 J-20.915
G01 X172.995 Y109.533  
G02 X201.933 Y121.584 I24.027 J-16.927
G02 X221.934 Y111.249 I-6.183 J-36.486
G02 X224.864 Y116.834 I35.990 J-15.315
G01 X225.379 Y117.620  
G02 X233.357 Y136.085 I27.047 J-0.730
G01 X233.066 Y136.436  
G01 X231.066 Y136.383 
G02 X220.058 Y138.425 I-0.519 J27.897
G02 X216.199 Y138.551 I-0.339 J48.737
G00 Z29.080
G00 X162.572 Y129.585  F6000.0
G01 Z14.000 F750.0 M3
G01 X161.989 Y129.434  F3000.0
G01 X162.831 Y129.423 
G01 X162.572 Y129.585 
G01 X162.864 Y131.527  
G02 X126.084 Y137.096 I-12.281 J43.127
G02 X126.267 Y131.482 I-49.797 J-4.429
G02 X125.432 Y109.437 I-44.264 J-9.363
G02 X129.963 Y114.614 I36.480 J-27.358
G02 X167.499 Y127.283 I31.855 J-32.439
G01 X168.695 Y128.267  
G02 X162.864 Y131.527 I21.930 J46.073
G00 Z29.080
G00 X132.302 Y127.873  F6000.0
G01 Z24.000 F750.0 M3
G01 Z23.488 
G01 Z22.977 
G01 Z22.370 
G01 Z21.764 
G01 Z21.184 
G01 Z20.603 
G01 Z20.092 
G01 Z19.580 
G01 Z19.000 
G01 Z18.420 
G01 Z17.908 
G01 Z17.397 
G01 Z16.816 
G01 Z16.236 
G01 Z15.630 
G01 Z15.023 
G01 Z14.512 
G01 Z14.000 
G02 X132.602 Y123.792 I-50.299 J-5.754
G02 X136.699 Y126.385 I29.216 J-41.617
G02 X132.302 Y127.873 I13.884 J48.269
G01 X130.060 Y130.786  F3000.0
G02 X130.796 Y120.174 I-48.057 J-8.667
G02 X141.908 Y127.006 I31.022 J-37.999
G02 X130.060 Y130.786 I8.675 J47.648
G01 X128.065 Y131.648  
G02 X128.615 Y115.805 I-46.063 J-9.529
G01 X128.706 Y115.894  
G02 X150.337 Y128.018 I33.113 J-33.720
G02 X128.062 Y133.815 I0.246 J46.636
G01 X128.065 Y131.648  
G00 Z29.080
G00 X74.302 Y176.642  F6000.0
G01 Z24.000 F750.0 M3
G01 Z23.498 
G01 Z22.996 
G01 Z22.450 
G01 Z21.902 
G01 Z21.356 
G01 Z20.889 
G01 Z20.422 
G01 Z19.955 
G01 Z19.478 
G01 Z19.000 
G01 Z18.522 
G01 Z18.045 
G01 Z17.578 
G01 Z17.111 
G01 Z16.644 
G01 Z16.097 
G01 Z15.550 
G01 Z15.004 
G01 Z14.502 
G01 Z14.000 
G02 X78.315 Y176.595 I1.651 J-30.359
G02 X74.932 Y182.202 I24.269 J18.469
G02 X74.302 Y176.642 I-29.087 J0.481
G01 X71.919 Y174.606  F3000.0
G02 X83.104 Y173.984 I4.034 J-28.324
G02 X75.161 Y186.592 I19.481 J21.079
G01 X72.849 Y186.668  
G02 X71.919 Y174.606 I-27.004 J-3.986
G01 X69.534 Y173.240  
G01 X69.122 Y172.238  
G01 X69.202 Y172.234 
G02 X93.594 Y166.477 I6.751 J-25.951
G02 X96.865 Y163.026 I-16.620 J-19.026
G01 X100.719 Y158.103  
G02 X106.000 Y144.675 I-19.891 J-15.574
G02 X108.204 Y129.776 I-29.713 J-12.008
G02 X107.582 Y112.587 I-26.201 J-7.657
G02 X89.036 Y89.307 I-25.240 J1.079
G02 X70.035 Y88.618 I-10.958 J39.879
G02 X58.534 Y94.195 I4.913 J24.780
G02 X52.380 Y88.044 I-20.668 J14.527
G01 X51.832 Y86.509  
G02 X50.939 Y78.895 I-25.431 J-0.877
G02 X54.775 Y76.379 I-13.537 J-24.818
G02 X67.049 Y50.669 I-12.691 J-21.843
G02 X69.869 Y52.433 I14.896 J-20.674
G02 X83.363 Y60.043 I18.972 J-17.873
G02 X109.364 Y52.243 I5.916 J-27.518
G01 X109.427 Y52.236  
G02 X119.703 Y65.423 I31.246 J-13.751
G02 X136.462 Y71.265 I17.017 J-21.860
G02 X142.537 Y101.809 I25.451 J10.814
G02 X172.357 Y107.596 I19.281 J-19.635
G01 X174.033 Y107.873  
G02 X201.633 Y119.815 I22.989 J-15.267
G02 X222.578 Y107.904 I-5.883 J-34.716
G02 X226.381 Y115.875 I35.347 J-11.971
G01 X227.164 Y117.044  
G02 X235.872 Y135.973 I25.262 J-0.154
G02 X233.909 Y138.265 I18.950 J18.217
G01 X231.033 Y138.177  
G02 X220.405 Y140.224 I-0.485 J26.103
G02 X216.045 Y140.363 I-0.687 J46.938
G02 X189.032 Y141.298 I-11.899 J46.862
G02 X165.800 Y152.477 I1.594 J33.041
G02 X130.555 Y156.702 I-15.217 J22.177
G02 X123.632 Y160.320 I8.394 J24.494
G02 X106.569 Y167.120 I0.663 J26.472
G01 X105.461 Y168.166  
G02 X89.821 Y171.375 I-2.478 J27.637
G02 X76.506 Y188.435 I12.764 J23.688
G02 X70.687 Y188.736 I-1.593 J25.559
G01 X70.627 Y188.699  
G02 X69.534 Y173.240 I-24.782 J-6.016
G01 X67.867 Y173.904  
G01 X66.986 Y171.836  
G01 X66.962 Y170.507 
G01 X69.386 Y170.426 
G02 X92.413 Y165.126 I6.567 J-24.143
G02 X95.452 Y161.919 I-15.439 J-17.674
G01 X99.306 Y156.997  
G02 X104.233 Y144.254 I-18.478 J-14.468
G02 X106.384 Y129.598 I-27.946 J-11.587
G02 X105.799 Y112.948 I-24.381 J-7.479
G02 X88.560 Y91.037 I-23.457 J0.719
G02 X70.384 Y90.379 I-10.483 J38.148
G02 X58.183 Y96.976 I4.564 J23.020
G02 X50.863 Y89.182 I-20.317 J11.745
G01 X50.109 Y87.027  
G01 X50.024 Y86.806 
G02 X48.781 Y77.982 I-23.622 J-1.174
G02 X53.768 Y74.888 I-11.380 J-23.905
G02 X63.413 Y44.748 I-11.684 J-20.352
G02 X70.977 Y50.989 I18.531 J-14.753
G02 X83.740 Y58.288 I17.865 J-16.429
G02 X108.525 Y50.526 I5.538 J-25.763
G01 X110.553 Y50.270  
G02 X120.805 Y64.007 I30.120 J-11.785
G02 X139.114 Y69.360 I15.915 J-20.444
G01 X138.917 Y70.253  
G02 X143.795 Y100.529 I22.996 J11.826
G02 X172.171 Y105.724 I18.024 J-18.354
G02 X175.086 Y106.190 I5.520 J-25.179
G02 X201.333 Y118.045 I21.937 J-13.584
G02 X223.323 Y103.977 I-5.583 J-32.947
G02 X227.897 Y114.916 I34.602 J-8.044
G01 X228.962 Y116.466  
G02 X238.593 Y135.848 I23.464 J0.424
G02 X234.788 Y140.102 I16.229 J18.342
G01 X231.000 Y139.972  
G01 X230.999 Y139.972 
G02 X220.758 Y142.025 I-0.452 J24.309
G02 X215.890 Y142.176 I-1.040 J45.137
G02 X189.361 Y143.080 I-11.745 J45.048
G02 X166.096 Y154.921 I1.265 J31.260
G02 X131.581 Y158.252 I-15.514 J19.733
G02 X124.242 Y162.106 I7.367 J22.944
G02 X107.771 Y168.453 I0.053 J24.685
G01 X106.132 Y170.041  
G02 X90.672 Y172.955 I-3.149 J25.761
G02 X77.914 Y190.370 I11.912 J22.108
G02 X70.303 Y190.630 I-3.001 J23.624
G01 X68.537 Y189.546  
G02 X67.867 Y173.904 I-22.692 J-6.863
G00 Z29.080
G00 X50.444 Y124.432  F6000.0
G01 Z24.000 F750.0 M3
G01 Z23.704 
G01 Z23.408 
G01 Z22.979 
G01 Z22.711 
G01 Z22.442 
G01 Z22.146 
G01 Z21.850 
G01 Z21.421 
G01 Z21.152 
G01 Z20.884 
G01 Z20.588 
G01 Z20.291 
G01 Z19.863 
G01 Z19.594 
G01 Z19.325 
G01 Z19.000 
G01 Z18.675 
G01 Z18.406 
G01 Z18.137 
G01 Z17.709 
G01 Z17.412 
G01 Z17.116 
G01 Z16.848 
G01 Z16.579 
G01 Z16.150 
G01 Z15.854 
G01 Z15.558 
G01 Z15.289 
G01 Z15.021 
G01 Z14.592 
G01 Z14.296 
G01 Z14.000 
G02 X50.212 Y126.787 I12.449 J2.418
G01 X48.801 Y125.813  F3000.0
G02 X50.444 Y124.432 I-5.398 J-8.089
G00 Z29.080
G00 X58.733 Y34.713  F6000.0
G01 Z14.000 F750.0 M3
G01 Z13.545 
G01 Z13.089 
G01 Z12.633 
G01 Z12.285 
G01 Z11.936 
G01 Z11.397 
G01 Z10.854 
G01 Z10.310 
G01 Z9.768 
G01 Z9.228 
G01 Z9.116 
G01 Z9.000 
G01 Z8.884 
G01 Z8.772 
G01 Z8.232 
G01 Z7.690 
G01 Z7.146 
G01 Z6.603 
G01 Z6.064 
G01 Z5.715 
G01 Z5.367 
G01 Z4.911 
G01 Z4.455 
G01 Z4.000 
G02 X60.428 Y39.898 I23.212 J-4.718
G02 X58.562 Y37.825 I-18.344 J14.637
G02 X50.158 Y31.140 I-18.424 J14.536
G01 X50.111 Y30.694  F3000.0
G02 X52.520 Y30.557 I-0.128 J-23.468
G02 X58.423 Y32.911 I18.657 J-38.204
G01 X58.733 Y34.713  
G01 X60.491 Y34.355  
G02 X72.087 Y49.542 I21.454 J-4.361
G02 X84.118 Y56.534 I16.755 J-14.982
G02 X107.674 Y48.794 I5.161 J-24.009
G02 X111.719 Y48.227 I-1.961 J-28.729
G02 X121.908 Y62.591 I28.954 J-9.742
G02 X141.622 Y67.173 I14.813 J-19.028
G02 X140.627 Y70.854 I25.036 J8.744
G02 X145.052 Y99.248 I21.286 J11.224
G02 X171.983 Y103.838 I16.766 J-17.074
G02 X176.156 Y104.478 I5.707 J-23.294
G02 X201.033 Y116.276 I20.867 J-11.872
G02 X224.307 Y98.680 I-5.283 J-31.177
G02 X229.414 Y113.957 I33.618 J-2.747
G02 X230.776 Y115.883 I19.282 J-12.190
G02 X241.659 Y135.700 I21.650 J1.007
G02 X235.709 Y141.950 I13.163 J18.490
G01 X230.966 Y141.766  
G02 X221.120 Y143.831 I-0.419 J22.514
G02 X215.735 Y143.991 I-1.402 J43.332
G02 X189.687 Y144.864 I-11.590 J43.233
G02 X167.046 Y156.628 I0.938 J29.476
G03 X166.610 Y156.902 I-0.574 J-0.431
G01 X165.869 Y157.060  
G02 X132.613 Y159.812 I-15.286 J17.594
G02 X124.858 Y163.908 I6.336 J21.384
G02 X108.972 Y169.786 I-0.563 J22.884
G02 X106.809 Y171.949 I19.700 J21.863
G02 X91.523 Y174.535 I-3.826 J23.854
G02 X79.414 Y192.439 I11.061 J20.529
G02 X69.913 Y192.549 I-4.501 J21.554
G02 X66.340 Y190.437 I-12.766 J17.514
G02 X66.200 Y174.569 I-20.495 J-7.754
G01 X65.186 Y172.215  
G02 X65.008 Y168.681 I-23.926 J-0.569
G02 X69.575 Y168.615 I1.666 J-42.953
G02 X91.233 Y163.774 I6.378 J-22.333
G02 X94.039 Y160.813 I-14.259 J-16.323
G01 X97.893 Y155.890  
G02 X102.462 Y143.835 I-17.065 J-13.361
G02 X104.559 Y129.418 I-26.175 J-11.168
G02 X104.013 Y113.308 I-22.557 J-7.299
G02 X88.085 Y92.768 I-21.670 J0.358
G02 X70.733 Y92.139 I-10.007 J36.418
G02 X57.780 Y100.169 I4.215 J21.260
G02 X49.342 Y90.336 I-19.915 J8.552
G01 X48.433 Y87.667  
G01 X48.209 Y87.103 
G02 X46.491 Y77.023 I-21.807 J-1.471
G02 X52.762 Y73.396 I-9.089 J-22.946
G02 X57.222 Y39.025 I-10.678 J-18.861
G02 X48.779 Y32.485 I-17.084 J13.336
G01 X48.455 Y32.345  
G02 X48.008 Y28.810 I-27.590 J1.687
G02 X52.838 Y28.711 I1.974 J-21.583
G02 X60.064 Y31.529 I18.339 J-36.358
G02 X60.491 Y34.355 I28.147 J-2.808
G01 X62.250 Y33.998  
G02 X73.200 Y48.090 I19.695 J-4.003
G02 X84.495 Y54.779 I15.642 J-13.530
G02 X106.810 Y47.044 I4.784 J-22.254
G02 X112.940 Y46.081 I-1.097 J-26.978
G02 X123.010 Y61.175 I27.733 J-7.596
G02 X143.972 Y64.671 I13.710 J-17.612
G01 X144.102 Y65.792  
G02 X142.339 Y71.458 I22.557 J10.125
G02 X146.309 Y97.968 I19.573 J10.621
G02 X171.793 Y101.935 I15.509 J-15.793
G02 X177.250 Y102.728 I5.897 J-21.390
G02 X200.734 Y114.507 I19.773 J-10.122
G02 X223.371 Y96.358 I-4.983 J-29.408
G02 X225.086 Y90.535 I-27.969 J-11.401
G02 X226.126 Y92.999 I18.792 J-6.483
G01 X226.092 Y93.372  
G02 X230.931 Y112.998 I31.832 J2.561
G02 X232.611 Y115.295 I17.765 J-11.231
G02 X244.076 Y134.930 I19.815 J1.595
G01 X244.716 Y135.893  
G02 X236.680 Y143.810 I10.107 J18.296
G02 X230.933 Y143.560 I-7.904 J115.788
G02 X221.491 Y145.640 I-0.385 J20.720
G02 X215.581 Y145.809 I-1.773 J41.522
G02 X190.011 Y146.651 I-11.435 J41.415
G01 X189.919 Y146.653  
G02 X168.481 Y157.706 I0.706 J27.687
G03 X166.956 Y158.663 I-2.009 J-1.509
G01 X165.377 Y159.037  
G02 X133.652 Y161.383 I-14.794 J15.617
G02 X125.482 Y165.729 I5.297 J19.812
G02 X110.173 Y171.119 I-1.187 J21.063
G02 X107.492 Y173.898 I18.499 J20.530
G02 X92.375 Y176.115 I-4.509 J21.905
G02 X81.063 Y194.727 I10.210 J18.949
G02 X69.516 Y194.502 I-6.150 J19.267
G02 X63.978 Y191.396 I-12.369 J15.562
G02 X64.533 Y175.233 I-18.133 J-8.713
G01 X63.378 Y172.587  
G02 X62.847 Y166.741 I-22.119 J-0.942
G02 X69.770 Y166.802 I3.827 J-41.012
G02 X90.052 Y162.423 I6.183 J-20.519
G02 X92.626 Y159.707 I-13.078 J-14.971
G01 X96.480 Y154.784  
G02 X100.687 Y143.417 I-15.652 J-12.255
G02 X102.729 Y129.234 I-24.400 J-10.751
G02 X102.221 Y113.668 I-20.726 J-7.115
G02 X87.609 Y94.498 I-19.879 J-0.002
G02 X71.082 Y93.899 I-9.532 J34.687
G02 X57.875 Y103.215 I3.866 J19.499
G01 X56.586 Y102.034  
G02 X47.815 Y91.512 I-18.720 J6.688
G02 X46.756 Y88.307 I-35.759 J10.039
G01 X46.385 Y87.403  
G02 X43.996 Y75.993 I-19.984 J-1.770
G02 X51.755 Y71.903 I-6.594 J-21.916
G02 X55.882 Y40.225 I-9.671 J-17.368
G02 X48.063 Y34.131 I-15.744 J12.136
G01 X46.707 Y33.557  
G02 X45.669 Y26.765 I-25.842 J0.475
G01 X45.626 Y26.622  
G02 X53.146 Y26.852 I4.356 J-19.396
G02 X61.756 Y30.123 I18.031 J-34.499
G02 X62.250 Y33.998 I26.455 J-1.402
G01 X64.009 Y33.640  
G02 X74.317 Y46.632 I17.936 J-3.646
G02 X84.872 Y53.025 I14.525 J-12.072
G02 X105.929 Y45.270 I4.407 J-20.500
G02 X114.240 Y43.785 I-0.215 J-25.205
G02 X124.112 Y59.759 I26.433 J-5.300
G02 X145.132 Y62.284 I12.608 J-16.196
G01 X145.641 Y62.705  
G02 X145.954 Y66.063 I28.839 J-0.989
G02 X144.054 Y72.064 I20.705 J9.854
G02 X147.567 Y96.688 I17.858 J10.015
G02 X171.602 Y100.008 I14.252 J-14.513
G02 X178.376 Y100.927 I6.089 J-19.463
G02 X200.434 Y112.737 I18.646 J-8.320
G02 X221.709 Y95.681 I-4.683 J-27.639
G02 X223.578 Y81.327 I-26.307 J-10.724
G01 X225.795 Y84.281  
G02 X227.971 Y92.655 I18.083 J-0.229
G01 X227.881 Y93.516  
G02 X232.448 Y112.039 I30.043 J2.417
G02 X234.475 Y114.701 I16.248 J-10.272
G02 X245.261 Y133.494 I17.951 J2.189
G03 X246.890 Y136.005 I-28.386 J20.200
G01 X246.775 Y136.859  
G02 X237.712 Y145.685 I8.047 J17.330
G02 X230.899 Y145.355 I-8.936 J113.912
G02 X221.874 Y147.456 I-0.352 J18.926
G02 X215.426 Y147.629 I-2.156 J39.707
G02 X190.330 Y148.441 I-11.281 J39.595
G01 X189.965 Y148.447  
G02 X169.915 Y158.784 I0.660 J25.893
G03 X167.302 Y160.424 I-3.444 J-2.587
G02 X164.877 Y161.067 I3.697 J18.819
G01 X164.272 Y160.463  
G02 X134.699 Y162.971 I-13.689 J14.191
G02 X126.115 Y167.576 I4.249 J18.225
G02 X111.374 Y172.453 I-1.820 J19.216
G02 X108.184 Y175.902 I17.297 J19.197
G02 X93.226 Y177.695 I-5.202 J19.901
G02 X82.997 Y197.431 I9.359 J17.369
G02 X69.109 Y196.501 I-8.085 J16.562
G02 X61.335 Y192.471 I-11.962 J13.563
G02 X62.866 Y175.898 I-15.490 J-9.789
G02 X61.561 Y172.952 I-39.815 J15.871
G02 X60.868 Y166.227 I-20.302 J-1.306
G01 X62.061 Y164.853  
G02 X69.971 Y164.986 I4.614 J-39.125
G02 X88.871 Y161.071 I5.981 J-18.703
G02 X91.213 Y158.600 I-11.897 J-13.619
G01 X95.067 Y153.678  
G02 X98.906 Y143.003 I-14.239 J-11.149
G02 X100.891 Y129.046 I-22.619 J-10.336
G02 X100.423 Y114.028 I-18.889 J-6.927
G02 X87.134 Y96.229 I-18.081 J-0.361
G02 X71.431 Y95.660 I-9.056 J32.957
G02 X58.878 Y105.103 I3.517 J17.739
G01 X57.544 Y105.490  
G02 X55.053 Y103.099 I-14.140 J12.234
G02 X46.281 Y92.715 I-17.188 J5.623
G02 X45.080 Y88.947 I-34.225 J8.836
G01 X44.551 Y87.704  
G02 X41.137 Y74.835 I-18.149 J-2.072
G02 X50.749 Y70.409 I-3.735 J-20.759
G02 X54.541 Y41.426 I-8.665 J-15.873
G02 X47.348 Y35.777 I-14.403 J10.936
G01 X44.906 Y34.767  
G02 X43.947 Y27.269 I-24.041 J-0.734
G01 X43.702 Y26.498  
G02 X44.047 Y24.309 I-17.657 J-3.906
G02 X53.443 Y24.977 I5.935 J-17.082
G02 X63.514 Y28.686 I17.734 J-32.623
G02 X64.009 Y33.640 I24.697 J0.035
G01 X65.767 Y33.283  
G02 X75.439 Y45.167 I16.178 J-3.288
G02 X85.249 Y51.270 I13.403 J-10.607
G02 X105.024 Y43.467 I4.030 J-18.745
G02 X115.661 Y41.258 I0.690 J-23.401
G02 X125.215 Y58.342 I25.012 J-2.773
G02 X145.081 Y60.323 I11.506 J-14.780
G01 X145.721 Y60.406  
G02 X147.419 Y61.806 I12.735 J-13.719
G02 X147.817 Y66.341 I27.061 J-0.090
G02 X145.773 Y72.673 I18.842 J9.576
G02 X148.824 Y95.407 I16.139 J9.406
G02 X171.406 Y98.050 I12.994 J-13.233
G02 X179.549 Y99.050 I6.284 J-17.505
G02 X200.134 Y110.968 I17.473 J-6.444
G02 X220.047 Y95.003 I-4.384 J-25.869
G02 X219.212 Y73.065 I-24.645 J-10.047
G03 X226.810 Y82.640 I-133.531 J113.764
G01 X227.592 Y83.681  
G02 X229.834 Y92.306 I16.285 J0.371
G01 X229.670 Y93.660  
G02 X233.965 Y111.080 I28.255 J2.273
G02 X236.378 Y114.096 I14.731 J-9.313
G02 X246.418 Y132.031 I16.048 J2.794
G03 X248.771 Y135.674 I-29.543 J21.663
G02 X248.477 Y138.081 I16.393 J3.220
G02 X238.821 Y147.579 I6.345 J16.108
G02 X230.866 Y147.149 I-10.045 J112.018
G02 X222.271 Y149.278 I-0.318 J17.131
G02 X215.271 Y149.453 I-2.553 J37.885
G02 X190.640 Y150.237 I-11.126 J37.771
G01 X190.011 Y150.241  
G02 X171.350 Y159.862 I0.615 J24.099
G03 X167.648 Y162.185 I-4.879 J-3.665
G02 X164.373 Y163.171 I3.351 J17.059
G01 X163.026 Y161.755  
G02 X135.759 Y164.580 I-12.443 J12.900
G02 X126.762 Y169.460 I3.190 J16.616
G02 X112.576 Y173.786 I-2.467 J17.332
G02 X108.889 Y177.981 I16.096 J17.864
G02 X94.077 Y179.275 I-5.906 J17.822
G02 X85.818 Y201.431 I8.507 J15.789
G02 X68.687 Y198.567 I-10.905 J12.562
G02 X59.521 Y193.948 I-11.540 J11.497
G01 X59.388 Y192.158  
G02 X61.199 Y176.562 I-13.543 J-9.475
G02 X59.734 Y173.307 I-38.148 J15.207
G02 X58.835 Y165.714 I-18.475 J-1.661
G02 X61.027 Y163.248 I-11.931 J-12.813
G01 X61.508 Y162.973  
G02 X70.182 Y163.165 I5.166 J-37.245
G02 X87.691 Y159.720 I5.771 J-16.883
G02 X89.800 Y157.494 I-10.717 J-12.268
G01 X93.654 Y152.571  
G02 X97.118 Y142.592 I-12.826 J-10.042
G02 X99.044 Y128.854 I-20.831 J-9.925
G02 X98.616 Y114.387 I-17.042 J-6.735
G02 X86.658 Y97.959 I-16.274 J-0.721
G02 X71.780 Y97.420 I-8.581 J31.227
G02 X60.122 Y106.649 I3.168 J15.979
G02 X56.941 Y107.602 I5.050 J22.646
G02 X53.507 Y104.173 I-13.537 J10.122
G02 X44.737 Y93.952 I-15.641 J4.549
G02 X43.403 Y89.587 I-32.680 J7.599
G01 X42.702 Y88.008  
G02 X37.406 Y73.374 I-16.300 J-2.376
G02 X49.742 Y68.913 I-0.004 J-19.297
G02 X53.199 Y42.627 I-7.658 J-14.377
G02 X46.632 Y37.422 I-13.061 J9.734
G01 X43.038 Y35.973  
G02 X42.224 Y27.774 I-22.172 J-1.941
G01 X41.833 Y26.602  
G02 X42.332 Y22.326 I-15.788 J-4.009
G01 X43.129 Y22.004  
G02 X53.725 Y23.080 I6.854 J-14.777
G02 X64.688 Y27.090 I17.452 J-30.727
G01 X65.334 Y27.630  
G02 X65.767 Y33.283 I22.877 J1.091
G01 X67.526 Y32.925  
G02 X76.568 Y43.691 I14.419 J-2.931
G02 X85.626 Y49.516 I12.274 J-9.131
G02 X104.087 Y41.621 I3.653 J-16.991
G02 X117.305 Y38.312 I1.626 J-21.556
G01 X117.303 Y38.609  
G02 X126.317 Y56.926 I23.370 J-0.124
G02 X144.784 Y58.455 I10.403 J-13.364
G01 X146.511 Y58.677  
G02 X148.992 Y60.718 I11.944 J-11.990
G01 X149.220 Y61.159  
G02 X149.695 Y66.626 I25.261 J0.557
G02 X147.519 Y73.133 I16.963 J9.291
G01 X147.418 Y73.417  
G02 X150.082 Y94.127 I14.494 J8.662
G02 X171.060 Y96.146 I11.737 J-11.952
G01 X171.207 Y96.048  
G02 X180.793 Y97.060 I6.483 J-15.503
G02 X199.834 Y109.199 I16.229 J-4.454
G02 X218.385 Y94.326 I-4.084 J-24.100
G02 X213.906 Y68.415 I-22.983 J-9.369
G02 X214.715 Y65.355 I-14.051 J-5.353
G03 X228.254 Y81.575 I-129.034 J121.473
G01 X229.414 Y83.104  
G02 X231.724 Y91.951 I14.464 J0.948
G01 X231.459 Y93.804  
G02 X235.482 Y110.121 I26.466 J2.129
G02 X238.339 Y113.478 I13.214 J-8.354
G02 X247.544 Y130.538 I14.087 J3.413
G03 X250.668 Y135.396 I-30.669 J23.156
G02 X250.259 Y139.357 I14.496 J3.497
G02 X240.030 Y149.498 I4.563 J14.832
G02 X230.833 Y148.943 I-11.255 J110.099
G02 X222.686 Y151.108 I-0.285 J15.337
G02 X215.117 Y151.280 I-2.968 J36.054
G02 X190.941 Y152.039 I-10.971 J35.944
G01 X190.057 Y152.035  
G02 X172.785 Y160.940 I0.569 J22.305
G03 X167.994 Y163.946 I-6.314 J-4.743
G02 X163.863 Y165.382 I3.005 J15.298
G02 X161.780 Y163.046 I-16.545 J12.657
G02 X136.836 Y166.220 I-11.197 J11.608
G02 X127.429 Y171.395 I2.113 J14.976
G02 X113.777 Y175.119 I-3.134 J15.397
G02 X109.611 Y180.170 I14.895 J16.531
G02 X94.928 Y180.854 I-6.628 J15.633
G02 X89.142 Y203.997 I7.656 J14.209
G01 X90.420 Y205.905  
G01 X88.780 Y205.750 
G03 X86.320 Y204.500 I0.221 J-3.482
G02 X68.242 Y200.737 I-11.407 J9.493
G02 X57.677 Y195.579 I-11.095 J9.327
G02 X57.504 Y191.692 I-15.239 J-1.268
G02 X59.532 Y177.227 I-11.659 J-9.009
G02 X57.894 Y173.650 I-36.481 J14.542
G02 X56.714 Y165.176 I-16.635 J-2.004
G02 X59.810 Y161.863 I-9.811 J-12.274
G01 X61.120 Y161.101  
G02 X70.404 Y161.340 I5.555 J-35.373
G02 X86.510 Y158.368 I5.549 J-15.057
G02 X88.387 Y156.388 I-9.536 J-10.916
G01 X92.241 Y151.465  
G02 X95.319 Y142.185 I-11.413 J-8.936
G02 X97.185 Y128.655 I-19.032 J-9.519
G02 X96.797 Y114.746 I-15.183 J-6.536
G02 X86.183 Y99.690 I-14.455 J-1.080
G02 X72.129 Y99.180 I-8.105 J29.496
G02 X61.409 Y108.220 I2.819 J14.218
G02 X56.280 Y109.821 I3.763 J21.074
G02 X51.941 Y105.258 I-12.877 J7.903
G02 X43.180 Y95.236 I-14.075 J3.463
G02 X41.726 Y90.227 I-31.123 J6.315
G02 X40.832 Y88.316 I-13.542 J5.169
G02 X32.604 Y72.329 I-14.431 J-2.683
G03 X31.011 Y71.272 I2.713 J-5.819
G01 X30.211 Y70.547  
G01 X31.064 Y70.392 
G02 X48.736 Y67.414 I6.338 J-16.315
G02 X51.855 Y43.829 I-6.652 J-12.878
G02 X45.917 Y39.068 I-11.718 J8.532
G02 X41.130 Y37.192 I-27.989 J64.379
G01 X41.085 Y37.177  
G02 X40.502 Y28.279 I-20.220 J-3.144
G01 X39.944 Y26.705  
G02 X40.458 Y21.057 I-13.899 J-4.113
G02 X43.152 Y20.015 I-4.359 J-15.269
G01 X43.160 Y20.015  
G02 X53.988 Y21.157 I6.823 J-12.789
G02 X65.514 Y25.415 I17.189 J-28.804
G02 X67.193 Y26.776 I9.943 J-10.547
G02 X67.526 Y32.925 I21.018 J1.945
G01 X69.284 Y32.568  
G02 X77.707 Y42.199 I12.660 J-2.573
G02 X86.003 Y47.761 I11.134 J-7.639
G02 X103.105 Y39.715 I3.275 J-15.236
G02 X119.765 Y34.047 I2.608 J-19.650
G01 X119.889 Y34.079  
G02 X119.098 Y38.599 I12.121 J4.452
G02 X127.420 Y55.510 I21.575 J-0.114
G02 X144.486 Y56.560 I9.301 J-11.947
G02 X147.312 Y56.920 I3.177 J-13.693
G02 X150.394 Y59.490 I11.144 J-10.233
G01 X151.029 Y60.722  
G02 X151.593 Y66.923 I23.451 J0.993
G02 X149.295 Y73.391 I15.066 J8.994
G03 X148.958 Y74.338 I-2.538 J-0.369
G02 X151.339 Y92.846 I12.954 J7.741
G02 X170.070 Y94.649 I10.479 J-10.672
G01 X171.022 Y93.992  
G02 X182.160 Y94.873 I6.668 J-13.447
G02 X199.534 Y107.429 I14.863 J-2.267
G02 X216.723 Y93.648 I-3.784 J-22.331
G02 X211.794 Y68.787 I-21.322 J-8.692
G02 X213.090 Y62.672 I-11.939 J-5.725
G01 X215.030 Y63.425  
G03 X215.922 Y64.019 I-0.841 J2.228
G03 X229.698 Y80.509 I-130.241 J122.809
G01 X231.266 Y82.556  
G02 X233.653 Y91.586 I12.612 J1.496
G02 X233.248 Y93.948 I12.932 J3.435
G02 X236.999 Y109.162 I24.677 J1.986
G02 X240.390 Y112.836 I11.697 J-7.395
G02 X248.635 Y129.011 I12.036 J4.054
G03 X252.584 Y135.179 I-31.760 J24.683
G02 X252.175 Y140.724 I12.580 J3.715
G02 X241.375 Y151.450 I2.647 J13.466
G02 X230.799 Y150.737 I-12.599 J108.147
G02 X223.125 Y152.950 I-0.252 J13.543
G02 X214.960 Y153.112 I-3.407 J34.212
G01 X214.851 Y153.077  
G02 X191.229 Y153.850 I-10.706 J34.148
G01 X190.102 Y153.829  
G02 X174.220 Y162.017 I0.523 J20.511
G03 X168.340 Y165.707 I-7.749 J-5.820
G02 X163.345 Y167.766 I2.659 J13.537
G02 X160.534 Y164.338 I-16.027 J10.273
G02 X137.938 Y167.904 I-9.951 J10.316
G02 X128.128 Y173.412 I1.011 J13.291
G02 X114.978 Y176.452 I-3.833 J13.380
G02 X110.361 Y182.530 I13.693 J15.197
G02 X95.780 Y182.434 I-7.378 J13.273
G02 X90.636 Y203.003 I6.805 J12.629
G01 X94.443 Y208.587  
G02 X88.667 Y207.541 I-7.392 J24.367
G03 X84.941 Y205.648 I0.335 J-5.273
G02 X68.637 Y202.556 I-10.028 J8.345
G01 X67.414 Y202.589  
G02 X56.012 Y197.414 I-10.268 J7.475
G01 X55.565 Y197.451  
G02 X55.575 Y191.213 I-13.126 J-3.141
G02 X57.865 Y177.891 I-9.730 J-8.530
G02 X56.037 Y173.977 I-34.814 J13.878
G02 X54.453 Y164.595 I-14.777 J-2.332
G02 X58.586 Y160.467 I-7.550 J-11.693
G02 X60.701 Y159.212 I-5.687 J-11.988
G02 X70.641 Y159.508 I5.973 J-33.483
G02 X85.329 Y157.016 I5.312 J-13.225
G02 X86.974 Y155.281 I-8.355 J-9.565
G01 X90.828 Y150.359  
G02 X93.507 Y141.785 I-10.000 J-7.830
G02 X95.324 Y128.510 I-17.220 J-9.119
G01 X95.337 Y128.388  
G02 X94.961 Y115.104 I-13.335 J-6.269
G02 X85.707 Y101.420 I-12.619 J-1.438
G02 X72.478 Y100.941 I-7.630 J27.766
G02 X62.759 Y109.831 I2.470 J12.458
G02 X55.526 Y112.218 I2.414 J19.464
G02 X50.549 Y106.490 I-12.122 J5.506
G03 X50.298 Y106.126 I0.305 J-0.480
G02 X41.605 Y96.584 I-12.432 J2.595
G02 X40.050 Y90.867 I-29.548 J4.967
G02 X38.932 Y88.629 I-11.865 J4.529
G02 X31.846 Y73.956 I-12.530 J-2.997
G03 X29.808 Y72.603 I3.472 J-7.446
G01 X27.014 Y70.056  
G01 X27.446 Y69.282 
G01 X31.264 Y68.536 
G02 X47.731 Y65.912 I6.138 J-14.459
G02 X50.511 Y45.033 I-5.647 J-11.376
G02 X45.201 Y40.714 I-10.373 J7.328
G02 X40.537 Y38.886 I-27.274 J62.733
G01 X39.024 Y38.361  
G02 X38.780 Y28.783 I-18.159 J-4.329
G02 X38.025 Y26.809 I-12.610 J3.695
G02 X38.407 Y19.682 I-11.980 J-4.217
G02 X42.721 Y18.219 I-2.308 J-13.894
G01 X43.615 Y18.215  
G02 X54.226 Y19.197 I6.368 J-10.989
G02 X66.364 Y23.735 I16.951 J-26.844
G02 X69.109 Y25.868 I9.092 J-8.867
G02 X69.284 Y32.568 I19.101 J2.853
G01 X71.043 Y32.210  
G02 X78.862 Y40.684 I10.902 J-2.216
G02 X86.381 Y46.007 I9.979 J-6.123
G02 X102.054 Y37.717 I2.898 J-13.482
G02 X119.229 Y31.996 I3.660 J-17.652
G02 X122.554 Y32.684 I3.948 J-10.701
G02 X120.892 Y38.590 I9.456 J5.847
G02 X128.522 Y54.094 I19.781 J-0.105
G02 X144.185 Y54.626 I8.198 J-10.531
G02 X148.127 Y55.121 I3.478 J-11.759
G02 X151.811 Y58.249 I10.329 J-8.434
G02 X152.851 Y60.271 I12.309 J-5.050
G02 X153.517 Y67.233 I21.630 J1.445
G02 X151.071 Y73.650 I13.142 J8.684
G03 X150.499 Y75.258 I-4.313 J-0.627
G02 X152.596 Y91.566 I11.413 J6.821
G02 X169.080 Y93.152 I9.222 J-9.391
G01 X170.868 Y91.862  
G02 X183.787 Y92.269 I6.823 J-11.317
G02 X199.234 Y105.660 I13.236 J0.337
G02 X215.062 Y92.971 I-3.484 J-20.561
G02 X209.912 Y69.458 I-19.660 J-8.014
G01 X209.564 Y69.126  
G02 X210.822 Y59.783 I-9.709 J-6.064
G02 X215.664 Y61.746 I42.629 J-98.168
G03 X217.227 Y62.788 I-1.474 J3.907
G03 X231.142 Y79.443 I-131.547 J124.040
G01 X233.158 Y82.046  
G02 X235.646 Y91.205 I10.720 J2.006
G02 X235.037 Y94.092 I10.939 J3.816
G02 X238.516 Y108.204 I22.888 J1.842
G02 X242.602 Y112.156 I10.180 J-6.436
G02 X249.686 Y127.446 I9.825 J4.734
G03 X254.521 Y135.030 I-32.811 J26.248
G02 X254.357 Y142.270 I10.643 J3.863
G02 X242.913 Y153.500 I0.466 J11.920
G01 X241.834 Y153.312  
G02 X230.766 Y152.532 I-13.058 J106.285
G02 X223.595 Y154.807 I-0.218 J11.749
G02 X214.763 Y154.955 I-3.877 J32.355
G01 X214.314 Y154.789  
G02 X191.499 Y155.672 I-10.169 J32.435
G01 X190.148 Y155.623  
G02 X175.655 Y163.095 I0.477 J18.717
G03 X168.685 Y167.467 I-9.184 J-6.898
G02 X162.810 Y170.471 I2.313 J11.776
G02 X159.288 Y165.629 I-15.492 J7.568
G02 X139.081 Y169.661 I-8.705 J9.025
G02 X128.879 Y175.569 I-0.132 J11.535
G02 X116.180 Y177.785 I-4.584 J11.223
G02 X111.510 Y184.318 I12.492 J13.864
G01 X111.163 Y185.201  
G02 X96.631 Y184.014 I-8.181 J10.602
G02 X92.131 Y202.010 I5.954 J11.049
G02 X97.804 Y210.230 I236.182 J-156.952
G02 X95.863 Y210.986 I4.780 J15.139
G02 X88.553 Y209.332 I-8.813 J21.967
G03 X83.561 Y206.796 I0.449 J-7.064
G02 X69.086 Y204.368 I-8.648 J7.197
G02 X66.524 Y204.496 I-0.689 J11.997
G02 X56.172 Y199.202 I-9.377 J5.568
G03 X53.012 Y199.326 I-2.808 J-31.301
G02 X53.574 Y190.712 I-10.573 J-5.015
G02 X56.198 Y178.556 I-7.729 J-8.030
G02 X54.157 Y174.285 I-33.147 J13.213
G02 X51.930 Y163.934 I-12.898 J-2.639
G02 X57.350 Y159.055 I-5.027 J-11.033
G02 X60.241 Y157.297 I-4.450 J-10.576
G02 X70.896 Y157.668 I6.433 J-31.568
G02 X84.149 Y155.665 I5.057 J-11.385
G02 X85.561 Y154.175 I-7.175 J-8.213
G01 X89.415 Y149.252  
G02 X91.675 Y141.394 I-8.587 J-6.723
G02 X93.570 Y128.893 I-15.388 J-8.728
G03 X93.713 Y127.625 I1.939 J-0.423
G02 X93.099 Y115.462 I-11.711 J-5.506
G02 X85.232 Y103.151 I-10.757 J-1.795
G02 X72.827 Y102.701 I-7.154 J26.035
G02 X64.208 Y111.502 I2.121 J10.697
G02 X54.587 Y114.961 I0.965 J17.792
G02 X49.586 Y108.004 I-11.183 J2.763
G03 X48.541 Y106.493 I1.269 J-1.994
G02 X40.003 Y98.027 I-10.676 J2.229
G02 X38.373 Y91.507 I-27.947 J3.524
G02 X36.982 Y88.951 I-10.189 J3.889
G02 X31.088 Y75.582 I-10.580 J-3.319
G03 X28.604 Y73.934 I4.230 J-9.072
G01 X24.647 Y70.314  
G02 X26.193 Y67.726 I-8.499 J-6.834
G03 X31.501 Y66.677 I18.128 J77.776
G02 X46.725 Y64.404 I5.900 J-12.600
G02 X49.163 Y46.240 I-4.641 J-9.869
G02 X44.486 Y42.360 I-9.026 J6.122
G02 X39.944 Y40.580 I-26.558 J61.087
G01 X36.826 Y39.507  
G02 X37.058 Y29.288 I-15.961 J-5.475
G02 X36.058 Y26.914 I-10.887 J3.190
G02 X35.972 Y18.077 I-10.013 J-4.322
G02 X42.273 Y16.415 I0.127 J-12.290
G01 X44.094 Y16.406  
G02 X54.427 Y17.186 I5.888 J-9.179
G02 X67.249 Y22.048 I16.750 J-24.832
G02 X71.120 Y24.874 I8.208 J-7.181
G02 X71.043 Y32.210 I17.091 J3.847
G01 X72.802 Y31.853  
G02 X80.043 Y39.129 I9.143 J-1.858
G02 X86.758 Y44.252 I8.798 J-4.569
G02 X100.868 Y35.617 I2.521 J-11.727
G01 X101.804 Y35.821  
G02 X118.703 Y29.801 I3.909 J-15.755
G02 X125.916 Y30.507 I4.474 J-8.506
G03 X127.701 Y30.263 I1.683 J5.658
G02 X122.687 Y38.580 I4.309 J8.268
G02 X129.624 Y52.678 I17.986 J-0.095
G02 X143.881 Y52.628 I7.096 J-9.115
G02 X148.966 Y53.254 I3.783 J-9.761
G02 X153.252 Y56.987 I9.490 J-6.567
G02 X154.690 Y59.798 I10.868 J-3.788
G02 X155.477 Y67.564 I19.790 J1.918
G02 X152.847 Y73.908 I11.182 J8.353
G03 X152.039 Y76.179 I-6.089 J-0.886
G02 X153.854 Y90.285 I9.873 J5.900
G02 X168.090 Y91.656 I7.965 J-8.111
G02 X170.760 Y89.622 I-13.913 J-21.033
G02 X185.213 Y89.137 I6.931 J-9.077
G01 X185.981 Y89.593  
G01 X185.914 Y89.850 
G02 X198.935 Y103.890 I11.108 J2.756
G02 X213.400 Y92.293 I-3.184 J-18.792
G02 X208.685 Y70.768 I-17.998 J-7.337
G01 X207.229 Y69.289  
G02 X205.721 Y55.397 I-7.374 J-6.227
G02 X216.297 Y60.067 I47.730 J-93.782
G03 X218.533 Y61.557 I-2.108 J5.586
G03 X232.585 Y78.377 I-132.852 J125.272
G01 X235.106 Y81.589  
G02 X237.752 Y90.797 I8.772 J2.463
G02 X236.825 Y94.236 I8.833 J4.224
G02 X240.033 Y107.245 I21.099 J1.698
G02 X245.163 Y111.389 I8.663 J-5.477
G02 X250.623 Y125.821 I7.263 J5.501
G01 X250.918 Y126.115  
G03 X256.483 Y134.966 I-34.043 J27.579
G02 X256.792 Y143.442 I8.681 J3.928
G01 X257.302 Y144.363  
G02 X244.878 Y156.144 I-2.480 J9.826
G02 X241.615 Y155.094 I-4.374 J7.992
G02 X230.733 Y154.326 I-12.839 J104.504
G02 X224.408 Y156.443 I-0.185 J9.954
G03 X223.719 Y156.631 I-0.569 J-0.726
G02 X215.021 Y156.730 I-4.001 J30.531
G01 X214.616 Y156.802  
G01 X214.375 Y156.763 
G01 X213.777 Y156.501 
G02 X191.746 Y157.510 I-9.632 J30.723
G02 X190.194 Y157.417 I-1.320 J9.015
G02 X177.090 Y164.173 I0.432 J16.923
G03 X169.031 Y169.228 I-10.619 J-7.976
G02 X162.232 Y174.017 I1.967 J10.015
G02 X158.042 Y166.921 I-14.914 J4.022
G02 X140.545 Y170.822 I-7.460 J7.733
G03 X139.536 Y171.473 I-0.948 J-0.362
G02 X129.947 Y177.475 I-0.587 J9.723
G03 X129.545 Y177.897 I-0.748 J-0.309
G02 X117.381 Y179.119 I-5.250 J8.895
G02 X113.161 Y185.023 I11.291 J12.531
G02 X112.140 Y188.688 I13.273 J5.670
G02 X97.482 Y185.594 I-9.157 J7.115
G02 X93.626 Y201.017 I5.102 J9.470
G02 X100.862 Y211.394 I234.687 J-155.958
G02 X95.927 Y212.961 I1.723 J13.975
G02 X88.439 Y211.123 I-8.877 J19.992
G03 X82.182 Y207.944 I0.563 J-8.855
G02 X69.545 Y206.208 I-7.269 J6.049
G02 X65.552 Y206.547 I-1.147 J10.157
G02 X56.333 Y200.989 I-8.405 J3.517
G03 X51.782 Y201.084 I-2.968 J-33.088
G03 X50.552 Y199.997 I6.785 J-8.911
G02 X51.441 Y190.173 I-8.113 J-5.686
G02 X54.531 Y179.220 I-5.596 J-7.491
G02 X52.249 Y174.566 I-31.480 J12.549
G02 X48.725 Y163.069 I-10.990 J-2.920
G02 X56.094 Y157.616 I-1.822 J-10.167
G02 X59.721 Y155.346 I-3.195 J-9.137
G02 X71.176 Y155.816 I6.953 J-29.618
G02 X82.968 Y154.313 I4.777 J-9.533
G02 X84.148 Y153.069 I-5.994 J-6.862
G01 X88.002 Y148.146  
G02 X89.813 Y141.017 I-7.174 J-5.617
G02 X91.817 Y129.275 I-13.526 J-8.350
G03 X92.089 Y126.861 I3.692 J-0.806
G02 X91.196 Y115.817 I-10.087 J-4.742
G02 X84.756 Y104.881 I-8.854 J-2.151
G02 X73.176 Y104.461 I-6.679 J24.305
G02 X65.854 Y112.837 I1.772 J8.937
G01 X65.830 Y113.284  
G02 X54.244 Y117.576 I-0.657 J16.010
G01 X53.065 Y118.836  
G02 X48.623 Y109.518 I-9.661 J-1.113
G03 X46.784 Y106.860 I2.232 J-3.508
G02 X38.360 Y99.624 I-8.919 J1.862
G02 X36.696 Y92.147 I-26.303 J1.927
G02 X34.946 Y89.289 I-8.512 J3.249
G02 X30.329 Y77.209 I-8.545 J-3.657
G03 X27.400 Y75.266 I4.988 J-10.699
G01 X22.090 Y70.387  
G02 X24.843 Y66.204 I-5.942 J-6.907
G03 X31.784 Y64.815 I19.479 J79.298
G02 X45.594 Y63.007 I5.618 J-10.738
G01 X45.877 Y62.819  
G02 X47.811 Y47.450 I-3.793 J-8.284
G02 X43.770 Y44.006 I-7.674 J4.912
G02 X39.350 Y42.274 I-25.843 J59.442
G01 X34.438 Y40.601  
G02 X35.336 Y29.792 I-13.573 J-6.569
G02 X34.008 Y27.020 I-9.165 J2.685
G02 X32.576 Y16.239 I-7.963 J-4.428
G01 X32.221 Y15.760  
G01 X33.864 Y16.043 
G02 X41.799 Y14.601 I2.235 J-10.255
G02 X44.608 Y14.583 I1.248 J-25.211
G02 X54.574 Y15.097 I5.375 J-7.357
G02 X68.182 Y20.352 I16.603 J-22.743
G02 X72.762 Y23.571 I7.275 J-5.485
G01 X72.903 Y23.795  
G03 X73.031 Y24.620 I-0.865 J0.557
G02 X72.802 Y31.853 I15.180 J4.101
G00 Z29.080
G00 X77.023 Y73.216  F6000.0
G01 Z14.000 F750.0 M3
G01 Z13.772 
G01 Z13.518 
G01 Z13.441 
G01 Z13.214 
G01 Z12.959 
G01 Z12.883 
G01 Z12.655 
G01 Z12.400 
G01 Z12.324 
G01 Z12.096 
G01 Z11.842 
G01 Z11.765 
G01 Z11.538 
G01 Z11.283 
G01 Z11.207 
G01 Z10.979 
G01 Z10.724 
G01 Z10.648 
G01 Z10.420 
G01 Z10.166 
G01 Z10.089 
G01 Z9.862 
G01 Z9.607 
G01 Z9.531 
G01 Z9.303 
G01 Z9.048 
G01 Z9.000 
G01 Z8.952 
G01 Z8.697 
G01 Z8.469 
G01 Z8.393 
G01 Z8.138 
G01 Z7.911 
G01 Z7.834 
G01 Z7.580 
G01 Z7.352 
G01 Z7.276 
G01 Z7.021 
G01 Z6.793 
G01 Z6.717 
G01 Z6.462 
G01 Z6.235 
G01 Z6.158 
G01 Z5.904 
G01 Z5.676 
G01 Z5.600 
G01 Z5.345 
G01 Z5.117 
G01 Z5.041 
G01 Z4.786 
G01 Z4.559 
G01 Z4.482 
G01 Z4.228 
G01 Z4.000 
G01 X77.897 Y73.472  F3000.0
G01 X76.878 Y73.485 
G01 X77.023 Y73.216 
G01 X76.121 Y71.033  
G02 X80.723 Y72.325 I12.720 J-36.473
G02 X105.918 Y69.678 I8.556 J-39.799
G02 X111.986 Y75.336 I34.755 J-31.193
G02 X121.714 Y80.927 I24.734 J-31.773
G02 X133.735 Y110.773 I40.199 J1.152
G02 X169.204 Y121.569 I28.083 J-28.598
G02 X181.461 Y129.627 I27.818 J-28.963
G02 X163.742 Y137.455 I9.165 J44.713
G02 X123.454 Y146.001 I-13.159 J37.199
G02 X119.451 Y148.051 I15.495 J35.194
G01 X118.222 Y148.225  
G01 X118.305 Y147.651 
G02 X120.865 Y130.979 I-42.018 J-14.985
G02 X119.995 Y110.062 I-38.862 J-8.860
G02 X92.364 Y77.194 I-37.653 J3.604
G02 X73.599 Y75.453 I-14.287 J51.992
G02 X76.121 Y71.033 I-31.515 J-20.917
G01 X75.184 Y68.767  
G02 X81.100 Y70.570 I13.657 J-34.207
G02 X106.382 Y67.479 I8.179 J-38.045
G02 X113.088 Y73.920 I34.291 J-28.994
G02 X123.565 Y79.714 I23.632 J-30.357
G02 X134.993 Y109.492 I38.348 J2.365
G02 X169.785 Y119.623 I26.826 J-27.318
G02 X188.914 Y130.104 I27.238 J-27.017
G01 X187.029 Y130.640  
G02 X164.035 Y139.475 I3.597 J43.700
G02 X124.463 Y147.520 I-13.452 J35.179
G02 X120.042 Y149.788 I14.486 J33.676
G02 X115.969 Y150.487 I4.253 J37.004
G02 X116.551 Y147.224 I-35.140 J-7.958
G02 X119.062 Y130.811 I-40.264 J-14.557
G02 X118.226 Y110.423 I-37.059 J-8.691
G02 X91.889 Y78.924 I-35.884 J3.243
G02 X69.640 Y77.748 I-13.811 J50.262
G02 X75.184 Y68.767 I-27.556 J-23.213
G00 Z29.080
G00 X103.919 Y76.231  F6000.0
G01 Z14.000 F750.0 M3
G01 Z13.832 
G01 Z13.081 
G01 Z12.658 
G01 Z12.235 
G01 Z12.067 
G01 Z11.316 
G01 Z10.893 
G01 Z10.470 
G01 Z10.302 
G01 Z9.551 
G01 Z9.000 
G01 Z8.449 
G01 Z7.698 
G01 Z7.530 
G01 Z7.107 
G01 Z6.684 
G01 Z5.933 
G01 Z5.765 
G01 Z5.342 
G01 Z4.919 
G01 Z4.168 
G01 Z4.000 
G01 X104.556 Y76.012  F3000.0
G01 X106.780 Y78.033 
G02 X103.919 Y76.231 I-24.438 J35.634
G00 Z29.080
G00 X116.374 Y84.427  F6000.0
G01 Z14.000 F750.0 M3
G01 Z13.264 
G01 Z12.546 
G01 Z11.827 
G01 Z11.108 
G01 Z10.288 
G01 Z9.467 
G01 Z9.000 
G01 Z8.533 
G01 Z7.712 
G01 Z6.891 
G01 Z6.173 
G01 Z5.454 
G01 Z4.736 
G01 Z4.000 
G01 X116.620 Y87.361  F3000.0
G02 X110.725 Y81.087 I-34.278 J26.306
G02 X116.374 Y84.427 I25.996 J-37.524
G01 X118.124 Y83.279  
G02 X131.221 Y113.333 I43.788 J-1.201
G02 X168.062 Y125.396 I30.598 J-31.159
G02 X172.251 Y128.666 I28.960 J-32.790
G02 X163.157 Y133.484 I18.374 J45.674
G02 X123.763 Y140.982 I-12.574 J41.170
G02 X124.467 Y131.315 I-47.476 J-8.316
G02 X123.530 Y109.340 I-42.464 J-9.196
G02 X98.989 Y75.746 I-41.187 J4.326
G02 X105.006 Y73.937 I-9.711 J-43.220
G02 X109.781 Y78.168 I35.667 J-35.452
G02 X118.124 Y83.279 I26.939 J-34.605
G01 X119.903 Y82.114  
G02 X132.478 Y112.053 I42.010 J-0.035
G02 X168.630 Y123.493 I29.340 J-29.879
G02 X176.338 Y129.106 I28.392 J-30.887
G02 X163.449 Y135.459 I14.288 J45.234
G02 X122.447 Y144.485 I-12.866 J39.195
G01 X120.971 Y145.185  
G02 X122.667 Y131.147 I-44.684 J-12.518
G02 X121.763 Y109.701 I-40.664 J-9.028
G02 X92.840 Y75.463 I-39.420 J3.965
G01 X91.009 Y74.993  
G02 X105.460 Y71.828 I-1.730 J-42.468
G02 X110.884 Y76.752 I35.213 J-33.343
G02 X119.903 Y82.114 I25.837 J-33.189
G00 Z29.080
G00 X202.881 Y53.897  F6000.0
G01 Z14.000 F750.0 M3
G01 Z13.813 
G01 Z13.115 
G01 Z12.415 
G01 Z11.715 
G01 Z11.015 
G01 Z10.317 
G01 Z9.736 
G01 Z9.490 
G01 Z9.244 
G01 Z9.000 
G01 Z8.755 
G01 Z8.509 
G01 Z8.263 
G01 Z7.682 
G01 Z6.984 
G01 Z6.284 
G01 Z5.584 
G01 Z4.884 
G01 Z4.186 
G01 Z4.000 
G01 X202.161 Y53.690  F3000.0
G02 X188.283 Y52.545 I-10.511 J42.723
G01 X188.538 Y50.231  
G02 X192.622 Y50.056 I1.663 J-8.958
G02 X196.673 Y50.250 I2.450 J-8.776
G01 X197.189 Y50.541  
G02 X202.881 Y53.897 I56.261 J-88.927
G00 Z29.080
G00 X216.973 Y129.516  F6000.0
G01 Z14.000 F750.0 M3
G01 Z13.234 
G01 Z12.468 
G01 Z11.872 
G01 Z11.276 
G01 Z10.681 
G01 Z10.189 
G01 Z9.696 
G01 Z9.633 
G01 Z9.278 
G01 Z9.000 
G01 Z8.722 
G01 Z8.367 
G01 Z8.304 
G01 Z7.811 
G01 Z7.319 
G01 Z6.724 
G01 Z6.128 
G01 Z5.532 
G01 Z4.766 
G01 Z4.000 
G02 X210.932 Y128.499 I-12.828 J57.708
G02 X217.470 Y125.624 I-15.182 J-43.400
G02 X218.631 Y129.384 I34.956 J-8.734
G01 X218.392 Y129.466  F3000.0
G01 X216.973 Y129.516 
G01 X216.818 Y131.321  
G02 X187.365 Y132.413 I-12.673 J55.903
G02 X164.328 Y141.523 I3.260 J41.926
G02 X125.473 Y149.040 I-13.746 J33.131
G02 X120.635 Y151.528 I13.476 J32.155
G02 X113.407 Y153.052 I3.660 J35.264
G02 X114.797 Y146.797 I-32.578 J-10.523
G02 X117.258 Y130.641 I-38.510 J-14.131
G02 X116.456 Y110.784 I-35.255 J-8.522
G02 X91.413 Y80.655 I-34.114 J2.883
G02 X68.290 Y79.817 I-13.336 J48.531
G02 X63.744 Y81.048 I6.658 J33.582
G02 X74.201 Y66.393 I-21.660 J-26.512
G02 X81.477 Y68.816 I14.641 J-31.833
G02 X106.853 Y65.221 I7.802 J-36.290
G02 X114.191 Y72.503 I33.820 J-26.735
G02 X125.465 Y78.469 I22.529 J-28.941
G02 X136.250 Y108.212 I36.448 J3.610
G02 X170.373 Y117.650 I25.568 J-26.037
G02 X203.132 Y128.662 I26.649 J-25.043
G02 X218.713 Y122.847 I-7.382 J-43.563
G02 X221.020 Y130.518 I33.713 J-5.957
G01 X218.718 Y131.255  
G01 X216.818 Y131.321 
G01 X216.664 Y133.127  
G02 X187.701 Y134.188 I-12.518 J54.098
G02 X164.622 Y143.606 I2.924 J40.152
G02 X126.484 Y150.564 I-14.039 J31.048
G02 X121.229 Y153.273 I12.464 J30.632
G02 X110.246 Y156.206 I3.066 J33.519
G02 X113.041 Y146.371 I-29.417 J-13.677
G02 X115.451 Y130.471 I-36.754 J-13.705
G02 X114.685 Y111.145 I-33.449 J-8.351
G02 X90.938 Y82.385 I-32.343 J2.522
G02 X68.639 Y81.577 I-12.860 J46.801
G02 X59.725 Y84.751 I6.309 J31.822
G01 X58.990 Y84.101  
G01 X58.856 Y82.305 
G02 X73.153 Y63.869 I-16.772 J-27.769
G02 X81.854 Y67.061 I15.688 J-29.309
G02 X107.333 Y62.888 I7.424 J-34.536
G02 X115.293 Y71.087 I33.340 J-24.403
G02 X127.427 Y77.183 I21.427 J-27.525
G02 X137.508 Y106.931 I34.486 J4.895
G02 X170.972 Y115.643 I24.311 J-24.757
G02 X202.832 Y126.892 I26.050 J-23.037
G02 X220.115 Y119.787 I-7.082 J-41.794
G02 X223.579 Y131.732 I32.311 J-2.896
G02 X219.047 Y133.044 I6.968 J32.548
G01 X216.664 Y133.127  
G01 X216.509 Y134.933  
G02 X188.036 Y135.963 I-12.364 J52.291
G02 X164.916 Y145.731 I2.590 J38.376
G02 X127.498 Y152.091 I-14.333 J28.923
G02 X121.825 Y155.024 I11.451 J29.104
G02 X104.873 Y161.532 I2.469 J31.768
G01 X104.958 Y161.422  
G02 X111.284 Y145.946 I-24.130 J-18.893
G02 X113.643 Y130.299 I-34.997 J-13.279
G02 X112.912 Y111.506 I-31.641 J-8.180
G02 X90.462 Y84.115 I-30.570 J2.161
G02 X68.988 Y83.337 I-12.385 J45.070
G02 X59.446 Y86.962 I5.960 J30.061
G02 X57.224 Y84.963 I-21.580 J21.760
G02 X56.949 Y81.472 I-30.822 J0.669
G01 X57.796 Y80.848  
G02 X72.013 Y61.128 I-15.712 J-26.312
G02 X82.232 Y65.307 I16.828 J-26.568
G02 X107.824 Y60.460 I7.047 J-32.781
G02 X116.396 Y69.671 I32.849 J-21.975
G02 X129.469 Y75.845 I20.325 J-26.108
G02 X138.765 Y105.651 I32.443 J6.234
G02 X171.583 Y113.595 I23.053 J-23.476
G02 X202.533 Y125.123 I25.440 J-20.989
G02 X220.803 Y117.041 I-6.782 J-40.024
G01 X221.830 Y118.752  
G01 X221.837 Y118.763 
G02 X226.395 Y133.064 I30.589 J-1.873
G02 X219.379 Y134.836 I4.152 J31.216
G01 X216.509 Y134.933  
G01 X216.354 Y136.742  
G02 X188.369 Y137.740 I-12.209 J50.483
G02 X165.210 Y147.907 I2.256 J36.600
G02 X128.514 Y153.623 I-14.627 J26.747
G02 X122.424 Y156.781 I10.435 J27.573
G02 X104.167 Y164.453 I1.871 J30.011
G01 X104.130 Y164.487  
G02 X100.199 Y164.590 I-1.147 J31.316
G01 X103.545 Y160.316  
G02 X109.525 Y145.521 I-22.717 J-17.787
G02 X111.833 Y130.126 I-33.238 J-12.855
G02 X111.138 Y111.866 I-29.831 J-8.007
G02 X89.987 Y85.846 I-28.796 J1.800
G02 X69.337 Y85.098 I-11.909 J43.340
G02 X59.157 Y89.251 I5.611 J28.301
G02 X55.436 Y85.837 I-21.292 J19.470
G02 X55.003 Y80.633 I-29.034 J-0.205
G01 X56.789 Y79.359  
G02 X70.723 Y58.035 I-14.705 J-24.823
G02 X82.609 Y63.552 I18.119 J-23.475
G02 X108.329 Y57.907 I6.670 J-31.027
G02 X117.498 Y68.255 I32.344 J-19.422
G02 X131.619 Y74.437 I19.222 J-24.692
G02 X140.022 Y104.370 I30.293 J7.642
G02 X172.209 Y111.496 I21.796 J-22.196
G02 X202.233 Y123.354 I24.814 J-18.890
G02 X221.349 Y114.256 I-6.482 J-38.255
G02 X223.347 Y117.793 I36.575 J-18.323
G01 X223.604 Y118.193  
G02 X229.647 Y134.597 I28.822 J-1.303
G02 X219.716 Y136.629 I0.900 J29.683
G01 X216.354 Y136.742  
G01 X216.199 Y138.551  
G02 X188.701 Y139.518 I-12.054 J48.673
G02 X165.505 Y150.149 I1.924 J34.821
G02 X129.533 Y155.159 I-14.922 J24.505
G02 X123.026 Y158.546 I9.416 J26.036
G02 X105.368 Y165.786 I1.269 J28.246
G01 X104.793 Y166.316  
G02 X95.423 Y167.244 I-1.811 J29.487
G02 X98.278 Y164.132 I-18.449 J-19.792
G01 X102.132 Y159.210  
G02 X107.763 Y145.098 I-21.304 J-16.681
G02 X110.020 Y129.952 I-31.476 J-12.431
G02 X109.361 Y112.227 I-28.018 J-7.833
G02 X89.511 Y87.576 I-27.019 J1.440
G02 X69.686 Y86.858 I-11.434 J41.609
G02 X58.855 Y91.647 I5.262 J26.541
G02 X53.892 Y86.921 I-20.989 J17.074
G01 X53.636 Y86.209  
G02 X53.005 Y79.776 I-27.234 J-0.576
G02 X55.782 Y77.869 I-15.603 J-25.699
G02 X69.140 Y54.258 I-13.698 J-23.334
G02 X82.986 Y61.798 I19.702 J-19.698
G02 X108.855 Y55.180 I6.293 J-29.272
G02 X118.600 Y66.839 I31.818 J-16.695
G02 X133.923 Y72.928 I18.120 J-23.276
G02 X141.280 Y103.090 I27.990 J9.151
G02 X172.542 Y109.456 I20.539 J-20.915
G01 X172.995 Y109.533  
G02 X201.933 Y121.584 I24.027 J-16.927
G02 X221.934 Y111.249 I-6.183 J-36.486
G02 X224.864 Y116.834 I35.990 J-15.315
G01 X225.379 Y117.620  
G02 X233.357 Y136.085 I27.047 J-0.730
G01 X233.066 Y136.436  
G01 X231.066 Y136.383 
G02 X220.058 Y138.425 I-0.519 J27.897
G02 X216.199 Y138.551 I-0.339 J48.737
G00 Z29.080
G00 X162.572 Y129.585  F6000.0
G01 Z4.000 F750.0 M3
G01 X161.989 Y129.434  F3000.0
G01 X162.831 Y129.423 
G01 X162.572 Y129.585 
G01 X162.864 Y131.527  
G02 X126.084 Y137.096 I-12.281 J43.127
G02 X126.267 Y131.482 I-49.797 J-4.429
G02 X125.432 Y109.437 I-44.264 J-9.363
G02 X129.963 Y114.614 I36.480 J-27.358
G02 X167.499 Y127.283 I31.855 J-32.439
G01 X168.695 Y128.267  
G02 X162.864 Y131.527 I21.930 J46.073
G00 Z29.080
G00 X132.302 Y127.873  F6000.0
G01 Z14.000 F750.0 M3
G01 Z13.488 
G01 Z12.977 
G01 Z12.370 
G01 Z11.764 
G01 Z11.184 
G01 Z10.603 
G01 Z10.092 
G01 Z9.580 
G01 Z9.000 
G01 Z8.420 
G01 Z7.908 
G01 Z7.397 
G01 Z6.816 
G01 Z6.236 
G01 Z5.630 
G01 Z5.023 
G01 Z4.512 
G01 Z4.000 
G02 X132.602 Y123.792 I-50.299 J-5.754
G02 X136.699 Y126.385 I29.216 J-41.617
G02 X132.302 Y127.873 I13.884 J48.269
G01 X130.060 Y130.786  F3000.0
G02 X130.796 Y120.174 I-48.057 J-8.667
G02 X141.908 Y127.006 I31.022 J-37.999
G02 X130.060 Y130.786 I8.675 J47.648
G01 X128.065 Y131.648  
G02 X128.615 Y115.805 I-46.063 J-9.529
G01 X128.706 Y115.894  
G02 X150.337 Y128.018 I33.113 J-33.720
G02 X128.062 Y133.815 I0.246 J46.636
G01 X128.065 Y131.648  
G00 Z29.080
G00 X74.302 Y176.642  F6000.0
G01 Z14.000 F750.0 M3
G01 Z13.498 
G01 Z12.996 
G01 Z12.450 
G01 Z11.902 
G01 Z11.356 
G01 Z10.889 
G01 Z10.422 
G01 Z9.955 
G01 Z9.478 
G01 Z9.000 
G01 Z8.522 
G01 Z8.045 
G01 Z7.578 
G01 Z7.111 
G01 Z6.644 
G01 Z6.097 
G01 Z5.550 
G01 Z5.004 
G01 Z4.502 
G01 Z4.000 
G02 X78.315 Y176.595 I1.651 J-30.359
G02 X74.932 Y182.202 I24.269 J18.469
G02 X74.302 Y176.642 I-29.087 J0.481
G01 X71.919 Y174.606  F3000.0
G02 X83.104 Y173.984 I4.034 J-28.324
G02 X75.161 Y186.592 I19.481 J21.079
G01 X72.849 Y186.668  
G02 X71.919 Y174.606 I-27.004 J-3.986
G01 X69.534 Y173.240  
G01 X69.122 Y172.238  
G01 X69.202 Y172.234 
G02 X93.594 Y166.477 I6.751 J-25.951
G02 X96.865 Y163.026 I-16.620 J-19.026
G01 X100.719 Y158.103  
G02 X106.000 Y144.675 I-19.891 J-15.574
G02 X108.204 Y129.776 I-29.713 J-12.008
G02 X107.582 Y112.587 I-26.201 J-7.657
G02 X89.036 Y89.307 I-25.240 J1.079
G02 X70.035 Y88.618 I-10.958 J39.879
G02 X58.534 Y94.195 I4.913 J24.780
G02 X52.380 Y88.044 I-20.668 J14.527
G01 X51.832 Y86.509  
G02 X50.939 Y78.895 I-25.431 J-0.877
G02 X54.775 Y76.379 I-13.537 J-24.818
G02 X67.049 Y50.669 I-12.691 J-21.843
G02 X69.869 Y52.433 I14.896 J-20.674
G02 X83.363 Y60.043 I18.972 J-17.873
G02 X109.364 Y52.243 I5.916 J-27.518
G01 X109.427 Y52.236  
G02 X119.703 Y65.423 I31.246 J-13.751
G02 X136.462 Y71.265 I17.017 J-21.860
G02 X142.537 Y101.809 I25.451 J10.814
G02 X172.357 Y107.596 I19.281 J-19.635
G01 X174.033 Y107.873  
G02 X201.633 Y119.815 I22.989 J-15.267
G02 X222.578 Y107.904 I-5.883 J-34.716
G02 X226.381 Y115.875 I35.347 J-11.971
G01 X227.164 Y117.044  
G02 X235.872 Y135.973 I25.262 J-0.154
G02 X233.909 Y138.265 I18.950 J18.217
G01 X231.033 Y138.177  
G02 X220.405 Y140.224 I-0.485 J26.103
G02 X216.045 Y140.363 I-0.687 J46.938
G02 X189.032 Y141.298 I-11.899 J46.862
G02 X165.800 Y152.477 I1.594 J33.041
G02 X130.555 Y156.702 I-15.217 J22.177
G02 X123.632 Y160.320 I8.394 J24.494
G02 X106.569 Y167.120 I0.663 J26.472
G01 X105.461 Y168.166  
G02 X89.821 Y171.375 I-2.478 J27.637
G02 X76.506 Y188.435 I12.764 J23.688
G02 X70.687 Y188.736 I-1.593 J25.559
G01 X70.627 Y188.699  
G02 X69.534 Y173.240 I-24.782 J-6.016
G01 X67.867 Y173.904  
G01 X66.986 Y171.836  
G01 X66.962 Y170.507 
G01 X69.386 Y170.426 
G02 X92.413 Y165.126 I6.567 J-24.143
G02 X95.452 Y161.919 I-15.439 J-17.674
G01 X99.306 Y156.997  
G02 X104.233 Y144.254 I-18.478 J-14.468
G02 X106.384 Y129.598 I-27.946 J-11.587
G02 X105.799 Y112.948 I-24.381 J-7.479
G02 X88.560 Y91.037 I-23.457 J0.719
G02 X70.384 Y90.379 I-10.483 J38.148
G02 X58.183 Y96.976 I4.564 J23.020
G02 X50.863 Y89.182 I-20.317 J11.745
G01 X50.109 Y87.027  
G01 X50.024 Y86.806 
G02 X48.781 Y77.982 I-23.622 J-1.174
G02 X53.768 Y74.888 I-11.380 J-23.905
G02 X63.413 Y44.748 I-11.684 J-20.352
G02 X70.977 Y50.989 I18.531 J-14.753
G02 X83.740 Y58.288 I17.865 J-16.429
G02 X108.525 Y50.526 I5.538 J-25.763
G01 X110.553 Y50.270  
G02 X120.805 Y64.007 I30.120 J-11.785
G02 X139.114 Y69.360 I15.915 J-20.444
G01 X138.917 Y70.253  
G02 X143.795 Y100.529 I22.996 J11.826
G02 X172.171 Y105.724 I18.024 J-18.354
G02 X175.086 Y106.190 I5.520 J-25.179
G02 X201.333 Y118.045 I21.937 J-13.584
G02 X223.323 Y103.977 I-5.583 J-32.947
G02 X227.897 Y114.916 I34.602 J-8.044
G01 X228.962 Y116.466  
G02 X238.593 Y135.848 I23.464 J0.424
G02 X234.788 Y140.102 I16.229 J18.342
G01 X231.000 Y139.972  
G01 X230.999 Y139.972 
G02 X220.758 Y142.025 I-0.452 J24.309
G02 X215.890 Y142.176 I-1.040 J45.137
G02 X189.361 Y143.080 I-11.745 J45.048
G02 X166.096 Y154.921 I1.265 J31.260
G02 X131.581 Y158.252 I-15.514 J19.733
G02 X124.242 Y162.106 I7.367 J22.944
G02 X107.771 Y168.453 I0.053 J24.685
G01 X106.132 Y170.041  
G02 X90.672 Y172.955 I-3.149 J25.761
G02 X77.914 Y190.370 I11.912 J22.108
G02 X70.303 Y190.630 I-3.001 J23.624
G01 X68.537 Y189.546  
G02 X67.867 Y173.904 I-22.692 J-6.863
G00 Z29.080
G00 X50.444 Y124.432  F6000.0
G01 Z14.000 F750.0 M3
G01 Z13.704 
G01 Z13.408 
G01 Z12.979 
G01 Z12.711 
G01 Z12.442 
G01 Z12.146 
G01 Z11.850 
G01 Z11.421 
G01 Z11.152 
G01 Z10.884 
G01 Z10.588 
G01 Z10.291 
G01 Z9.863 
G01 Z9.594 
G01 Z9.325 
G01 Z9.000 
G01 Z8.675 
G01 Z8.406 
G01 Z8.137 
G01 Z7.709 
G01 Z7.412 
G01 Z7.116 
G01 Z6.848 
G01 Z6.579 
G01 Z6.150 
G01 Z5.854 
G01 Z5.558 
G01 Z5.289 
G01 Z5.021 
G01 Z4.592 
G01 Z4.296 
G01 Z4.000 
G02 X50.212 Y126.787 I12.449 J2.418
G01 X48.801 Y125.813  F3000.0
G02 X50.444 Y124.432 I-5.398 J-8.089
G00 Z29.080
G00 Z44.320
M05
M1
( Tjornroundover )
T6 M6( TOOL USE End Mill 1 mm )
S19000 M03
( Tjornroundover )
( Tjornroundover )
G00 X29.645 Y13.321 Z29.080 F6000.0
G01 Z22.000 F1200.0 M3
G03 X29.931 Y13.109 I0.285 J0.086
G03 X34.396 Y13.600 I-0.093 J21.400
G02 X41.076 Y12.046 I1.703 J-7.812
G02 X45.417 Y12.008 I1.971 J-22.657
G02 X54.457 Y12.093 I4.566 J-4.781
G03 X55.167 Y12.405 I-0.231 J1.491
G02 X69.616 Y17.965 I16.010 J-20.052
G02 X74.422 Y21.397 I5.841 J-3.097
G02 X75.005 Y22.442 I8.568 J-4.095
G03 X75.444 Y25.272 I-2.967 J1.910
G02 X75.252 Y31.355 I12.766 J3.449
G02 X81.781 Y36.823 I6.693 J-1.360
G02 X87.283 Y41.808 I7.060 J-2.263
G02 X98.768 Y32.856 I1.996 J-9.283
G03 X102.406 Y33.394 I-0.967 J19.103
G02 X117.030 Y27.846 I3.307 J-13.329
G03 X118.211 Y26.386 I9.955 J6.845
G02 X125.204 Y28.111 I4.965 J-5.091
G03 X133.366 Y30.053 I2.396 J8.055
G02 X132.570 Y31.254 I9.994 J7.494
G02 X129.305 Y32.267 I3.090 J15.731
G02 X125.187 Y38.567 I2.705 J6.264
G02 X131.160 Y50.705 I15.486 J-0.082
G02 X143.442 Y49.625 I5.560 J-7.143
G02 X150.219 Y50.414 I4.221 J-6.758
G02 X155.329 Y55.169 I8.236 J-3.727
G02 X157.298 Y59.084 I8.791 J-1.970
G02 X158.303 Y68.078 I17.183 J2.632
G02 X155.321 Y74.268 I8.355 J7.839
G03 X154.185 Y77.461 I-8.563 J-1.246
G02 X155.605 Y88.501 I7.727 J4.618
G02 X166.711 Y89.570 I6.213 J-6.327
G02 X170.752 Y86.159 I-12.533 J-18.948
G01 X171.185 Y86.648  F3000.0
G02 X184.874 Y85.834 I6.506 J-6.103
G02 X187.861 Y87.762 I10.604 J-13.144
G03 X189.099 Y88.548 I-3.416 J6.759
G02 X188.340 Y90.452 I6.574 J3.724
G02 X198.517 Y101.426 I8.682 J2.154
G02 X211.085 Y91.350 I-2.767 J-16.327
G02 X206.977 Y72.593 I-15.683 J-6.393
G03 X203.780 Y69.041 I19.083 J-20.384
G01 X203.917 Y68.949  
G02 X201.564 Y56.117 I-4.062 J-5.887
G02 X185.542 Y55.368 I-9.913 J40.295
G03 X186.495 Y46.748 I100.782 J6.781
G02 X192.627 Y47.423 I3.705 J-5.475
G02 X196.903 Y47.633 I2.446 J-6.142
G03 X198.526 Y48.428 I-2.839 J7.846
G02 X217.180 Y57.728 I54.924 J-86.814
G03 X220.352 Y59.842 I-2.991 J7.925
G03 X234.597 Y76.892 I-134.671 J126.987
G02 X237.966 Y81.092 I53.980 J-39.850
G02 X240.408 Y89.680 I5.912 J2.960
G01 X241.148 Y90.164  
G02 X239.317 Y94.436 I5.437 J4.858
G02 X242.146 Y105.909 I18.607 J1.497
G02 X248.763 Y109.517 I6.550 J-4.141
G01 X248.861 Y110.031  
G03 X248.209 Y111.799 I-1.850 J0.322
G02 X251.545 Y123.442 I4.217 J5.091
G03 X252.861 Y124.541 I-2.140 J3.899
G03 X259.273 Y135.060 I-35.986 J29.153
G02 X258.988 Y142.248 I5.891 J3.833
G02 X262.414 Y147.845 I55.867 J-30.352
G02 X260.018 Y148.222 I1.536 J17.547
G03 X259.419 Y148.094 I-0.162 J-0.707
G02 X247.462 Y156.219 I-4.597 J6.095
G02 X248.877 Y159.773 I16.830 J-4.640
G02 X248.135 Y161.240 I5.482 J3.695
G02 X245.712 Y160.064 I-18.268 J34.579
G02 X241.310 Y157.575 I-5.208 J4.073
G02 X230.686 Y156.826 I-12.534 J102.022
G02 X225.950 Y158.411 I-0.139 J7.455
G03 X223.394 Y159.110 I-2.111 J-2.695
G02 X215.403 Y159.201 I-3.676 J28.052
G01 X215.108 Y159.253  
G03 X213.129 Y158.931 I-0.561 J-2.790
G01 X213.030 Y158.887  
G02 X192.029 Y160.111 I-8.884 J28.337
G02 X190.258 Y159.916 I-1.603 J6.414
G02 X179.089 Y165.674 I0.368 J14.424
G03 X169.513 Y171.682 I-12.618 J-9.477
G02 X163.306 Y179.694 I1.486 J7.562
G02 X160.720 Y180.897 I19.094 J44.447
G03 X160.258 Y177.593 I15.474 J-3.852
G02 X156.307 Y168.720 I-12.939 J0.445
G02 X142.881 Y171.714 I-5.724 J5.934
G03 X139.385 Y173.968 I-3.284 J-1.254
G02 X132.257 Y178.430 I-0.436 J7.227
G03 X130.325 Y180.278 I-3.059 J-1.264
G03 X128.330 Y180.083 I-0.793 J-2.192
G02 X119.054 Y180.976 I-4.035 J6.708
G02 X115.460 Y186.005 I9.617 J10.674
G02 X114.979 Y194.038 I10.974 J4.688
G03 X110.545 Y190.747 I2.391 J-7.853
G02 X98.668 Y187.795 I-7.562 J5.055
G02 X95.708 Y199.633 I3.916 J7.269
G02 X106.062 Y214.182 I232.605 J-154.575
G03 X105.982 Y214.297 I-0.058 J0.044
G02 X96.400 Y215.577 I-3.397 J11.072
G03 X95.692 Y215.613 I-0.386 J-0.611
G02 X88.280 Y213.618 I-8.641 J17.340
G03 X80.260 Y209.543 I0.722 J-11.350
G02 X70.217 Y208.861 I-5.347 J4.450
G02 X63.757 Y210.193 I-1.820 J7.504
G02 X56.556 Y203.479 I-6.610 J-0.129
G03 X50.971 Y203.542 I-3.192 J-35.578
G01 X50.870 Y203.507  
G03 X47.271 Y199.925 I7.697 J-11.333
G02 X47.836 Y189.237 I-4.832 J-5.615
G02 X52.208 Y180.146 I-1.991 J-6.554
G02 X49.515 Y174.891 I-29.157 J11.623
G02 X39.712 Y162.911 I-8.256 J-3.245
G01 X39.353 Y162.006  
G02 X41.831 Y161.291 I-1.205 J-8.823
G02 X43.767 Y160.076 I-3.538 J-7.788
G02 X54.280 Y155.524 I3.136 J-7.174
G02 X58.174 Y153.350 I-1.381 J-7.046
G03 X59.930 Y152.824 I1.322 J1.221
G02 X71.630 Y153.208 I6.744 J-27.096
G02 X81.323 Y152.431 I4.323 J-6.925
G02 X82.179 Y151.527 I-4.349 J-4.979
G01 X86.034 Y146.605  
G02 X87.131 Y140.532 I-5.205 J-4.076
G02 X89.375 Y129.809 I-10.844 J-7.866
G03 X89.827 Y125.798 I6.135 J-1.340
G02 X88.403 Y116.307 I-7.824 J-3.678
G02 X84.094 Y107.292 I-6.061 J-2.640
G02 X73.662 Y106.914 I-6.016 J21.894
G02 X68.349 Y112.991 I1.286 J6.485
G02 X68.341 Y116.158 I26.734 J1.652
G01 X67.815 Y116.031  
G02 X55.949 Y119.404 I-2.643 J13.263
G02 X52.857 Y128.565 I6.945 J7.446
G02 X50.308 Y130.260 I4.938 J10.187
G02 X45.557 Y126.968 I-9.684 J8.905
G02 X45.654 Y124.589 I-13.195 J-1.727
G02 X47.281 Y111.628 I-2.251 J-6.865
G03 X44.337 Y107.371 I3.574 J-5.618
G02 X35.915 Y102.405 I-6.472 J1.351
G02 X34.361 Y93.038 I-23.859 J-0.854
G02 X31.761 Y89.836 I-6.177 J2.357
G01 X32.162 Y89.235  
G02 X29.273 Y79.474 I-5.760 J-3.603
G03 X25.723 Y77.120 I6.045 J-12.965
G03 X18.443 Y70.394 I310.640 J-343.520
G02 X18.753 Y69.557 I-6.032 J-2.705
G02 X22.724 Y64.166 I-2.604 J-6.076
G03 X32.272 Y62.214 I21.598 J81.336
G02 X43.904 Y61.165 I5.129 J-8.137
G03 X44.836 Y60.546 I2.427 J2.646
G02 X45.915 Y49.148 I-2.752 J-6.011
G02 X42.773 Y46.298 I-5.777 J3.214
G02 X38.524 Y44.633 I-24.846 J57.149
G02 X30.611 Y41.985 I-98.668 J281.749
G02 X32.936 Y30.495 I-9.745 J-7.953
G02 X30.813 Y27.172 I-6.766 J1.982
G02 X30.784 Y17.982 I-4.768 J-4.580
G03 X29.645 Y13.321 I3.390 J-3.298
G01 Z20.000 F1200.0 M3
G03 X29.931 Y13.109 I0.285 J0.086
G03 X34.396 Y13.600 I-0.093 J21.400
G02 X41.076 Y12.046 I1.703 J-7.812
G02 X45.417 Y12.008 I1.971 J-22.657
G02 X54.457 Y12.093 I4.566 J-4.781
G03 X55.167 Y12.405 I-0.231 J1.491
G02 X69.616 Y17.965 I16.010 J-20.052
G02 X74.422 Y21.397 I5.841 J-3.097
G02 X75.005 Y22.442 I8.568 J-4.095
G03 X75.444 Y25.272 I-2.967 J1.910
G02 X75.252 Y31.355 I12.766 J3.449
G02 X81.781 Y36.823 I6.693 J-1.360
G02 X87.283 Y41.808 I7.060 J-2.263
G02 X98.768 Y32.856 I1.996 J-9.283
G03 X102.406 Y33.394 I-0.967 J19.103
G02 X117.030 Y27.846 I3.307 J-13.329
G03 X118.211 Y26.386 I9.955 J6.845
G02 X125.204 Y28.111 I4.965 J-5.091
G03 X133.366 Y30.053 I2.396 J8.055
G02 X132.570 Y31.254 I9.994 J7.494
G02 X129.305 Y32.267 I3.090 J15.731
G02 X125.187 Y38.567 I2.705 J6.264
G02 X131.160 Y50.705 I15.486 J-0.082
G02 X143.442 Y49.625 I5.560 J-7.143
G02 X150.219 Y50.414 I4.221 J-6.758
G02 X155.329 Y55.169 I8.236 J-3.727
G02 X157.298 Y59.084 I8.791 J-1.970
G02 X158.303 Y68.078 I17.183 J2.632
G02 X155.321 Y74.268 I8.355 J7.839
G03 X154.185 Y77.461 I-8.563 J-1.246
G02 X155.605 Y88.501 I7.727 J4.618
G02 X166.711 Y89.570 I6.213 J-6.327
G02 X170.752 Y86.159 I-12.533 J-18.948
G01 X171.185 Y86.648  F3000.0
G02 X184.874 Y85.834 I6.506 J-6.103
G02 X187.861 Y87.762 I10.604 J-13.144
G03 X189.099 Y88.548 I-3.416 J6.759
G02 X188.340 Y90.452 I6.574 J3.724
G02 X198.517 Y101.426 I8.682 J2.154
G02 X211.085 Y91.350 I-2.767 J-16.327
G02 X206.977 Y72.593 I-15.683 J-6.393
G03 X203.780 Y69.041 I19.083 J-20.384
G01 X203.917 Y68.949  
G02 X201.564 Y56.117 I-4.062 J-5.887
G02 X185.542 Y55.368 I-9.913 J40.295
G03 X186.495 Y46.748 I100.782 J6.781
G02 X192.627 Y47.423 I3.705 J-5.475
G02 X196.903 Y47.633 I2.446 J-6.142
G03 X198.526 Y48.428 I-2.839 J7.846
G02 X217.180 Y57.728 I54.924 J-86.814
G03 X220.352 Y59.842 I-2.991 J7.925
G03 X234.597 Y76.892 I-134.671 J126.987
G02 X237.966 Y81.092 I53.980 J-39.850
G02 X240.408 Y89.680 I5.912 J2.960
G01 X241.148 Y90.164  
G02 X239.317 Y94.436 I5.437 J4.858
G02 X242.146 Y105.909 I18.607 J1.497
G02 X248.763 Y109.517 I6.550 J-4.141
G01 X248.861 Y110.031  
G03 X248.209 Y111.799 I-1.850 J0.322
G02 X251.545 Y123.442 I4.217 J5.091
G03 X252.861 Y124.541 I-2.140 J3.899
G03 X259.273 Y135.060 I-35.986 J29.153
G02 X258.988 Y142.248 I5.891 J3.833
G02 X262.414 Y147.845 I55.867 J-30.352
G02 X260.018 Y148.222 I1.536 J17.547
G03 X259.419 Y148.094 I-0.162 J-0.707
G02 X247.462 Y156.219 I-4.597 J6.095
G02 X248.877 Y159.773 I16.830 J-4.640
G02 X248.135 Y161.240 I5.482 J3.695
G02 X245.712 Y160.064 I-18.268 J34.579
G02 X241.310 Y157.575 I-5.208 J4.073
G02 X230.686 Y156.826 I-12.534 J102.022
G02 X225.950 Y158.411 I-0.139 J7.455
G03 X223.394 Y159.110 I-2.111 J-2.695
G02 X215.403 Y159.201 I-3.676 J28.052
G01 X215.108 Y159.253  
G03 X213.129 Y158.931 I-0.561 J-2.790
G01 X213.030 Y158.887  
G02 X192.029 Y160.111 I-8.884 J28.337
G02 X190.258 Y159.916 I-1.603 J6.414
G02 X179.089 Y165.674 I0.368 J14.424
G03 X169.513 Y171.682 I-12.618 J-9.477
G02 X163.306 Y179.694 I1.486 J7.562
G02 X160.720 Y180.897 I19.094 J44.447
G03 X160.258 Y177.593 I15.474 J-3.852
G02 X156.307 Y168.720 I-12.939 J0.445
G02 X142.881 Y171.714 I-5.724 J5.934
G03 X139.385 Y173.968 I-3.284 J-1.254
G02 X132.257 Y178.430 I-0.436 J7.227
G03 X130.325 Y180.278 I-3.059 J-1.264
G03 X128.330 Y180.083 I-0.793 J-2.192
G02 X119.054 Y180.976 I-4.035 J6.708
G02 X115.460 Y186.005 I9.617 J10.674
G02 X114.979 Y194.038 I10.974 J4.688
G03 X110.545 Y190.747 I2.391 J-7.853
G02 X98.668 Y187.795 I-7.562 J5.055
G02 X95.708 Y199.633 I3.916 J7.269
G02 X106.062 Y214.182 I232.605 J-154.575
G03 X105.982 Y214.297 I-0.058 J0.044
G02 X96.400 Y215.577 I-3.397 J11.072
G03 X95.692 Y215.613 I-0.386 J-0.611
G02 X88.280 Y213.618 I-8.641 J17.340
G03 X80.260 Y209.543 I0.722 J-11.350
G02 X70.217 Y208.861 I-5.347 J4.450
G02 X63.757 Y210.193 I-1.820 J7.504
G02 X56.556 Y203.479 I-6.610 J-0.129
G03 X50.971 Y203.542 I-3.192 J-35.578
G01 X50.870 Y203.507  
G03 X47.271 Y199.925 I7.697 J-11.333
G02 X47.836 Y189.237 I-4.832 J-5.615
G02 X52.208 Y180.146 I-1.991 J-6.554
G02 X49.515 Y174.891 I-29.157 J11.623
G02 X39.712 Y162.911 I-8.256 J-3.245
G01 X39.353 Y162.006  
G02 X41.831 Y161.291 I-1.205 J-8.823
G02 X43.767 Y160.076 I-3.538 J-7.788
G02 X54.280 Y155.524 I3.136 J-7.174
G02 X58.174 Y153.350 I-1.381 J-7.046
G03 X59.930 Y152.824 I1.322 J1.221
G02 X71.630 Y153.208 I6.744 J-27.096
G02 X81.323 Y152.431 I4.323 J-6.925
G02 X82.179 Y151.527 I-4.349 J-4.979
G01 X86.034 Y146.605  
G02 X87.131 Y140.532 I-5.205 J-4.076
G02 X89.375 Y129.809 I-10.844 J-7.866
G03 X89.827 Y125.798 I6.135 J-1.340
G02 X88.403 Y116.307 I-7.824 J-3.678
G02 X84.094 Y107.292 I-6.061 J-2.640
G02 X73.662 Y106.914 I-6.016 J21.894
G02 X68.349 Y112.991 I1.286 J6.485
G02 X68.341 Y116.158 I26.734 J1.652
G01 X67.815 Y116.031  
G02 X55.949 Y119.404 I-2.643 J13.263
G02 X52.857 Y128.565 I6.945 J7.446
G02 X50.308 Y130.260 I4.938 J10.187
G02 X45.557 Y126.968 I-9.684 J8.905
G02 X45.654 Y124.589 I-13.195 J-1.727
G02 X47.281 Y111.628 I-2.251 J-6.865
G03 X44.337 Y107.371 I3.574 J-5.618
G02 X35.915 Y102.405 I-6.472 J1.351
G02 X34.361 Y93.038 I-23.859 J-0.854
G02 X31.761 Y89.836 I-6.177 J2.357
G01 X32.162 Y89.235  
G02 X29.273 Y79.474 I-5.760 J-3.603
G03 X25.723 Y77.120 I6.045 J-12.965
G03 X18.443 Y70.394 I310.640 J-343.520
G02 X18.753 Y69.557 I-6.032 J-2.705
G02 X22.724 Y64.166 I-2.604 J-6.076
G03 X32.272 Y62.214 I21.598 J81.336
G02 X43.904 Y61.165 I5.129 J-8.137
G03 X44.836 Y60.546 I2.427 J2.646
G02 X45.915 Y49.148 I-2.752 J-6.011
G02 X42.773 Y46.298 I-5.777 J3.214
G02 X38.524 Y44.633 I-24.846 J57.149
G02 X30.611 Y41.985 I-98.668 J281.749
G02 X32.936 Y30.495 I-9.745 J-7.953
G02 X30.813 Y27.172 I-6.766 J1.982
G02 X30.784 Y17.982 I-4.768 J-4.580
G03 X29.645 Y13.321 I3.390 J-3.298
G00 Z29.080
G00 X22.836 Y11.270  F6000.0
G01 Z22.000 F1200.0 M3
G02 X25.161 Y22.364 I11.337 J3.415
G02 X23.163 Y23.334 I4.221 J11.238
G02 X18.206 Y27.047 I16.326 J26.957
G02 X16.252 Y31.067 I4.100 J4.478
G02 X22.578 Y35.543 I4.505 J0.341
G02 X26.147 Y32.618 I-3.461 J-7.862
G03 X19.870 Y39.409 I-5.282 J1.414
G02 X17.706 Y46.428 I-0.673 J3.636
G02 X21.904 Y46.160 I1.841 J-4.175
G03 X23.002 Y45.878 I1.020 J1.691
G02 X23.774 Y45.759 I0.081 J-2.053
G02 X25.565 Y47.856 I2.547 J-0.363
G03 X36.174 Y51.345 I-85.709 J278.526
G03 X39.748 Y52.738 I-18.246 J52.103
G02 X41.079 Y54.487 I4.079 J-1.722
G02 X39.097 Y55.925 I5.252 J9.324
G03 X35.993 Y56.152 I-1.695 J-1.848
G02 X31.588 Y55.128 I-3.529 J5.198
G02 X17.624 Y58.228 I12.734 J90.373
G02 X15.304 Y62.951 I1.055 J3.450
G02 X11.989 Y66.541 I0.321 J3.622
G01 X11.980 Y66.881  F3000.0
G01 X10.949 Y66.350 
G02 X7.188 Y67.576 I-1.253 J2.540
G02 X8.320 Y71.366 I2.509 J1.315
G03 X11.959 Y74.045 I-8.682 J15.609
G02 X20.954 Y82.394 I324.404 J-340.444
G02 X25.933 Y85.760 I14.364 J-15.884
G03 X23.075 Y87.722 I-4.189 J-3.041
G03 X22.445 Y87.449 I-0.142 J-0.535
G02 X16.586 Y85.668 I-3.828 J2.065
G02 X12.888 Y88.312 I7.893 J14.946
G02 X12.814 Y91.997 I1.770 J1.879
G03 X16.180 Y98.135 I-9.267 J9.074
G02 X21.486 Y101.455 I4.319 J-1.004
G02 X24.929 Y96.942 I-0.987 J-4.323
G03 X27.866 Y95.979 I7.131 J16.792
G03 X28.496 Y104.826 I-15.810 J5.572
G02 X37.613 Y109.785 I5.330 J1.062
G02 X43.465 Y117.628 I13.242 J-3.775
G03 X43.388 Y117.837 I-0.061 J0.096
G02 X38.338 Y123.602 I-0.622 J4.550
G03 X38.327 Y126.921 I-5.975 J1.640
G02 X42.050 Y133.290 I4.932 J1.389
G03 X45.576 Y135.697 I-1.426 J5.874
G02 X54.555 Y136.064 I4.629 J-3.241
G03 X56.883 Y134.642 I3.240 J2.688
G02 X60.105 Y128.138 I-1.009 J-4.550
G03 X60.799 Y124.605 I2.788 J-1.287
G03 X65.959 Y122.930 I4.374 J4.690
G02 X68.547 Y127.623 I3.261 J1.261
G02 X72.688 Y123.743 I0.674 J-3.431
G03 X73.322 Y122.213 I1.650 J-0.213
G02 X75.543 Y116.935 I-3.549 J-4.600
G03 X75.427 Y113.818 I19.540 J-2.293
G03 X81.508 Y113.973 I2.651 J15.367
G02 X82.900 Y120.874 I4.419 J2.699
G03 X83.391 Y122.772 I-0.897 J1.245
G02 X82.427 Y131.326 I12.118 J5.697
G03 X81.137 Y136.664 I-6.140 J1.341
G02 X80.251 Y142.456 I4.414 J3.639
G01 X76.612 Y147.103  
G03 X75.289 Y147.099 I-0.659 J-0.820
G02 X71.040 Y146.077 I-3.189 J3.917
G03 X61.648 Y145.924 I-4.366 J-20.349
G02 X52.950 Y148.525 I-2.152 J8.646
G03 X52.832 Y148.489 I-0.050 J-0.046
G02 X49.741 Y143.399 I-7.613 J1.140
G02 X44.812 Y145.985 I-1.824 J2.513
G02 X47.429 Y152.412 I9.761 J-0.228
G03 X46.550 Y153.527 I-0.526 J0.490
G02 X43.623 Y152.752 I-2.952 J5.231
G03 X42.955 Y152.528 I0.005 J-1.124
G02 X39.709 Y153.779 I-1.230 J1.645
G03 X38.890 Y154.816 I-1.416 J-0.277
G03 X37.324 Y154.777 I-0.742 J-1.633
G02 X33.688 Y154.268 I-2.541 J4.917
G02 X30.910 Y158.538 I0.707 J3.498
G02 X34.969 Y169.495 I41.829 J-9.265
G02 X40.065 Y170.353 I2.880 J-1.542
G03 X42.869 Y172.358 I1.194 J1.293
G02 X43.368 Y178.479 I5.879 J2.601
G03 X45.483 Y182.485 I-20.317 J13.290
G02 X42.627 Y194.082 I1.366 J6.486
G03 X42.411 Y194.605 I-0.189 J0.229
G02 X38.929 Y199.063 I-0.312 J3.345
G02 X46.875 Y209.390 I19.638 J-6.889
G02 X50.495 Y210.637 I4.110 J-6.052
G02 X56.117 Y210.645 I2.869 J-42.736
G02 X55.772 Y211.362 I4.802 J2.757
G03 X54.058 Y211.864 I-1.053 J-0.417
G02 X47.821 Y212.723 I-2.667 J3.711
G02 X48.361 Y218.996 I3.570 J2.853
G02 X53.522 Y221.200 I5.890 J-6.646
G03 X55.136 Y221.424 I-1.208 J14.665
G02 X57.734 Y225.055 I3.785 J0.037
G02 X65.594 Y223.882 I2.767 J-8.376
G02 X67.826 Y216.581 I-3.601 J-5.093
G03 X68.765 Y215.877 I0.571 J-0.216
G02 X72.393 Y216.691 I2.712 J-3.597
G02 X74.988 Y214.321 I-0.700 J-3.373
G02 X87.829 Y220.715 I14.014 J-12.053
G03 X92.520 Y221.978 I-0.778 J12.238
G02 X100.198 Y221.590 I3.494 J-7.012
G03 X103.896 Y221.095 I2.387 J3.779
G02 X111.721 Y209.876 I2.107 J-6.869
G03 X101.630 Y195.697 I216.592 J-164.818
G03 X102.041 Y194.055 I0.954 J-0.634
G03 X104.633 Y194.699 I0.942 J1.748
G02 X114.235 Y201.181 I12.736 J-8.514
G02 X118.974 Y201.150 I2.298 J-10.991
G03 X122.046 Y201.079 I1.716 J7.701
G02 X124.160 Y194.946 I0.565 J-3.236
G03 X121.999 Y188.799 I2.274 J-4.252
G03 X123.815 Y186.259 I6.673 J2.851
G03 X124.665 Y186.177 I0.480 J0.533
G02 X132.744 Y186.965 I4.867 J-8.091
G02 X138.829 Y181.146 I-3.546 J-9.799
G03 X138.957 Y181.066 I0.120 J0.049
G02 X149.524 Y174.250 I0.640 J-10.607
G03 X151.370 Y173.838 I1.059 J0.404
G03 X153.151 Y177.838 I-4.052 J4.200
G02 X155.563 Y187.341 I23.043 J-0.793
G02 X160.948 Y188.892 I3.406 J-1.700
G03 X167.030 Y185.847 I21.452 J35.249
G02 X170.419 Y179.376 I-2.095 J-5.221
G03 X170.884 Y178.659 I0.580 J-0.132
G02 X184.775 Y169.945 I-4.413 J-22.462
G03 X190.364 Y167.027 I5.851 J4.395
G03 X194.060 Y169.078 I-2.615 J9.068
G02 X190.711 Y172.755 I22.372 J23.740
G02 X190.614 Y172.969 I0.394 J0.308
G03 X182.123 Y178.963 I-7.350 J-1.400
G02 X181.772 Y179.040 I-0.076 J0.494
G02 X177.452 Y187.278 I5.265 J8.013
G02 X177.565 Y187.583 I0.500 J-0.012
G03 X178.508 Y189.124 I-5.120 J4.190
G02 X183.944 Y200.576 I4.889 J4.695
G02 X190.738 Y206.643 I4.801 J1.461
G03 X192.227 Y208.011 I0.440 J1.016
G02 X197.381 Y210.691 I2.788 J0.935
G02 X199.544 Y204.181 I-8.917 J-6.578
G03 X199.906 Y203.947 I0.258 J0.002
G02 X206.896 Y203.696 I3.391 J-3.018
G02 X206.995 Y203.322 I-0.396 J-0.305
G03 X207.130 Y203.124 I0.176 J-0.025
G02 X218.352 Y196.642 I-5.214 J-21.981
G03 X219.488 Y196.942 I0.487 J0.459
G03 X217.785 Y200.271 I-2.777 J0.680
G02 X215.510 Y207.165 I1.789 J4.413
G03 X215.199 Y208.138 I-0.576 J0.352
G03 X207.804 Y209.297 I-5.988 J-14.021
G02 X205.599 Y215.254 I-0.304 J3.274
G03 X211.224 Y219.377 I-127.186 J179.404
G02 X218.295 Y220.991 I5.324 J-7.026
G02 X225.265 Y215.172 I-1.890 J-9.348
G03 X228.451 Y215.432 I1.553 J0.619
G02 X232.453 Y215.482 I2.006 J-0.441
G01 X232.613 Y214.831  
G01 X235.992 Y215.160 
G02 X241.494 Y213.549 I0.789 J-7.504
G02 X243.985 Y209.748 I-4.566 J-5.709
G02 X246.327 Y197.092 I-76.685 J-20.736
G02 X244.452 Y190.501 I-9.210 J-0.942
G02 X233.032 Y179.012 I-51.012 J39.283
G02 X229.149 Y179.009 I-1.943 J2.492
G03 X226.755 Y178.628 I-1.019 J-1.311
G02 X221.651 Y171.866 I-68.124 J46.112
G02 X221.427 Y171.714 I-0.383 J0.321
G02 X211.645 Y169.504 I-15.632 J46.442
G03 X210.466 Y165.546 I8.769 J-4.767
G02 X216.498 Y166.227 I4.081 J-9.082
G03 X222.470 Y166.161 I3.220 J20.935
G02 X230.335 Y164.009 I1.369 J-10.445
G03 X230.554 Y163.935 I0.213 J0.271
G03 X240.083 Y164.589 I-1.778 J95.662
G02 X241.322 Y165.943 I1.975 J-0.565
G03 X248.142 Y169.554 I-11.455 J29.876
G02 X255.147 Y164.627 I2.603 J-3.742
G01 X255.007 Y164.078  
G02 X256.157 Y163.812 I0.014 J-2.554
G02 X256.967 Y158.886 I-1.367 J-2.754
G03 X254.318 Y154.329 I7.325 J-7.307
G03 X255.137 Y153.772 I0.505 J-0.139
G02 X261.606 Y155.154 I4.719 J-6.257
G03 X265.473 Y155.000 I2.345 J10.238
G03 X268.942 Y156.218 I-1.395 J9.521
G02 X271.999 Y154.824 I1.038 J-1.772
G02 X272.513 Y150.552 I-32.096 J-6.026
G02 X271.799 Y148.431 I-3.022 J-0.162
G03 X265.264 Y138.902 I43.057 J-36.534
G02 X266.111 Y132.959 I-4.532 J-3.678
G02 X258.386 Y120.065 I-49.236 J20.735
G02 X254.486 Y116.959 I-8.981 J7.276
G02 X253.492 Y116.581 I-2.557 J5.225
G02 X255.867 Y108.811 I-6.482 J-6.228
G02 X254.466 Y103.986 I-22.520 J3.919
G02 X249.044 Y102.303 I-3.411 J1.412
