%
( Tjorncutout ) ( File created: Sunday December 08 2024 - 11:33 AM)
( for LinuxCNC )
( Material Size) ( X= 1200.000, Y= 230.000, Z= 24.000)
G90 (Incremental distance mode)
G17 G21 (Active Plane: XY)(Metric Mode)
G40 G49 G80(Tool Diameter, Length compensation & canned cycles OFF)
G64 P0.05 Q0.05(Path Blending)
T2 M06 (TOOL USE End Mill 4 mm)
G90 (absolute distance mode)
G54 (Coordinate System)
S18000M3
G00 Z44.320
G4 P6
( Tjorncutout )
G00 X134.154 Y39.923 Z29.080 F7000.0
G01 Z24.000 F1200.0 M3
G01 Z23.918 
G01 Z23.837 
G01 Z23.755 
G01 Z23.673 
G01 Z23.591 
G01 Z23.510 
G01 Z23.428 
G01 Z23.346 
G01 Z23.288 
G01 Z23.229 
G01 Z23.170 
G01 Z23.112 
G01 Z23.053 
G01 Z22.995 
G01 Z22.936 
G01 Z22.877 
G01 Z22.819 
G01 Z22.760 
G01 Z22.701 
G01 Z22.643 
G01 Z22.584 
G01 Z22.519 
G01 Z22.455 
G01 Z22.390 
G01 Z22.325 
G01 Z22.260 
G01 Z22.195 
G01 Z22.130 
G01 Z22.066 
G01 Z22.001 
G01 Z21.936 
G01 Z21.871 
G01 Z21.806 
G01 Z21.755 
G01 Z21.703 
G01 Z21.652 
G01 Z21.600 
G01 Z21.548 
G01 Z21.497 
G01 Z21.445 
G01 Z21.394 
G01 Z21.329 
G01 Z21.264 
G01 Z21.199 
G01 Z21.134 
G01 Z21.070 
G01 Z21.005 
G01 Z20.940 
G01 Z20.875 
G01 Z20.810 
G01 Z20.745 
G01 Z20.681 
G01 Z20.616 
G01 Z20.557 
G01 Z20.499 
G01 Z20.440 
G01 Z20.381 
G01 Z20.323 
G01 Z20.264 
G01 Z20.205 
G01 Z20.147 
G01 Z20.088 
G01 Z20.030 
G01 Z19.971 
G01 Z19.912 
G01 Z19.854 
G01 Z19.772 
G01 Z19.690 
G01 Z19.609 
G01 Z19.527 
G01 Z19.445 
G01 Z19.363 
G01 Z19.282 
G01 Z19.200 
G03 X135.939 Y39.770 I1.505 J7.061
G02 X137.947 Y39.278 I0.145 J-3.751
G02 X137.614 Y41.369 I4.140 J1.730
G03 X136.910 Y43.711 I-3.346 J0.270
G03 X136.573 Y43.753 I-0.189 J-0.148
G03 X134.154 Y39.923 I4.101 J-5.267
G01 Z19.118 F1200.0 M3
G01 Z19.037 
G01 Z18.955 
G01 Z18.873 
G01 Z18.791 
G01 Z18.710 
G01 Z18.628 
G01 Z18.546 
G01 Z18.488 
G01 Z18.429 
G01 Z18.370 
G01 Z18.312 
G01 Z18.253 
G01 Z18.195 
G01 Z18.136 
G01 Z18.077 
G01 Z18.019 
G01 Z17.960 
G01 Z17.901 
G01 Z17.843 
G01 Z17.784 
G01 Z17.719 
G01 Z17.655 
G01 Z17.590 
G01 Z17.525 
G01 Z17.460 
G01 Z17.395 
G01 Z17.330 
G01 Z17.266 
G01 Z17.201 
G01 Z17.136 
G01 Z17.071 
G01 Z17.006 
G01 Z16.955 
G01 Z16.903 
G01 Z16.852 
G01 Z16.800 
G01 Z16.748 
G01 Z16.697 
G01 Z16.645 
G01 Z16.594 
G01 Z16.529 
G01 Z16.464 
G01 Z16.399 
G01 Z16.334 
G01 Z16.270 
G01 Z16.205 
G01 Z16.140 
G01 Z16.075 
G01 Z16.010 
G01 Z15.945 
G01 Z15.881 
G01 Z15.816 
G01 Z15.757 
G01 Z15.699 
G01 Z15.640 
G01 Z15.581 
G01 Z15.523 
G01 Z15.464 
G01 Z15.405 
G01 Z15.347 
G01 Z15.288 
G01 Z15.230 
G01 Z15.171 
G01 Z15.112 
G01 Z15.054 
G01 Z14.972 
G01 Z14.890 
G01 Z14.809 
G01 Z14.727 
G01 Z14.645 
G01 Z14.563 
G01 Z14.482 
G01 Z14.400 
G03 X135.939 Y39.770 I1.505 J7.061
G02 X137.947 Y39.278 I0.145 J-3.751
G02 X137.614 Y41.369 I4.140 J1.730
G03 X136.910 Y43.711 I-3.346 J0.270
G03 X136.573 Y43.753 I-0.189 J-0.148
G03 X134.154 Y39.923 I4.101 J-5.267
G01 Z14.318 F1200.0 M3
G01 Z14.237 
G01 Z14.155 
G01 Z14.073 
G01 Z13.991 
G01 Z13.910 
G01 Z13.828 
G01 Z13.746 
G01 Z13.688 
G01 Z13.629 
G01 Z13.570 
G01 Z13.512 
G01 Z13.453 
G01 Z13.395 
G01 Z13.336 
G01 Z13.277 
G01 Z13.219 
G01 Z13.160 
G01 Z13.101 
G01 Z13.043 
G01 Z12.984 
G01 Z12.919 
G01 Z12.855 
G01 Z12.790 
G01 Z12.725 
G01 Z12.660 
G01 Z12.595 
G01 Z12.530 
G01 Z12.466 
G01 Z12.401 
G01 Z12.336 
G01 Z12.271 
G01 Z12.206 
G01 Z12.155 
G01 Z12.103 
G01 Z12.052 
G01 Z12.000 
G01 Z11.948 
G01 Z11.897 
G01 Z11.845 
G01 Z11.794 
G01 Z11.729 
G01 Z11.664 
G01 Z11.599 
G01 Z11.534 
G01 Z11.470 
G01 Z11.405 
G01 Z11.340 
G01 Z11.275 
G01 Z11.210 
G01 Z11.145 
G01 Z11.081 
G01 Z11.016 
G01 Z10.957 
G01 Z10.899 
G01 Z10.840 
G01 Z10.781 
G01 Z10.723 
G01 Z10.664 
G01 Z10.605 
G01 Z10.547 
G01 Z10.488 
G01 Z10.430 
G01 Z10.371 
G01 Z10.312 
G01 Z10.254 
G01 Z10.172 
G01 Z10.090 
G01 Z10.009 
G01 Z9.927 
G01 Z9.845 
G01 Z9.763 
G01 Z9.682 
G01 Z9.600 
G03 X135.939 Y39.770 I1.505 J7.061
G02 X137.947 Y39.278 I0.145 J-3.751
G02 X137.614 Y41.369 I4.140 J1.730
G03 X136.910 Y43.711 I-3.346 J0.270
G03 X136.573 Y43.753 I-0.189 J-0.148
G03 X134.154 Y39.923 I4.101 J-5.267
G01 Z9.518 F1200.0 M3
G01 Z9.437 
G01 Z9.355 
G01 Z9.273 
G01 Z9.191 
G01 Z9.110 
G01 Z9.028 
G01 Z8.946 
G01 Z8.888 
G01 Z8.829 
G01 Z8.770 
G01 Z8.712 
G01 Z8.653 
G01 Z8.595 
G01 Z8.536 
G01 Z8.477 
G01 Z8.419 
G01 Z8.360 
G01 Z8.301 
G01 Z8.243 
G01 Z8.184 
G01 Z8.119 
G01 Z8.055 
G01 Z7.990 
G01 Z7.925 
G01 Z7.860 
G01 Z7.795 
G01 Z7.730 
G01 Z7.666 
G01 Z7.601 
G01 Z7.536 
G01 Z7.471 
G01 Z7.406 
G01 Z7.355 
G01 Z7.303 
G01 Z7.252 
G01 Z7.200 
G01 Z7.148 
G01 Z7.097 
G01 Z7.045 
G01 Z6.994 
G01 Z6.929 
G01 Z6.864 
G01 Z6.799 
G01 Z6.734 
G01 Z6.670 
G01 Z6.605 
G01 Z6.540 
G01 Z6.475 
G01 Z6.410 
G01 Z6.345 
G01 Z6.281 
G01 Z6.216 
G01 Z6.157 
G01 Z6.099 
G01 Z6.040 
G01 Z5.981 
G01 Z5.923 
G01 Z5.864 
G01 Z5.805 
G01 Z5.747 
G01 Z5.688 
G01 Z5.630 
G01 Z5.571 
G01 Z5.512 
G01 Z5.454 
G01 Z5.372 
G01 Z5.290 
G01 Z5.209 
G01 Z5.127 
G01 Z5.045 
G01 Z4.963 
G01 Z4.882 
G01 Z4.800 
G03 X135.939 Y39.770 I1.505 J7.061
G02 X137.947 Y39.278 I0.145 J-3.751
G02 X137.614 Y41.369 I4.140 J1.730
G03 X136.910 Y43.711 I-3.346 J0.270
G03 X136.573 Y43.753 I-0.189 J-0.148
G03 X134.154 Y39.923 I4.101 J-5.267
G01 Z4.718 F1200.0 M3
G01 Z4.637 
G01 Z4.555 
G01 Z4.473 
G01 Z4.391 
G01 Z4.310 
G01 Z4.228 
G01 Z4.146 
G01 Z4.088 
G01 Z4.029 
G01 Z3.970 
G01 Z3.912 
G01 Z3.853 
G01 Z3.795 
G01 Z3.736 
G01 Z3.677 
G01 Z3.619 
G01 Z3.560 
G01 Z3.501 
G01 Z3.443 
G01 Z3.384 
G01 Z3.319 
G01 Z3.255 
G01 Z3.190 
G01 Z3.125 
G01 Z3.060 
G01 Z2.995 
G01 Z2.930 
G01 Z2.866 
G01 Z2.801 
G01 Z2.736 
G01 Z2.671 
G01 Z2.606 
G01 Z2.555 
G01 Z2.503 
G01 Z2.452 
G01 Z2.400 
G01 Z2.348 
G01 Z2.297 
G01 Z2.245 
G01 Z2.194 
G01 Z2.129 
G01 Z2.064 
G01 Z1.999 
G01 Z1.934 
G01 Z1.870 
G01 Z1.805 
G01 Z1.740 
G01 Z1.675 
G01 Z1.610 
G01 Z1.545 
G01 Z1.481 
G01 Z1.416 
G01 Z1.357 
G01 Z1.299 
G01 Z1.240 
G01 Z1.181 
G01 Z1.123 
G01 Z1.064 
G01 Z1.005 
G01 Z0.947 
G01 Z0.888 
G01 Z0.830 
G01 Z0.771 
G01 Z0.712 
G01 Z0.654 
G01 Z0.572 
G01 Z0.490 
G01 Z0.409 
G01 Z0.327 
G01 Z0.245 
G01 Z0.163 
G01 Z0.082 
G01 Z0.000 
G03 X135.939 Y39.770 I1.505 J7.061
G02 X137.947 Y39.278 I0.145 J-3.751
G02 X137.614 Y41.369 I4.140 J1.730
G03 X136.910 Y43.711 I-3.346 J0.270
G03 X136.573 Y43.753 I-0.189 J-0.148
G03 X134.154 Y39.923 I4.101 J-5.267
G00 Z29.080
G00 X139.629 Y37.254  F7000.0
G01 Z24.000 F1200.0 M3
G01 Z23.825 
G01 Z23.763 
G01 Z23.701 
G01 Z23.640 
G01 Z23.578 
G01 Z23.516 
G01 Z23.454 
G01 Z23.392 
G01 Z23.331 
G01 Z23.269 
G01 Z23.207 
G01 Z23.112 
G01 Z23.018 
G01 Z22.923 
G01 Z22.829 
G01 Z22.734 
G01 Z22.640 
G01 Z22.545 
G01 Z22.451 
G01 Z22.356 
G01 Z22.262 
G01 Z22.167 
G01 Z22.073 
G01 Z21.978 
G01 Z21.884 
G01 Z21.789 
G01 Z21.695 
G01 Z21.600 
G01 Z21.505 
G01 Z21.411 
G01 Z21.316 
G01 Z21.222 
G01 Z21.127 
G01 Z21.033 
G01 Z20.938 
G01 Z20.844 
G01 Z20.749 
G01 Z20.655 
G01 Z20.560 
G01 Z20.466 
G01 Z20.371 
G01 Z20.277 
G01 Z20.182 
G01 Z20.088 
G01 Z19.993 
G01 Z19.931 
G01 Z19.869 
G01 Z19.808 
G01 Z19.746 
G01 Z19.684 
G01 Z19.622 
G01 Z19.560 
G01 Z19.499 
G01 Z19.437 
G01 Z19.375 
G01 Z19.200 
G01 X139.758 Y36.790  F3500.0
G03 X140.472 Y35.266 I3.602 J0.757
G02 X139.855 Y24.077 I-6.643 J-5.246
G02 X124.783 Y19.183 I-12.255 J12.089
G02 X117.645 Y16.003 I-4.877 J1.345
G02 X109.769 Y22.854 I9.340 J18.689
G03 X104.528 Y24.842 I-4.056 J-2.789
G02 X93.121 Y24.415 I-6.728 J27.116
G02 X89.256 Y27.673 I0.834 J4.912
G02 X85.281 Y25.965 I-4.192 J4.277
G02 X84.264 Y26.024 I-0.196 J5.407
G02 X82.414 Y17.673 I-12.226 J-1.673
G03 X82.305 Y17.292 I0.576 J-0.371
G02 X76.782 Y12.116 I-5.119 J-0.073
G02 X71.467 Y9.199 I-5.210 J3.191
G03 X60.665 Y5.519 I-0.290 J-16.845
G02 X54.292 Y3.264 I-6.439 J8.065
G02 X50.685 Y4.072 I-0.052 J8.222
G02 X46.321 Y2.930 I-3.245 J3.489
G03 X41.320 Y3.213 I-3.273 J-13.541
G02 X35.851 Y4.902 I-0.863 J6.907
G02 X29.969 Y4.298 I-6.012 J29.607
G02 X21.208 Y10.780 I-0.039 J9.108
G02 X22.591 Y21.698 I12.965 J3.905
G01 X22.282 Y21.880  
G02 X17.058 Y25.794 I17.207 J28.411
G02 X14.557 Y30.939 I5.248 J5.732
G02 X22.734 Y37.304 I6.201 J0.469
G03 X20.180 Y37.737 I-1.868 J-3.272
G02 X17.020 Y47.984 I-0.982 J5.308
G02 X22.700 Y47.665 I2.527 J-5.730
G02 X25.065 Y49.481 I3.622 J-2.268
G03 X35.612 Y52.949 I-85.209 J276.901
G03 X38.509 Y54.059 I-17.684 J50.498
G01 X38.560 Y54.146  
G01 X37.948 Y54.672 
G03 X36.948 Y54.745 I-0.546 J-0.595
G02 X31.351 Y53.445 I-4.484 J6.605
G02 X17.127 Y56.602 I12.971 J92.057
G02 X13.372 Y61.735 I1.553 J5.075
G02 X10.719 Y64.475 I2.253 J4.837
G02 X5.682 Y66.786 I-1.022 J4.416
G02 X7.493 Y72.852 I4.014 J2.104
G03 X10.786 Y75.275 I-7.855 J14.123
G02 X19.714 Y83.565 I325.577 J-341.675
G02 X15.792 Y84.165 I-1.097 J5.949
G02 X11.722 Y87.075 I8.687 J16.449
G02 X11.599 Y93.186 I2.936 J3.116
G03 X14.524 Y98.520 I-8.053 J7.884
G02 X21.864 Y103.112 I5.975 J-1.388
G02 X26.551 Y98.135 I-1.365 J-5.981
G01 X26.713 Y98.078  
G03 X26.829 Y104.494 I-14.657 J3.473
G02 X36.763 Y112.390 I6.997 J1.394
G02 X39.804 Y116.835 I14.092 J-6.380
G02 X36.699 Y124.052 I2.962 J5.551
G03 X36.690 Y126.460 I-4.336 J1.190
G02 X41.649 Y134.942 I6.569 J1.850
G03 X44.183 Y136.672 I-1.025 J4.222
G02 X55.863 Y137.149 I6.022 J-4.216
G03 X57.251 Y136.302 I1.931 J1.602
G02 X61.649 Y127.425 I-1.377 J-6.210
G03 X61.959 Y125.848 I1.245 J-0.575
G03 X64.050 Y124.717 I3.214 J3.446
G02 X68.219 Y129.291 I5.170 J-0.526
G02 X74.377 Y123.546 I1.001 J-5.100
G02 X77.232 Y116.737 I-4.604 J-5.934
G03 X77.122 Y115.324 I17.851 J-2.095
G03 X79.180 Y115.335 I0.955 J13.862
G02 X81.796 Y122.172 I6.747 J1.338
G02 X80.766 Y131.689 I13.714 J6.297
G03 X79.825 Y135.583 I-4.479 J0.978
G02 X78.356 Y142.119 I5.726 J4.720
G01 X75.807 Y145.374  
G02 X70.683 Y144.415 I-3.708 J5.642
G03 X62.058 Y144.274 I-4.009 J-18.686
G02 X53.737 Y145.659 I-2.563 J10.296
G02 X50.739 Y142.023 I-8.519 J3.970
G02 X43.112 Y146.025 I-2.823 J3.889
G02 X44.429 Y151.097 I11.460 J-0.268
G01 X43.815 Y151.055  
G02 X38.085 Y153.256 I-2.090 J3.119
G02 X33.351 Y152.602 I-3.302 J6.437
G02 X29.250 Y158.906 I1.043 J5.164
G02 X33.470 Y170.298 I43.488 J-9.632
G02 X41.219 Y171.602 I4.378 J-2.344
G03 X41.314 Y171.670 I0.041 J0.044
G02 X41.945 Y179.409 I7.434 J3.289
G03 X43.160 Y181.504 I-18.894 J12.360
G02 X39.817 Y193.435 I3.689 J7.467
G02 X37.325 Y199.625 I2.282 J4.516
G02 X45.920 Y210.796 I21.242 J-7.452
G02 X46.789 Y211.318 I5.065 J-7.458
G01 X46.493 Y211.662  
G02 X47.233 Y220.268 I4.899 J3.914
G02 X53.382 Y222.895 I7.018 J-7.919
G01 X53.633 Y222.918  
G02 X57.200 Y226.669 I5.288 J-1.457
G02 X66.575 Y225.270 I3.300 J-9.990
G02 X69.914 Y218.285 I-4.583 J-6.481
G02 X72.738 Y218.356 I1.563 J-6.004
G02 X75.246 Y217.039 I-1.046 J-5.038
G02 X87.721 Y222.412 I13.756 J-14.770
G03 X91.762 Y223.499 I-0.671 J10.542
G02 X101.105 Y223.027 I4.253 J-8.533
G03 X103.397 Y222.721 I1.479 J2.342
G02 X113.074 Y208.847 I2.606 J-8.494
G03 X105.497 Y198.381 I215.239 J-163.788
G02 X113.887 Y202.845 I11.872 J-12.195
G02 X119.344 Y202.809 I2.645 J-12.655
G03 X121.754 Y202.753 I1.346 J6.042
G02 X124.961 Y193.446 I0.857 J-4.911
G03 X123.562 Y189.467 I1.472 J-2.753
G03 X124.471 Y188.013 I5.110 J2.183
G02 X133.323 Y188.563 I5.060 J-9.926
G02 X139.940 Y182.781 I-4.124 J-11.398
G02 X150.744 Y175.721 I-0.343 J-12.321
G03 X151.452 Y177.896 I-3.426 J2.318
G02 X154.042 Y188.100 I24.742 J-0.851
G02 X161.831 Y190.345 I4.927 J-2.459
G03 X167.663 Y187.425 I20.569 J33.797
G02 X172.241 Y180.102 I-2.729 J-6.798
G02 X186.134 Y170.966 I-5.770 J-23.905
G03 X190.157 Y168.742 I4.491 J3.374
G03 X191.441 Y169.295 I-2.408 J7.353
G02 X189.371 Y171.710 I24.991 J23.523
G02 X188.944 Y172.651 I1.735 J1.353
G03 X182.383 Y177.283 I-5.680 J-1.082
G02 X180.839 Y177.619 I-0.336 J2.174
G02 X175.753 Y187.318 I6.198 J9.434
G02 X176.250 Y188.660 I2.199 J-0.052
G01 X176.463 Y188.940  
G02 X182.029 Y202.187 I6.934 J4.879
G02 X190.391 Y208.550 I6.717 J-0.150
G02 X198.749 Y211.700 I4.624 J0.395
G02 X200.976 Y206.721 I-10.285 J-7.587
G02 X208.244 Y204.732 I2.321 J-5.792
G01 X208.361 Y204.563  
G02 X213.494 Y202.497 I-6.445 J-23.420
G02 X213.526 Y206.957 I6.081 J2.187
G03 X207.961 Y207.605 I-4.314 J-12.841
G02 X204.616 Y216.641 I-0.460 J4.967
G03 X210.197 Y220.732 I-126.203 J178.017
G02 X218.632 Y222.657 I6.350 J-8.381
G02 X226.811 Y215.883 I-2.227 J-11.015
G02 X233.825 Y216.651 I3.647 J-0.892
G01 X235.814 Y216.851  
G02 X242.555 Y214.877 I0.967 J-9.195
G02 X245.626 Y210.192 I-5.628 J-7.037
G02 X248.018 Y197.265 I-78.326 J-21.180
G02 X245.799 Y189.464 I-10.901 J-1.115
G02 X234.077 Y177.671 I-52.359 J40.321
G02 X228.139 Y177.641 I-2.989 J3.833
G02 X222.953 Y170.773 I-69.508 J47.099
G02 X221.970 Y170.102 I-1.685 J1.414
G02 X213.871 Y168.101 I-16.174 J48.053
G02 X216.792 Y167.902 I0.677 J-11.637
G03 X222.249 Y167.846 I2.926 J19.260
G02 X230.987 Y165.645 I1.590 J-12.130
G03 X238.980 Y166.175 I-2.211 J93.952
G02 X240.714 Y167.530 I3.078 J-2.150
G03 X247.171 Y170.950 I-10.846 J28.288
G02 X256.983 Y165.299 I3.574 J-5.137
G02 X258.171 Y157.685 I-2.193 J-4.242
G03 X257.334 Y156.712 I6.122 J-6.106
G02 X261.985 Y156.811 I2.522 J-9.197
G03 X265.226 Y156.682 I1.965 J8.581
G03 X268.083 Y157.685 I-1.148 J7.839
G02 X273.670 Y155.138 I1.898 J-3.239
G02 X274.210 Y150.643 I-33.767 J-6.340
G02 X273.095 Y147.331 I-4.720 J-0.254
G03 X267.259 Y138.992 I41.761 J-35.435
G02 X267.678 Y132.299 I-6.528 J-3.767
G02 X259.707 Y118.995 I-50.802 J21.395
G02 X256.137 Y115.918 I-10.302 J8.346
G02 X257.542 Y108.520 I-9.126 J-5.566
G02 X256.037 Y103.335 I-24.195 J4.210
G02 X249.121 Y100.365 I-4.981 J2.063
G03 X248.071 Y96.177 I8.804 J-4.432
G03 X249.471 Y96.195 I0.647 J4.124
G02 X253.355 Y90.551 I0.677 J-3.693
G02 X247.507 Y83.918 I-21.577 J13.129
G02 X246.819 Y77.704 I-4.332 J-2.665
G03 X241.685 Y71.659 I41.758 J-40.662
G02 X226.763 Y53.797 I-156.005 J115.170
G02 X220.291 Y49.484 I-12.574 J11.856
G03 X203.237 Y40.982 I33.160 J-87.870
G02 X197.338 Y38.640 I-9.172 J14.497
G02 X195.603 Y38.651 I-0.841 J4.325
G02 X194.734 Y38.139 I-2.969 J4.049
G02 X189.824 Y38.539 I-2.100 J4.561
G02 X177.826 Y45.151 I-3.437 J7.953
G02 X176.621 Y57.050 I108.497 J16.998
G02 X185.166 Y64.376 I7.129 J0.331
G03 X192.349 Y63.734 I6.484 J32.036
G02 X192.328 Y66.754 I3.427 J1.533
G02 X200.955 Y79.026 I33.732 J-14.544
G03 X202.926 Y88.024 I-5.553 J5.931
G03 X197.343 Y92.682 I-7.175 J-2.925
G02 X198.438 Y85.999 I-3.344 J-3.979
G02 X191.835 Y79.899 I-13.993 J8.522
G03 X188.423 Y76.622 I3.643 J-7.209
G02 X183.024 Y75.350 I-3.279 J1.827
G02 X177.781 Y80.606 I11.289 J16.504
G03 X177.611 Y80.619 I-0.090 J-0.061
G03 X177.648 Y77.156 I1.825 J-1.713
G02 X175.426 Y68.810 I-3.589 J-3.513
G02 X167.796 Y73.441 I-1.660 J5.867
G03 X161.850 Y82.222 I-13.618 J-2.819
G03 X161.779 Y82.215 I-0.031 J-0.047
G03 X161.749 Y81.981 I0.133 J-0.136
G02 X164.040 Y75.536 I-14.992 J-8.959
G03 X165.252 Y73.676 I2.618 J0.381
G02 X167.099 Y66.074 I-2.982 J-4.750
G03 X166.348 Y59.006 I7.381 J-4.359
G02 X164.030 Y53.376 I-4.419 J-1.473
G03 X163.925 Y53.164 I0.089 J-0.177
G02 X158.466 Y46.916 I-5.232 J-0.937
G03 X158.246 Y46.779 I-0.010 J-0.229
G02 X154.768 Y42.505 I-9.395 J4.093
G02 X147.859 Y41.825 I-4.052 J5.729
G03 X146.179 Y39.169 I8.463 J-7.212
G02 X139.629 Y37.254 I-4.092 J1.839
G01 Z19.025 F1200.0 M3
G01 Z18.963 
G01 Z18.901 
G01 Z18.840 
G01 Z18.778 
G01 Z18.716 
G01 Z18.654 
G01 Z18.592 
G01 Z18.531 
G01 Z18.469 
G01 Z18.407 
G01 Z18.312 
G01 Z18.218 
G01 Z18.123 
G01 Z18.029 
G01 Z17.934 
G01 Z17.840 
G01 Z17.745 
G01 Z17.651 
G01 Z17.556 
G01 Z17.462 
G01 Z17.367 
G01 Z17.273 
G01 Z17.178 
G01 Z17.084 
G01 Z16.989 
G01 Z16.895 
G01 Z16.800 
G01 Z16.705 
G01 Z16.611 
G01 Z16.516 
G01 Z16.422 
G01 Z16.327 
G01 Z16.233 
G01 Z16.138 
G01 Z16.044 
G01 Z15.949 
G01 Z15.855 
G01 Z15.760 
G01 Z15.666 
G01 Z15.571 
G01 Z15.477 
G01 Z15.382 
G01 Z15.288 
G01 Z15.193 
G01 Z15.131 
G01 Z15.069 
G01 Z15.008 
G01 Z14.946 
G01 Z14.884 
G01 Z14.822 
G01 Z14.760 
G01 Z14.699 
G01 Z14.637 
G01 Z14.575 
G01 Z14.400 
G01 X139.758 Y36.790  F3500.0
G03 X140.472 Y35.266 I3.602 J0.757
G02 X139.855 Y24.077 I-6.643 J-5.246
G02 X124.783 Y19.183 I-12.255 J12.089
G02 X117.645 Y16.003 I-4.877 J1.345
G02 X109.769 Y22.854 I9.340 J18.689
G03 X104.528 Y24.842 I-4.056 J-2.789
G02 X93.121 Y24.415 I-6.728 J27.116
G02 X89.256 Y27.673 I0.834 J4.912
G02 X85.281 Y25.965 I-4.192 J4.277
G02 X84.264 Y26.024 I-0.196 J5.407
G02 X82.414 Y17.673 I-12.226 J-1.673
G03 X82.305 Y17.292 I0.576 J-0.371
G02 X76.782 Y12.116 I-5.119 J-0.073
G02 X71.467 Y9.199 I-5.210 J3.191
G03 X60.665 Y5.519 I-0.290 J-16.845
G02 X54.292 Y3.264 I-6.439 J8.065
G02 X50.685 Y4.072 I-0.052 J8.222
G02 X46.321 Y2.930 I-3.245 J3.489
G03 X41.320 Y3.213 I-3.273 J-13.541
G02 X35.851 Y4.902 I-0.863 J6.907
G02 X29.969 Y4.298 I-6.012 J29.607
G02 X21.208 Y10.780 I-0.039 J9.108
G02 X22.591 Y21.698 I12.965 J3.905
G01 X22.282 Y21.880  
G02 X17.058 Y25.794 I17.207 J28.411
G02 X14.557 Y30.939 I5.248 J5.732
G02 X22.734 Y37.304 I6.201 J0.469
G03 X20.180 Y37.737 I-1.868 J-3.272
G02 X17.020 Y47.984 I-0.982 J5.308
G02 X22.700 Y47.665 I2.527 J-5.730
G02 X25.065 Y49.481 I3.622 J-2.268
G03 X35.612 Y52.949 I-85.209 J276.901
G03 X38.509 Y54.059 I-17.684 J50.498
G01 X38.560 Y54.146  
G01 X37.948 Y54.672 
G03 X36.948 Y54.745 I-0.546 J-0.595
G02 X31.351 Y53.445 I-4.484 J6.605
G02 X17.127 Y56.602 I12.971 J92.057
G02 X13.372 Y61.735 I1.553 J5.075
G02 X10.719 Y64.475 I2.253 J4.837
G02 X5.682 Y66.786 I-1.022 J4.416
G02 X7.493 Y72.852 I4.014 J2.104
G03 X10.786 Y75.275 I-7.855 J14.123
G02 X19.714 Y83.565 I325.577 J-341.675
G02 X15.792 Y84.165 I-1.097 J5.949
G02 X11.722 Y87.075 I8.687 J16.449
G02 X11.599 Y93.186 I2.936 J3.116
G03 X14.524 Y98.520 I-8.053 J7.884
G02 X21.864 Y103.112 I5.975 J-1.388
G02 X26.551 Y98.135 I-1.365 J-5.981
G01 X26.713 Y98.078  
G03 X26.829 Y104.494 I-14.657 J3.473
G02 X36.763 Y112.390 I6.997 J1.394
G02 X39.804 Y116.835 I14.092 J-6.380
G02 X36.699 Y124.052 I2.962 J5.551
G03 X36.690 Y126.460 I-4.336 J1.190
G02 X41.649 Y134.942 I6.569 J1.850
G03 X44.183 Y136.672 I-1.025 J4.222
G02 X55.863 Y137.149 I6.022 J-4.216
G03 X57.251 Y136.302 I1.931 J1.602
G02 X61.649 Y127.425 I-1.377 J-6.210
G03 X61.959 Y125.848 I1.245 J-0.575
G03 X64.050 Y124.717 I3.214 J3.446
G02 X68.219 Y129.291 I5.170 J-0.526
G02 X74.377 Y123.546 I1.001 J-5.100
G02 X77.232 Y116.737 I-4.604 J-5.934
G03 X77.122 Y115.324 I17.851 J-2.095
G03 X79.180 Y115.335 I0.955 J13.862
G02 X81.796 Y122.172 I6.747 J1.338
G02 X80.766 Y131.689 I13.714 J6.297
G03 X79.825 Y135.583 I-4.479 J0.978
G02 X78.356 Y142.119 I5.726 J4.720
G01 X75.807 Y145.374  
G02 X70.683 Y144.415 I-3.708 J5.642
G03 X62.058 Y144.274 I-4.009 J-18.686
G02 X53.737 Y145.659 I-2.563 J10.296
G02 X50.739 Y142.023 I-8.519 J3.970
G02 X43.112 Y146.025 I-2.823 J3.889
G02 X44.429 Y151.097 I11.460 J-0.268
G01 X43.815 Y151.055  
G02 X38.085 Y153.256 I-2.090 J3.119
G02 X33.351 Y152.602 I-3.302 J6.437
G02 X29.250 Y158.906 I1.043 J5.164
G02 X33.470 Y170.298 I43.488 J-9.632
G02 X41.219 Y171.602 I4.378 J-2.344
G03 X41.314 Y171.670 I0.041 J0.044
G02 X41.945 Y179.409 I7.434 J3.289
G03 X43.160 Y181.504 I-18.894 J12.360
G02 X39.817 Y193.435 I3.689 J7.467
G02 X37.325 Y199.625 I2.282 J4.516
G02 X45.920 Y210.796 I21.242 J-7.452
G02 X46.789 Y211.318 I5.065 J-7.458
G01 X46.493 Y211.662  
G02 X47.233 Y220.268 I4.899 J3.914
G02 X53.382 Y222.895 I7.018 J-7.919
G01 X53.633 Y222.918  
G02 X57.200 Y226.669 I5.288 J-1.457
G02 X66.575 Y225.270 I3.300 J-9.990
G02 X69.914 Y218.285 I-4.583 J-6.481
G02 X72.738 Y218.356 I1.563 J-6.004
G02 X75.246 Y217.039 I-1.046 J-5.038
G02 X87.721 Y222.412 I13.756 J-14.770
G03 X91.762 Y223.499 I-0.671 J10.542
G02 X101.105 Y223.027 I4.253 J-8.533
G03 X103.397 Y222.721 I1.479 J2.342
G02 X113.074 Y208.847 I2.606 J-8.494
G03 X105.497 Y198.381 I215.239 J-163.788
G02 X113.887 Y202.845 I11.872 J-12.195
G02 X119.344 Y202.809 I2.645 J-12.655
G03 X121.754 Y202.753 I1.346 J6.042
G02 X124.961 Y193.446 I0.857 J-4.911
G03 X123.562 Y189.467 I1.472 J-2.753
G03 X124.471 Y188.013 I5.110 J2.183
G02 X133.323 Y188.563 I5.060 J-9.926
G02 X139.940 Y182.781 I-4.124 J-11.398
G02 X150.744 Y175.721 I-0.343 J-12.321
G03 X151.452 Y177.896 I-3.426 J2.318
G02 X154.042 Y188.100 I24.742 J-0.851
G02 X161.831 Y190.345 I4.927 J-2.459
G03 X167.663 Y187.425 I20.569 J33.797
G02 X172.241 Y180.102 I-2.729 J-6.798
G02 X186.134 Y170.966 I-5.770 J-23.905
G03 X190.157 Y168.742 I4.491 J3.374
G03 X191.441 Y169.295 I-2.408 J7.353
G02 X189.371 Y171.710 I24.991 J23.523
G02 X188.944 Y172.651 I1.735 J1.353
G03 X182.383 Y177.283 I-5.680 J-1.082
G02 X180.839 Y177.619 I-0.336 J2.174
G02 X175.753 Y187.318 I6.198 J9.434
G02 X176.250 Y188.660 I2.199 J-0.052
G01 X176.463 Y188.940  
G02 X182.029 Y202.187 I6.934 J4.879
G02 X190.391 Y208.550 I6.717 J-0.150
G02 X198.749 Y211.700 I4.624 J0.395
G02 X200.976 Y206.721 I-10.285 J-7.587
G02 X208.244 Y204.732 I2.321 J-5.792
G01 X208.361 Y204.563  
G02 X213.494 Y202.497 I-6.445 J-23.420
G02 X213.526 Y206.957 I6.081 J2.187
G03 X207.961 Y207.605 I-4.314 J-12.841
G02 X204.616 Y216.641 I-0.460 J4.967
G03 X210.197 Y220.732 I-126.203 J178.017
G02 X218.632 Y222.657 I6.350 J-8.381
G02 X226.811 Y215.883 I-2.227 J-11.015
G02 X233.825 Y216.651 I3.647 J-0.892
G01 X235.814 Y216.851  
G02 X242.555 Y214.877 I0.967 J-9.195
G02 X245.626 Y210.192 I-5.628 J-7.037
G02 X248.018 Y197.265 I-78.326 J-21.180
G02 X245.799 Y189.464 I-10.901 J-1.115
G02 X234.077 Y177.671 I-52.359 J40.321
G02 X228.139 Y177.641 I-2.989 J3.833
G02 X222.953 Y170.773 I-69.508 J47.099
G02 X221.970 Y170.102 I-1.685 J1.414
G02 X213.871 Y168.101 I-16.174 J48.053
G02 X216.792 Y167.902 I0.677 J-11.637
G03 X222.249 Y167.846 I2.926 J19.260
G02 X230.987 Y165.645 I1.590 J-12.130
G03 X238.980 Y166.175 I-2.211 J93.952
G02 X240.714 Y167.530 I3.078 J-2.150
G03 X247.171 Y170.950 I-10.846 J28.288
G02 X256.983 Y165.299 I3.574 J-5.137
G02 X258.171 Y157.685 I-2.193 J-4.242
G03 X257.334 Y156.712 I6.122 J-6.106
G02 X261.985 Y156.811 I2.522 J-9.197
G03 X265.226 Y156.682 I1.965 J8.581
G03 X268.083 Y157.685 I-1.148 J7.839
G02 X273.670 Y155.138 I1.898 J-3.239
G02 X274.210 Y150.643 I-33.767 J-6.340
G02 X273.095 Y147.331 I-4.720 J-0.254
G03 X267.259 Y138.992 I41.761 J-35.435
G02 X267.678 Y132.299 I-6.528 J-3.767
G02 X259.707 Y118.995 I-50.802 J21.395
G02 X256.137 Y115.918 I-10.302 J8.346
G02 X257.542 Y108.520 I-9.126 J-5.566
G02 X256.037 Y103.335 I-24.195 J4.210
G02 X249.121 Y100.365 I-4.981 J2.063
G03 X248.071 Y96.177 I8.804 J-4.432
G03 X249.471 Y96.195 I0.647 J4.124
G02 X253.355 Y90.551 I0.677 J-3.693
G02 X247.507 Y83.918 I-21.577 J13.129
G02 X246.819 Y77.704 I-4.332 J-2.665
G03 X241.685 Y71.659 I41.758 J-40.662
G02 X226.763 Y53.797 I-156.005 J115.170
G02 X220.291 Y49.484 I-12.574 J11.856
G03 X203.237 Y40.982 I33.160 J-87.870
G02 X197.338 Y38.640 I-9.172 J14.497
G02 X195.603 Y38.651 I-0.841 J4.325
G02 X194.734 Y38.139 I-2.969 J4.049
G02 X189.824 Y38.539 I-2.100 J4.561
G02 X177.826 Y45.151 I-3.437 J7.953
G02 X176.621 Y57.050 I108.497 J16.998
G02 X185.166 Y64.376 I7.129 J0.331
G03 X192.349 Y63.734 I6.484 J32.036
G02 X192.328 Y66.754 I3.427 J1.533
G02 X200.955 Y79.026 I33.732 J-14.544
G03 X202.926 Y88.024 I-5.553 J5.931
G03 X197.343 Y92.682 I-7.175 J-2.925
G02 X198.438 Y85.999 I-3.344 J-3.979
G02 X191.835 Y79.899 I-13.993 J8.522
G03 X188.423 Y76.622 I3.643 J-7.209
G02 X183.024 Y75.350 I-3.279 J1.827
G02 X177.781 Y80.606 I11.289 J16.504
G03 X177.611 Y80.619 I-0.090 J-0.061
G03 X177.648 Y77.156 I1.825 J-1.713
G02 X175.426 Y68.810 I-3.589 J-3.513
G02 X167.796 Y73.441 I-1.660 J5.867
G03 X161.850 Y82.222 I-13.618 J-2.819
G03 X161.779 Y82.215 I-0.031 J-0.047
G03 X161.749 Y81.981 I0.133 J-0.136
G02 X164.040 Y75.536 I-14.992 J-8.959
G03 X165.252 Y73.676 I2.618 J0.381
G02 X167.099 Y66.074 I-2.982 J-4.750
G03 X166.348 Y59.006 I7.381 J-4.359
G02 X164.030 Y53.376 I-4.419 J-1.473
G03 X163.925 Y53.164 I0.089 J-0.177
G02 X158.466 Y46.916 I-5.232 J-0.937
G03 X158.246 Y46.779 I-0.010 J-0.229
G02 X154.768 Y42.505 I-9.395 J4.093
G02 X147.859 Y41.825 I-4.052 J5.729
G03 X146.179 Y39.169 I8.463 J-7.212
G02 X139.629 Y37.254 I-4.092 J1.839
G01 Z14.225 F1200.0 M3
G01 Z14.163 
G01 Z14.101 
G01 Z14.040 
G01 Z13.978 
G01 Z13.916 
G01 Z13.854 
G01 Z13.792 
G01 Z13.731 
G01 Z13.669 
G01 Z13.607 
G01 Z13.512 
G01 Z13.418 
G01 Z13.323 
G01 Z13.229 
G01 Z13.134 
G01 Z13.040 
G01 Z12.945 
G01 Z12.851 
G01 Z12.756 
G01 Z12.662 
G01 Z12.567 
G01 Z12.473 
G01 Z12.378 
G01 Z12.284 
G01 Z12.189 
G01 Z12.095 
G01 Z12.000 
G01 Z11.905 
G01 Z11.811 
G01 Z11.716 
G01 Z11.622 
G01 Z11.527 
G01 Z11.433 
G01 Z11.338 
G01 Z11.244 
G01 Z11.149 
G01 Z11.055 
G01 Z10.960 
G01 Z10.866 
G01 Z10.771 
G01 Z10.677 
G01 Z10.582 
G01 Z10.488 
G01 Z10.393 
G01 Z10.331 
G01 Z10.269 
G01 Z10.208 
G01 Z10.146 
G01 Z10.084 
G01 Z10.022 
G01 Z9.960 
G01 Z9.899 
G01 Z9.837 
G01 Z9.775 
G01 Z9.600 
G01 X139.758 Y36.790  F3500.0
G03 X140.472 Y35.266 I3.602 J0.757
G02 X139.855 Y24.077 I-6.643 J-5.246
G02 X124.783 Y19.183 I-12.255 J12.089
G02 X117.645 Y16.003 I-4.877 J1.345
G02 X109.769 Y22.854 I9.340 J18.689
G03 X104.528 Y24.842 I-4.056 J-2.789
G02 X93.121 Y24.415 I-6.728 J27.116
G02 X89.256 Y27.673 I0.834 J4.912
G02 X85.281 Y25.965 I-4.192 J4.277
G02 X84.264 Y26.024 I-0.196 J5.407
G02 X82.414 Y17.673 I-12.226 J-1.673
G03 X82.305 Y17.292 I0.576 J-0.371
G02 X76.782 Y12.116 I-5.119 J-0.073
G02 X71.467 Y9.199 I-5.210 J3.191
G03 X60.665 Y5.519 I-0.290 J-16.845
G02 X54.292 Y3.264 I-6.439 J8.065
G02 X50.685 Y4.072 I-0.052 J8.222
G02 X46.321 Y2.930 I-3.245 J3.489
G03 X41.320 Y3.213 I-3.273 J-13.541
G02 X35.851 Y4.902 I-0.863 J6.907
G02 X29.969 Y4.298 I-6.012 J29.607
G02 X21.208 Y10.780 I-0.039 J9.108
G02 X22.591 Y21.698 I12.965 J3.905
G01 X22.282 Y21.880  
G02 X17.058 Y25.794 I17.207 J28.411
G02 X14.557 Y30.939 I5.248 J5.732
G02 X22.734 Y37.304 I6.201 J0.469
G03 X20.180 Y37.737 I-1.868 J-3.272
G02 X17.020 Y47.984 I-0.982 J5.308
G02 X22.700 Y47.665 I2.527 J-5.730
G02 X25.065 Y49.481 I3.622 J-2.268
G03 X35.612 Y52.949 I-85.209 J276.901
G03 X38.509 Y54.059 I-17.684 J50.498
G01 X38.560 Y54.146  
G01 X37.948 Y54.672 
G03 X36.948 Y54.745 I-0.546 J-0.595
G02 X31.351 Y53.445 I-4.484 J6.605
G02 X17.127 Y56.602 I12.971 J92.057
G02 X13.372 Y61.735 I1.553 J5.075
G02 X10.719 Y64.475 I2.253 J4.837
G02 X5.682 Y66.786 I-1.022 J4.416
G02 X7.493 Y72.852 I4.014 J2.104
G03 X10.786 Y75.275 I-7.855 J14.123
G02 X19.714 Y83.565 I325.577 J-341.675
G02 X15.792 Y84.165 I-1.097 J5.949
G02 X11.722 Y87.075 I8.687 J16.449
G02 X11.599 Y93.186 I2.936 J3.116
G03 X14.524 Y98.520 I-8.053 J7.884
G02 X21.864 Y103.112 I5.975 J-1.388
G02 X26.551 Y98.135 I-1.365 J-5.981
G01 X26.713 Y98.078  
G03 X26.829 Y104.494 I-14.657 J3.473
G02 X36.763 Y112.390 I6.997 J1.394
G02 X39.804 Y116.835 I14.092 J-6.380
G02 X36.699 Y124.052 I2.962 J5.551
G03 X36.690 Y126.460 I-4.336 J1.190
G02 X41.649 Y134.942 I6.569 J1.850
G03 X44.183 Y136.672 I-1.025 J4.222
G02 X55.863 Y137.149 I6.022 J-4.216
G03 X57.251 Y136.302 I1.931 J1.602
G02 X61.649 Y127.425 I-1.377 J-6.210
G03 X61.959 Y125.848 I1.245 J-0.575
G03 X64.050 Y124.717 I3.214 J3.446
G02 X68.219 Y129.291 I5.170 J-0.526
G02 X74.377 Y123.546 I1.001 J-5.100
G02 X77.232 Y116.737 I-4.604 J-5.934
G03 X77.122 Y115.324 I17.851 J-2.095
G03 X79.180 Y115.335 I0.955 J13.862
G02 X81.796 Y122.172 I6.747 J1.338
G02 X80.766 Y131.689 I13.714 J6.297
G03 X79.825 Y135.583 I-4.479 J0.978
G02 X78.356 Y142.119 I5.726 J4.720
G01 X75.807 Y145.374  
G02 X70.683 Y144.415 I-3.708 J5.642
G03 X62.058 Y144.274 I-4.009 J-18.686
G02 X53.737 Y145.659 I-2.563 J10.296
G02 X50.739 Y142.023 I-8.519 J3.970
G02 X43.112 Y146.025 I-2.823 J3.889
G02 X44.429 Y151.097 I11.460 J-0.268
G01 X43.815 Y151.055  
G02 X38.085 Y153.256 I-2.090 J3.119
G02 X33.351 Y152.602 I-3.302 J6.437
G02 X29.250 Y158.906 I1.043 J5.164
G02 X33.470 Y170.298 I43.488 J-9.632
G02 X41.219 Y171.602 I4.378 J-2.344
G03 X41.314 Y171.670 I0.041 J0.044
G02 X41.945 Y179.409 I7.434 J3.289
G03 X43.160 Y181.504 I-18.894 J12.360
G02 X39.817 Y193.435 I3.689 J7.467
G02 X37.325 Y199.625 I2.282 J4.516
G02 X45.920 Y210.796 I21.242 J-7.452
G02 X46.789 Y211.318 I5.065 J-7.458
G01 X46.493 Y211.662  
G02 X47.233 Y220.268 I4.899 J3.914
G02 X53.382 Y222.895 I7.018 J-7.919
G01 X53.633 Y222.918  
G02 X57.200 Y226.669 I5.288 J-1.457
G02 X66.575 Y225.270 I3.300 J-9.990
G02 X69.914 Y218.285 I-4.583 J-6.481
G02 X72.738 Y218.356 I1.563 J-6.004
G02 X75.246 Y217.039 I-1.046 J-5.038
G02 X87.721 Y222.412 I13.756 J-14.770
G03 X91.762 Y223.499 I-0.671 J10.542
G02 X101.105 Y223.027 I4.253 J-8.533
G03 X103.397 Y222.721 I1.479 J2.342
G02 X113.074 Y208.847 I2.606 J-8.494
G03 X105.497 Y198.381 I215.239 J-163.788
G02 X113.887 Y202.845 I11.872 J-12.195
G02 X119.344 Y202.809 I2.645 J-12.655
G03 X121.754 Y202.753 I1.346 J6.042
G02 X124.961 Y193.446 I0.857 J-4.911
G03 X123.562 Y189.467 I1.472 J-2.753
G03 X124.471 Y188.013 I5.110 J2.183
G02 X133.323 Y188.563 I5.060 J-9.926
G02 X139.940 Y182.781 I-4.124 J-11.398
G02 X150.744 Y175.721 I-0.343 J-12.321
G03 X151.452 Y177.896 I-3.426 J2.318
G02 X154.042 Y188.100 I24.742 J-0.851
G02 X161.831 Y190.345 I4.927 J-2.459
G03 X167.663 Y187.425 I20.569 J33.797
G02 X172.241 Y180.102 I-2.729 J-6.798
G02 X186.134 Y170.966 I-5.770 J-23.905
G03 X190.157 Y168.742 I4.491 J3.374
G03 X191.441 Y169.295 I-2.408 J7.353
G02 X189.371 Y171.710 I24.991 J23.523
G02 X188.944 Y172.651 I1.735 J1.353
G03 X182.383 Y177.283 I-5.680 J-1.082
G02 X180.839 Y177.619 I-0.336 J2.174
G02 X175.753 Y187.318 I6.198 J9.434
G02 X176.250 Y188.660 I2.199 J-0.052
G01 X176.463 Y188.940  
G02 X182.029 Y202.187 I6.934 J4.879
G02 X190.391 Y208.550 I6.717 J-0.150
G02 X198.749 Y211.700 I4.624 J0.395
G02 X200.976 Y206.721 I-10.285 J-7.587
G02 X208.244 Y204.732 I2.321 J-5.792
G01 X208.361 Y204.563  
G02 X213.494 Y202.497 I-6.445 J-23.420
G02 X213.526 Y206.957 I6.081 J2.187
G03 X207.961 Y207.605 I-4.314 J-12.841
G02 X204.616 Y216.641 I-0.460 J4.967
G03 X210.197 Y220.732 I-126.203 J178.017
G02 X218.632 Y222.657 I6.350 J-8.381
G02 X226.811 Y215.883 I-2.227 J-11.015
G02 X233.825 Y216.651 I3.647 J-0.892
G01 X235.814 Y216.851  
G02 X242.555 Y214.877 I0.967 J-9.195
G02 X245.626 Y210.192 I-5.628 J-7.037
G02 X248.018 Y197.265 I-78.326 J-21.180
G02 X245.799 Y189.464 I-10.901 J-1.115
G02 X234.077 Y177.671 I-52.359 J40.321
G02 X228.139 Y177.641 I-2.989 J3.833
G02 X222.953 Y170.773 I-69.508 J47.099
G02 X221.970 Y170.102 I-1.685 J1.414
G02 X213.871 Y168.101 I-16.174 J48.053
G02 X216.792 Y167.902 I0.677 J-11.637
G03 X222.249 Y167.846 I2.926 J19.260
G02 X230.987 Y165.645 I1.590 J-12.130
G03 X238.980 Y166.175 I-2.211 J93.952
G02 X240.714 Y167.530 I3.078 J-2.150
G03 X247.171 Y170.950 I-10.846 J28.288
G02 X256.983 Y165.299 I3.574 J-5.137
G02 X258.171 Y157.685 I-2.193 J-4.242
G03 X257.334 Y156.712 I6.122 J-6.106
G02 X261.985 Y156.811 I2.522 J-9.197
G03 X265.226 Y156.682 I1.965 J8.581
G03 X268.083 Y157.685 I-1.148 J7.839
G02 X273.670 Y155.138 I1.898 J-3.239
G02 X274.210 Y150.643 I-33.767 J-6.340
G02 X273.095 Y147.331 I-4.720 J-0.254
G03 X267.259 Y138.992 I41.761 J-35.435
G02 X267.678 Y132.299 I-6.528 J-3.767
G02 X259.707 Y118.995 I-50.802 J21.395
G02 X256.137 Y115.918 I-10.302 J8.346
G02 X257.542 Y108.520 I-9.126 J-5.566
G02 X256.037 Y103.335 I-24.195 J4.210
G02 X249.121 Y100.365 I-4.981 J2.063
G03 X248.071 Y96.177 I8.804 J-4.432
G03 X249.471 Y96.195 I0.647 J4.124
G02 X253.355 Y90.551 I0.677 J-3.693
G02 X247.507 Y83.918 I-21.577 J13.129
G02 X246.819 Y77.704 I-4.332 J-2.665
G03 X241.685 Y71.659 I41.758 J-40.662
G02 X226.763 Y53.797 I-156.005 J115.170
G02 X220.291 Y49.484 I-12.574 J11.856
G03 X203.237 Y40.982 I33.160 J-87.870
G02 X197.338 Y38.640 I-9.172 J14.497
G02 X195.603 Y38.651 I-0.841 J4.325
G02 X194.734 Y38.139 I-2.969 J4.049
G02 X189.824 Y38.539 I-2.100 J4.561
G02 X177.826 Y45.151 I-3.437 J7.953
G02 X176.621 Y57.050 I108.497 J16.998
G02 X185.166 Y64.376 I7.129 J0.331
G03 X192.349 Y63.734 I6.484 J32.036
G02 X192.328 Y66.754 I3.427 J1.533
G02 X200.955 Y79.026 I33.732 J-14.544
G03 X202.926 Y88.024 I-5.553 J5.931
G03 X197.343 Y92.682 I-7.175 J-2.925
G02 X198.438 Y85.999 I-3.344 J-3.979
G02 X191.835 Y79.899 I-13.993 J8.522
G03 X188.423 Y76.622 I3.643 J-7.209
G02 X183.024 Y75.350 I-3.279 J1.827
G02 X177.781 Y80.606 I11.289 J16.504
G03 X177.611 Y80.619 I-0.090 J-0.061
G03 X177.648 Y77.156 I1.825 J-1.713
G02 X175.426 Y68.810 I-3.589 J-3.513
G02 X167.796 Y73.441 I-1.660 J5.867
G03 X161.850 Y82.222 I-13.618 J-2.819
G03 X161.779 Y82.215 I-0.031 J-0.047
G03 X161.749 Y81.981 I0.133 J-0.136
G02 X164.040 Y75.536 I-14.992 J-8.959
G03 X165.252 Y73.676 I2.618 J0.381
G02 X167.099 Y66.074 I-2.982 J-4.750
G03 X166.348 Y59.006 I7.381 J-4.359
G02 X164.030 Y53.376 I-4.419 J-1.473
G03 X163.925 Y53.164 I0.089 J-0.177
G02 X158.466 Y46.916 I-5.232 J-0.937
G03 X158.246 Y46.779 I-0.010 J-0.229
G02 X154.768 Y42.505 I-9.395 J4.093
G02 X147.859 Y41.825 I-4.052 J5.729
G03 X146.179 Y39.169 I8.463 J-7.212
G02 X139.629 Y37.254 I-4.092 J1.839
G01 Z9.425 F1200.0 M3
G01 Z9.363 
G01 Z9.301 
G01 Z9.240 
G01 Z9.178 
G01 Z9.116 
G01 Z9.054 
G01 Z8.992 
G01 Z8.931 
G01 Z8.869 
G01 Z8.807 
G01 Z8.712 
G01 Z8.618 
G01 Z8.523 
G01 Z8.429 
G01 Z8.334 
G01 Z8.240 
G01 Z8.145 
G01 Z8.051 
G01 Z7.956 
G01 Z7.862 
G01 Z7.767 
G01 Z7.673 
G01 Z7.578 
G01 Z7.484 
G01 Z7.389 
G01 Z7.295 
G01 Z7.200 
G01 Z7.105 
G01 Z7.011 
G01 Z6.916 
G01 Z6.822 
G01 Z6.727 
G01 Z6.633 
G01 Z6.538 
G01 Z6.444 
G01 Z6.349 
G01 Z6.255 
G01 Z6.160 
G01 Z6.066 
G01 Z5.971 
G01 Z5.877 
G01 Z5.782 
G01 Z5.688 
G01 Z5.593 
G01 Z5.531 
G01 Z5.469 
G01 Z5.408 
G01 Z5.346 
G01 Z5.284 
G01 Z5.222 
G01 Z5.160 
G01 Z5.099 
G01 Z5.037 
G01 Z4.975 
G01 Z4.800 
G01 X139.758 Y36.790  F3500.0
G03 X140.472 Y35.266 I3.602 J0.757
G02 X139.855 Y24.077 I-6.643 J-5.246
G02 X124.783 Y19.183 I-12.255 J12.089
G02 X117.645 Y16.003 I-4.877 J1.345
G02 X109.769 Y22.854 I9.340 J18.689
G03 X104.528 Y24.842 I-4.056 J-2.789
G02 X93.121 Y24.415 I-6.728 J27.116
G02 X89.256 Y27.673 I0.834 J4.912
G02 X85.281 Y25.965 I-4.192 J4.277
G02 X84.264 Y26.024 I-0.196 J5.407
G02 X82.414 Y17.673 I-12.226 J-1.673
G03 X82.305 Y17.292 I0.576 J-0.371
G02 X76.782 Y12.116 I-5.119 J-0.073
G02 X71.467 Y9.199 I-5.210 J3.191
G03 X60.665 Y5.519 I-0.290 J-16.845
G02 X54.292 Y3.264 I-6.439 J8.065
G02 X50.685 Y4.072 I-0.052 J8.222
G02 X46.321 Y2.930 I-3.245 J3.489
G03 X41.320 Y3.213 I-3.273 J-13.541
G02 X35.851 Y4.902 I-0.863 J6.907
G02 X29.969 Y4.298 I-6.012 J29.607
G02 X21.208 Y10.780 I-0.039 J9.108
G02 X22.591 Y21.698 I12.965 J3.905
G01 X22.282 Y21.880  
G02 X17.058 Y25.794 I17.207 J28.411
G02 X14.557 Y30.939 I5.248 J5.732
G02 X22.734 Y37.304 I6.201 J0.469
G03 X20.180 Y37.737 I-1.868 J-3.272
G02 X17.020 Y47.984 I-0.982 J5.308
G02 X22.700 Y47.665 I2.527 J-5.730
G02 X25.065 Y49.481 I3.622 J-2.268
G03 X35.612 Y52.949 I-85.209 J276.901
G03 X38.509 Y54.059 I-17.684 J50.498
G01 X38.560 Y54.146  
G01 X37.948 Y54.672 
G03 X36.948 Y54.745 I-0.546 J-0.595
G02 X31.351 Y53.445 I-4.484 J6.605
G02 X17.127 Y56.602 I12.971 J92.057
G02 X13.372 Y61.735 I1.553 J5.075
G02 X10.719 Y64.475 I2.253 J4.837
G02 X5.682 Y66.786 I-1.022 J4.416
G02 X7.493 Y72.852 I4.014 J2.104
G03 X10.786 Y75.275 I-7.855 J14.123
G02 X19.714 Y83.565 I325.577 J-341.675
G02 X15.792 Y84.165 I-1.097 J5.949
G02 X11.722 Y87.075 I8.687 J16.449
G02 X11.599 Y93.186 I2.936 J3.116
G03 X14.524 Y98.520 I-8.053 J7.884
G02 X21.864 Y103.112 I5.975 J-1.388
G02 X26.551 Y98.135 I-1.365 J-5.981
G01 X26.713 Y98.078  
G03 X26.829 Y104.494 I-14.657 J3.473
G02 X36.763 Y112.390 I6.997 J1.394
G02 X39.804 Y116.835 I14.092 J-6.380
G02 X36.699 Y124.052 I2.962 J5.551
G03 X36.690 Y126.460 I-4.336 J1.190
G02 X41.649 Y134.942 I6.569 J1.850
G03 X44.183 Y136.672 I-1.025 J4.222
G02 X55.863 Y137.149 I6.022 J-4.216
G03 X57.251 Y136.302 I1.931 J1.602
G02 X61.649 Y127.425 I-1.377 J-6.210
G03 X61.959 Y125.848 I1.245 J-0.575
G03 X64.050 Y124.717 I3.214 J3.446
G02 X68.219 Y129.291 I5.170 J-0.526
G02 X74.377 Y123.546 I1.001 J-5.100
G02 X77.232 Y116.737 I-4.604 J-5.934
G03 X77.122 Y115.324 I17.851 J-2.095
G03 X79.180 Y115.335 I0.955 J13.862
G02 X81.796 Y122.172 I6.747 J1.338
G02 X80.766 Y131.689 I13.714 J6.297
G03 X79.825 Y135.583 I-4.479 J0.978
G02 X78.356 Y142.119 I5.726 J4.720
G01 X75.807 Y145.374  
G02 X70.683 Y144.415 I-3.708 J5.642
G03 X62.058 Y144.274 I-4.009 J-18.686
G02 X53.737 Y145.659 I-2.563 J10.296
G02 X50.739 Y142.023 I-8.519 J3.970
G02 X43.112 Y146.025 I-2.823 J3.889
G02 X44.429 Y151.097 I11.460 J-0.268
G01 X43.815 Y151.055  
G02 X38.085 Y153.256 I-2.090 J3.119
G02 X33.351 Y152.602 I-3.302 J6.437
G02 X29.250 Y158.906 I1.043 J5.164
G02 X33.470 Y170.298 I43.488 J-9.632
G02 X41.219 Y171.602 I4.378 J-2.344
G03 X41.314 Y171.670 I0.041 J0.044
G02 X41.945 Y179.409 I7.434 J3.289
G03 X43.160 Y181.504 I-18.894 J12.360
G02 X39.817 Y193.435 I3.689 J7.467
G02 X37.325 Y199.625 I2.282 J4.516
G02 X45.920 Y210.796 I21.242 J-7.452
G02 X46.789 Y211.318 I5.065 J-7.458
G01 X46.493 Y211.662  
G02 X47.233 Y220.268 I4.899 J3.914
G02 X53.382 Y222.895 I7.018 J-7.919
G01 X53.633 Y222.918  
G02 X57.200 Y226.669 I5.288 J-1.457
G02 X66.575 Y225.270 I3.300 J-9.990
G02 X69.914 Y218.285 I-4.583 J-6.481
G02 X72.738 Y218.356 I1.563 J-6.004
G02 X75.246 Y217.039 I-1.046 J-5.038
G02 X87.721 Y222.412 I13.756 J-14.770
G03 X91.762 Y223.499 I-0.671 J10.542
G02 X101.105 Y223.027 I4.253 J-8.533
G03 X103.397 Y222.721 I1.479 J2.342
G02 X113.074 Y208.847 I2.606 J-8.494
G03 X105.497 Y198.381 I215.239 J-163.788
G02 X113.887 Y202.845 I11.872 J-12.195
G02 X119.344 Y202.809 I2.645 J-12.655
G03 X121.754 Y202.753 I1.346 J6.042
G02 X124.961 Y193.446 I0.857 J-4.911
G03 X123.562 Y189.467 I1.472 J-2.753
G03 X124.471 Y188.013 I5.110 J2.183
G02 X133.323 Y188.563 I5.060 J-9.926
G02 X139.940 Y182.781 I-4.124 J-11.398
G02 X150.744 Y175.721 I-0.343 J-12.321
G03 X151.452 Y177.896 I-3.426 J2.318
G02 X154.042 Y188.100 I24.742 J-0.851
G02 X161.831 Y190.345 I4.927 J-2.459
G03 X167.663 Y187.425 I20.569 J33.797
G02 X172.241 Y180.102 I-2.729 J-6.798
G02 X186.134 Y170.966 I-5.770 J-23.905
G03 X190.157 Y168.742 I4.491 J3.374
G03 X191.441 Y169.295 I-2.408 J7.353
G02 X189.371 Y171.710 I24.991 J23.523
G02 X188.944 Y172.651 I1.735 J1.353
G03 X182.383 Y177.283 I-5.680 J-1.082
G02 X180.839 Y177.619 I-0.336 J2.174
G02 X175.753 Y187.318 I6.198 J9.434
G02 X176.250 Y188.660 I2.199 J-0.052
G01 X176.463 Y188.940  
G02 X182.029 Y202.187 I6.934 J4.879
G02 X190.391 Y208.550 I6.717 J-0.150
G02 X198.749 Y211.700 I4.624 J0.395
G02 X200.976 Y206.721 I-10.285 J-7.587
G02 X208.244 Y204.732 I2.321 J-5.792
G01 X208.361 Y204.563  
G02 X213.494 Y202.497 I-6.445 J-23.420
G02 X213.526 Y206.957 I6.081 J2.187
G03 X207.961 Y207.605 I-4.314 J-12.841
G02 X204.616 Y216.641 I-0.460 J4.967
G03 X210.197 Y220.732 I-126.203 J178.017
G02 X218.632 Y222.657 I6.350 J-8.381
G02 X226.811 Y215.883 I-2.227 J-11.015
G02 X233.825 Y216.651 I3.647 J-0.892
G01 X235.814 Y216.851  
G02 X242.555 Y214.877 I0.967 J-9.195
G02 X245.626 Y210.192 I-5.628 J-7.037
G02 X248.018 Y197.265 I-78.326 J-21.180
G02 X245.799 Y189.464 I-10.901 J-1.115
G02 X234.077 Y177.671 I-52.359 J40.321
G02 X228.139 Y177.641 I-2.989 J3.833
G02 X222.953 Y170.773 I-69.508 J47.099
G02 X221.970 Y170.102 I-1.685 J1.414
G02 X213.871 Y168.101 I-16.174 J48.053
G02 X216.792 Y167.902 I0.677 J-11.637
G03 X222.249 Y167.846 I2.926 J19.260
G02 X230.987 Y165.645 I1.590 J-12.130
G03 X238.980 Y166.175 I-2.211 J93.952
G02 X240.714 Y167.530 I3.078 J-2.150
G03 X247.171 Y170.950 I-10.846 J28.288
G02 X256.983 Y165.299 I3.574 J-5.137
G02 X258.171 Y157.685 I-2.193 J-4.242
G03 X257.334 Y156.712 I6.122 J-6.106
G02 X261.985 Y156.811 I2.522 J-9.197
G03 X265.226 Y156.682 I1.965 J8.581
G03 X268.083 Y157.685 I-1.148 J7.839
G02 X273.670 Y155.138 I1.898 J-3.239
G02 X274.210 Y150.643 I-33.767 J-6.340
G02 X273.095 Y147.331 I-4.720 J-0.254
G03 X267.259 Y138.992 I41.761 J-35.435
G02 X267.678 Y132.299 I-6.528 J-3.767
G02 X259.707 Y118.995 I-50.802 J21.395
G02 X256.137 Y115.918 I-10.302 J8.346
G02 X257.542 Y108.520 I-9.126 J-5.566
G02 X256.037 Y103.335 I-24.195 J4.210
G02 X249.121 Y100.365 I-4.981 J2.063
G03 X248.071 Y96.177 I8.804 J-4.432
G03 X249.471 Y96.195 I0.647 J4.124
G02 X253.355 Y90.551 I0.677 J-3.693
G02 X247.507 Y83.918 I-21.577 J13.129
G02 X246.819 Y77.704 I-4.332 J-2.665
G03 X241.685 Y71.659 I41.758 J-40.662
G02 X226.763 Y53.797 I-156.005 J115.170
G02 X220.291 Y49.484 I-12.574 J11.856
G03 X203.237 Y40.982 I33.160 J-87.870
G02 X197.338 Y38.640 I-9.172 J14.497
G02 X195.603 Y38.651 I-0.841 J4.325
G02 X194.734 Y38.139 I-2.969 J4.049
G02 X189.824 Y38.539 I-2.100 J4.561
G02 X177.826 Y45.151 I-3.437 J7.953
G02 X176.621 Y57.050 I108.497 J16.998
G02 X185.166 Y64.376 I7.129 J0.331
G03 X192.349 Y63.734 I6.484 J32.036
G02 X192.328 Y66.754 I3.427 J1.533
G02 X200.955 Y79.026 I33.732 J-14.544
G03 X202.926 Y88.024 I-5.553 J5.931
G03 X197.343 Y92.682 I-7.175 J-2.925
G02 X198.438 Y85.999 I-3.344 J-3.979
G02 X191.835 Y79.899 I-13.993 J8.522
G03 X188.423 Y76.622 I3.643 J-7.209
G02 X183.024 Y75.350 I-3.279 J1.827
G02 X177.781 Y80.606 I11.289 J16.504
G03 X177.611 Y80.619 I-0.090 J-0.061
G03 X177.648 Y77.156 I1.825 J-1.713
G02 X175.426 Y68.810 I-3.589 J-3.513
G02 X167.796 Y73.441 I-1.660 J5.867
G03 X161.850 Y82.222 I-13.618 J-2.819
G03 X161.779 Y82.215 I-0.031 J-0.047
G03 X161.749 Y81.981 I0.133 J-0.136
G02 X164.040 Y75.536 I-14.992 J-8.959
G03 X165.252 Y73.676 I2.618 J0.381
G02 X167.099 Y66.074 I-2.982 J-4.750
G03 X166.348 Y59.006 I7.381 J-4.359
G02 X164.030 Y53.376 I-4.419 J-1.473
G03 X163.925 Y53.164 I0.089 J-0.177
G02 X158.466 Y46.916 I-5.232 J-0.937
G03 X158.246 Y46.779 I-0.010 J-0.229
G02 X154.768 Y42.505 I-9.395 J4.093
G02 X147.859 Y41.825 I-4.052 J5.729
G03 X146.179 Y39.169 I8.463 J-7.212
G02 X139.629 Y37.254 I-4.092 J1.839
G01 Z4.625 F1200.0 M3
G01 Z4.563 
G01 Z4.501 
G01 Z4.440 
G01 Z4.378 
G01 Z4.316 
G01 Z4.254 
G01 Z4.192 
G01 Z4.131 
G01 Z4.069 
G01 Z4.007 
G01 Z3.912 
G01 Z3.818 
G01 Z3.723 
G01 Z3.629 
G01 Z3.534 
G01 Z3.440 
G01 Z3.345 
G01 Z3.251 
G01 Z3.156 
G01 Z3.062 
G01 Z2.967 
G01 Z2.873 
G01 Z2.778 
G01 Z2.684 
G01 Z2.589 
G01 Z2.495 
G01 Z2.400 
G01 Z2.305 
G01 Z2.211 
G01 Z2.116 
G01 Z2.022 
G01 Z1.927 
G01 Z1.833 
G01 Z1.738 
G01 Z1.644 
G01 Z1.549 
G01 Z1.455 
G01 Z1.360 
G01 Z1.266 
G01 Z1.171 
G01 Z1.077 
G01 Z0.982 
G01 Z0.888 
G01 Z0.793 
G01 Z0.731 
G01 Z0.669 
G01 Z0.608 
G01 Z0.546 
G01 Z0.484 
G01 Z0.422 
G01 Z0.360 
G01 Z0.299 
G01 Z0.237 
G01 Z0.175 
G01 Z0.000 
G01 X139.758 Y36.790 Z0.000 F3500.0
G03 X140.472 Y35.266 I3.602 J0.757
G02 X139.855 Y24.077 I-6.643 J-5.246
G02 X124.783 Y19.183 I-12.255 J12.089
G02 X117.645 Y16.003 I-4.877 J1.345
G02 X109.769 Y22.854 I9.340 J18.689
G03 X104.528 Y24.842 I-4.056 J-2.789
G02 X93.121 Y24.415 I-6.728 J27.116
G02 X89.256 Y27.673 I0.834 J4.912
G02 X85.281 Y25.965 I-4.192 J4.277
G02 X84.264 Y26.024 I-0.196 J5.407
G02 X82.414 Y17.673 I-12.226 J-1.673
G03 X82.305 Y17.292 I0.576 J-0.371
G02 X76.782 Y12.116 I-5.119 J-0.073
G02 X71.467 Y9.199 I-5.210 J3.191
G03 X60.665 Y5.519 I-0.290 J-16.845
G02 X54.292 Y3.264 I-6.439 J8.065
G02 X50.685 Y4.072 I-0.052 J8.222
G02 X46.321 Y2.930 I-3.245 J3.489
G03 X41.320 Y3.213 I-3.273 J-13.541
G02 X35.851 Y4.902 I-0.863 J6.907
G02 X29.969 Y4.298 I-6.012 J29.607
G02 X21.208 Y10.780 I-0.039 J9.108
G02 X22.591 Y21.698 I12.965 J3.905
G01 X22.282 Y21.880  
G02 X17.058 Y25.794 I17.207 J28.411
G02 X14.557 Y30.939 I5.248 J5.732
G02 X22.734 Y37.304 I6.201 J0.469
G03 X20.180 Y37.737 I-1.868 J-3.272
G02 X17.020 Y47.984 I-0.982 J5.308
G02 X22.700 Y47.665 I2.527 J-5.730
G02 X25.065 Y49.481 I3.622 J-2.268
G03 X35.612 Y52.949 I-85.209 J276.901
G03 X38.509 Y54.059 I-17.684 J50.498
G01 X38.560 Y54.146  
G01 X37.948 Y54.672 
G03 X36.948 Y54.745 I-0.546 J-0.595
G02 X31.351 Y53.445 I-4.484 J6.605
G02 X17.127 Y56.602 I12.971 J92.057
G02 X13.372 Y61.735 I1.553 J5.075
G02 X10.719 Y64.475 I2.253 J4.837
G02 X5.682 Y66.786 I-1.022 J4.416
G02 X7.493 Y72.852 I4.014 J2.104
G03 X10.786 Y75.275 I-7.855 J14.123
G02 X19.714 Y83.565 I325.577 J-341.675
G02 X15.792 Y84.165 I-1.097 J5.949
G02 X11.722 Y87.075 I8.687 J16.449
G02 X11.599 Y93.186 I2.936 J3.116
G03 X14.524 Y98.520 I-8.053 J7.884
G02 X21.864 Y103.112 I5.975 J-1.388
G02 X26.551 Y98.135 I-1.365 J-5.981
G01 X26.713 Y98.078  
G03 X26.829 Y104.494 I-14.657 J3.473
G02 X36.763 Y112.390 I6.997 J1.394
G02 X39.804 Y116.835 I14.092 J-6.380
G02 X36.699 Y124.052 I2.962 J5.551
G03 X36.690 Y126.460 I-4.336 J1.190
G02 X41.649 Y134.942 I6.569 J1.850
G03 X44.183 Y136.672 I-1.025 J4.222
G02 X55.863 Y137.149 I6.022 J-4.216
G03 X57.251 Y136.302 I1.931 J1.602
G02 X61.649 Y127.425 I-1.377 J-6.210
G03 X61.959 Y125.848 I1.245 J-0.575
G03 X64.050 Y124.717 I3.214 J3.446
G02 X68.219 Y129.291 I5.170 J-0.526
G02 X74.377 Y123.546 I1.001 J-5.100
G02 X77.232 Y116.737 I-4.604 J-5.934
G03 X77.122 Y115.324 I17.851 J-2.095
G03 X79.180 Y115.335 I0.955 J13.862
G02 X81.796 Y122.172 I6.747 J1.338
G02 X80.766 Y131.689 I13.714 J6.297
G03 X79.825 Y135.583 I-4.479 J0.978
G02 X78.356 Y142.119 I5.726 J4.720
G01 X75.807 Y145.374  
G02 X70.683 Y144.415 I-3.708 J5.642
G03 X62.058 Y144.274 I-4.009 J-18.686
G02 X53.737 Y145.659 I-2.563 J10.296
G02 X50.739 Y142.023 I-8.519 J3.970
G02 X43.112 Y146.025 I-2.823 J3.889
G02 X44.429 Y151.097 I11.460 J-0.268
G01 X43.815 Y151.055  
G02 X38.085 Y153.256 I-2.090 J3.119
G02 X33.351 Y152.602 I-3.302 J6.437
G02 X29.250 Y158.906 I1.043 J5.164
G02 X33.470 Y170.298 I43.488 J-9.632
G02 X41.219 Y171.602 I4.378 J-2.344
G03 X41.314 Y171.670 I0.041 J0.044
G02 X41.945 Y179.409 I7.434 J3.289
G03 X43.160 Y181.504 I-18.894 J12.360
G02 X39.817 Y193.435 I3.689 J7.467
G02 X37.325 Y199.625 I2.282 J4.516
G02 X45.920 Y210.796 I21.242 J-7.452
G02 X46.789 Y211.318 I5.065 J-7.458
G01 X46.493 Y211.662  
G02 X47.233 Y220.268 I4.899 J3.914
G02 X53.382 Y222.895 I7.018 J-7.919
G01 X53.633 Y222.918  
G02 X57.200 Y226.669 I5.288 J-1.457
G02 X66.575 Y225.270 I3.300 J-9.990
G02 X69.914 Y218.285 I-4.583 J-6.481
G02 X72.738 Y218.356 I1.563 J-6.004
G02 X75.246 Y217.039 I-1.046 J-5.038
G02 X87.721 Y222.412 I13.756 J-14.770
G03 X91.762 Y223.499 I-0.671 J10.542
G02 X101.105 Y223.027 I4.253 J-8.533
G03 X103.397 Y222.721 I1.479 J2.342
G02 X113.074 Y208.847 I2.606 J-8.494
G03 X105.497 Y198.381 I215.239 J-163.788
G02 X113.887 Y202.845 I11.872 J-12.195
G02 X119.344 Y202.809 I2.645 J-12.655
G03 X121.754 Y202.753 I1.346 J6.042
G02 X124.961 Y193.446 I0.857 J-4.911
G03 X123.562 Y189.467 I1.472 J-2.753
G03 X124.471 Y188.013 I5.110 J2.183
G02 X133.323 Y188.563 I5.060 J-9.926
G02 X139.940 Y182.781 I-4.124 J-11.398
G02 X150.744 Y175.721 I-0.343 J-12.321
G03 X151.452 Y177.896 I-3.426 J2.318
G02 X154.042 Y188.100 I24.742 J-0.851
G02 X161.831 Y190.345 I4.927 J-2.459
G03 X167.663 Y187.425 I20.569 J33.797
G02 X172.241 Y180.102 I-2.729 J-6.798
G02 X186.134 Y170.966 I-5.770 J-23.905
G03 X190.157 Y168.742 I4.491 J3.374
G03 X191.441 Y169.295 I-2.408 J7.353
G02 X189.371 Y171.710 I24.991 J23.523
G02 X188.944 Y172.651 I1.735 J1.353
G03 X182.383 Y177.283 I-5.680 J-1.082
G02 X180.839 Y177.619 I-0.336 J2.174
G02 X175.753 Y187.318 I6.198 J9.434
G02 X176.250 Y188.660 I2.199 J-0.052
G01 X176.463 Y188.940  
G02 X182.029 Y202.187 I6.934 J4.879
G02 X190.391 Y208.550 I6.717 J-0.150
G02 X198.749 Y211.700 I4.624 J0.395
G02 X200.976 Y206.721 I-10.285 J-7.587
G02 X208.244 Y204.732 I2.321 J-5.792
G01 X208.361 Y204.563  
G02 X213.494 Y202.497 I-6.445 J-23.420
G02 X213.526 Y206.957 I6.081 J2.187
G03 X207.961 Y207.605 I-4.314 J-12.841
G02 X204.616 Y216.641 I-0.460 J4.967
G03 X210.197 Y220.732 I-126.203 J178.017
G02 X218.632 Y222.657 I6.350 J-8.381
G02 X226.811 Y215.883 I-2.227 J-11.015
G02 X233.825 Y216.651 I3.647 J-0.892
G01 X235.814 Y216.851  
G02 X242.555 Y214.877 I0.967 J-9.195
G02 X245.626 Y210.192 I-5.628 J-7.037
G02 X248.018 Y197.265 I-78.326 J-21.180
G02 X245.799 Y189.464 I-10.901 J-1.115
G02 X234.077 Y177.671 I-52.359 J40.321
G02 X228.139 Y177.641 I-2.989 J3.833
G02 X222.953 Y170.773 I-69.508 J47.099
G02 X221.970 Y170.102 I-1.685 J1.414
G02 X213.871 Y168.101 I-16.174 J48.053
G02 X216.792 Y167.902 I0.677 J-11.637
G03 X222.249 Y167.846 I2.926 J19.260
G02 X230.987 Y165.645 I1.590 J-12.130
G03 X238.980 Y166.175 I-2.211 J93.952
G02 X240.714 Y167.530 I3.078 J-2.150
G03 X247.171 Y170.950 I-10.846 J28.288
G02 X256.983 Y165.299 I3.574 J-5.137
G02 X258.171 Y157.685 I-2.193 J-4.242
G03 X257.334 Y156.712 I6.122 J-6.106
G02 X261.985 Y156.811 I2.522 J-9.197
G03 X265.226 Y156.682 I1.965 J8.581
G03 X268.083 Y157.685 I-1.148 J7.839
G02 X273.670 Y155.138 I1.898 J-3.239
G02 X274.210 Y150.643 I-33.767 J-6.340
G02 X273.095 Y147.331 I-4.720 J-0.254
G03 X267.259 Y138.992 I41.761 J-35.435
G02 X267.678 Y132.299 I-6.528 J-3.767
G02 X259.707 Y118.995 I-50.802 J21.395
G02 X256.137 Y115.918 I-10.302 J8.346
G02 X257.542 Y108.520 I-9.126 J-5.566
G02 X256.037 Y103.335 I-24.195 J4.210
G02 X249.121 Y100.365 I-4.981 J2.063
G03 X248.071 Y96.177 I8.804 J-4.432
G03 X249.471 Y96.195 I0.647 J4.124
G02 X253.355 Y90.551 I0.677 J-3.693
G02 X247.507 Y83.918 I-21.577 J13.129
G02 X246.819 Y77.704 I-4.332 J-2.665
G03 X241.685 Y71.659 I41.758 J-40.662
G02 X226.763 Y53.797 I-156.005 J115.170
G02 X220.291 Y49.484 I-12.574 J11.856
G03 X203.237 Y40.982 I33.160 J-87.870
G02 X197.338 Y38.640 I-9.172 J14.497
G02 X195.603 Y38.651 I-0.841 J4.325
G02 X194.734 Y38.139 I-2.969 J4.049
G02 X189.824 Y38.539 I-2.100 J4.561
G02 X177.826 Y45.151 I-3.437 J7.953
G02 X176.621 Y57.050 I108.497 J16.998
G02 X185.166 Y64.376 I7.129 J0.331
G03 X192.349 Y63.734 I6.484 J32.036
G02 X192.328 Y66.754 I3.427 J1.533
G02 X200.955 Y79.026 I33.732 J-14.544
G03 X202.926 Y88.024 I-5.553 J5.931
G03 X197.343 Y92.682 I-7.175 J-2.925
G02 X198.438 Y85.999 I-3.344 J-3.979
G02 X191.835 Y79.899 I-13.993 J8.522
G03 X188.423 Y76.622 I3.643 J-7.209
G02 X183.024 Y75.350 I-3.279 J1.827
G02 X177.781 Y80.606 I11.289 J16.504
G03 X177.611 Y80.619 I-0.090 J-0.061
G03 X177.648 Y77.156 I1.825 J-1.713
G02 X175.426 Y68.810 I-3.589 J-3.513
G02 X167.796 Y73.441 I-1.660 J5.867
G03 X161.850 Y82.222 I-13.618 J-2.819
G03 X161.779 Y82.215 I-0.031 J-0.047
G03 X161.749 Y81.981 I0.133 J-0.136
G02 X164.040 Y75.536 I-14.992 J-8.959
G03 X165.252 Y73.676 I2.618 J0.381
G02 X167.099 Y66.074 I-2.982 J-4.750
G03 X166.348 Y59.006 I7.381 J-4.359
G02 X164.030 Y53.376 I-4.419 J-1.473
G03 X163.925 Y53.164 I0.089 J-0.177
G02 X158.466 Y46.916 I-5.232 J-0.937
G03 X158.246 Y46.779 I-0.010 J-0.229
G02 X154.768 Y42.505 I-9.395 J4.093
G02 X147.859 Y41.825 I-4.052 J5.729
G03 X146.179 Y39.169 I8.463 J-7.212
G02 X139.629 Y37.254 I-4.092 J1.839
G00 Z29.080
(Begin Footer)
G00 Z44.320
M30
M05
G53 G0 Z-10
G53 G0 X1350 Y1000
(End Footer)
%
