%
( tomtarX3nO ROUND ) ( File created: Sunday December 08 2024 - 02:23 PM)
( for LinuxCNC )
( Material Size) ( X= 800.000, Y= 620.000, Z= 26.000)
G90 (Incremental distance mode)
G17 G21 (Active Plane: XY)(Metric Mode)
G40 G49 G80(Tool Diameter, Length compensation & canned cycles OFF)
G64 P0.05 Q0.05(Path Blending)
T22 M06 (TOOL USE Radiused End Mill Tip 0.25 - 3/4 Fine)
G90 (absolute distance mode)
G54 (Coordinate System)
S18000M3
G00 Z46.320
G4 P6
( Array Toolpath 1 [1] )
G00 X70.157 Y76.764 Z31.080 F7000.0
G01 Z26.000 F300.0 M3
G01 Z25.766 
G01 Z25.533 
G01 Z25.324 
G01 Z25.197 
G01 Z25.020 
G01 Z24.815 
G01 Z24.373 
G01 Z23.931 
G01 Z23.768 
G01 Z23.753 
G01 Z23.519 
G01 Z23.285 
G01 Z23.077 
G01 Z22.950 
G01 Z22.772 
G01 Z22.667 
G01 Z22.561 
G01 Z22.383 
G01 Z22.257 
G01 Z22.048 
G01 Z21.814 
G01 Z21.581 
G01 Z21.565 
G01 Z21.402 
G01 Z20.961 
G01 Z20.519 
G01 Z20.314 
G01 Z20.136 
G01 Z20.009 
G01 Z19.800 
G01 Z19.567 
G01 Z19.333 
G02 X72.292 Y70.093 I-55.878 J-21.555
G01 X74.163 Y67.583  F3500.0
G01 X75.235 Y66.012 
G01 X77.877 Y65.672 
G01 X80.907 Y65.134 
G02 X71.856 Y74.800 I48.676 J54.652
G01 X70.387 Y76.752  
G01 X70.157 Y76.764 
G01 X67.548 Y78.845  
G01 X68.085 Y76.831  
G02 X70.547 Y69.230 I-53.806 J-21.623
G01 X72.608 Y66.486  
G01 X74.137 Y64.208 
G01 X77.593 Y63.790 
G02 X89.731 Y60.577 I-8.630 J-57.143
G01 X89.917 Y60.559  
G01 X89.823 Y60.622 
G02 X73.357 Y75.970 I39.760 J59.164
G01 X71.397 Y78.611  
G01 X67.548 Y78.845 
G01 X64.875 Y81.020  
G01 X66.270 Y76.245  
G02 X68.799 Y68.366 I-51.991 J-21.036
G01 X71.053 Y65.389  
G01 X73.031 Y62.391 
G01 X77.309 Y61.908 
G02 X89.288 Y58.708 I-8.346 J-55.261
G01 X89.345 Y58.703  
G01 X94.656 Y57.939 
G01 X96.268 Y58.212 
G01 X95.971 Y59.111 
G01 X90.885 Y62.201 
G02 X74.858 Y77.140 I38.698 J57.585
G01 X72.416 Y80.477  
G01 X67.103 Y80.792 
G01 X64.875 Y81.020 
G01 X61.980 Y83.348  
G02 X64.455 Y75.657 I-51.568 J-20.833
G02 X67.049 Y67.501 I-50.175 J-20.449
G01 X69.498 Y64.292  
G01 X71.915 Y60.557 
G01 X77.025 Y60.027 
G02 X88.844 Y56.838 I-8.062 J-53.379
G01 X89.166 Y56.808  
G01 X94.648 Y56.001 
G01 X98.840 Y56.630 
G01 X97.963 Y59.143 
G01 X97.549 Y60.422 
G01 X91.946 Y63.781 
G02 X76.359 Y78.309 I37.637 J56.005
G01 X73.445 Y82.354  
G01 X67.268 Y82.688 
G01 X61.980 Y83.348 
G01 X59.676 Y83.923  
G02 X62.639 Y75.070 I-49.264 J-21.408
G02 X65.295 Y66.634 I-48.360 J-19.861
G01 X67.943 Y63.195  
G01 X70.788 Y58.706 
G01 X76.740 Y58.145 
G02 X88.400 Y54.966 I-7.778 J-51.498
G01 X88.986 Y54.914  
G01 X94.641 Y54.060 
G02 X101.524 Y54.945 I9.763 J-48.730
G01 X99.770 Y59.742  
G01 X99.130 Y61.743 
G02 X93.007 Y65.360 I28.054 J54.473
G02 X77.860 Y79.479 I36.575 J54.426
G01 X74.486 Y84.240  
G01 X67.432 Y84.584 
G02 X59.559 Y85.730 I5.908 J68.189
G01 X59.676 Y83.923  
G01 X57.792 Y83.482  
G02 X60.823 Y74.483 I-47.379 J-20.966
G02 X63.537 Y65.765 I-46.543 J-19.274
G01 X66.388 Y62.098  
G01 X69.440 Y57.218 
G01 X70.281 Y56.819 
G01 X76.456 Y56.263 
G02 X87.956 Y53.093 I-7.493 J-49.616
G01 X88.807 Y53.019  
G01 X94.633 Y52.116 
G02 X104.354 Y53.125 I9.770 J-46.786
G01 X101.576 Y60.340  
G01 X100.714 Y63.074 
G02 X94.069 Y66.940 I26.470 J53.142
G02 X79.361 Y80.649 I35.514 J52.846
G01 X75.538 Y86.137  
G01 X67.596 Y86.480 
G02 X57.399 Y88.169 I5.744 J66.293
G01 X57.792 Y83.482  
G01 X55.906 Y83.039  
G02 X59.006 Y73.895 I-45.493 J-20.523
G02 X61.735 Y65.087 I-44.727 J-18.686
G01 X61.775 Y64.894  
G01 X64.833 Y61.001 
G02 X68.070 Y55.752 I-40.785 J-28.773
G01 X69.818 Y54.927  
G02 X76.172 Y54.382 I-1.053 J-49.584
G02 X87.511 Y51.218 I-7.209 J-47.734
G01 X88.627 Y51.125  
G02 X94.626 Y50.169 I-4.505 J-47.560
G02 X104.959 Y51.219 I9.777 J-44.839
G01 X107.377 Y51.127  
G02 X103.383 Y60.939 I71.490 J34.826
G01 X102.303 Y64.415  
G02 X95.130 Y68.519 I24.881 J51.801
G02 X80.862 Y81.819 I34.453 J51.267
G02 X76.606 Y88.044 I47.692 J37.165
G01 X75.596 Y88.040  
G01 X67.761 Y88.375 
G02 X57.038 Y90.224 I5.580 J64.397
G01 X55.090 Y90.765  
G02 X55.906 Y83.039 I-57.041 J-9.930
G01 X54.017 Y82.594  
G02 X57.189 Y73.307 I-43.604 J-20.079
G02 X59.872 Y64.699 I-42.910 J-18.098
G01 X60.009 Y64.020  
G01 X63.278 Y59.904 
G02 X66.693 Y54.281 I-39.230 J-27.676
G01 X69.356 Y53.031  
G02 X75.888 Y52.500 I-0.590 J-47.688
G02 X87.065 Y49.341 I-6.925 J-45.853
G01 X88.448 Y49.230  
G02 X94.620 Y48.217 I-4.325 J-45.665
G02 X104.936 Y49.316 I9.784 J-42.887
G01 X110.225 Y48.941  
G01 X110.584 Y49.047 
G02 X105.189 Y61.537 I68.283 J36.906
G01 X103.896 Y65.768  
G02 X96.192 Y70.099 I23.288 J50.448
G02 X82.363 Y82.988 I33.391 J49.687
G02 X77.692 Y89.959 I46.190 J35.995
G01 X75.594 Y89.943  
G01 X67.925 Y90.271 
G02 X57.518 Y92.065 I5.415 J62.501
G01 X52.575 Y93.580  
G01 X53.116 Y90.993 
G02 X54.017 Y82.594 I-55.067 J-10.158
G01 X52.126 Y82.148  
G02 X55.371 Y72.719 I-41.713 J-19.632
G02 X58.009 Y64.311 I-41.092 J-17.510
G01 X58.237 Y63.143  
G01 X61.723 Y58.807 
G02 X65.309 Y52.805 I-37.675 J-26.579
G01 X68.894 Y51.132  
G02 X75.604 Y50.618 I-0.128 J-45.789
G02 X86.618 Y47.462 I-6.641 J-43.971
G01 X88.268 Y47.336  
G02 X94.614 Y46.262 I-4.146 J-43.771
G02 X104.913 Y47.413 I9.790 J-40.932
G01 X110.381 Y47.000  
G01 X113.448 Y47.833 
G02 X106.995 Y62.136 I65.419 J38.120
G01 X105.493 Y67.135  
G02 X97.253 Y71.678 I21.691 J49.082
G02 X83.864 Y84.158 I32.330 J48.108
G02 X78.799 Y91.883 I44.689 J34.826
G01 X75.593 Y91.846  
G01 X68.089 Y92.167 
G02 X57.998 Y93.907 I5.251 J60.605
G02 X49.755 Y96.718 I14.906 J57.191
G01 X51.244 Y90.648  
G02 X52.126 Y82.148 I-53.196 J-9.812
G01 X50.231 Y81.699  
G02 X53.553 Y72.131 I-39.819 J-19.184
G02 X56.146 Y63.923 I-39.274 J-16.922
G01 X56.460 Y62.262  
G02 X60.168 Y57.710 I-30.986 J-29.027
G02 X63.915 Y51.322 I-36.120 J-25.482
G01 X68.432 Y49.228  
G02 X75.319 Y48.737 I0.334 J-43.885
G02 X86.171 Y45.581 I-6.357 J-42.089
G01 X88.089 Y45.441  
G02 X94.608 Y44.301 I-3.967 J-41.876
G02 X104.890 Y45.510 I9.796 J-38.971
G02 X110.537 Y45.055 I-0.502 J-41.468
G01 X115.294 Y46.289  
G01 X116.478 Y46.512 
G01 X115.165 Y48.667 
G02 X108.802 Y62.735 I63.702 J37.287
G01 X107.096 Y68.515  
G01 X106.977 Y68.566 
G02 X98.315 Y73.258 I20.206 J47.650
G02 X85.365 Y85.328 I31.268 J46.528
G02 X79.927 Y93.816 I43.188 J33.656
G01 X75.591 Y93.749  
G01 X68.253 Y94.063 
G02 X58.478 Y95.748 I5.087 J58.709
G02 X49.150 Y99.065 I14.426 J55.350
G01 X46.439 Y100.369  
G02 X49.373 Y90.302 I-48.097 J-19.479
G02 X50.231 Y81.699 I-51.324 J-9.467
G01 X48.334 Y81.249  
G02 X51.734 Y71.542 I-37.921 J-18.734
G02 X54.283 Y63.535 I-37.455 J-16.333
G01 X54.676 Y61.376  
G02 X58.613 Y56.613 I-29.202 J-28.142
G02 X62.512 Y49.832 I-34.565 J-24.385
G01 X67.970 Y47.319  
G01 X68.240 Y47.323 
G02 X75.035 Y46.855 I0.526 J-41.980
G02 X85.723 Y43.697 I-6.072 J-40.208
G01 X87.910 Y43.547  
G02 X94.602 Y42.334 I-3.787 J-39.982
G02 X104.867 Y43.607 I9.801 J-37.004
G02 X110.693 Y43.105 I-0.479 J-39.565
G01 X115.670 Y44.423  
G01 X119.731 Y45.059 
G01 X116.807 Y49.628 
G02 X110.608 Y63.333 I62.060 J36.325
G01 X108.705 Y69.912  
G01 X107.720 Y70.318 
G02 X99.376 Y74.837 I19.464 J45.898
G02 X86.866 Y86.498 I30.207 J44.949
G02 X81.364 Y95.184 I41.687 J32.486
G01 X81.078 Y95.760  
G01 X81.006 Y95.757 
G01 X75.589 Y95.652 
G01 X68.418 Y95.959 
G02 X58.958 Y97.590 I4.923 J56.813
G02 X49.940 Y100.796 I13.946 J53.508
G01 X43.673 Y104.031  
G01 X42.349 Y104.813 
G01 X44.431 Y100.247 
G02 X47.501 Y89.957 I-46.089 J-19.357
G02 X48.334 Y81.249 I-49.453 J-9.122
G01 X46.433 Y80.796  
G02 X49.915 Y70.952 I-36.020 J-18.280
G02 X52.420 Y63.148 I-35.635 J-15.744
G01 X52.885 Y60.486  
G02 X57.058 Y55.516 I-27.410 J-27.252
G02 X61.097 Y48.333 I-33.010 J-23.288
G02 X67.507 Y45.404 I-16.455 J-44.495
G01 X68.264 Y45.420  
G02 X74.751 Y44.973 I0.502 J-40.077
G02 X85.273 Y41.809 I-5.788 J-38.326
G01 X87.730 Y41.652  
G02 X94.598 Y40.361 I-3.608 J-38.087
G02 X104.844 Y41.704 I9.806 J-35.031
G02 X110.561 Y41.198 I-0.456 J-37.662
G01 X110.849 Y41.149  
G01 X116.046 Y42.558 
G02 X122.936 Y43.403 I8.925 J-44.267
G01 X123.302 Y43.418  
G02 X118.450 Y50.589 I52.419 J40.694
G02 X112.414 Y63.932 I60.418 J35.364
G01 X110.320 Y71.327  
G01 X108.463 Y72.070 
G02 X100.438 Y76.417 I18.721 J44.146
G02 X88.367 Y87.667 I29.145 J43.369
G02 X83.064 Y96.041 I40.186 J31.317
G01 X82.260 Y97.694  
G01 X80.934 Y97.659 
G01 X75.587 Y97.555 
G01 X68.582 Y97.855 
G02 X59.438 Y99.431 I4.758 J54.918
G02 X50.730 Y102.527 I13.466 J51.667
G01 X44.627 Y105.678  
G01 X39.115 Y109.135 
G01 X39.352 Y106.862 
G01 X39.468 Y106.415 
G01 X39.580 Y106.145 
G01 X40.537 Y104.183 
G01 X42.676 Y99.510 
G02 X45.630 Y89.612 I-44.334 J-18.620
G02 X46.433 Y80.796 I-47.581 J-8.777
G01 X44.527 Y80.340  
G01 X44.580 Y80.237  
G02 X48.094 Y70.363 I-34.167 J-17.722
G02 X50.557 Y62.760 I-33.815 J-15.154
G01 X51.084 Y59.590  
G02 X55.503 Y54.419 I-25.610 J-26.356
G02 X59.625 Y46.928 I-31.455 J-22.191
G01 X59.668 Y46.825  
G02 X67.042 Y43.485 I-15.026 J-42.987
G01 X68.288 Y43.517  
G02 X74.467 Y43.092 I0.478 J-38.174
G02 X84.823 Y39.918 I-5.504 J-36.444
G01 X87.551 Y39.758  
G02 X94.594 Y38.379 I-3.428 J-36.193
G02 X104.821 Y39.802 I9.810 J-33.049
G02 X110.249 Y39.321 I-0.433 J-35.759
G01 X111.005 Y39.188  
G02 X116.422 Y40.692 I13.141 J-36.805
G02 X123.022 Y41.502 I8.549 J-42.402
G01 X125.189 Y41.567  
G01 X126.459 Y42.542 
G02 X120.092 Y51.551 I49.262 J41.570
G02 X114.221 Y64.530 I58.775 J34.403
G01 X112.114 Y72.013  
G01 X111.941 Y72.763 
G01 X109.206 Y73.822 
G02 X101.499 Y77.996 I17.978 J42.394
G02 X89.868 Y88.837 I28.084 J41.790
G02 X84.763 Y96.898 I38.685 J30.147
G01 X83.480 Y99.602  
G01 X80.862 Y99.560 
G01 X75.586 Y99.458 
G01 X68.746 Y99.751 
G02 X59.918 Y101.273 I4.594 J53.022
G02 X51.521 Y104.258 I12.986 J49.825
G01 X45.581 Y107.325  
G02 X37.262 Y112.774 I45.285 J78.198
G01 X37.194 Y109.645  
G01 X37.474 Y106.556 
G01 X37.676 Y105.773 
G01 X37.864 Y105.323 
G01 X38.832 Y103.337 
G01 X40.922 Y98.773 
G02 X43.758 Y89.267 I-42.580 J-17.883
G02 X44.527 Y80.340 I-45.710 J-8.432
G01 X42.617 Y79.881  
G01 X42.891 Y79.361  
G02 X46.273 Y69.772 I-32.478 J-16.846
G02 X48.694 Y62.372 I-31.994 J-14.564
G01 X49.273 Y58.688  
G02 X53.948 Y53.322 I-23.799 J-25.453
G02 X57.867 Y46.202 I-29.900 J-21.094
G01 X58.228 Y45.304  
G01 X58.446 Y45.231 
G02 X66.301 Y41.717 I-13.804 J-41.393
G01 X66.576 Y41.559  
G01 X68.312 Y41.614 
G02 X74.183 Y41.210 I0.454 J-36.271
G02 X84.371 Y38.023 I-5.220 J-34.563
G01 X87.371 Y37.863  
G02 X94.590 Y36.388 I-3.249 J-34.298
G01 X95.047 Y36.528  
G02 X104.798 Y37.899 I9.357 J-31.198
G02 X109.937 Y37.443 I-0.410 J-33.857
G01 X111.163 Y37.220  
G02 X116.798 Y38.827 I12.983 J-34.837
G02 X123.108 Y39.600 I8.172 J-40.536
G01 X125.865 Y39.671  
G01 X126.261 Y39.988 
G01 X129.274 Y42.216 
G01 X128.391 Y43.210 
G02 X121.734 Y52.512 I47.330 J40.902
G02 X116.027 Y65.129 I57.133 J33.441
G01 X113.968 Y72.445  
G01 X113.561 Y74.225 
G01 X109.949 Y75.574 
G02 X102.560 Y79.575 I17.235 J40.642
G02 X91.369 Y90.007 I27.022 J40.211
G02 X86.462 Y97.755 I37.184 J28.977
G01 X84.740 Y101.482  
G01 X84.106 Y101.499 
G01 X80.790 Y101.462 
G01 X75.584 Y101.361 
G01 X68.910 Y101.647 
G02 X60.398 Y103.114 I4.430 J51.126
G02 X52.311 Y105.989 I12.506 J47.984
G01 X46.534 Y108.972  
G02 X37.197 Y115.202 I44.331 J76.551
G01 X35.703 Y116.386  
G01 X35.378 Y113.121 
G01 X35.292 Y109.609 
G01 X35.596 Y106.250 
G01 X35.885 Y105.131 
G01 X36.148 Y104.501 
G01 X37.128 Y102.491 
G01 X39.167 Y98.036 
G02 X41.887 Y88.922 I-40.825 J-17.146
G02 X42.621 Y80.105 I-43.839 J-8.086
G01 X42.617 Y79.881  
G01 X40.703 Y79.415  
G01 X41.202 Y78.485  
G02 X44.450 Y69.182 I-30.789 J-15.970
G02 X46.831 Y61.984 I-30.171 J-13.973
G01 X47.450 Y57.777  
G02 X52.393 Y52.225 I-21.975 J-24.543
G02 X56.108 Y45.475 I-28.345 J-19.996
G01 X56.776 Y43.769  
G01 X57.844 Y43.426 
G02 X65.356 Y40.065 I-13.202 J-39.588
G01 X66.112 Y39.626  
G01 X68.335 Y39.711 
G02 X73.899 Y39.329 I0.430 J-34.368
G02 X83.917 Y36.123 I-4.936 J-32.681
G01 X87.192 Y35.969  
G02 X94.587 Y34.385 I-3.069 J-32.404
G01 X95.594 Y34.705  
G02 X104.775 Y35.996 I8.810 J-29.376
G01 X109.625 Y35.566  
G01 X111.322 Y35.243 
G02 X117.175 Y36.961 I12.824 J-32.861
G02 X123.194 Y37.699 I7.796 J-38.671
G01 X126.538 Y37.768  
G01 X127.447 Y38.499 
G01 X132.232 Y41.875 
G01 X129.831 Y44.454 
G02 X123.377 Y53.473 I45.890 J39.658
G02 X117.834 Y65.728 I55.491 J32.480
G01 X115.821 Y72.876  
G01 X115.181 Y75.715 
G01 X110.692 Y77.326 
G02 X103.622 Y81.155 I16.492 J38.890
G02 X92.870 Y91.176 I25.961 J38.631
G02 X88.161 Y98.612 I35.683 J27.807
G01 X86.226 Y102.865  
G01 X86.045 Y103.312 
G01 X84.135 Y103.401 
G01 X80.718 Y103.363 
G01 X75.582 Y103.264 
G01 X69.075 Y103.543 
G02 X60.878 Y104.956 I4.266 J49.230
G02 X53.101 Y107.721 I12.026 J46.142
G01 X47.488 Y110.618  
G02 X38.351 Y116.715 I43.377 J74.905
G01 X34.382 Y120.083  
G03 X33.479 Y113.250 I53.297 J-10.520
G01 X33.389 Y109.573  
G01 X33.718 Y105.943 
G01 X34.093 Y104.489 
G01 X34.431 Y103.680 
G01 X35.424 Y101.645 
G01 X37.413 Y97.299 
G02 X40.016 Y88.576 I-39.070 J-16.410
G02 X40.718 Y80.136 I-41.967 J-7.741
G01 X40.703 Y79.415  
G01 X38.785 Y78.942  
G01 X39.512 Y77.609  
G02 X42.626 Y68.590 I-29.100 J-15.094
G02 X44.968 Y61.597 I-28.347 J-13.381
G01 X45.558 Y57.565  
G01 X45.613 Y56.858 
G01 X46.112 Y56.420 
G02 X50.838 Y51.128 I-20.638 J-23.186
G02 X54.349 Y44.748 I-26.790 J-18.899
G01 X55.309 Y42.222  
G01 X57.242 Y41.621 
G02 X64.412 Y38.413 I-12.600 J-37.783
G01 X65.650 Y37.686  
G01 X68.359 Y37.808 
G02 X73.614 Y37.447 I0.407 J-32.465
G02 X83.066 Y34.420 I-4.652 J-30.799
G01 X83.461 Y34.216  
G01 X87.012 Y34.074 
G02 X94.331 Y32.460 I-2.890 J-30.509
G01 X94.584 Y32.370  
G01 X96.140 Y32.883 
G02 X104.752 Y34.093 I8.263 J-27.553
G01 X109.313 Y33.689  
G01 X111.482 Y33.258 
G02 X117.551 Y35.096 I12.664 J-30.876
G02 X123.279 Y35.798 I7.420 J-36.805
G01 X127.208 Y35.859  
G01 X128.632 Y37.011 
G02 X133.764 Y40.583 I30.142 J-37.835
G01 X135.379 Y41.519  
G01 X131.270 Y45.699 
G02 X125.019 Y54.435 I44.451 J38.413
G02 X119.640 Y66.326 I53.848 J31.519
G01 X117.674 Y73.308  
G01 X116.800 Y77.236 
G02 X111.435 Y79.078 I10.368 J38.942
G02 X104.683 Y82.734 I15.749 J37.138
G02 X94.371 Y92.346 I24.900 J37.052
G02 X89.860 Y99.469 I34.182 J26.638
G01 X87.989 Y103.583  
G01 X87.386 Y105.095 
G01 X84.165 Y105.304 
G01 X80.646 Y105.265 
G01 X75.581 Y105.167 
G01 X69.239 Y105.439 
G02 X61.358 Y106.797 I4.101 J47.334
G02 X53.891 Y109.452 I11.546 J44.301
G01 X48.442 Y112.265  
G02 X39.506 Y118.228 I42.424 J73.258
G02 X34.262 Y122.868 I29.323 J38.421
G01 X33.315 Y123.867  
G01 X32.706 Y121.378 
G03 X31.581 Y113.379 I54.973 J-11.814
G01 X31.486 Y109.537  
G01 X31.839 Y105.637 
G01 X32.302 Y103.847 
G01 X32.715 Y102.858 
G01 X33.719 Y100.798 
G01 X35.658 Y96.562 
G02 X38.144 Y88.231 I-37.316 J-15.673
G02 X38.815 Y80.167 I-40.096 J-7.396
G01 X38.785 Y78.942  
G01 X36.864 Y78.459  
G01 X37.823 Y76.733  
G02 X40.772 Y68.152 I-27.410 J-14.217
G01 X40.801 Y67.995  
G02 X43.105 Y61.209 I-26.522 J-12.786
G01 X43.662 Y57.403  
G01 X43.765 Y55.933 
G01 X44.847 Y54.998 
G02 X49.283 Y50.031 I-19.373 J-21.764
G02 X52.590 Y44.021 I-25.235 J-17.802
G01 X53.798 Y40.747  
G01 X53.827 Y40.658 
G01 X56.640 Y39.816 
G02 X63.467 Y36.761 I-11.998 J-35.977
G01 X65.190 Y35.737  
G01 X68.383 Y35.906 
G02 X73.330 Y35.565 I0.383 J-30.563
G02 X82.204 Y32.724 I-4.367 J-28.918
G01 X83.003 Y32.303  
G01 X86.833 Y32.180 
G02 X93.697 Y30.666 I-2.710 J-28.615
G01 X94.583 Y30.338  
G01 X96.687 Y31.060 
G02 X104.729 Y32.190 I7.717 J-25.730
G01 X109.002 Y31.812  
G01 X111.644 Y31.261 
G01 X112.022 Y31.422 
G02 X117.927 Y33.230 I12.124 J-29.040
G02 X123.365 Y33.897 I7.044 J-34.940
G01 X127.712 Y33.947  
G01 X127.876 Y33.944 
G01 X129.818 Y35.522 
G02 X134.748 Y38.954 I28.956 J-36.347
G01 X136.519 Y39.975  
G01 X137.045 Y40.312 
G01 X138.442 Y41.419 
G01 X137.955 Y41.815 
G02 X132.710 Y46.943 I27.842 J33.721
G02 X126.661 Y55.396 I43.011 J37.169
G02 X121.446 Y66.925 I52.206 J30.558
G01 X119.528 Y73.740  
G01 X118.651 Y77.678 
G01 X118.379 Y78.757 
G01 X118.345 Y78.796 
G01 X117.805 Y78.942 
G02 X112.178 Y80.830 I9.363 J37.237
G02 X105.745 Y84.314 I15.006 J35.387
G02 X95.872 Y93.516 I23.838 J35.472
G02 X91.559 Y100.326 I32.681 J25.468
G01 X89.751 Y104.301  
G01 X88.772 Y106.795 
G01 X87.647 Y106.980 
G01 X84.195 Y107.207 
G01 X80.574 Y107.167 
G01 X75.579 Y107.070 
G01 X69.403 Y107.334 
G02 X61.838 Y108.639 I3.937 J45.438
G02 X54.682 Y111.183 I11.066 J42.460
G01 X49.395 Y113.912  
G02 X40.660 Y119.741 I41.470 J71.611
G02 X35.623 Y124.198 I28.168 J36.908
G01 X32.542 Y127.714  
G01 X32.312 Y127.075 
G01 X30.846 Y121.778 
G03 X29.682 Y113.508 I56.833 J-12.214
G01 X29.584 Y109.501  
G01 X29.961 Y105.331 
G01 X30.511 Y103.205 
G01 X30.998 Y102.036 
G01 X32.015 Y99.952 
G01 X33.903 Y95.825 
G02 X36.273 Y87.886 I-35.561 J-14.936
G02 X36.912 Y80.198 I-38.224 J-7.051
G01 X36.864 Y78.459  
G01 X34.938 Y77.966  
G01 X36.134 Y75.856  
G02 X38.901 Y67.805 I-25.721 J-13.341
G01 X38.980 Y67.392  
G01 X39.023 Y67.301 
G02 X41.242 Y60.821 I-24.744 J-12.092
G01 X41.766 Y57.240  
G01 X41.902 Y55.002 
G01 X43.582 Y53.577 
G02 X47.728 Y48.934 I-18.107 J-20.343
G02 X50.831 Y43.295 I-23.680 J-16.705
G01 X51.988 Y40.158  
G01 X52.342 Y39.072 
G01 X52.349 Y39.070 
G01 X56.038 Y38.010 
G02 X62.523 Y35.109 I-11.396 J-34.172
G01 X64.734 Y33.778  
G01 X68.407 Y34.003 
G01 X73.046 Y33.684 
G02 X81.343 Y31.027 I-4.083 J-27.036
G01 X82.537 Y30.383  
G01 X82.988 Y30.398 
G01 X86.653 Y30.285 
G02 X93.063 Y28.872 I-2.531 J-26.720
G01 X94.584 Y28.285  
G01 X97.234 Y29.237 
G02 X104.706 Y30.287 I7.170 J-23.907
G01 X108.690 Y29.934  
G01 X111.808 Y29.251 
G01 X112.755 Y29.666 
G02 X118.303 Y31.365 I11.391 J-27.283
G02 X123.451 Y31.996 I6.668 J-33.074
G01 X127.670 Y32.045  
G01 X128.549 Y32.027 
G01 X131.004 Y34.034 
G01 X135.732 Y37.325 
G01 X137.437 Y38.308 
G01 X138.177 Y38.782 
G01 X139.849 Y40.118 
G01 X141.454 Y41.548 
G01 X139.167 Y43.282 
G02 X134.150 Y48.187 I26.631 J32.254
G02 X128.304 Y56.357 I41.571 J35.925
G02 X123.253 Y67.524 I50.564 J29.596
G01 X121.381 Y74.172  
G01 X120.513 Y78.073 
G01 X120.241 Y79.173 
G01 X120.098 Y79.595 
G01 X120.025 Y79.731 
G01 X119.312 Y80.493 
G01 X118.269 Y80.787 
G02 X112.921 Y82.582 I8.899 J35.391
G02 X106.806 Y85.893 I14.263 J33.635
G02 X97.373 Y94.686 I22.777 J33.893
G02 X93.258 Y101.183 I31.180 J24.298
G01 X91.513 Y105.019  
G01 X90.184 Y108.392 
G01 X89.724 Y108.526 
G01 X87.866 Y108.870 
G01 X84.225 Y109.110 
G01 X80.502 Y109.068 
G01 X75.577 Y108.973 
G01 X69.568 Y109.230 
G02 X62.317 Y110.480 I3.773 J43.542
G02 X55.472 Y112.914 I10.586 J40.618
G01 X50.349 Y115.559  
G02 X41.815 Y121.253 I40.516 J69.964
G02 X36.984 Y125.528 I27.014 J35.395
G02 X32.185 Y131.450 I29.396 J28.728
G01 X31.900 Y130.928  
G01 X30.511 Y127.689 
G01 X28.985 Y122.177 
G03 X27.783 Y113.637 I58.694 J-12.614
G01 X27.681 Y109.465  
G01 X28.083 Y105.025 
G01 X28.719 Y102.563 
G01 X29.282 Y101.214 
G01 X30.310 Y99.106 
G01 X32.149 Y95.088 
G02 X34.401 Y87.541 I-33.807 J-14.199
G02 X35.010 Y80.229 I-36.353 J-6.706
G01 X34.938 Y77.966  
G01 X33.007 Y77.462  
G01 X34.444 Y74.980  
G02 X37.030 Y67.458 I-24.032 J-12.465
G01 X37.153 Y66.822  
G01 X37.313 Y66.465 
G02 X39.379 Y60.433 I-23.034 J-11.256
G01 X39.870 Y57.078  
G01 X40.022 Y54.063 
G01 X42.316 Y52.156 
G02 X46.173 Y47.837 I-16.842 J-18.921
G02 X49.073 Y42.568 I-22.125 J-15.608
G01 X50.179 Y39.568  
G01 X50.732 Y37.870 
G01 X51.345 Y37.422 
G01 X51.525 Y37.333 
G01 X51.901 Y37.221 
G01 X55.436 Y36.205 
G02 X61.578 Y33.457 I-10.794 J-32.367
G01 X64.055 Y31.953  
G01 X64.292 Y31.808 
G01 X68.431 Y32.100 
G01 X72.762 Y31.802 
G02 X80.481 Y29.330 I-3.799 J-25.154
G01 X82.053 Y28.462  
G01 X83.050 Y28.496 
G01 X86.474 Y28.390 
G02 X92.429 Y27.077 I-2.351 J-24.826
G01 X94.588 Y26.208  
G01 X97.780 Y27.414 
G02 X104.683 Y28.384 I6.623 J-22.084
G01 X108.378 Y28.057  
G01 X111.564 Y27.344 
G01 X111.982 Y27.227 
G01 X113.488 Y27.910 
G02 X118.679 Y29.500 I10.658 J-25.527
G01 X123.537 Y30.095  
G01 X127.628 Y30.142 
G01 X129.228 Y30.111 
G01 X129.474 Y30.318 
G01 X132.190 Y32.546 
G01 X136.716 Y35.696 
G01 X138.355 Y36.641 
G01 X139.308 Y37.252 
G01 X141.092 Y38.677 
G01 X144.519 Y41.838 
G02 X140.378 Y44.750 I16.677 J28.125
G02 X135.590 Y49.431 I25.419 J30.786
G02 X129.946 Y57.319 I40.131 J34.681
G02 X125.059 Y68.122 I48.921 J28.635
G01 X123.235 Y74.603  
G01 X122.374 Y78.468 
G01 X122.073 Y79.690 
G01 X121.866 Y80.300 
G01 X121.591 Y80.812 
G01 X120.444 Y82.023 
G01 X119.924 Y82.295 
G01 X118.733 Y82.633 
G02 X113.664 Y84.334 I8.435 J33.546
G02 X107.868 Y87.473 I13.520 J31.883
G02 X98.874 Y95.855 I21.715 J32.313
G02 X94.958 Y102.040 I29.679 J23.128
G01 X93.276 Y105.737  
G01 X92.259 Y108.336 
G01 X91.677 Y109.705 
G01 X91.580 Y109.893 
G01 X90.196 Y110.370 
G01 X88.086 Y110.761 
G01 X84.254 Y111.012 
G01 X80.430 Y110.970 
G01 X75.576 Y110.876 
G01 X69.732 Y111.126 
G02 X62.797 Y112.322 I3.608 J41.646
G02 X56.262 Y114.645 I10.106 J38.777
G01 X51.303 Y117.206  
G02 X42.969 Y122.766 I39.563 J68.317
G02 X38.345 Y126.858 I25.859 J33.883
G02 X32.263 Y134.953 I28.035 J27.398
G01 X30.214 Y131.810  
G01 X28.710 Y128.303 
G01 X27.125 Y122.577 
G03 X25.885 Y113.766 I60.555 J-13.014
G01 X25.778 Y109.429  
G01 X26.205 Y104.719 
G01 X26.928 Y101.921 
G01 X27.566 Y100.392 
G01 X28.606 Y98.260 
G01 X30.394 Y94.351 
G02 X32.530 Y87.196 I-32.052 J-13.462
G02 X33.107 Y80.261 I-34.481 J-6.360
G01 X33.007 Y77.462  
G01 X31.069 Y76.944  
G01 X32.755 Y74.104  
G02 X35.159 Y67.110 I-22.342 J-11.589
G01 X35.316 Y66.303  
G01 X35.604 Y65.630 
G02 X37.516 Y60.045 I-21.324 J-10.421
G01 X37.974 Y56.915  
G01 X38.123 Y53.728 
G01 X38.131 Y53.474 
G01 X38.518 Y52.836 
G01 X38.817 Y52.590 
G01 X41.051 Y50.734 
G02 X44.618 Y46.740 I-15.577 J-17.500
G02 X47.314 Y41.841 I-20.570 J-14.511
G01 X48.369 Y38.979  
G01 X49.083 Y36.792 
G01 X50.317 Y35.820 
G01 X50.883 Y35.542 
G01 X51.453 Y35.371 
G01 X54.834 Y34.400 
G02 X60.633 Y31.805 I-10.192 J-30.562
G01 X63.025 Y30.353  
G01 X63.931 Y29.851 
G01 X64.309 Y29.891 
G01 X68.455 Y30.197 
G01 X72.478 Y29.920 
G02 X79.619 Y27.633 I-3.515 J-23.273
G01 X81.548 Y26.540  
G01 X83.112 Y26.594 
G01 X86.295 Y26.496 
G02 X91.795 Y25.283 I-2.172 J-22.931
G01 X94.569 Y24.111  
G01 X94.595 Y24.098 
G01 X98.327 Y25.592 
G02 X104.660 Y26.482 I6.077 J-20.262
G01 X108.066 Y26.180  
G01 X111.045 Y25.513 
G01 X112.195 Y25.203 
G01 X114.221 Y26.154 
G02 X119.055 Y27.634 I9.925 J-23.771
G01 X123.622 Y28.194  
G01 X127.585 Y28.239 
G01 X129.902 Y28.198 
G01 X130.701 Y28.864 
G01 X133.376 Y31.057 
G01 X137.700 Y34.067 
G01 X139.272 Y34.974 
G01 X140.440 Y35.722 
G01 X142.335 Y37.236 
G01 X147.119 Y41.761 
G01 X147.653 Y42.324 
G01 X146.271 Y43.027 
G02 X141.590 Y46.217 I14.925 J26.936
G02 X137.030 Y50.676 I24.207 J29.319
G02 X131.588 Y58.280 I38.691 J33.436
G02 X126.866 Y68.721 I47.279 J27.674
G01 X125.088 Y75.035  
G01 X124.236 Y78.863 
G01 X123.904 Y80.207 
G01 X123.634 Y81.004 
G01 X123.158 Y81.893 
G01 X121.607 Y83.529 
G01 X120.499 Y84.109 
G01 X119.197 Y84.478 
G02 X114.407 Y86.086 I7.971 J31.700
G02 X108.929 Y89.052 I12.777 J30.131
G02 X100.375 Y97.025 I20.654 J30.734
G02 X96.657 Y102.897 I28.178 J21.959
G01 X95.038 Y106.455  
G01 X94.040 Y109.005 
G01 X93.394 Y110.525 
G01 X93.022 Y111.181 
G01 X92.882 Y111.331 
G01 X92.437 Y111.595 
G01 X90.668 Y112.214 
G01 X88.305 Y112.651 
G01 X84.284 Y112.915 
G01 X80.359 Y112.872 
G01 X75.574 Y112.779 
G01 X69.896 Y113.022 
G02 X63.277 Y114.163 I3.444 J39.750
G02 X57.053 Y116.376 I9.626 J36.935
G01 X52.256 Y118.852  
G02 X44.124 Y124.279 I38.609 J66.671
G02 X39.706 Y128.188 I24.705 J32.370
G02 X33.117 Y137.387 I26.674 J26.068
G01 X32.698 Y138.246  
G01 X32.425 Y137.978 
G03 X28.527 Y132.691 I15.127 J-15.231
G01 X26.909 Y128.917  
G01 X25.264 Y122.977 
G03 X23.986 Y113.895 I62.415 J-13.413
G01 X23.876 Y109.393  
G01 X24.327 Y104.413 
G01 X25.136 Y101.279 
G01 X25.849 Y99.570 
G01 X26.901 Y97.413 
G01 X28.640 Y93.614 
G02 X30.658 Y86.850 I-30.298 J-12.725
G02 X31.204 Y80.292 I-32.610 J-6.015
G01 X31.069 Y76.944  
G00 Z31.080
G00 X70.157 Y76.764  F7000.0
G01 Z19.333 F300.0 M3
G01 Z19.100 
G01 Z18.866 
G01 Z18.657 
G01 Z18.531 
G01 Z18.353 
G01 Z18.148 
G01 Z17.706 
G01 Z17.264 
G01 Z17.101 
G01 Z17.086 
G01 Z16.852 
G01 Z16.619 
G01 Z16.410 
G01 Z16.283 
G01 Z16.106 
G01 Z16.000 
G01 Z15.894 
G01 Z15.717 
G01 Z15.590 
G01 Z15.381 
G01 Z15.148 
G01 Z14.914 
G01 Z14.899 
G01 Z14.736 
G01 Z14.294 
G01 Z13.852 
G01 Z13.647 
G01 Z13.469 
G01 Z13.343 
G01 Z13.134 
G01 Z12.900 
G01 Z12.667 
G02 X72.292 Y70.093 I-55.878 J-21.555
G01 X74.163 Y67.583  F3500.0
G01 X75.235 Y66.012 
G01 X77.877 Y65.672 
G01 X80.907 Y65.134 
G02 X71.856 Y74.800 I48.676 J54.652
G01 X70.387 Y76.752  
G01 X70.157 Y76.764 
G01 X67.548 Y78.845  
G01 X68.085 Y76.831  
G02 X70.547 Y69.230 I-53.806 J-21.623
G01 X72.608 Y66.486  
G01 X74.137 Y64.208 
G01 X77.593 Y63.790 
G02 X89.731 Y60.577 I-8.630 J-57.143
G01 X89.917 Y60.559  
G01 X89.823 Y60.622 
G02 X73.357 Y75.970 I39.760 J59.164
G01 X71.397 Y78.611  
G01 X67.548 Y78.845 
G01 X64.875 Y81.020  
G01 X66.270 Y76.245  
G02 X68.799 Y68.366 I-51.991 J-21.036
G01 X71.053 Y65.389  
G01 X73.031 Y62.391 
G01 X77.309 Y61.908 
G02 X89.288 Y58.708 I-8.346 J-55.261
G01 X89.345 Y58.703  
G01 X94.656 Y57.939 
G01 X96.268 Y58.212 
G01 X95.971 Y59.111 
G01 X90.885 Y62.201 
G02 X74.858 Y77.140 I38.698 J57.585
G01 X72.416 Y80.477  
G01 X67.103 Y80.792 
G01 X64.875 Y81.020 
G01 X61.980 Y83.348  
G02 X64.455 Y75.657 I-51.568 J-20.833
G02 X67.049 Y67.501 I-50.175 J-20.449
G01 X69.498 Y64.292  
G01 X71.915 Y60.557 
G01 X77.025 Y60.027 
G02 X88.844 Y56.838 I-8.062 J-53.379
G01 X89.166 Y56.808  
G01 X94.648 Y56.001 
G01 X98.840 Y56.630 
G01 X97.963 Y59.143 
G01 X97.549 Y60.422 
G01 X91.946 Y63.781 
G02 X76.359 Y78.309 I37.637 J56.005
G01 X73.445 Y82.354  
G01 X67.268 Y82.688 
G01 X61.980 Y83.348 
G01 X59.676 Y83.923  
G02 X62.639 Y75.070 I-49.264 J-21.408
G02 X65.295 Y66.634 I-48.360 J-19.861
G01 X67.943 Y63.195  
G01 X70.788 Y58.706 
G01 X76.740 Y58.145 
G02 X88.400 Y54.966 I-7.778 J-51.498
G01 X88.986 Y54.914  
G01 X94.641 Y54.060 
G02 X101.524 Y54.945 I9.763 J-48.730
G01 X99.770 Y59.742  
G01 X99.130 Y61.743 
G02 X93.007 Y65.360 I28.054 J54.473
G02 X77.860 Y79.479 I36.575 J54.426
G01 X74.486 Y84.240  
G01 X67.432 Y84.584 
G02 X59.559 Y85.730 I5.908 J68.189
G01 X59.676 Y83.923  
G01 X57.792 Y83.482  
G02 X60.823 Y74.483 I-47.379 J-20.966
G02 X63.537 Y65.765 I-46.543 J-19.274
G01 X66.388 Y62.098  
G01 X69.440 Y57.218 
G01 X70.281 Y56.819 
G01 X76.456 Y56.263 
G02 X87.956 Y53.093 I-7.493 J-49.616
G01 X88.807 Y53.019  
G01 X94.633 Y52.116 
G02 X104.354 Y53.125 I9.770 J-46.786
G01 X101.576 Y60.340  
G01 X100.714 Y63.074 
G02 X94.069 Y66.940 I26.470 J53.142
G02 X79.361 Y80.649 I35.514 J52.846
G01 X75.538 Y86.137  
G01 X67.596 Y86.480 
G02 X57.399 Y88.169 I5.744 J66.293
G01 X57.792 Y83.482  
G01 X55.906 Y83.039  
G02 X59.006 Y73.895 I-45.493 J-20.523
G02 X61.735 Y65.087 I-44.727 J-18.686
G01 X61.775 Y64.894  
G01 X64.833 Y61.001 
G02 X68.070 Y55.752 I-40.785 J-28.773
G01 X69.818 Y54.927  
G02 X76.172 Y54.382 I-1.053 J-49.584
G02 X87.511 Y51.218 I-7.209 J-47.734
G01 X88.627 Y51.125  
G02 X94.626 Y50.169 I-4.505 J-47.560
G02 X104.959 Y51.219 I9.777 J-44.839
G01 X107.377 Y51.127  
G02 X103.383 Y60.939 I71.490 J34.826
G01 X102.303 Y64.415  
G02 X95.130 Y68.519 I24.881 J51.801
G02 X80.862 Y81.819 I34.453 J51.267
G02 X76.606 Y88.044 I47.692 J37.165
G01 X75.596 Y88.040  
G01 X67.761 Y88.375 
G02 X57.038 Y90.224 I5.580 J64.397
G01 X55.090 Y90.765  
G02 X55.906 Y83.039 I-57.041 J-9.930
G01 X54.017 Y82.594  
G02 X57.189 Y73.307 I-43.604 J-20.079
G02 X59.872 Y64.699 I-42.910 J-18.098
G01 X60.009 Y64.020  
G01 X63.278 Y59.904 
G02 X66.693 Y54.281 I-39.230 J-27.676
G01 X69.356 Y53.031  
G02 X75.888 Y52.500 I-0.590 J-47.688
G02 X87.065 Y49.341 I-6.925 J-45.853
G01 X88.448 Y49.230  
G02 X94.620 Y48.217 I-4.325 J-45.665
G02 X104.936 Y49.316 I9.784 J-42.887
G01 X110.225 Y48.941  
G01 X110.584 Y49.047 
G02 X105.189 Y61.537 I68.283 J36.906
G01 X103.896 Y65.768  
G02 X96.192 Y70.099 I23.288 J50.448
G02 X82.363 Y82.988 I33.391 J49.687
G02 X77.692 Y89.959 I46.190 J35.995
G01 X75.594 Y89.943  
G01 X67.925 Y90.271 
G02 X57.518 Y92.065 I5.415 J62.501
G01 X52.575 Y93.580  
G01 X53.116 Y90.993 
G02 X54.017 Y82.594 I-55.067 J-10.158
G01 X52.126 Y82.148  
G02 X55.371 Y72.719 I-41.713 J-19.632
G02 X58.009 Y64.311 I-41.092 J-17.510
G01 X58.237 Y63.143  
G01 X61.723 Y58.807 
G02 X65.309 Y52.805 I-37.675 J-26.579
G01 X68.894 Y51.132  
G02 X75.604 Y50.618 I-0.128 J-45.789
G02 X86.618 Y47.462 I-6.641 J-43.971
G01 X88.268 Y47.336  
G02 X94.614 Y46.262 I-4.146 J-43.771
G02 X104.913 Y47.413 I9.790 J-40.932
G01 X110.381 Y47.000  
G01 X113.448 Y47.833 
G02 X106.995 Y62.136 I65.419 J38.120
G01 X105.493 Y67.135  
G02 X97.253 Y71.678 I21.691 J49.082
G02 X83.864 Y84.158 I32.330 J48.108
G02 X78.799 Y91.883 I44.689 J34.826
G01 X75.593 Y91.846  
G01 X68.089 Y92.167 
G02 X57.998 Y93.907 I5.251 J60.605
G02 X49.755 Y96.718 I14.906 J57.191
G01 X51.244 Y90.648  
G02 X52.126 Y82.148 I-53.196 J-9.812
G01 X50.231 Y81.699  
G02 X53.553 Y72.131 I-39.819 J-19.184
G02 X56.146 Y63.923 I-39.274 J-16.922
G01 X56.460 Y62.262  
G02 X60.168 Y57.710 I-30.986 J-29.027
G02 X63.915 Y51.322 I-36.120 J-25.482
G01 X68.432 Y49.228  
G02 X75.319 Y48.737 I0.334 J-43.885
G02 X86.171 Y45.581 I-6.357 J-42.089
G01 X88.089 Y45.441  
G02 X94.608 Y44.301 I-3.967 J-41.876
G02 X104.890 Y45.510 I9.796 J-38.971
G02 X110.537 Y45.055 I-0.502 J-41.468
G01 X115.294 Y46.289  
G01 X116.478 Y46.512 
G01 X115.165 Y48.667 
G02 X108.802 Y62.735 I63.702 J37.287
G01 X107.096 Y68.515  
G01 X106.977 Y68.566 
G02 X98.315 Y73.258 I20.206 J47.650
G02 X85.365 Y85.328 I31.268 J46.528
G02 X79.927 Y93.816 I43.188 J33.656
G01 X75.591 Y93.749  
G01 X68.253 Y94.063 
G02 X58.478 Y95.748 I5.087 J58.709
G02 X49.150 Y99.065 I14.426 J55.350
G01 X46.439 Y100.369  
G02 X49.373 Y90.302 I-48.097 J-19.479
G02 X50.231 Y81.699 I-51.324 J-9.467
G01 X48.334 Y81.249  
G02 X51.734 Y71.542 I-37.921 J-18.734
G02 X54.283 Y63.535 I-37.455 J-16.333
G01 X54.676 Y61.376  
G02 X58.613 Y56.613 I-29.202 J-28.142
G02 X62.512 Y49.832 I-34.565 J-24.385
G01 X67.970 Y47.319  
G01 X68.240 Y47.323 
G02 X75.035 Y46.855 I0.526 J-41.980
G02 X85.723 Y43.697 I-6.072 J-40.208
G01 X87.910 Y43.547  
G02 X94.602 Y42.334 I-3.787 J-39.982
G02 X104.867 Y43.607 I9.801 J-37.004
G02 X110.693 Y43.105 I-0.479 J-39.565
G01 X115.670 Y44.423  
G01 X119.731 Y45.059 
G01 X116.807 Y49.628 
G02 X110.608 Y63.333 I62.060 J36.325
G01 X108.705 Y69.912  
G01 X107.720 Y70.318 
G02 X99.376 Y74.837 I19.464 J45.898
G02 X86.866 Y86.498 I30.207 J44.949
G02 X81.364 Y95.184 I41.687 J32.486
G01 X81.078 Y95.760  
G01 X81.006 Y95.757 
G01 X75.589 Y95.652 
G01 X68.418 Y95.959 
G02 X58.958 Y97.590 I4.923 J56.813
G02 X49.940 Y100.796 I13.946 J53.508
G01 X43.673 Y104.031  
G01 X42.349 Y104.813 
G01 X44.431 Y100.247 
G02 X47.501 Y89.957 I-46.089 J-19.357
G02 X48.334 Y81.249 I-49.453 J-9.122
G01 X46.433 Y80.796  
G02 X49.915 Y70.952 I-36.020 J-18.280
G02 X52.420 Y63.148 I-35.635 J-15.744
G01 X52.885 Y60.486  
G02 X57.058 Y55.516 I-27.410 J-27.252
G02 X61.097 Y48.333 I-33.010 J-23.288
G02 X67.507 Y45.404 I-16.455 J-44.495
G01 X68.264 Y45.420  
G02 X74.751 Y44.973 I0.502 J-40.077
G02 X85.273 Y41.809 I-5.788 J-38.326
G01 X87.730 Y41.652  
G02 X94.598 Y40.361 I-3.608 J-38.087
G02 X104.844 Y41.704 I9.806 J-35.031
G02 X110.561 Y41.198 I-0.456 J-37.662
G01 X110.849 Y41.149  
G01 X116.046 Y42.558 
G02 X122.936 Y43.403 I8.925 J-44.267
G01 X123.302 Y43.418  
G02 X118.450 Y50.589 I52.419 J40.694
G02 X112.414 Y63.932 I60.418 J35.364
G01 X110.320 Y71.327  
G01 X108.463 Y72.070 
G02 X100.438 Y76.417 I18.721 J44.146
G02 X88.367 Y87.667 I29.145 J43.369
G02 X83.064 Y96.041 I40.186 J31.317
G01 X82.260 Y97.694  
G01 X80.934 Y97.659 
G01 X75.587 Y97.555 
G01 X68.582 Y97.855 
G02 X59.438 Y99.431 I4.758 J54.918
G02 X50.730 Y102.527 I13.466 J51.667
G01 X44.627 Y105.678  
G01 X39.115 Y109.135 
G01 X39.352 Y106.862 
G01 X39.468 Y106.415 
G01 X39.580 Y106.145 
G01 X40.537 Y104.183 
G01 X42.676 Y99.510 
G02 X45.630 Y89.612 I-44.334 J-18.620
G02 X46.433 Y80.796 I-47.581 J-8.777
G01 X44.527 Y80.340  
G01 X44.580 Y80.237  
G02 X48.094 Y70.363 I-34.167 J-17.722
G02 X50.557 Y62.760 I-33.815 J-15.154
G01 X51.084 Y59.590  
G02 X55.503 Y54.419 I-25.610 J-26.356
G02 X59.625 Y46.928 I-31.455 J-22.191
G01 X59.668 Y46.825  
G02 X67.042 Y43.485 I-15.026 J-42.987
G01 X68.288 Y43.517  
G02 X74.467 Y43.092 I0.478 J-38.174
G02 X84.823 Y39.918 I-5.504 J-36.444
G01 X87.551 Y39.758  
G02 X94.594 Y38.379 I-3.428 J-36.193
G02 X104.821 Y39.802 I9.810 J-33.049
G02 X110.249 Y39.321 I-0.433 J-35.759
G01 X111.005 Y39.188  
G02 X116.422 Y40.692 I13.141 J-36.805
G02 X123.022 Y41.502 I8.549 J-42.402
G01 X125.189 Y41.567  
G01 X126.459 Y42.542 
G02 X120.092 Y51.551 I49.262 J41.570
G02 X114.221 Y64.530 I58.775 J34.403
G01 X112.114 Y72.013  
G01 X111.941 Y72.763 
G01 X109.206 Y73.822 
G02 X101.499 Y77.996 I17.978 J42.394
G02 X89.868 Y88.837 I28.084 J41.790
G02 X84.763 Y96.898 I38.685 J30.147
G01 X83.480 Y99.602  
G01 X80.862 Y99.560 
G01 X75.586 Y99.458 
G01 X68.746 Y99.751 
G02 X59.918 Y101.273 I4.594 J53.022
G02 X51.521 Y104.258 I12.986 J49.825
G01 X45.581 Y107.325  
G02 X37.262 Y112.774 I45.285 J78.198
G01 X37.194 Y109.645  
G01 X37.474 Y106.556 
G01 X37.676 Y105.773 
G01 X37.864 Y105.323 
G01 X38.832 Y103.337 
G01 X40.922 Y98.773 
G02 X43.758 Y89.267 I-42.580 J-17.883
G02 X44.527 Y80.340 I-45.710 J-8.432
G01 X42.617 Y79.881  
G01 X42.891 Y79.361  
G02 X46.273 Y69.772 I-32.478 J-16.846
G02 X48.694 Y62.372 I-31.994 J-14.564
G01 X49.273 Y58.688  
G02 X53.948 Y53.322 I-23.799 J-25.453
G02 X57.867 Y46.202 I-29.900 J-21.094
G01 X58.228 Y45.304  
G01 X58.446 Y45.231 
G02 X66.301 Y41.717 I-13.804 J-41.393
G01 X66.576 Y41.559  
G01 X68.312 Y41.614 
G02 X74.183 Y41.210 I0.454 J-36.271
G02 X84.371 Y38.023 I-5.220 J-34.563
G01 X87.371 Y37.863  
G02 X94.590 Y36.388 I-3.249 J-34.298
G01 X95.047 Y36.528  
G02 X104.798 Y37.899 I9.357 J-31.198
G02 X109.937 Y37.443 I-0.410 J-33.857
G01 X111.163 Y37.220  
G02 X116.798 Y38.827 I12.983 J-34.837
G02 X123.108 Y39.600 I8.172 J-40.536
G01 X125.865 Y39.671  
G01 X126.261 Y39.988 
G01 X129.274 Y42.216 
G01 X128.391 Y43.210 
G02 X121.734 Y52.512 I47.330 J40.902
G02 X116.027 Y65.129 I57.133 J33.441
G01 X113.968 Y72.445  
G01 X113.561 Y74.225 
G01 X109.949 Y75.574 
G02 X102.560 Y79.575 I17.235 J40.642
G02 X91.369 Y90.007 I27.022 J40.211
G02 X86.462 Y97.755 I37.184 J28.977
G01 X84.740 Y101.482  
G01 X84.106 Y101.499 
G01 X80.790 Y101.462 
G01 X75.584 Y101.361 
G01 X68.910 Y101.647 
G02 X60.398 Y103.114 I4.430 J51.126
G02 X52.311 Y105.989 I12.506 J47.984
G01 X46.534 Y108.972  
G02 X37.197 Y115.202 I44.331 J76.551
G01 X35.703 Y116.386  
G01 X35.378 Y113.121 
G01 X35.292 Y109.609 
G01 X35.596 Y106.250 
G01 X35.885 Y105.131 
G01 X36.148 Y104.501 
G01 X37.128 Y102.491 
G01 X39.167 Y98.036 
G02 X41.887 Y88.922 I-40.825 J-17.146
G02 X42.621 Y80.105 I-43.839 J-8.086
G01 X42.617 Y79.881  
G01 X40.703 Y79.415  
G01 X41.202 Y78.485  
G02 X44.450 Y69.182 I-30.789 J-15.970
G02 X46.831 Y61.984 I-30.171 J-13.973
G01 X47.450 Y57.777  
G02 X52.393 Y52.225 I-21.975 J-24.543
G02 X56.108 Y45.475 I-28.345 J-19.996
G01 X56.776 Y43.769  
G01 X57.844 Y43.426 
G02 X65.356 Y40.065 I-13.202 J-39.588
G01 X66.112 Y39.626  
G01 X68.335 Y39.711 
G02 X73.899 Y39.329 I0.430 J-34.368
G02 X83.917 Y36.123 I-4.936 J-32.681
G01 X87.192 Y35.969  
G02 X94.587 Y34.385 I-3.069 J-32.404
G01 X95.594 Y34.705  
G02 X104.775 Y35.996 I8.810 J-29.376
G01 X109.625 Y35.566  
G01 X111.322 Y35.243 
G02 X117.175 Y36.961 I12.824 J-32.861
G02 X123.194 Y37.699 I7.796 J-38.671
G01 X126.538 Y37.768  
G01 X127.447 Y38.499 
G01 X132.232 Y41.875 
G01 X129.831 Y44.454 
G02 X123.377 Y53.473 I45.890 J39.658
G02 X117.834 Y65.728 I55.491 J32.480
G01 X115.821 Y72.876  
G01 X115.181 Y75.715 
G01 X110.692 Y77.326 
G02 X103.622 Y81.155 I16.492 J38.890
G02 X92.870 Y91.176 I25.961 J38.631
G02 X88.161 Y98.612 I35.683 J27.807
G01 X86.226 Y102.865  
G01 X86.045 Y103.312 
G01 X84.135 Y103.401 
G01 X80.718 Y103.363 
G01 X75.582 Y103.264 
G01 X69.075 Y103.543 
G02 X60.878 Y104.956 I4.266 J49.230
G02 X53.101 Y107.721 I12.026 J46.142
G01 X47.488 Y110.618  
G02 X38.351 Y116.715 I43.377 J74.905
G01 X34.382 Y120.083  
G03 X33.479 Y113.250 I53.297 J-10.520
G01 X33.389 Y109.573  
G01 X33.718 Y105.943 
G01 X34.093 Y104.489 
G01 X34.431 Y103.680 
G01 X35.424 Y101.645 
G01 X37.413 Y97.299 
G02 X40.016 Y88.576 I-39.070 J-16.410
G02 X40.718 Y80.136 I-41.967 J-7.741
G01 X40.703 Y79.415  
G01 X38.785 Y78.942  
G01 X39.512 Y77.609  
G02 X42.626 Y68.590 I-29.100 J-15.094
G02 X44.968 Y61.597 I-28.347 J-13.381
G01 X45.558 Y57.565  
G01 X45.613 Y56.858 
G01 X46.112 Y56.420 
G02 X50.838 Y51.128 I-20.638 J-23.186
G02 X54.349 Y44.748 I-26.790 J-18.899
G01 X55.309 Y42.222  
G01 X57.242 Y41.621 
G02 X64.412 Y38.413 I-12.600 J-37.783
G01 X65.650 Y37.686  
G01 X68.359 Y37.808 
G02 X73.614 Y37.447 I0.407 J-32.465
G02 X83.066 Y34.420 I-4.652 J-30.799
G01 X83.461 Y34.216  
G01 X87.012 Y34.074 
G02 X94.331 Y32.460 I-2.890 J-30.509
G01 X94.584 Y32.370  
G01 X96.140 Y32.883 
G02 X104.752 Y34.093 I8.263 J-27.553
G01 X109.313 Y33.689  
G01 X111.482 Y33.258 
G02 X117.551 Y35.096 I12.664 J-30.876
G02 X123.279 Y35.798 I7.420 J-36.805
G01 X127.208 Y35.859  
G01 X128.632 Y37.011 
G02 X133.764 Y40.583 I30.142 J-37.835
G01 X135.379 Y41.519  
G01 X131.270 Y45.699 
G02 X125.019 Y54.435 I44.451 J38.413
G02 X119.640 Y66.326 I53.848 J31.519
G01 X117.674 Y73.308  
G01 X116.800 Y77.236 
G02 X111.435 Y79.078 I10.368 J38.942
G02 X104.683 Y82.734 I15.749 J37.138
G02 X94.371 Y92.346 I24.900 J37.052
G02 X89.860 Y99.469 I34.182 J26.638
G01 X87.989 Y103.583  
G01 X87.386 Y105.095 
G01 X84.165 Y105.304 
G01 X80.646 Y105.265 
G01 X75.581 Y105.167 
G01 X69.239 Y105.439 
G02 X61.358 Y106.797 I4.101 J47.334
G02 X53.891 Y109.452 I11.546 J44.301
G01 X48.442 Y112.265  
G02 X39.506 Y118.228 I42.424 J73.258
G02 X34.262 Y122.868 I29.323 J38.421
G01 X33.315 Y123.867  
G01 X32.706 Y121.378 
G03 X31.581 Y113.379 I54.973 J-11.814
G01 X31.486 Y109.537  
G01 X31.839 Y105.637 
G01 X32.302 Y103.847 
G01 X32.715 Y102.858 
G01 X33.719 Y100.798 
G01 X35.658 Y96.562 
G02 X38.144 Y88.231 I-37.316 J-15.673
G02 X38.815 Y80.167 I-40.096 J-7.396
G01 X38.785 Y78.942  
G01 X36.864 Y78.459  
G01 X37.823 Y76.733  
G02 X40.772 Y68.152 I-27.410 J-14.217
G01 X40.801 Y67.995  
G02 X43.105 Y61.209 I-26.522 J-12.786
G01 X43.662 Y57.403  
G01 X43.765 Y55.933 
G01 X44.847 Y54.998 
G02 X49.283 Y50.031 I-19.373 J-21.764
G02 X52.590 Y44.021 I-25.235 J-17.802
G01 X53.798 Y40.747  
G01 X53.827 Y40.658 
G01 X56.640 Y39.816 
G02 X63.467 Y36.761 I-11.998 J-35.977
G01 X65.190 Y35.737  
G01 X68.383 Y35.906 
G02 X73.330 Y35.565 I0.383 J-30.563
G02 X82.204 Y32.724 I-4.367 J-28.918
G01 X83.003 Y32.303  
G01 X86.833 Y32.180 
G02 X93.697 Y30.666 I-2.710 J-28.615
G01 X94.583 Y30.338  
G01 X96.687 Y31.060 
G02 X104.729 Y32.190 I7.717 J-25.730
G01 X109.002 Y31.812  
G01 X111.644 Y31.261 
G01 X112.022 Y31.422 
G02 X117.927 Y33.230 I12.124 J-29.040
G02 X123.365 Y33.897 I7.044 J-34.940
G01 X127.712 Y33.947  
G01 X127.876 Y33.944 
G01 X129.818 Y35.522 
G02 X134.748 Y38.954 I28.956 J-36.347
G01 X136.519 Y39.975  
G01 X137.045 Y40.312 
G01 X138.442 Y41.419 
G01 X137.955 Y41.815 
G02 X132.710 Y46.943 I27.842 J33.721
G02 X126.661 Y55.396 I43.011 J37.169
G02 X121.446 Y66.925 I52.206 J30.558
G01 X119.528 Y73.740  
G01 X118.651 Y77.678 
G01 X118.379 Y78.757 
G01 X118.345 Y78.796 
G01 X117.805 Y78.942 
G02 X112.178 Y80.830 I9.363 J37.237
G02 X105.745 Y84.314 I15.006 J35.387
G02 X95.872 Y93.516 I23.838 J35.472
G02 X91.559 Y100.326 I32.681 J25.468
G01 X89.751 Y104.301  
G01 X88.772 Y106.795 
G01 X87.647 Y106.980 
G01 X84.195 Y107.207 
G01 X80.574 Y107.167 
G01 X75.579 Y107.070 
G01 X69.403 Y107.334 
G02 X61.838 Y108.639 I3.937 J45.438
G02 X54.682 Y111.183 I11.066 J42.460
G01 X49.395 Y113.912  
G02 X40.660 Y119.741 I41.470 J71.611
G02 X35.623 Y124.198 I28.168 J36.908
G01 X32.542 Y127.714  
G01 X32.312 Y127.075 
G01 X30.846 Y121.778 
G03 X29.682 Y113.508 I56.833 J-12.214
G01 X29.584 Y109.501  
G01 X29.961 Y105.331 
G01 X30.511 Y103.205 
G01 X30.998 Y102.036 
G01 X32.015 Y99.952 
G01 X33.903 Y95.825 
G02 X36.273 Y87.886 I-35.561 J-14.936
G02 X36.912 Y80.198 I-38.224 J-7.051
G01 X36.864 Y78.459  
G01 X34.938 Y77.966  
G01 X36.134 Y75.856  
G02 X38.901 Y67.805 I-25.721 J-13.341
G01 X38.980 Y67.392  
G01 X39.023 Y67.301 
G02 X41.242 Y60.821 I-24.744 J-12.092
G01 X41.766 Y57.240  
G01 X41.902 Y55.002 
G01 X43.582 Y53.577 
G02 X47.728 Y48.934 I-18.107 J-20.343
G02 X50.831 Y43.295 I-23.680 J-16.705
G01 X51.988 Y40.158  
G01 X52.342 Y39.072 
G01 X52.349 Y39.070 
G01 X56.038 Y38.010 
G02 X62.523 Y35.109 I-11.396 J-34.172
G01 X64.734 Y33.778  
G01 X68.407 Y34.003 
G01 X73.046 Y33.684 
G02 X81.343 Y31.027 I-4.083 J-27.036
G01 X82.537 Y30.383  
G01 X82.988 Y30.398 
G01 X86.653 Y30.285 
G02 X93.063 Y28.872 I-2.531 J-26.720
G01 X94.584 Y28.285  
G01 X97.234 Y29.237 
G02 X104.706 Y30.287 I7.170 J-23.907
G01 X108.690 Y29.934  
G01 X111.808 Y29.251 
G01 X112.755 Y29.666 
G02 X118.303 Y31.365 I11.391 J-27.283
G02 X123.451 Y31.996 I6.668 J-33.074
G01 X127.670 Y32.045  
G01 X128.549 Y32.027 
G01 X131.004 Y34.034 
G01 X135.732 Y37.325 
G01 X137.437 Y38.308 
G01 X138.177 Y38.782 
G01 X139.849 Y40.118 
G01 X141.454 Y41.548 
G01 X139.167 Y43.282 
G02 X134.150 Y48.187 I26.631 J32.254
G02 X128.304 Y56.357 I41.571 J35.925
G02 X123.253 Y67.524 I50.564 J29.596
G01 X121.381 Y74.172  
G01 X120.513 Y78.073 
G01 X120.241 Y79.173 
G01 X120.098 Y79.595 
G01 X120.025 Y79.731 
G01 X119.312 Y80.493 
G01 X118.269 Y80.787 
G02 X112.921 Y82.582 I8.899 J35.391
G02 X106.806 Y85.893 I14.263 J33.635
G02 X97.373 Y94.686 I22.777 J33.893
G02 X93.258 Y101.183 I31.180 J24.298
G01 X91.513 Y105.019  
G01 X90.184 Y108.392 
G01 X89.724 Y108.526 
G01 X87.866 Y108.870 
G01 X84.225 Y109.110 
G01 X80.502 Y109.068 
G01 X75.577 Y108.973 
G01 X69.568 Y109.230 
G02 X62.317 Y110.480 I3.773 J43.542
G02 X55.472 Y112.914 I10.586 J40.618
G01 X50.349 Y115.559  
G02 X41.815 Y121.253 I40.516 J69.964
G02 X36.984 Y125.528 I27.014 J35.395
G02 X32.185 Y131.450 I29.396 J28.728
G01 X31.900 Y130.928  
G01 X30.511 Y127.689 
G01 X28.985 Y122.177 
G03 X27.783 Y113.637 I58.694 J-12.614
G01 X27.681 Y109.465  
G01 X28.083 Y105.025 
G01 X28.719 Y102.563 
G01 X29.282 Y101.214 
G01 X30.310 Y99.106 
G01 X32.149 Y95.088 
G02 X34.401 Y87.541 I-33.807 J-14.199
G02 X35.010 Y80.229 I-36.353 J-6.706
G01 X34.938 Y77.966  
G01 X33.007 Y77.462  
G01 X34.444 Y74.980  
G02 X37.030 Y67.458 I-24.032 J-12.465
G01 X37.153 Y66.822  
G01 X37.313 Y66.465 
G02 X39.379 Y60.433 I-23.034 J-11.256
G01 X39.870 Y57.078  
G01 X40.022 Y54.063 
G01 X42.316 Y52.156 
G02 X46.173 Y47.837 I-16.842 J-18.921
G02 X49.073 Y42.568 I-22.125 J-15.608
G01 X50.179 Y39.568  
G01 X50.732 Y37.870 
G01 X51.345 Y37.422 
G01 X51.525 Y37.333 
G01 X51.901 Y37.221 
G01 X55.436 Y36.205 
G02 X61.578 Y33.457 I-10.794 J-32.367
G01 X64.055 Y31.953  
G01 X64.292 Y31.808 
G01 X68.431 Y32.100 
G01 X72.762 Y31.802 
G02 X80.481 Y29.330 I-3.799 J-25.154
G01 X82.053 Y28.462  
G01 X83.050 Y28.496 
G01 X86.474 Y28.390 
G02 X92.429 Y27.077 I-2.351 J-24.826
G01 X94.588 Y26.208  
G01 X97.780 Y27.414 
G02 X104.683 Y28.384 I6.623 J-22.084
G01 X108.378 Y28.057  
G01 X111.564 Y27.344 
G01 X111.982 Y27.227 
G01 X113.488 Y27.910 
G02 X118.679 Y29.500 I10.658 J-25.527
G01 X123.537 Y30.095  
G01 X127.628 Y30.142 
G01 X129.228 Y30.111 
G01 X129.474 Y30.318 
G01 X132.190 Y32.546 
G01 X136.716 Y35.696 
G01 X138.355 Y36.641 
G01 X139.308 Y37.252 
G01 X141.092 Y38.677 
G01 X144.519 Y41.838 
G02 X140.378 Y44.750 I16.677 J28.125
G02 X135.590 Y49.431 I25.419 J30.786
G02 X129.946 Y57.319 I40.131 J34.681
G02 X125.059 Y68.122 I48.921 J28.635
G01 X123.235 Y74.603  
G01 X122.374 Y78.468 
G01 X122.073 Y79.690 
G01 X121.866 Y80.300 
G01 X121.591 Y80.812 
G01 X120.444 Y82.023 
G01 X119.924 Y82.295 
G01 X118.733 Y82.633 
G02 X113.664 Y84.334 I8.435 J33.546
G02 X107.868 Y87.473 I13.520 J31.883
G02 X98.874 Y95.855 I21.715 J32.313
G02 X94.958 Y102.040 I29.679 J23.128
G01 X93.276 Y105.737  
G01 X92.259 Y108.336 
G01 X91.677 Y109.705 
G01 X91.580 Y109.893 
G01 X90.196 Y110.370 
G01 X88.086 Y110.761 
G01 X84.254 Y111.012 
G01 X80.430 Y110.970 
G01 X75.576 Y110.876 
G01 X69.732 Y111.126 
G02 X62.797 Y112.322 I3.608 J41.646
G02 X56.262 Y114.645 I10.106 J38.777
G01 X51.303 Y117.206  
G02 X42.969 Y122.766 I39.563 J68.317
G02 X38.345 Y126.858 I25.859 J33.883
G02 X32.263 Y134.953 I28.035 J27.398
G01 X30.214 Y131.810  
G01 X28.710 Y128.303 
G01 X27.125 Y122.577 
G03 X25.885 Y113.766 I60.555 J-13.014
G01 X25.778 Y109.429  
G01 X26.205 Y104.719 
G01 X26.928 Y101.921 
G01 X27.566 Y100.392 
G01 X28.606 Y98.260 
G01 X30.394 Y94.351 
G02 X32.530 Y87.196 I-32.052 J-13.462
G02 X33.107 Y80.261 I-34.481 J-6.360
G01 X33.007 Y77.462  
G01 X31.069 Y76.944  
G01 X32.755 Y74.104  
G02 X35.159 Y67.110 I-22.342 J-11.589
G01 X35.316 Y66.303  
G01 X35.604 Y65.630 
G02 X37.516 Y60.045 I-21.324 J-10.421
G01 X37.974 Y56.915  
G01 X38.123 Y53.728 
G01 X38.131 Y53.474 
G01 X38.518 Y52.836 
G01 X38.817 Y52.590 
G01 X41.051 Y50.734 
G02 X44.618 Y46.740 I-15.577 J-17.500
G02 X47.314 Y41.841 I-20.570 J-14.511
G01 X48.369 Y38.979  
G01 X49.083 Y36.792 
G01 X50.317 Y35.820 
G01 X50.883 Y35.542 
G01 X51.453 Y35.371 
G01 X54.834 Y34.400 
G02 X60.633 Y31.805 I-10.192 J-30.562
G01 X63.025 Y30.353  
G01 X63.931 Y29.851 
G01 X64.309 Y29.891 
G01 X68.455 Y30.197 
G01 X72.478 Y29.920 
G02 X79.619 Y27.633 I-3.515 J-23.273
G01 X81.548 Y26.540  
G01 X83.112 Y26.594 
G01 X86.295 Y26.496 
G02 X91.795 Y25.283 I-2.172 J-22.931
G01 X94.569 Y24.111  
G01 X94.595 Y24.098 
G01 X98.327 Y25.592 
G02 X104.660 Y26.482 I6.077 J-20.262
G01 X108.066 Y26.180  
G01 X111.045 Y25.513 
G01 X112.195 Y25.203 
G01 X114.221 Y26.154 
G02 X119.055 Y27.634 I9.925 J-23.771
G01 X123.622 Y28.194  
G01 X127.585 Y28.239 
G01 X129.902 Y28.198 
G01 X130.701 Y28.864 
G01 X133.376 Y31.057 
G01 X137.700 Y34.067 
G01 X139.272 Y34.974 
G01 X140.440 Y35.722 
G01 X142.335 Y37.236 
G01 X147.119 Y41.761 
G01 X147.653 Y42.324 
G01 X146.271 Y43.027 
G02 X141.590 Y46.217 I14.925 J26.936
G02 X137.030 Y50.676 I24.207 J29.319
G02 X131.588 Y58.280 I38.691 J33.436
G02 X126.866 Y68.721 I47.279 J27.674
G01 X125.088 Y75.035  
G01 X124.236 Y78.863 
G01 X123.904 Y80.207 
G01 X123.634 Y81.004 
G01 X123.158 Y81.893 
G01 X121.607 Y83.529 
G01 X120.499 Y84.109 
G01 X119.197 Y84.478 
G02 X114.407 Y86.086 I7.971 J31.700
G02 X108.929 Y89.052 I12.777 J30.131
G02 X100.375 Y97.025 I20.654 J30.734
G02 X96.657 Y102.897 I28.178 J21.959
G01 X95.038 Y106.455  
G01 X94.040 Y109.005 
G01 X93.394 Y110.525 
G01 X93.022 Y111.181 
G01 X92.882 Y111.331 
G01 X92.437 Y111.595 
G01 X90.668 Y112.214 
G01 X88.305 Y112.651 
G01 X84.284 Y112.915 
G01 X80.359 Y112.872 
G01 X75.574 Y112.779 
G01 X69.896 Y113.022 
G02 X63.277 Y114.163 I3.444 J39.750
G02 X57.053 Y116.376 I9.626 J36.935
G01 X52.256 Y118.852  
G02 X44.124 Y124.279 I38.609 J66.671
G02 X39.706 Y128.188 I24.705 J32.370
G02 X33.117 Y137.387 I26.674 J26.068
G01 X32.698 Y138.246  
G01 X32.425 Y137.978 
G03 X28.527 Y132.691 I15.127 J-15.231
G01 X26.909 Y128.917  
G01 X25.264 Y122.977 
G03 X23.986 Y113.895 I62.415 J-13.413
G01 X23.876 Y109.393  
G01 X24.327 Y104.413 
G01 X25.136 Y101.279 
G01 X25.849 Y99.570 
G01 X26.901 Y97.413 
G01 X28.640 Y93.614 
G02 X30.658 Y86.850 I-30.298 J-12.725
G02 X31.204 Y80.292 I-32.610 J-6.015
G01 X31.069 Y76.944  
G00 Z31.080
G00 X70.157 Y76.764  F7000.0
G01 Z12.667 F300.0 M3
G01 Z12.433 
G01 Z12.199 
G01 Z11.991 
G01 Z11.864 
G01 Z11.686 
G01 Z11.481 
G01 Z11.039 
G01 Z10.597 
G01 Z10.435 
G01 Z10.419 
G01 Z10.186 
G01 Z9.952 
G01 Z9.743 
G01 Z9.617 
G01 Z9.439 
G01 Z9.333 
G01 Z9.228 
G01 Z9.050 
G01 Z8.923 
G01 Z8.715 
G01 Z8.481 
G01 Z8.247 
G01 Z8.232 
G01 Z8.069 
G01 Z7.627 
G01 Z7.185 
G01 Z6.980 
G01 Z6.803 
G01 Z6.676 
G01 Z6.467 
G01 Z6.234 
G01 Z6.000 
G02 X72.292 Y70.093 I-55.878 J-21.555
G01 X74.163 Y67.583  F3500.0
G01 X75.235 Y66.012 
G01 X77.877 Y65.672 
G01 X80.907 Y65.134 
G02 X71.856 Y74.800 I48.676 J54.652
G01 X70.387 Y76.752  
G01 X70.157 Y76.764 
G01 X67.548 Y78.845  
G01 X68.085 Y76.831  
G02 X70.547 Y69.230 I-53.806 J-21.623
G01 X72.608 Y66.486  
G01 X74.137 Y64.208 
G01 X77.593 Y63.790 
G02 X89.731 Y60.577 I-8.630 J-57.143
G01 X89.917 Y60.559  
G01 X89.823 Y60.622 
G02 X73.357 Y75.970 I39.760 J59.164
G01 X71.397 Y78.611  
G01 X67.548 Y78.845 
G01 X64.875 Y81.020  
G01 X66.270 Y76.245  
G02 X68.799 Y68.366 I-51.991 J-21.036
G01 X71.053 Y65.389  
G01 X73.031 Y62.391 
G01 X77.309 Y61.908 
G02 X89.288 Y58.708 I-8.346 J-55.261
G01 X89.345 Y58.703  
G01 X94.656 Y57.939 
G01 X96.268 Y58.212 
G01 X95.971 Y59.111 
G01 X90.885 Y62.201 
G02 X74.858 Y77.140 I38.698 J57.585
G01 X72.416 Y80.477  
G01 X67.103 Y80.792 
G01 X64.875 Y81.020 
G01 X61.980 Y83.348  
G02 X64.455 Y75.657 I-51.568 J-20.833
G02 X67.049 Y67.501 I-50.175 J-20.449
G01 X69.498 Y64.292  
G01 X71.915 Y60.557 
G01 X77.025 Y60.027 
G02 X88.844 Y56.838 I-8.062 J-53.379
G01 X89.166 Y56.808  
G01 X94.648 Y56.001 
G01 X98.840 Y56.630 
G01 X97.963 Y59.143 
G01 X97.549 Y60.422 
G01 X91.946 Y63.781 
G02 X76.359 Y78.309 I37.637 J56.005
G01 X73.445 Y82.354  
G01 X67.268 Y82.688 
G01 X61.980 Y83.348 
G01 X59.676 Y83.923  
G02 X62.639 Y75.070 I-49.264 J-21.408
G02 X65.295 Y66.634 I-48.360 J-19.861
G01 X67.943 Y63.195  
G01 X70.788 Y58.706 
G01 X76.740 Y58.145 
G02 X88.400 Y54.966 I-7.778 J-51.498
G01 X88.986 Y54.914  
G01 X94.641 Y54.060 
G02 X101.524 Y54.945 I9.763 J-48.730
G01 X99.770 Y59.742  
G01 X99.130 Y61.743 
G02 X93.007 Y65.360 I28.054 J54.473
G02 X77.860 Y79.479 I36.575 J54.426
G01 X74.486 Y84.240  
G01 X67.432 Y84.584 
G02 X59.559 Y85.730 I5.908 J68.189
G01 X59.676 Y83.923  
G01 X57.792 Y83.482  
G02 X60.823 Y74.483 I-47.379 J-20.966
G02 X63.537 Y65.765 I-46.543 J-19.274
G01 X66.388 Y62.098  
G01 X69.440 Y57.218 
G01 X70.281 Y56.819 
G01 X76.456 Y56.263 
G02 X87.956 Y53.093 I-7.493 J-49.616
G01 X88.807 Y53.019  
G01 X94.633 Y52.116 
G02 X104.354 Y53.125 I9.770 J-46.786
G01 X101.576 Y60.340  
G01 X100.714 Y63.074 
G02 X94.069 Y66.940 I26.470 J53.142
G02 X79.361 Y80.649 I35.514 J52.846
G01 X75.538 Y86.137  
G01 X67.596 Y86.480 
G02 X57.399 Y88.169 I5.744 J66.293
G01 X57.792 Y83.482  
G01 X55.906 Y83.039  
G02 X59.006 Y73.895 I-45.493 J-20.523
G02 X61.735 Y65.087 I-44.727 J-18.686
G01 X61.775 Y64.894  
G01 X64.833 Y61.001 
G02 X68.070 Y55.752 I-40.785 J-28.773
G01 X69.818 Y54.927  
G02 X76.172 Y54.382 I-1.053 J-49.584
G02 X87.511 Y51.218 I-7.209 J-47.734
G01 X88.627 Y51.125  
G02 X94.626 Y50.169 I-4.505 J-47.560
G02 X104.959 Y51.219 I9.777 J-44.839
G01 X107.377 Y51.127  
G02 X103.383 Y60.939 I71.490 J34.826
G01 X102.303 Y64.415  
G02 X95.130 Y68.519 I24.881 J51.801
G02 X80.862 Y81.819 I34.453 J51.267
G02 X76.606 Y88.044 I47.692 J37.165
G01 X75.596 Y88.040  
G01 X67.761 Y88.375 
G02 X57.038 Y90.224 I5.580 J64.397
G01 X55.090 Y90.765  
G02 X55.906 Y83.039 I-57.041 J-9.930
G01 X54.017 Y82.594  
G02 X57.189 Y73.307 I-43.604 J-20.079
G02 X59.872 Y64.699 I-42.910 J-18.098
G01 X60.009 Y64.020  
G01 X63.278 Y59.904 
G02 X66.693 Y54.281 I-39.230 J-27.676
G01 X69.356 Y53.031  
G02 X75.888 Y52.500 I-0.590 J-47.688
G02 X87.065 Y49.341 I-6.925 J-45.853
G01 X88.448 Y49.230  
G02 X94.620 Y48.217 I-4.325 J-45.665
G02 X104.936 Y49.316 I9.784 J-42.887
G01 X110.225 Y48.941  
G01 X110.584 Y49.047 
G02 X105.189 Y61.537 I68.283 J36.906
G01 X103.896 Y65.768  
G02 X96.192 Y70.099 I23.288 J50.448
G02 X82.363 Y82.988 I33.391 J49.687
G02 X77.692 Y89.959 I46.190 J35.995
G01 X75.594 Y89.943  
G01 X67.925 Y90.271 
G02 X57.518 Y92.065 I5.415 J62.501
G01 X52.575 Y93.580  
G01 X53.116 Y90.993 
G02 X54.017 Y82.594 I-55.067 J-10.158
G01 X52.126 Y82.148  
G02 X55.371 Y72.719 I-41.713 J-19.632
G02 X58.009 Y64.311 I-41.092 J-17.510
G01 X58.237 Y63.143  
G01 X61.723 Y58.807 
G02 X65.309 Y52.805 I-37.675 J-26.579
G01 X68.894 Y51.132  
G02 X75.604 Y50.618 I-0.128 J-45.789
G02 X86.618 Y47.462 I-6.641 J-43.971
G01 X88.268 Y47.336  
G02 X94.614 Y46.262 I-4.146 J-43.771
G02 X104.913 Y47.413 I9.790 J-40.932
G01 X110.381 Y47.000  
G01 X113.448 Y47.833 
G02 X106.995 Y62.136 I65.419 J38.120
G01 X105.493 Y67.135  
G02 X97.253 Y71.678 I21.691 J49.082
G02 X83.864 Y84.158 I32.330 J48.108
G02 X78.799 Y91.883 I44.689 J34.826
G01 X75.593 Y91.846  
G01 X68.089 Y92.167 
G02 X57.998 Y93.907 I5.251 J60.605
G02 X49.755 Y96.718 I14.906 J57.191
G01 X51.244 Y90.648  
G02 X52.126 Y82.148 I-53.196 J-9.812
G01 X50.231 Y81.699  
G02 X53.553 Y72.131 I-39.819 J-19.184
G02 X56.146 Y63.923 I-39.274 J-16.922
G01 X56.460 Y62.262  
G02 X60.168 Y57.710 I-30.986 J-29.027
G02 X63.915 Y51.322 I-36.120 J-25.482
G01 X68.432 Y49.228  
G02 X75.319 Y48.737 I0.334 J-43.885
G02 X86.171 Y45.581 I-6.357 J-42.089
G01 X88.089 Y45.441  
G02 X94.608 Y44.301 I-3.967 J-41.876
G02 X104.890 Y45.510 I9.796 J-38.971
G02 X110.537 Y45.055 I-0.502 J-41.468
G01 X115.294 Y46.289  
G01 X116.478 Y46.512 
G01 X115.165 Y48.667 
G02 X108.802 Y62.735 I63.702 J37.287
G01 X107.096 Y68.515  
G01 X106.977 Y68.566 
G02 X98.315 Y73.258 I20.206 J47.650
G02 X85.365 Y85.328 I31.268 J46.528
G02 X79.927 Y93.816 I43.188 J33.656
G01 X75.591 Y93.749  
G01 X68.253 Y94.063 
G02 X58.478 Y95.748 I5.087 J58.709
G02 X49.150 Y99.065 I14.426 J55.350
G01 X46.439 Y100.369  
G02 X49.373 Y90.302 I-48.097 J-19.479
G02 X50.231 Y81.699 I-51.324 J-9.467
G01 X48.334 Y81.249  
G02 X51.734 Y71.542 I-37.921 J-18.734
G02 X54.283 Y63.535 I-37.455 J-16.333
G01 X54.676 Y61.376  
G02 X58.613 Y56.613 I-29.202 J-28.142
G02 X62.512 Y49.832 I-34.565 J-24.385
G01 X67.970 Y47.319  
G01 X68.240 Y47.323 
G02 X75.035 Y46.855 I0.526 J-41.980
G02 X85.723 Y43.697 I-6.072 J-40.208
G01 X87.910 Y43.547  
G02 X94.602 Y42.334 I-3.787 J-39.982
G02 X104.867 Y43.607 I9.801 J-37.004
G02 X110.693 Y43.105 I-0.479 J-39.565
G01 X115.670 Y44.423  
G01 X119.731 Y45.059 
G01 X116.807 Y49.628 
G02 X110.608 Y63.333 I62.060 J36.325
G01 X108.705 Y69.912  
G01 X107.720 Y70.318 
G02 X99.376 Y74.837 I19.464 J45.898
G02 X86.866 Y86.498 I30.207 J44.949
G02 X81.364 Y95.184 I41.687 J32.486
G01 X81.078 Y95.760  
G01 X81.006 Y95.757 
G01 X75.589 Y95.652 
G01 X68.418 Y95.959 
G02 X58.958 Y97.590 I4.923 J56.813
G02 X49.940 Y100.796 I13.946 J53.508
G01 X43.673 Y104.031  
G01 X42.349 Y104.813 
G01 X44.431 Y100.247 
G02 X47.501 Y89.957 I-46.089 J-19.357
G02 X48.334 Y81.249 I-49.453 J-9.122
G01 X46.433 Y80.796  
G02 X49.915 Y70.952 I-36.020 J-18.280
G02 X52.420 Y63.148 I-35.635 J-15.744
G01 X52.885 Y60.486  
G02 X57.058 Y55.516 I-27.410 J-27.252
G02 X61.097 Y48.333 I-33.010 J-23.288
G02 X67.507 Y45.404 I-16.455 J-44.495
G01 X68.264 Y45.420  
G02 X74.751 Y44.973 I0.502 J-40.077
G02 X85.273 Y41.809 I-5.788 J-38.326
G01 X87.730 Y41.652  
G02 X94.598 Y40.361 I-3.608 J-38.087
G02 X104.844 Y41.704 I9.806 J-35.031
G02 X110.561 Y41.198 I-0.456 J-37.662
G01 X110.849 Y41.149  
G01 X116.046 Y42.558 
G02 X122.936 Y43.403 I8.925 J-44.267
G01 X123.302 Y43.418  
G02 X118.450 Y50.589 I52.419 J40.694
G02 X112.414 Y63.932 I60.418 J35.364
G01 X110.320 Y71.327  
G01 X108.463 Y72.070 
G02 X100.438 Y76.417 I18.721 J44.146
G02 X88.367 Y87.667 I29.145 J43.369
G02 X83.064 Y96.041 I40.186 J31.317
G01 X82.260 Y97.694  
G01 X80.934 Y97.659 
G01 X75.587 Y97.555 
G01 X68.582 Y97.855 
G02 X59.438 Y99.431 I4.758 J54.918
G02 X50.730 Y102.527 I13.466 J51.667
G01 X44.627 Y105.678  
G01 X39.115 Y109.135 
G01 X39.352 Y106.862 
G01 X39.468 Y106.415 
G01 X39.580 Y106.145 
G01 X40.537 Y104.183 
G01 X42.676 Y99.510 
G02 X45.630 Y89.612 I-44.334 J-18.620
G02 X46.433 Y80.796 I-47.581 J-8.777
G01 X44.527 Y80.340  
G01 X44.580 Y80.237  
G02 X48.094 Y70.363 I-34.167 J-17.722
G02 X50.557 Y62.760 I-33.815 J-15.154
G01 X51.084 Y59.590  
G02 X55.503 Y54.419 I-25.610 J-26.356
G02 X59.625 Y46.928 I-31.455 J-22.191
G01 X59.668 Y46.825  
G02 X67.042 Y43.485 I-15.026 J-42.987
G01 X68.288 Y43.517  
G02 X74.467 Y43.092 I0.478 J-38.174
G02 X84.823 Y39.918 I-5.504 J-36.444
G01 X87.551 Y39.758  
G02 X94.594 Y38.379 I-3.428 J-36.193
G02 X104.821 Y39.802 I9.810 J-33.049
G02 X110.249 Y39.321 I-0.433 J-35.759
G01 X111.005 Y39.188  
G02 X116.422 Y40.692 I13.141 J-36.805
G02 X123.022 Y41.502 I8.549 J-42.402
G01 X125.189 Y41.567  
G01 X126.459 Y42.542 
G02 X120.092 Y51.551 I49.262 J41.570
G02 X114.221 Y64.530 I58.775 J34.403
G01 X112.114 Y72.013  
G01 X111.941 Y72.763 
G01 X109.206 Y73.822 
G02 X101.499 Y77.996 I17.978 J42.394
G02 X89.868 Y88.837 I28.084 J41.790
G02 X84.763 Y96.898 I38.685 J30.147
G01 X83.480 Y99.602  
G01 X80.862 Y99.560 
G01 X75.586 Y99.458 
G01 X68.746 Y99.751 
G02 X59.918 Y101.273 I4.594 J53.022
G02 X51.521 Y104.258 I12.986 J49.825
G01 X45.581 Y107.325  
G02 X37.262 Y112.774 I45.285 J78.198
G01 X37.194 Y109.645  
G01 X37.474 Y106.556 
G01 X37.676 Y105.773 
G01 X37.864 Y105.323 
G01 X38.832 Y103.337 
G01 X40.922 Y98.773 
G02 X43.758 Y89.267 I-42.580 J-17.883
G02 X44.527 Y80.340 I-45.710 J-8.432
G01 X42.617 Y79.881  
G01 X42.891 Y79.361  
G02 X46.273 Y69.772 I-32.478 J-16.846
G02 X48.694 Y62.372 I-31.994 J-14.564
G01 X49.273 Y58.688  
G02 X53.948 Y53.322 I-23.799 J-25.453
G02 X57.867 Y46.202 I-29.900 J-21.094
G01 X58.228 Y45.304  
G01 X58.446 Y45.231 
G02 X66.301 Y41.717 I-13.804 J-41.393
G01 X66.576 Y41.559  
G01 X68.312 Y41.614 
G02 X74.183 Y41.210 I0.454 J-36.271
G02 X84.371 Y38.023 I-5.220 J-34.563
G01 X87.371 Y37.863  
G02 X94.590 Y36.388 I-3.249 J-34.298
G01 X95.047 Y36.528  
G02 X104.798 Y37.899 I9.357 J-31.198
G02 X109.937 Y37.443 I-0.410 J-33.857
G01 X111.163 Y37.220  
G02 X116.798 Y38.827 I12.983 J-34.837
G02 X123.108 Y39.600 I8.172 J-40.536
G01 X125.865 Y39.671  
G01 X126.261 Y39.988 
G01 X129.274 Y42.216 
G01 X128.391 Y43.210 
G02 X121.734 Y52.512 I47.330 J40.902
G02 X116.027 Y65.129 I57.133 J33.441
G01 X113.968 Y72.445  
G01 X113.561 Y74.225 
G01 X109.949 Y75.574 
G02 X102.560 Y79.575 I17.235 J40.642
G02 X91.369 Y90.007 I27.022 J40.211
G02 X86.462 Y97.755 I37.184 J28.977
G01 X84.740 Y101.482  
G01 X84.106 Y101.499 
G01 X80.790 Y101.462 
G01 X75.584 Y101.361 
G01 X68.910 Y101.647 
G02 X60.398 Y103.114 I4.430 J51.126
G02 X52.311 Y105.989 I12.506 J47.984
G01 X46.534 Y108.972  
G02 X37.197 Y115.202 I44.331 J76.551
G01 X35.703 Y116.386  
G01 X35.378 Y113.121 
G01 X35.292 Y109.609 
G01 X35.596 Y106.250 
G01 X35.885 Y105.131 
G01 X36.148 Y104.501 
G01 X37.128 Y102.491 
G01 X39.167 Y98.036 
G02 X41.887 Y88.922 I-40.825 J-17.146
G02 X42.621 Y80.105 I-43.839 J-8.086
G01 X42.617 Y79.881  
G01 X40.703 Y79.415  
G01 X41.202 Y78.485  
G02 X44.450 Y69.182 I-30.789 J-15.970
G02 X46.831 Y61.984 I-30.171 J-13.973
G01 X47.450 Y57.777  
G02 X52.393 Y52.225 I-21.975 J-24.543
G02 X56.108 Y45.475 I-28.345 J-19.996
G01 X56.776 Y43.769  
G01 X57.844 Y43.426 
G02 X65.356 Y40.065 I-13.202 J-39.588
G01 X66.112 Y39.626  
G01 X68.335 Y39.711 
G02 X73.899 Y39.329 I0.430 J-34.368
G02 X83.917 Y36.123 I-4.936 J-32.681
G01 X87.192 Y35.969  
G02 X94.587 Y34.385 I-3.069 J-32.404
G01 X95.594 Y34.705  
G02 X104.775 Y35.996 I8.810 J-29.376
G01 X109.625 Y35.566  
G01 X111.322 Y35.243 
G02 X117.175 Y36.961 I12.824 J-32.861
G02 X123.194 Y37.699 I7.796 J-38.671
G01 X126.538 Y37.768  
G01 X127.447 Y38.499 
G01 X132.232 Y41.875 
G01 X129.831 Y44.454 
G02 X123.377 Y53.473 I45.890 J39.658
G02 X117.834 Y65.728 I55.491 J32.480
G01 X115.821 Y72.876  
G01 X115.181 Y75.715 
G01 X110.692 Y77.326 
G02 X103.622 Y81.155 I16.492 J38.890
G02 X92.870 Y91.176 I25.961 J38.631
G02 X88.161 Y98.612 I35.683 J27.807
G01 X86.226 Y102.865  
G01 X86.045 Y103.312 
G01 X84.135 Y103.401 
G01 X80.718 Y103.363 
G01 X75.582 Y103.264 
G01 X69.075 Y103.543 
G02 X60.878 Y104.956 I4.266 J49.230
G02 X53.101 Y107.721 I12.026 J46.142
G01 X47.488 Y110.618  
G02 X38.351 Y116.715 I43.377 J74.905
G01 X34.382 Y120.083  
G03 X33.479 Y113.250 I53.297 J-10.520
G01 X33.389 Y109.573  
G01 X33.718 Y105.943 
G01 X34.093 Y104.489 
G01 X34.431 Y103.680 
G01 X35.424 Y101.645 
G01 X37.413 Y97.299 
G02 X40.016 Y88.576 I-39.070 J-16.410
G02 X40.718 Y80.136 I-41.967 J-7.741
G01 X40.703 Y79.415  
G01 X38.785 Y78.942  
G01 X39.512 Y77.609  
G02 X42.626 Y68.590 I-29.100 J-15.094
G02 X44.968 Y61.597 I-28.347 J-13.381
G01 X45.558 Y57.565  
G01 X45.613 Y56.858 
G01 X46.112 Y56.420 
G02 X50.838 Y51.128 I-20.638 J-23.186
G02 X54.349 Y44.748 I-26.790 J-18.899
G01 X55.309 Y42.222  
G01 X57.242 Y41.621 
G02 X64.412 Y38.413 I-12.600 J-37.783
G01 X65.650 Y37.686  
G01 X68.359 Y37.808 
G02 X73.614 Y37.447 I0.407 J-32.465
G02 X83.066 Y34.420 I-4.652 J-30.799
G01 X83.461 Y34.216  
G01 X87.012 Y34.074 
G02 X94.331 Y32.460 I-2.890 J-30.509
G01 X94.584 Y32.370  
G01 X96.140 Y32.883 
G02 X104.752 Y34.093 I8.263 J-27.553
G01 X109.313 Y33.689  
G01 X111.482 Y33.258 
G02 X117.551 Y35.096 I12.664 J-30.876
G02 X123.279 Y35.798 I7.420 J-36.805
G01 X127.208 Y35.859  
G01 X128.632 Y37.011 
G02 X133.764 Y40.583 I30.142 J-37.835
G01 X135.379 Y41.519  
G01 X131.270 Y45.699 
G02 X125.019 Y54.435 I44.451 J38.413
G02 X119.640 Y66.326 I53.848 J31.519
G01 X117.674 Y73.308  
G01 X116.800 Y77.236 
G02 X111.435 Y79.078 I10.368 J38.942
G02 X104.683 Y82.734 I15.749 J37.138
G02 X94.371 Y92.346 I24.900 J37.052
G02 X89.860 Y99.469 I34.182 J26.638
G01 X87.989 Y103.583  
G01 X87.386 Y105.095 
G01 X84.165 Y105.304 
G01 X80.646 Y105.265 
G01 X75.581 Y105.167 
G01 X69.239 Y105.439 
G02 X61.358 Y106.797 I4.101 J47.334
G02 X53.891 Y109.452 I11.546 J44.301
G01 X48.442 Y112.265  
G02 X39.506 Y118.228 I42.424 J73.258
G02 X34.262 Y122.868 I29.323 J38.421
G01 X33.315 Y123.867  
G01 X32.706 Y121.378 
G03 X31.581 Y113.379 I54.973 J-11.814
G01 X31.486 Y109.537  
G01 X31.839 Y105.637 
G01 X32.302 Y103.847 
G01 X32.715 Y102.858 
G01 X33.719 Y100.798 
G01 X35.658 Y96.562 
G02 X38.144 Y88.231 I-37.316 J-15.673
G02 X38.815 Y80.167 I-40.096 J-7.396
G01 X38.785 Y78.942  
G01 X36.864 Y78.459  
G01 X37.823 Y76.733  
G02 X40.772 Y68.152 I-27.410 J-14.217
G01 X40.801 Y67.995  
G02 X43.105 Y61.209 I-26.522 J-12.786
G01 X43.662 Y57.403  
G01 X43.765 Y55.933 
G01 X44.847 Y54.998 
G02 X49.283 Y50.031 I-19.373 J-21.764
G02 X52.590 Y44.021 I-25.235 J-17.802
G01 X53.798 Y40.747  
G01 X53.827 Y40.658 
G01 X56.640 Y39.816 
G02 X63.467 Y36.761 I-11.998 J-35.977
G01 X65.190 Y35.737  
G01 X68.383 Y35.906 
G02 X73.330 Y35.565 I0.383 J-30.563
G02 X82.204 Y32.724 I-4.367 J-28.918
G01 X83.003 Y32.303  
G01 X86.833 Y32.180 
G02 X93.697 Y30.666 I-2.710 J-28.615
G01 X94.583 Y30.338  
G01 X96.687 Y31.060 
G02 X104.729 Y32.190 I7.717 J-25.730
G01 X109.002 Y31.812  
G01 X111.644 Y31.261 
G01 X112.022 Y31.422 
G02 X117.927 Y33.230 I12.124 J-29.040
G02 X123.365 Y33.897 I7.044 J-34.940
G01 X127.712 Y33.947  
G01 X127.876 Y33.944 
G01 X129.818 Y35.522 
G02 X134.748 Y38.954 I28.956 J-36.347
G01 X136.519 Y39.975  
G01 X137.045 Y40.312 
G01 X138.442 Y41.419 
G01 X137.955 Y41.815 
G02 X132.710 Y46.943 I27.842 J33.721
G02 X126.661 Y55.396 I43.011 J37.169
G02 X121.446 Y66.925 I52.206 J30.558
G01 X119.528 Y73.740  
G01 X118.651 Y77.678 
G01 X118.379 Y78.757 
G01 X118.345 Y78.796 
G01 X117.805 Y78.942 
G02 X112.178 Y80.830 I9.363 J37.237
G02 X105.745 Y84.314 I15.006 J35.387
G02 X95.872 Y93.516 I23.838 J35.472
G02 X91.559 Y100.326 I32.681 J25.468
G01 X89.751 Y104.301  
G01 X88.772 Y106.795 
G01 X87.647 Y106.980 
G01 X84.195 Y107.207 
G01 X80.574 Y107.167 
G01 X75.579 Y107.070 
G01 X69.403 Y107.334 
G02 X61.838 Y108.639 I3.937 J45.438
G02 X54.682 Y111.183 I11.066 J42.460
G01 X49.395 Y113.912  
G02 X40.660 Y119.741 I41.470 J71.611
G02 X35.623 Y124.198 I28.168 J36.908
G01 X32.542 Y127.714  
G01 X32.312 Y127.075 
G01 X30.846 Y121.778 
G03 X29.682 Y113.508 I56.833 J-12.214
G01 X29.584 Y109.501  
G01 X29.961 Y105.331 
G01 X30.511 Y103.205 
G01 X30.998 Y102.036 
G01 X32.015 Y99.952 
G01 X33.903 Y95.825 
G02 X36.273 Y87.886 I-35.561 J-14.936
G02 X36.912 Y80.198 I-38.224 J-7.051
G01 X36.864 Y78.459  
G01 X34.938 Y77.966  
G01 X36.134 Y75.856  
G02 X38.901 Y67.805 I-25.721 J-13.341
G01 X38.980 Y67.392  
G01 X39.023 Y67.301 
G02 X41.242 Y60.821 I-24.744 J-12.092
G01 X41.766 Y57.240  
G01 X41.902 Y55.002 
G01 X43.582 Y53.577 
G02 X47.728 Y48.934 I-18.107 J-20.343
G02 X50.831 Y43.295 I-23.680 J-16.705
G01 X51.988 Y40.158  
G01 X52.342 Y39.072 
G01 X52.349 Y39.070 
G01 X56.038 Y38.010 
G02 X62.523 Y35.109 I-11.396 J-34.172
G01 X64.734 Y33.778  
G01 X68.407 Y34.003 
G01 X73.046 Y33.684 
G02 X81.343 Y31.027 I-4.083 J-27.036
G01 X82.537 Y30.383  
G01 X82.988 Y30.398 
G01 X86.653 Y30.285 
G02 X93.063 Y28.872 I-2.531 J-26.720
G01 X94.584 Y28.285  
G01 X97.234 Y29.237 
G02 X104.706 Y30.287 I7.170 J-23.907
G01 X108.690 Y29.934  
G01 X111.808 Y29.251 
G01 X112.755 Y29.666 
G02 X118.303 Y31.365 I11.391 J-27.283
G02 X123.451 Y31.996 I6.668 J-33.074
G01 X127.670 Y32.045  
G01 X128.549 Y32.027 
G01 X131.004 Y34.034 
G01 X135.732 Y37.325 
G01 X137.437 Y38.308 
G01 X138.177 Y38.782 
G01 X139.849 Y40.118 
G01 X141.454 Y41.548 
G01 X139.167 Y43.282 
G02 X134.150 Y48.187 I26.631 J32.254
G02 X128.304 Y56.357 I41.571 J35.925
G02 X123.253 Y67.524 I50.564 J29.596
G01 X121.381 Y74.172  
G01 X120.513 Y78.073 
G01 X120.241 Y79.173 
G01 X120.098 Y79.595 
G01 X120.025 Y79.731 
G01 X119.312 Y80.493 
G01 X118.269 Y80.787 
G02 X112.921 Y82.582 I8.899 J35.391
G02 X106.806 Y85.893 I14.263 J33.635
G02 X97.373 Y94.686 I22.777 J33.893
G02 X93.258 Y101.183 I31.180 J24.298
G01 X91.513 Y105.019  
G01 X90.184 Y108.392 
G01 X89.724 Y108.526 
G01 X87.866 Y108.870 
G01 X84.225 Y109.110 
G01 X80.502 Y109.068 
G01 X75.577 Y108.973 
G01 X69.568 Y109.230 
G02 X62.317 Y110.480 I3.773 J43.542
G02 X55.472 Y112.914 I10.586 J40.618
G01 X50.349 Y115.559  
G02 X41.815 Y121.253 I40.516 J69.964
G02 X36.984 Y125.528 I27.014 J35.395
G02 X32.185 Y131.450 I29.396 J28.728
G01 X31.900 Y130.928  
G01 X30.511 Y127.689 
G01 X28.985 Y122.177 
G03 X27.783 Y113.637 I58.694 J-12.614
G01 X27.681 Y109.465  
G01 X28.083 Y105.025 
G01 X28.719 Y102.563 
G01 X29.282 Y101.214 
G01 X30.310 Y99.106 
G01 X32.149 Y95.088 
G02 X34.401 Y87.541 I-33.807 J-14.199
G02 X35.010 Y80.229 I-36.353 J-6.706
G01 X34.938 Y77.966  
G01 X33.007 Y77.462  
G01 X34.444 Y74.980  
G02 X37.030 Y67.458 I-24.032 J-12.465
G01 X37.153 Y66.822  
G01 X37.313 Y66.465 
G02 X39.379 Y60.433 I-23.034 J-11.256
G01 X39.870 Y57.078  
G01 X40.022 Y54.063 
G01 X42.316 Y52.156 
G02 X46.173 Y47.837 I-16.842 J-18.921
G02 X49.073 Y42.568 I-22.125 J-15.608
G01 X50.179 Y39.568  
G01 X50.732 Y37.870 
G01 X51.345 Y37.422 
G01 X51.525 Y37.333 
G01 X51.901 Y37.221 
G01 X55.436 Y36.205 
G02 X61.578 Y33.457 I-10.794 J-32.367
G01 X64.055 Y31.953  
G01 X64.292 Y31.808 
G01 X68.431 Y32.100 
G01 X72.762 Y31.802 
G02 X80.481 Y29.330 I-3.799 J-25.154
G01 X82.053 Y28.462  
G01 X83.050 Y28.496 
G01 X86.474 Y28.390 
G02 X92.429 Y27.077 I-2.351 J-24.826
G01 X94.588 Y26.208  
G01 X97.780 Y27.414 
G02 X104.683 Y28.384 I6.623 J-22.084
G01 X108.378 Y28.057  
G01 X111.564 Y27.344 
G01 X111.982 Y27.227 
G01 X113.488 Y27.910 
G02 X118.679 Y29.500 I10.658 J-25.527
G01 X123.537 Y30.095  
G01 X127.628 Y30.142 
G01 X129.228 Y30.111 
G01 X129.474 Y30.318 
G01 X132.190 Y32.546 
G01 X136.716 Y35.696 
G01 X138.355 Y36.641 
G01 X139.308 Y37.252 
G01 X141.092 Y38.677 
G01 X144.519 Y41.838 
G02 X140.378 Y44.750 I16.677 J28.125
G02 X135.590 Y49.431 I25.419 J30.786
G02 X129.946 Y57.319 I40.131 J34.681
G02 X125.059 Y68.122 I48.921 J28.635
G01 X123.235 Y74.603  
G01 X122.374 Y78.468 
G01 X122.073 Y79.690 
G01 X121.866 Y80.300 
G01 X121.591 Y80.812 
G01 X120.444 Y82.023 
G01 X119.924 Y82.295 
G01 X118.733 Y82.633 
G02 X113.664 Y84.334 I8.435 J33.546
G02 X107.868 Y87.473 I13.520 J31.883
G02 X98.874 Y95.855 I21.715 J32.313
G02 X94.958 Y102.040 I29.679 J23.128
G01 X93.276 Y105.737  
G01 X92.259 Y108.336 
G01 X91.677 Y109.705 
G01 X91.580 Y109.893 
G01 X90.196 Y110.370 
G01 X88.086 Y110.761 
G01 X84.254 Y111.012 
G01 X80.430 Y110.970 
G01 X75.576 Y110.876 
G01 X69.732 Y111.126 
G02 X62.797 Y112.322 I3.608 J41.646
G02 X56.262 Y114.645 I10.106 J38.777
G01 X51.303 Y117.206  
G02 X42.969 Y122.766 I39.563 J68.317
G02 X38.345 Y126.858 I25.859 J33.883
G02 X32.263 Y134.953 I28.035 J27.398
G01 X30.214 Y131.810  
G01 X28.710 Y128.303 
G01 X27.125 Y122.577 
G03 X25.885 Y113.766 I60.555 J-13.014
G01 X25.778 Y109.429  
G01 X26.205 Y104.719 
G01 X26.928 Y101.921 
G01 X27.566 Y100.392 
G01 X28.606 Y98.260 
G01 X30.394 Y94.351 
G02 X32.530 Y87.196 I-32.052 J-13.462
G02 X33.107 Y80.261 I-34.481 J-6.360
G01 X33.007 Y77.462  
G01 X31.069 Y76.944  
G01 X32.755 Y74.104  
G02 X35.159 Y67.110 I-22.342 J-11.589
G01 X35.316 Y66.303  
G01 X35.604 Y65.630 
G02 X37.516 Y60.045 I-21.324 J-10.421
G01 X37.974 Y56.915  
G01 X38.123 Y53.728 
G01 X38.131 Y53.474 
G01 X38.518 Y52.836 
G01 X38.817 Y52.590 
G01 X41.051 Y50.734 
G02 X44.618 Y46.740 I-15.577 J-17.500
G02 X47.314 Y41.841 I-20.570 J-14.511
G01 X48.369 Y38.979  
G01 X49.083 Y36.792 
G01 X50.317 Y35.820 
G01 X50.883 Y35.542 
G01 X51.453 Y35.371 
G01 X54.834 Y34.400 
G02 X60.633 Y31.805 I-10.192 J-30.562
G01 X63.025 Y30.353  
G01 X63.931 Y29.851 
G01 X64.309 Y29.891 
G01 X68.455 Y30.197 
G01 X72.478 Y29.920 
G02 X79.619 Y27.633 I-3.515 J-23.273
G01 X81.548 Y26.540  
G01 X83.112 Y26.594 
G01 X86.295 Y26.496 
G02 X91.795 Y25.283 I-2.172 J-22.931
G01 X94.569 Y24.111  
G01 X94.595 Y24.098 
G01 X98.327 Y25.592 
G02 X104.660 Y26.482 I6.077 J-20.262
G01 X108.066 Y26.180  
G01 X111.045 Y25.513 
G01 X112.195 Y25.203 
G01 X114.221 Y26.154 
G02 X119.055 Y27.634 I9.925 J-23.771
G01 X123.622 Y28.194  
G01 X127.585 Y28.239 
G01 X129.902 Y28.198 
G01 X130.701 Y28.864 
G01 X133.376 Y31.057 
G01 X137.700 Y34.067 
G01 X139.272 Y34.974 
G01 X140.440 Y35.722 
G01 X142.335 Y37.236 
G01 X147.119 Y41.761 
G01 X147.653 Y42.324 
G01 X146.271 Y43.027 
G02 X141.590 Y46.217 I14.925 J26.936
G02 X137.030 Y50.676 I24.207 J29.319
G02 X131.588 Y58.280 I38.691 J33.436
G02 X126.866 Y68.721 I47.279 J27.674
G01 X125.088 Y75.035  
G01 X124.236 Y78.863 
G01 X123.904 Y80.207 
G01 X123.634 Y81.004 
G01 X123.158 Y81.893 
G01 X121.607 Y83.529 
G01 X120.499 Y84.109 
G01 X119.197 Y84.478 
G02 X114.407 Y86.086 I7.971 J31.700
G02 X108.929 Y89.052 I12.777 J30.131
G02 X100.375 Y97.025 I20.654 J30.734
G02 X96.657 Y102.897 I28.178 J21.959
G01 X95.038 Y106.455  
G01 X94.040 Y109.005 
G01 X93.394 Y110.525 
G01 X93.022 Y111.181 
G01 X92.882 Y111.331 
G01 X92.437 Y111.595 
G01 X90.668 Y112.214 
G01 X88.305 Y112.651 
G01 X84.284 Y112.915 
G01 X80.359 Y112.872 
G01 X75.574 Y112.779 
G01 X69.896 Y113.022 
G02 X63.277 Y114.163 I3.444 J39.750
G02 X57.053 Y116.376 I9.626 J36.935
G01 X52.256 Y118.852  
G02 X44.124 Y124.279 I38.609 J66.671
G02 X39.706 Y128.188 I24.705 J32.370
G02 X33.117 Y137.387 I26.674 J26.068
G01 X32.698 Y138.246  
G01 X32.425 Y137.978 
G03 X28.527 Y132.691 I15.127 J-15.231
G01 X26.909 Y128.917  
G01 X25.264 Y122.977 
G03 X23.986 Y113.895 I62.415 J-13.413
G01 X23.876 Y109.393  
G01 X24.327 Y104.413 
G01 X25.136 Y101.279 
G01 X25.849 Y99.570 
G01 X26.901 Y97.413 
G01 X28.640 Y93.614 
G02 X30.658 Y86.850 I-30.298 J-12.725
G02 X31.204 Y80.292 I-32.610 J-6.015
G01 X31.069 Y76.944  
G00 Z31.080
G00 X137.410 Y140.443  F7000.0
G01 Z26.000 F300.0 M3
G01 Z25.818 
G01 Z25.426 
G01 Z25.196 
G01 Z24.965 
G01 Z24.459 
G01 Z23.976 
G01 Z23.794 
G01 Z23.402 
G01 Z23.171 
G01 Z22.941 
G01 Z22.667 
G01 Z22.392 
G01 Z22.162 
G01 Z21.931 
G01 Z21.540 
G01 Z21.357 
G01 Z20.874 
G01 Z20.368 
G01 Z20.138 
G01 Z19.907 
G01 Z19.515 
G01 Z19.333 
G01 X138.856 Y138.123  F3500.0
G01 X141.599 Y132.926 
G02 X147.780 Y129.846 I-21.672 J-51.236
G01 X142.731 Y135.523  
G01 X137.410 Y140.443 
G01 X125.747 Y150.653  
G01 X128.000 Y148.662  
G02 X137.215 Y137.157 I-35.273 J-37.693
G01 X140.182 Y131.451  
G02 X149.884 Y126.289 I-20.255 J-49.761
G02 X155.610 Y121.904 I-32.416 J-48.261
G03 X150.332 Y129.685 I-67.045 J-39.798
G03 X144.091 Y136.857 I-63.111 J-48.615
G03 X130.729 Y147.703 I-54.386 J-53.350
G01 X125.747 Y150.653  
G01 X126.699 Y147.271  
G02 X135.573 Y136.191 I-33.971 J-36.303
G02 X138.754 Y129.981 I-51.239 J-30.163
G01 X138.759 Y129.968  
G02 X148.822 Y124.708 I-18.832 J-48.278
G02 X162.392 Y111.849 I-31.354 J-46.680
G01 X162.033 Y112.871  
G03 X158.213 Y121.206 I-52.766 J-19.144
G03 X151.841 Y130.848 I-69.647 J-39.100
G03 X145.451 Y138.191 I-64.620 J-49.778
G03 X131.755 Y149.308 I-55.746 J-54.684
G03 X121.836 Y154.773 I-46.939 J-73.451
G03 X109.796 Y159.566 I-46.020 J-98.102
G03 X93.310 Y163.663 I-35.365 J-107.088
G01 X89.125 Y164.285  
G01 X87.239 Y162.200 
G02 X96.150 Y161.378 I-3.230 J-83.713
G02 X104.905 Y159.473 I-9.444 J-64.479
G02 X114.628 Y155.667 I-16.203 J-55.710
G02 X126.699 Y147.271 I-22.815 J-45.676
G01 X125.397 Y145.880  
G02 X133.931 Y135.224 I-32.670 J-34.912
G02 X137.010 Y129.214 I-49.598 J-29.197
G01 X137.331 Y128.474  
G01 X137.653 Y128.353 
G02 X147.759 Y123.126 I-17.725 J-46.662
G02 X162.191 Y108.871 I-30.292 J-45.098
G02 X165.773 Y102.847 I-42.932 J-29.608
G01 X166.374 Y103.591  
G01 X166.017 Y105.640 
G03 X163.824 Y113.521 I-52.434 J-10.347
G03 X159.874 Y122.138 I-54.557 J-19.793
G03 X153.350 Y132.010 I-71.308 J-40.032
G03 X146.811 Y139.525 I-66.129 J-50.940
G03 X132.781 Y150.913 I-57.105 J-56.018
G03 X122.645 Y156.498 I-47.965 J-75.056
G03 X110.393 Y161.375 I-46.829 J-99.827
G03 X93.629 Y165.541 I-35.962 J-108.897
G01 X88.395 Y166.294  
G01 X83.722 Y161.027 
G01 X83.178 Y160.368 
G01 X86.829 Y160.309 
G02 X95.874 Y159.493 I-2.820 J-81.821
G02 X104.373 Y157.644 I-9.168 J-62.594
G02 X113.777 Y153.963 I-15.671 J-53.881
G02 X125.397 Y145.880 I-21.964 J-43.972
G01 X124.095 Y144.489  
G02 X132.290 Y134.258 I-31.368 J-33.521
G02 X135.266 Y128.446 I-47.956 J-28.231
G01 X135.897 Y126.969  
G01 X136.976 Y126.572 
G02 X146.697 Y121.545 I-17.049 J-44.882
G02 X160.623 Y107.789 I-29.230 J-43.517
G02 X165.327 Y99.323 I-41.364 J-28.526
G01 X168.377 Y103.044  
G01 X167.886 Y106.009 
G03 X165.615 Y114.171 I-54.303 J-10.716
G03 X161.535 Y123.071 I-56.348 J-20.443
G03 X154.859 Y133.173 I-72.970 J-40.965
G03 X148.171 Y140.859 I-67.638 J-52.103
G03 X133.807 Y152.518 I-58.465 J-57.352
G03 X123.455 Y158.223 I-48.990 J-76.662
G03 X110.991 Y163.184 I-47.638 J-101.552
G03 X93.948 Y167.419 I-36.559 J-110.706
G01 X87.667 Y168.294  
G01 X82.259 Y162.248 
G01 X79.281 Y158.394 
G01 X81.312 Y158.440 
G01 X86.764 Y158.405 
G02 X95.598 Y157.608 I-2.755 J-79.918
G02 X103.841 Y155.815 I-8.892 J-60.709
G02 X112.925 Y152.258 I-15.139 J-52.052
G02 X124.095 Y144.489 I-21.112 J-42.267
G01 X122.794 Y143.098  
G02 X130.648 Y133.291 I-30.066 J-32.130
G01 X133.523 Y127.679  
G01 X134.457 Y125.451 
G01 X136.300 Y124.791 
G02 X145.635 Y119.964 I-16.373 J-43.101
G02 X159.054 Y106.708 I-28.168 J-41.936
G02 X164.266 Y96.906 I-39.796 J-27.445
G01 X164.723 Y95.698  
G01 X170.367 Y102.488 
G01 X169.755 Y106.378 
G03 X167.406 Y114.820 I-56.172 J-11.084
G03 X163.196 Y124.003 I-58.139 J-21.093
G03 X156.368 Y134.335 I-74.631 J-41.897
G03 X149.531 Y142.193 I-69.148 J-53.265
G03 X134.833 Y154.124 I-59.825 J-58.686
G03 X124.264 Y159.947 I-50.016 J-78.267
G03 X111.588 Y164.992 I-48.447 J-103.276
G03 X94.266 Y169.297 I-37.157 J-112.515
G01 X86.942 Y170.286  
G01 X80.797 Y163.469 
G01 X77.229 Y158.788 
G01 X75.693 Y156.422 
G01 X77.164 Y156.440 
G01 X81.353 Y156.536 
G01 X86.698 Y156.501 
G02 X95.321 Y155.723 I-2.689 J-78.014
G02 X103.309 Y153.986 I-8.616 J-58.824
G02 X112.074 Y150.554 I-14.607 J-50.223
G02 X122.794 Y143.098 I-20.261 J-40.563
G01 X121.492 Y141.707  
G02 X129.006 Y132.325 I-28.765 J-30.739
G01 X131.779 Y126.911  
G01 X133.010 Y123.921 
G01 X135.623 Y123.010 
G02 X144.573 Y118.382 I-15.696 J-41.320
G02 X157.486 Y105.626 I-27.105 J-40.354
G02 X162.492 Y96.211 I-38.228 J-26.363
G01 X163.950 Y91.972  
G01 X165.861 Y94.106 
G01 X171.910 Y101.368 
G01 X172.280 Y101.861 
G01 X172.309 Y101.959 
G01 X172.314 Y102.223 
G01 X171.624 Y106.747 
G03 X169.196 Y115.470 I-58.041 J-11.453
G03 X164.858 Y124.936 I-59.929 J-21.742
G03 X157.878 Y135.498 I-76.292 J-42.830
G03 X150.891 Y143.527 I-70.657 J-54.428
G03 X135.858 Y155.729 I-61.185 J-60.020
G03 X125.073 Y161.672 I-51.042 J-79.872
G03 X112.185 Y166.801 I-49.256 J-105.001
G03 X94.585 Y171.175 I-37.754 J-114.324
G01 X86.219 Y172.270  
G03 X79.335 Y164.691 I87.623 J-86.498
G01 X75.664 Y159.875  
G01 X73.589 Y156.607 
G01 X72.838 Y155.171 
G01 X73.972 Y154.545 
G01 X74.054 Y154.542 
G01 X77.174 Y154.535 
G01 X81.394 Y154.631 
G01 X86.633 Y154.597 
G02 X95.045 Y153.838 I-2.623 J-76.110
G02 X102.777 Y152.156 I-8.340 J-56.939
G02 X111.223 Y148.850 I-14.075 J-48.394
G02 X121.492 Y141.707 I-19.410 J-38.859
G01 X120.190 Y140.316  
G02 X127.365 Y131.358 I-27.463 J-29.348
G01 X130.036 Y126.144  
G01 X131.476 Y122.588 
G01 X131.556 Y122.374 
G01 X134.947 Y121.229 
G02 X143.511 Y116.801 I-15.020 J-39.539
G02 X155.918 Y104.545 I-26.043 J-38.773
G02 X160.718 Y95.516 I-36.659 J-25.282
G01 X162.416 Y90.408  
G01 X162.996 Y88.152 
G01 X167.291 Y92.848 
G01 X173.406 Y100.189 
G01 X173.857 Y100.791 
G01 X173.945 Y100.932 
G01 X174.194 Y101.683 
G01 X174.208 Y102.427 
G01 X173.493 Y107.115 
G03 X170.987 Y116.120 I-59.910 J-11.822
G03 X166.519 Y125.868 I-61.720 J-22.392
G03 X159.387 Y136.661 I-77.953 J-43.762
G03 X152.251 Y144.862 I-72.166 J-55.591
G03 X136.884 Y157.334 I-62.545 J-61.354
G03 X125.882 Y163.397 I-52.068 J-81.477
G03 X112.783 Y168.610 I-50.065 J-106.726
G03 X94.904 Y173.053 I-38.351 J-116.133
G03 X85.497 Y174.245 I-18.843 J-110.979
G03 X77.873 Y165.912 I88.345 J-88.474
G01 X74.099 Y160.962  
G01 X71.940 Y157.562 
G01 X70.589 Y154.761 
G01 X70.456 Y154.409 
G01 X72.138 Y153.373 
G01 X73.438 Y152.685 
G01 X73.998 Y152.638 
G01 X77.221 Y152.630 
G01 X81.434 Y152.727 
G01 X86.567 Y152.693 
G02 X94.769 Y151.954 I-2.558 J-74.206
G02 X102.245 Y150.327 I-8.064 J-55.054
G02 X110.371 Y147.146 I-13.543 J-46.564
G02 X120.190 Y140.316 I-18.559 J-37.155
G01 X118.889 Y138.925  
G02 X125.723 Y130.392 I-26.161 J-27.957
G01 X128.292 Y125.376  
G01 X129.690 Y121.925 
G01 X130.132 Y120.800 
G01 X134.270 Y119.448 
G02 X142.448 Y115.219 I-14.343 J-37.758
G02 X154.350 Y103.463 I-24.981 J-37.192
G02 X158.945 Y94.821 I-35.091 J-24.200
G01 X160.579 Y89.904  
G01 X161.298 Y87.048 
G01 X161.950 Y84.338 
G01 X168.721 Y91.589 
G01 X174.902 Y99.010 
G01 X175.409 Y99.686 
G01 X175.622 Y100.029 
G01 X176.078 Y101.406 
G01 X176.102 Y102.632 
G01 X175.362 Y107.484 
G03 X172.778 Y116.769 I-61.779 J-12.191
G03 X168.180 Y126.801 I-63.511 J-23.042
G03 X160.896 Y137.823 I-79.614 J-44.695
G03 X153.610 Y146.196 I-73.675 J-56.753
G03 X137.910 Y158.939 I-63.905 J-62.688
G03 X126.691 Y165.121 I-53.094 J-83.083
G03 X113.380 Y170.419 I-50.874 J-108.450
G03 X95.223 Y174.931 I-38.949 J-117.942
G03 X84.776 Y176.214 I-19.162 J-112.858
G01 X84.292 Y175.734  
G03 X76.411 Y167.133 I89.550 J-89.962
G01 X72.534 Y162.048  
G01 X70.291 Y158.516 
G01 X68.816 Y155.456 
G01 X68.215 Y153.625 
G01 X71.180 Y151.727 
G01 X72.789 Y150.885 
G01 X72.952 Y150.833 
G01 X73.943 Y150.734 
G01 X77.267 Y150.726 
G01 X81.475 Y150.822 
G01 X86.501 Y150.789 
G02 X94.493 Y150.069 I-2.492 J-72.302
G02 X101.713 Y148.498 I-7.787 J-53.169
G02 X109.520 Y145.441 I-13.011 J-44.735
G02 X118.889 Y138.925 I-17.707 J-35.451
G01 X117.587 Y137.534  
G02 X124.081 Y129.426 I-24.860 J-26.566
G01 X126.549 Y124.609  
G01 X127.904 Y121.263 
G01 X128.539 Y119.676 
G01 X128.775 Y119.190 
G01 X129.016 Y119.126 
G01 X133.594 Y117.668 
G02 X141.386 Y113.638 I-13.667 J-35.977
G02 X152.781 Y102.382 I-23.919 J-35.610
G02 X157.171 Y94.125 I-33.523 J-23.119
G01 X158.742 Y89.399  
G01 X159.441 Y86.623 
G01 X160.271 Y83.207 
G01 X160.987 Y80.703 
G01 X161.299 Y81.007 
G03 X170.151 Y90.331 I-118.811 J121.665
G01 X176.399 Y97.831  
G01 X176.960 Y98.580 
G01 X177.300 Y99.126 
G01 X177.963 Y101.130 
G01 X177.996 Y102.837 
G01 X177.231 Y107.853 
G03 X174.569 Y117.419 I-63.648 J-12.560
G03 X169.841 Y127.733 I-65.302 J-23.692
G03 X162.405 Y138.986 I-81.275 J-45.627
G03 X154.970 Y147.530 I-75.184 J-57.916
G03 X138.936 Y160.545 I-65.265 J-64.022
G03 X127.500 Y166.846 I-54.119 J-84.688
G03 X113.978 Y172.228 I-51.684 J-110.175
G03 X95.542 Y176.810 I-39.546 J-119.751
G03 X84.055 Y178.177 I-19.481 J-114.736
G01 X82.948 Y177.084  
G03 X74.948 Y168.354 I90.894 J-91.312
G01 X70.970 Y163.135  
G01 X68.643 Y159.470 
G01 X67.043 Y156.152 
G01 X66.339 Y153.982 
G01 X66.075 Y152.824 
G01 X66.090 Y152.813 
G01 X70.222 Y150.080 
G01 X71.982 Y149.159 
G01 X72.626 Y148.956 
G01 X73.888 Y148.829 
G01 X77.313 Y148.821 
G01 X81.516 Y148.918 
G01 X86.436 Y148.886 
G02 X94.217 Y148.184 I-2.427 J-70.398
G02 X101.181 Y146.669 I-7.511 J-51.284
G02 X108.669 Y143.737 I-12.479 J-42.906
G02 X117.587 Y137.534 I-16.856 J-33.746
G01 X116.286 Y136.143  
G02 X122.440 Y128.459 I-23.558 J-25.175
G01 X124.805 Y123.841  
G01 X126.118 Y120.601 
G01 X126.790 Y118.923 
G01 X127.126 Y118.233 
G01 X127.374 Y117.880 
G01 X127.790 Y117.485 
G01 X128.538 Y117.282 
G01 X132.917 Y115.887 
G02 X140.324 Y112.057 I-12.990 J-34.196
G02 X151.213 Y101.300 I-22.857 J-34.029
G02 X155.398 Y93.430 I-31.955 J-22.037
G01 X156.905 Y88.894  
G01 X157.585 Y86.197 
G01 X158.426 Y82.734 
G01 X160.139 Y77.351 
G01 X160.167 Y77.278 
G01 X162.630 Y79.644 
G03 X171.581 Y89.072 I-120.142 J123.028
G01 X177.895 Y96.652  
G01 X178.512 Y97.475 
G01 X178.977 Y98.223 
G03 X179.848 Y100.854 I-7.040 J3.791
G01 X179.890 Y103.042  
G01 X179.100 Y108.222 
G03 X176.359 Y118.069 I-65.517 J-12.928
G03 X171.502 Y128.666 I-67.093 J-24.341
G03 X163.914 Y140.148 I-82.936 J-46.560
G03 X156.330 Y148.864 I-76.693 J-59.078
G03 X139.962 Y162.150 I-66.625 J-65.356
G03 X128.309 Y168.571 I-55.145 J-86.293
G03 X114.575 Y174.037 I-52.493 J-111.900
G03 X95.861 Y178.688 I-40.144 J-121.560
G03 X83.334 Y180.133 I-19.800 J-116.614
G01 X81.604 Y178.434  
G03 X73.486 Y169.575 I92.238 J-92.662
G01 X69.405 Y164.221  
G01 X66.994 Y160.425 
G01 X65.269 Y156.848 
G01 X64.495 Y154.460 
G01 X64.027 Y152.157 
G01 X64.027 Y152.146 
G01 X64.107 Y152.054 
G01 X64.950 Y151.287 
G01 X69.264 Y148.433 
G01 X71.175 Y147.433 
G01 X72.300 Y147.080 
G01 X73.833 Y146.925 
G01 X77.360 Y146.917 
G01 X81.557 Y147.013 
G01 X86.370 Y146.982 
G02 X93.941 Y146.299 I-2.361 J-68.494
G02 X100.649 Y144.840 I-7.235 J-49.400
G02 X107.818 Y142.033 I-11.947 J-41.077
G02 X116.286 Y136.143 I-16.005 J-32.042
G01 X114.984 Y134.752  
G02 X120.798 Y127.493 I-22.256 J-23.784
G01 X123.061 Y123.074  
G01 X124.332 Y119.938 
G01 X125.040 Y118.169 
G01 X125.457 Y117.315 
G01 X125.943 Y116.623 
G01 X126.938 Y115.750 
G01 X128.059 Y115.438 
G01 X132.241 Y114.106 
G02 X139.262 Y110.475 I-12.314 J-32.416
G02 X149.645 Y100.219 I-21.794 J-32.447
G02 X153.624 Y92.735 I-30.387 J-20.956
G01 X155.068 Y88.389  
G01 X155.728 Y85.771 
G01 X156.581 Y82.260 
G01 X158.359 Y76.671 
G01 X159.513 Y74.063 
G01 X163.961 Y78.281 
G03 X173.011 Y87.814 I-121.473 J124.391
G01 X179.391 Y95.473  
G01 X180.063 Y96.370 
G01 X180.654 Y97.320 
G03 X181.733 Y100.577 I-8.717 J4.694
G01 X181.783 Y103.247  
G01 X180.969 Y108.591 
G03 X178.150 Y118.718 I-67.386 J-13.297
G03 X173.163 Y129.599 I-68.883 J-24.991
G03 X165.423 Y141.311 I-84.598 J-47.493
G03 X157.690 Y150.198 I-78.203 J-60.241
G03 X140.987 Y163.755 I-67.985 J-66.690
G03 X129.118 Y170.295 I-56.171 J-87.898
G03 X115.172 Y175.846 I-53.302 J-113.624
G03 X96.180 Y180.566 I-40.741 J-123.368
G03 X82.612 Y182.083 I-20.119 J-118.492
G01 X80.260 Y179.785  
G03 X72.024 Y170.796 I93.582 J-94.013
G01 X67.840 Y165.308  
G01 X65.345 Y161.379 
G01 X63.496 Y157.543 
G01 X62.650 Y154.938 
G01 X62.128 Y152.337 
G01 X62.113 Y151.524 
G01 X62.694 Y150.777 
G01 X63.809 Y149.761 
G01 X68.306 Y146.787 
G01 X70.368 Y145.708 
G01 X71.974 Y145.203 
G01 X73.778 Y145.021 
G01 X77.406 Y145.013 
G01 X81.598 Y145.108 
G01 X86.304 Y145.078 
G02 X93.665 Y144.414 I-2.295 J-66.590
G02 X100.117 Y143.010 I-6.959 J-47.515
G02 X106.966 Y140.329 I-11.415 J-39.248
G02 X114.984 Y134.752 I-15.154 J-30.338
G01 X113.682 Y133.361  
G02 X119.156 Y126.526 I-20.955 J-22.393
G01 X121.318 Y122.306  
G01 X122.546 Y119.276 
G01 X123.290 Y117.416 
G01 X123.788 Y116.397 
G01 X124.512 Y115.365 
G01 X125.877 Y114.168 
G01 X126.411 Y113.918 
G01 X127.581 Y113.594 
G01 X131.564 Y112.325 
G02 X138.200 Y108.894 I-11.637 J-30.635
G02 X148.077 Y99.137 I-20.732 J-30.866
G02 X151.850 Y92.039 I-28.818 J-19.874
G01 X153.231 Y87.885  
G01 X153.871 Y85.345 
G01 X154.736 Y81.786 
G01 X156.580 Y75.991 
G01 X158.363 Y72.168 
G01 X159.040 Y71.055 
G01 X165.292 Y76.918 
G03 X174.441 Y86.555 I-122.804 J125.754
G01 X180.887 Y94.294  
G01 X181.615 Y95.265 
G01 X182.331 Y96.416 
G03 X183.618 Y100.301 I-10.394 J5.597
G03 X183.677 Y103.451 I-12.341 J1.809
G01 X182.838 Y108.959  
G03 X179.941 Y119.368 I-69.255 J-13.666
G03 X174.824 Y130.531 I-70.674 J-25.641
G03 X166.932 Y142.473 I-86.259 J-48.425
G03 X159.050 Y151.532 I-79.712 J-61.403
G03 X142.013 Y165.360 I-69.345 J-68.024
G03 X129.927 Y172.020 I-57.197 J-89.503
G03 X115.770 Y177.655 I-54.111 J-115.349
G03 X96.499 Y182.444 I-41.338 J-125.177
G03 X82.425 Y184.001 I-20.438 J-120.370
G01 X81.887 Y184.025  
G01 X78.916 Y181.135 
G03 X70.562 Y172.017 I94.926 J-95.363
G01 X66.275 Y166.394  
G01 X63.696 Y162.333 
G01 X61.722 Y158.239 
G01 X60.806 Y155.415 
G01 X60.230 Y152.520 
G01 X60.223 Y150.963 
G01 X61.280 Y149.501 
G01 X62.669 Y148.235 
G01 X67.349 Y145.140 
G01 X69.561 Y143.982 
G01 X71.649 Y143.326 
G01 X73.723 Y143.117 
G01 X77.452 Y143.108 
G01 X81.638 Y143.204 
G01 X86.239 Y143.174 
G02 X93.389 Y142.529 I-2.230 J-64.687
G02 X99.585 Y141.181 I-6.683 J-45.630
G02 X106.115 Y138.625 I-10.883 J-37.418
G02 X113.682 Y133.361 I-14.302 J-28.634
G01 X112.381 Y131.970  
G02 X117.515 Y125.560 I-19.653 J-21.002
G01 X119.574 Y121.539  
G01 X120.759 Y118.613 
G01 X121.540 Y116.663 
G01 X122.119 Y115.479 
G01 X123.082 Y114.107 
G01 X124.816 Y112.586 
G01 X125.874 Y112.090 
G01 X127.103 Y111.750 
G01 X130.888 Y110.544 
G02 X137.137 Y107.313 I-10.961 J-28.854
G02 X146.508 Y98.056 I-19.670 J-29.285
G02 X150.077 Y91.344 I-27.250 J-18.793
G01 X151.394 Y87.380  
G01 X152.014 Y84.919 
G01 X152.891 Y81.312 
G01 X154.800 Y75.312 
G01 X156.698 Y71.241 
G01 X158.021 Y69.191 
G01 X158.510 Y68.635 
G01 X159.098 Y68.552 
G01 X166.623 Y75.555 
G03 X175.872 Y85.297 I-124.135 J127.116
G01 X182.384 Y93.115  
G01 X183.167 Y94.159 
G01 X184.009 Y95.513 
G03 X185.503 Y100.025 I-12.071 J6.500
G03 X185.571 Y103.656 I-14.226 J2.086
G01 X184.707 Y109.328  
G03 X181.732 Y120.018 I-71.124 J-14.035
G03 X176.486 Y131.464 I-72.465 J-26.290
G03 X168.442 Y143.636 I-87.920 J-49.358
G03 X160.410 Y152.866 I-81.221 J-62.566
G03 X143.039 Y166.965 I-70.705 J-69.358
G03 X130.736 Y173.745 I-58.223 J-91.109
G03 X116.367 Y179.464 I-54.920 J-117.074
G03 X96.818 Y184.322 I-41.936 J-126.986
G03 X82.524 Y185.903 I-20.757 J-122.248
G01 X81.348 Y185.944  
G01 X81.151 Y185.884 
G01 X80.979 Y185.775 
G01 X80.702 Y185.526 
G01 X77.572 Y182.485 
G03 X69.099 Y173.238 I96.270 J-96.713
G01 X64.711 Y167.481  
G01 X62.048 Y163.288 
G01 X59.949 Y158.935 
G01 X58.962 Y155.893 
G01 X58.332 Y152.704 
G01 X58.340 Y150.520 
G01 X58.352 Y150.449 
G01 X58.404 Y150.321 
G01 X59.866 Y148.224 
G01 X61.528 Y146.709 
G01 X66.391 Y143.493 
G01 X68.754 Y142.256 
G01 X71.323 Y141.449 
G01 X73.668 Y141.213 
G01 X77.499 Y141.204 
G01 X81.679 Y141.299 
G01 X86.173 Y141.270 
G02 X93.113 Y140.644 I-2.164 J-62.783
G02 X99.053 Y139.352 I-6.407 J-43.745
G02 X105.264 Y136.920 I-10.351 J-35.589
G02 X112.381 Y131.970 I-13.451 J-26.929
G00 Z31.080
G00 X137.410 Y140.443  F7000.0
G01 Z19.333 F300.0 M3
G01 Z19.151 
G01 Z18.759 
G01 Z18.529 
G01 Z18.299 
G01 Z17.792 
G01 Z17.309 
G01 Z17.127 
G01 Z16.735 
G01 Z16.505 
G01 Z16.274 
G01 Z16.000 
G01 Z15.725 
G01 Z15.495 
G01 Z15.265 
G01 Z14.873 
G01 Z14.691 
G01 Z14.208 
G01 Z13.701 
G01 Z13.471 
G01 Z13.241 
G01 Z12.849 
G01 Z12.667 
G01 X138.856 Y138.123  F3500.0
G01 X141.599 Y132.926 
G02 X147.780 Y129.846 I-21.672 J-51.236
G01 X142.731 Y135.523  
G01 X137.410 Y140.443 
G01 X125.747 Y150.653  
G01 X128.000 Y148.662  
G02 X137.215 Y137.157 I-35.273 J-37.693
G01 X140.182 Y131.451  
G02 X149.884 Y126.289 I-20.255 J-49.761
G02 X155.610 Y121.904 I-32.416 J-48.261
G03 X150.332 Y129.685 I-67.045 J-39.798
G03 X144.091 Y136.857 I-63.111 J-48.615
G03 X130.729 Y147.703 I-54.386 J-53.350
G01 X125.747 Y150.653  
G01 X126.699 Y147.271  
G02 X135.573 Y136.191 I-33.971 J-36.303
G02 X138.754 Y129.981 I-51.239 J-30.163
G01 X138.759 Y129.968  
G02 X148.822 Y124.708 I-18.832 J-48.278
G02 X162.392 Y111.849 I-31.354 J-46.680
G01 X162.033 Y112.871  
G03 X158.213 Y121.206 I-52.766 J-19.144
G03 X151.841 Y130.848 I-69.647 J-39.100
G03 X145.451 Y138.191 I-64.620 J-49.778
G03 X131.755 Y149.308 I-55.746 J-54.684
G03 X121.836 Y154.773 I-46.939 J-73.451
G03 X109.796 Y159.566 I-46.020 J-98.102
G03 X93.310 Y163.663 I-35.365 J-107.088
G01 X89.125 Y164.285  
G01 X87.239 Y162.200 
G02 X96.150 Y161.378 I-3.230 J-83.713
G02 X104.905 Y159.473 I-9.444 J-64.479
G02 X114.628 Y155.667 I-16.203 J-55.710
G02 X126.699 Y147.271 I-22.815 J-45.676
G01 X125.397 Y145.880  
G02 X133.931 Y135.224 I-32.670 J-34.912
G02 X137.010 Y129.214 I-49.598 J-29.197
G01 X137.331 Y128.474  
G01 X137.653 Y128.353 
G02 X147.759 Y123.126 I-17.725 J-46.662
G02 X162.191 Y108.871 I-30.292 J-45.098
G02 X165.773 Y102.847 I-42.932 J-29.608
G01 X166.374 Y103.591  
G01 X166.017 Y105.640 
G03 X163.824 Y113.521 I-52.434 J-10.347
G03 X159.874 Y122.138 I-54.557 J-19.793
G03 X153.350 Y132.010 I-71.308 J-40.032
G03 X146.811 Y139.525 I-66.129 J-50.940
G03 X132.781 Y150.913 I-57.105 J-56.018
G03 X122.645 Y156.498 I-47.965 J-75.056
G03 X110.393 Y161.375 I-46.829 J-99.827
G03 X93.629 Y165.541 I-35.962 J-108.897
G01 X88.395 Y166.294  
G01 X83.722 Y161.027 
G01 X83.178 Y160.368 
G01 X86.829 Y160.309 
G02 X95.874 Y159.493 I-2.820 J-81.821
G02 X104.373 Y157.644 I-9.168 J-62.594
G02 X113.777 Y153.963 I-15.671 J-53.881
G02 X125.397 Y145.880 I-21.964 J-43.972
G01 X124.095 Y144.489  
G02 X132.290 Y134.258 I-31.368 J-33.521
G02 X135.266 Y128.446 I-47.956 J-28.231
G01 X135.897 Y126.969  
G01 X136.976 Y126.572 
G02 X146.697 Y121.545 I-17.049 J-44.882
G02 X160.623 Y107.789 I-29.230 J-43.517
G02 X165.327 Y99.323 I-41.364 J-28.526
G01 X168.377 Y103.044  
G01 X167.886 Y106.009 
G03 X165.615 Y114.171 I-54.303 J-10.716
G03 X161.535 Y123.071 I-56.348 J-20.443
G03 X154.859 Y133.173 I-72.970 J-40.965
G03 X148.171 Y140.859 I-67.638 J-52.103
G03 X133.807 Y152.518 I-58.465 J-57.352
G03 X123.455 Y158.223 I-48.990 J-76.662
G03 X110.991 Y163.184 I-47.638 J-101.552
G03 X93.948 Y167.419 I-36.559 J-110.706
G01 X87.667 Y168.294  
G01 X82.259 Y162.248 
G01 X79.281 Y158.394 
G01 X81.312 Y158.440 
G01 X86.764 Y158.405 
G02 X95.598 Y157.608 I-2.755 J-79.918
G02 X103.841 Y155.815 I-8.892 J-60.709
G02 X112.925 Y152.258 I-15.139 J-52.052
G02 X124.095 Y144.489 I-21.112 J-42.267
G01 X122.794 Y143.098  
G02 X130.648 Y133.291 I-30.066 J-32.130
G01 X133.523 Y127.679  
G01 X134.457 Y125.451 
G01 X136.300 Y124.791 
G02 X145.635 Y119.964 I-16.373 J-43.101
G02 X159.054 Y106.708 I-28.168 J-41.936
G02 X164.266 Y96.906 I-39.796 J-27.445
G01 X164.723 Y95.698  
G01 X170.367 Y102.488 
G01 X169.755 Y106.378 
G03 X167.406 Y114.820 I-56.172 J-11.084
G03 X163.196 Y124.003 I-58.139 J-21.093
G03 X156.368 Y134.335 I-74.631 J-41.897
G03 X149.531 Y142.193 I-69.148 J-53.265
G03 X134.833 Y154.124 I-59.825 J-58.686
G03 X124.264 Y159.947 I-50.016 J-78.267
G03 X111.588 Y164.992 I-48.447 J-103.276
G03 X94.266 Y169.297 I-37.157 J-112.515
G01 X86.942 Y170.286  
G01 X80.797 Y163.469 
G01 X77.229 Y158.788 
G01 X75.693 Y156.422 
G01 X77.164 Y156.440 
G01 X81.353 Y156.536 
G01 X86.698 Y156.501 
G02 X95.321 Y155.723 I-2.689 J-78.014
G02 X103.309 Y153.986 I-8.616 J-58.824
G02 X112.074 Y150.554 I-14.607 J-50.223
G02 X122.794 Y143.098 I-20.261 J-40.563
G01 X121.492 Y141.707  
G02 X129.006 Y132.325 I-28.765 J-30.739
G01 X131.779 Y126.911  
G01 X133.010 Y123.921 
G01 X135.623 Y123.010 
G02 X144.573 Y118.382 I-15.696 J-41.320
G02 X157.486 Y105.626 I-27.105 J-40.354
G02 X162.492 Y96.211 I-38.228 J-26.363
G01 X163.950 Y91.972  
G01 X165.861 Y94.106 
G01 X171.910 Y101.368 
G01 X172.280 Y101.861 
G01 X172.309 Y101.959 
G01 X172.314 Y102.223 
G01 X171.624 Y106.747 
G03 X169.196 Y115.470 I-58.041 J-11.453
G03 X164.858 Y124.936 I-59.929 J-21.742
G03 X157.878 Y135.498 I-76.292 J-42.830
G03 X150.891 Y143.527 I-70.657 J-54.428
G03 X135.858 Y155.729 I-61.185 J-60.020
G03 X125.073 Y161.672 I-51.042 J-79.872
G03 X112.185 Y166.801 I-49.256 J-105.001
G03 X94.585 Y171.175 I-37.754 J-114.324
G01 X86.219 Y172.270  
G03 X79.335 Y164.691 I87.623 J-86.498
G01 X75.664 Y159.875  
G01 X73.589 Y156.607 
G01 X72.838 Y155.171 
G01 X73.972 Y154.545 
G01 X74.054 Y154.542 
G01 X77.174 Y154.535 
G01 X81.394 Y154.631 
G01 X86.633 Y154.597 
G02 X95.045 Y153.838 I-2.623 J-76.110
G02 X102.777 Y152.156 I-8.340 J-56.939
G02 X111.223 Y148.850 I-14.075 J-48.394
G02 X121.492 Y141.707 I-19.410 J-38.859
G01 X120.190 Y140.316  
G02 X127.365 Y131.358 I-27.463 J-29.348
G01 X130.036 Y126.144  
G01 X131.476 Y122.588 
G01 X131.556 Y122.374 
G01 X134.947 Y121.229 
G02 X143.511 Y116.801 I-15.020 J-39.539
G02 X155.918 Y104.545 I-26.043 J-38.773
G02 X160.718 Y95.516 I-36.659 J-25.282
G01 X162.416 Y90.408  
G01 X162.996 Y88.152 
G01 X167.291 Y92.848 
G01 X173.406 Y100.189 
G01 X173.857 Y100.791 
G01 X173.945 Y100.932 
G01 X174.194 Y101.683 
G01 X174.208 Y102.427 
G01 X173.493 Y107.115 
G03 X170.987 Y116.120 I-59.910 J-11.822
G03 X166.519 Y125.868 I-61.720 J-22.392
G03 X159.387 Y136.661 I-77.953 J-43.762
G03 X152.251 Y144.862 I-72.166 J-55.591
G03 X136.884 Y157.334 I-62.545 J-61.354
G03 X125.882 Y163.397 I-52.068 J-81.477
G03 X112.783 Y168.610 I-50.065 J-106.726
G03 X94.904 Y173.053 I-38.351 J-116.133
G03 X85.497 Y174.245 I-18.843 J-110.979
G03 X77.873 Y165.912 I88.345 J-88.474
G01 X74.099 Y160.962  
G01 X71.940 Y157.562 
G01 X70.589 Y154.761 
G01 X70.456 Y154.409 
G01 X72.138 Y153.373 
G01 X73.438 Y152.685 
G01 X73.998 Y152.638 
G01 X77.221 Y152.630 
G01 X81.434 Y152.727 
G01 X86.567 Y152.693 
G02 X94.769 Y151.954 I-2.558 J-74.206
G02 X102.245 Y150.327 I-8.064 J-55.054
G02 X110.371 Y147.146 I-13.543 J-46.564
G02 X120.190 Y140.316 I-18.559 J-37.155
G01 X118.889 Y138.925  
G02 X125.723 Y130.392 I-26.161 J-27.957
G01 X128.292 Y125.376  
G01 X129.690 Y121.925 
G01 X130.132 Y120.800 
G01 X134.270 Y119.448 
G02 X142.448 Y115.219 I-14.343 J-37.758
G02 X154.350 Y103.463 I-24.981 J-37.192
G02 X158.945 Y94.821 I-35.091 J-24.200
G01 X160.579 Y89.904  
G01 X161.298 Y87.048 
G01 X161.950 Y84.338 
G01 X168.721 Y91.589 
G01 X174.902 Y99.010 
G01 X175.409 Y99.686 
G01 X175.622 Y100.029 
G01 X176.078 Y101.406 
G01 X176.102 Y102.632 
G01 X175.362 Y107.484 
G03 X172.778 Y116.769 I-61.779 J-12.191
G03 X168.180 Y126.801 I-63.511 J-23.042
G03 X160.896 Y137.823 I-79.614 J-44.695
G03 X153.610 Y146.196 I-73.675 J-56.753
G03 X137.910 Y158.939 I-63.905 J-62.688
G03 X126.691 Y165.121 I-53.094 J-83.083
G03 X113.380 Y170.419 I-50.874 J-108.450
G03 X95.223 Y174.931 I-38.949 J-117.942
G03 X84.776 Y176.214 I-19.162 J-112.858
G01 X84.292 Y175.734  
G03 X76.411 Y167.133 I89.550 J-89.962
G01 X72.534 Y162.048  
G01 X70.291 Y158.516 
G01 X68.816 Y155.456 
G01 X68.215 Y153.625 
G01 X71.180 Y151.727 
G01 X72.789 Y150.885 
G01 X72.952 Y150.833 
G01 X73.943 Y150.734 
G01 X77.267 Y150.726 
G01 X81.475 Y150.822 
G01 X86.501 Y150.789 
G02 X94.493 Y150.069 I-2.492 J-72.302
G02 X101.713 Y148.498 I-7.787 J-53.169
G02 X109.520 Y145.441 I-13.011 J-44.735
G02 X118.889 Y138.925 I-17.707 J-35.451
G01 X117.587 Y137.534  
G02 X124.081 Y129.426 I-24.860 J-26.566
G01 X126.549 Y124.609  
G01 X127.904 Y121.263 
G01 X128.539 Y119.676 
G01 X128.775 Y119.190 
G01 X129.016 Y119.126 
G01 X133.594 Y117.668 
G02 X141.386 Y113.638 I-13.667 J-35.977
G02 X152.781 Y102.382 I-23.919 J-35.610
G02 X157.171 Y94.125 I-33.523 J-23.119
G01 X158.742 Y89.399  
G01 X159.441 Y86.623 
G01 X160.271 Y83.207 
G01 X160.987 Y80.703 
G01 X161.299 Y81.007 
G03 X170.151 Y90.331 I-118.811 J121.665
G01 X176.399 Y97.831  
G01 X176.960 Y98.580 
G01 X177.300 Y99.126 
G01 X177.963 Y101.130 
G01 X177.996 Y102.837 
G01 X177.231 Y107.853 
G03 X174.569 Y117.419 I-63.648 J-12.560
G03 X169.841 Y127.733 I-65.302 J-23.692
G03 X162.405 Y138.986 I-81.275 J-45.627
G03 X154.970 Y147.530 I-75.184 J-57.916
G03 X138.936 Y160.545 I-65.265 J-64.022
G03 X127.500 Y166.846 I-54.119 J-84.688
G03 X113.978 Y172.228 I-51.684 J-110.175
G03 X95.542 Y176.810 I-39.546 J-119.751
G03 X84.055 Y178.177 I-19.481 J-114.736
G01 X82.948 Y177.084  
G03 X74.948 Y168.354 I90.894 J-91.312
G01 X70.970 Y163.135  
G01 X68.643 Y159.470 
G01 X67.043 Y156.152 
G01 X66.339 Y153.982 
G01 X66.075 Y152.824 
G01 X66.090 Y152.813 
G01 X70.222 Y150.080 
G01 X71.982 Y149.159 
G01 X72.626 Y148.956 
G01 X73.888 Y148.829 
G01 X77.313 Y148.821 
G01 X81.516 Y148.918 
G01 X86.436 Y148.886 
G02 X94.217 Y148.184 I-2.427 J-70.398
G02 X101.181 Y146.669 I-7.511 J-51.284
G02 X108.669 Y143.737 I-12.479 J-42.906
G02 X117.587 Y137.534 I-16.856 J-33.746
G01 X116.286 Y136.143  
G02 X122.440 Y128.459 I-23.558 J-25.175
G01 X124.805 Y123.841  
G01 X126.118 Y120.601 
G01 X126.790 Y118.923 
G01 X127.126 Y118.233 
G01 X127.374 Y117.880 
G01 X127.790 Y117.485 
G01 X128.538 Y117.282 
G01 X132.917 Y115.887 
G02 X140.324 Y112.057 I-12.990 J-34.196
G02 X151.213 Y101.300 I-22.857 J-34.029
G02 X155.398 Y93.430 I-31.955 J-22.037
G01 X156.905 Y88.894  
G01 X157.585 Y86.197 
G01 X158.426 Y82.734 
G01 X160.139 Y77.351 
G01 X160.167 Y77.278 
G01 X162.630 Y79.644 
G03 X171.581 Y89.072 I-120.142 J123.028
G01 X177.895 Y96.652  
G01 X178.512 Y97.475 
G01 X178.977 Y98.223 
G03 X179.848 Y100.854 I-7.040 J3.791
G01 X179.890 Y103.042  
G01 X179.100 Y108.222 
G03 X176.359 Y118.069 I-65.517 J-12.928
G03 X171.502 Y128.666 I-67.093 J-24.341
G03 X163.914 Y140.148 I-82.936 J-46.560
G03 X156.330 Y148.864 I-76.693 J-59.078
G03 X139.962 Y162.150 I-66.625 J-65.356
G03 X128.309 Y168.571 I-55.145 J-86.293
G03 X114.575 Y174.037 I-52.493 J-111.900
G03 X95.861 Y178.688 I-40.144 J-121.560
G03 X83.334 Y180.133 I-19.800 J-116.614
G01 X81.604 Y178.434  
G03 X73.486 Y169.575 I92.238 J-92.662
G01 X69.405 Y164.221  
G01 X66.994 Y160.425 
G01 X65.269 Y156.848 
G01 X64.495 Y154.460 
G01 X64.027 Y152.157 
G01 X64.027 Y152.146 
G01 X64.107 Y152.054 
G01 X64.950 Y151.287 
G01 X69.264 Y148.433 
G01 X71.175 Y147.433 
G01 X72.300 Y147.080 
G01 X73.833 Y146.925 
G01 X77.360 Y146.917 
G01 X81.557 Y147.013 
G01 X86.370 Y146.982 
G02 X93.941 Y146.299 I-2.361 J-68.494
G02 X100.649 Y144.840 I-7.235 J-49.400
G02 X107.818 Y142.033 I-11.947 J-41.077
G02 X116.286 Y136.143 I-16.005 J-32.042
G01 X114.984 Y134.752  
G02 X120.798 Y127.493 I-22.256 J-23.784
G01 X123.061 Y123.074  
G01 X124.332 Y119.938 
G01 X125.040 Y118.169 
G01 X125.457 Y117.315 
G01 X125.943 Y116.623 
G01 X126.938 Y115.750 
G01 X128.059 Y115.438 
G01 X132.241 Y114.106 
G02 X139.262 Y110.475 I-12.314 J-32.416
G02 X149.645 Y100.219 I-21.794 J-32.447
G02 X153.624 Y92.735 I-30.387 J-20.956
G01 X155.068 Y88.389  
G01 X155.728 Y85.771 
G01 X156.581 Y82.260 
G01 X158.359 Y76.671 
G01 X159.513 Y74.063 
G01 X163.961 Y78.281 
G03 X173.011 Y87.814 I-121.473 J124.391
G01 X179.391 Y95.473  
G01 X180.063 Y96.370 
G01 X180.654 Y97.320 
G03 X181.733 Y100.577 I-8.717 J4.694
G01 X181.783 Y103.247  
G01 X180.969 Y108.591 
G03 X178.150 Y118.718 I-67.386 J-13.297
G03 X173.163 Y129.599 I-68.883 J-24.991
G03 X165.423 Y141.311 I-84.598 J-47.493
G03 X157.690 Y150.198 I-78.203 J-60.241
G03 X140.987 Y163.755 I-67.985 J-66.690
G03 X129.118 Y170.295 I-56.171 J-87.898
G03 X115.172 Y175.846 I-53.302 J-113.624
G03 X96.180 Y180.566 I-40.741 J-123.368
G03 X82.612 Y182.083 I-20.119 J-118.492
G01 X80.260 Y179.785  
G03 X72.024 Y170.796 I93.582 J-94.013
G01 X67.840 Y165.308  
G01 X65.345 Y161.379 
G01 X63.496 Y157.543 
G01 X62.650 Y154.938 
G01 X62.128 Y152.337 
G01 X62.113 Y151.524 
G01 X62.694 Y150.777 
G01 X63.809 Y149.761 
G01 X68.306 Y146.787 
G01 X70.368 Y145.708 
G01 X71.974 Y145.203 
G01 X73.778 Y145.021 
G01 X77.406 Y145.013 
G01 X81.598 Y145.108 
G01 X86.304 Y145.078 
G02 X93.665 Y144.414 I-2.295 J-66.590
G02 X100.117 Y143.010 I-6.959 J-47.515
G02 X106.966 Y140.329 I-11.415 J-39.248
G02 X114.984 Y134.752 I-15.154 J-30.338
G01 X113.682 Y133.361  
G02 X119.156 Y126.526 I-20.955 J-22.393
G01 X121.318 Y122.306  
G01 X122.546 Y119.276 
G01 X123.290 Y117.416 
G01 X123.788 Y116.397 
G01 X124.512 Y115.365 
G01 X125.877 Y114.168 
G01 X126.411 Y113.918 
G01 X127.581 Y113.594 
G01 X131.564 Y112.325 
G02 X138.200 Y108.894 I-11.637 J-30.635
G02 X148.077 Y99.137 I-20.732 J-30.866
G02 X151.850 Y92.039 I-28.818 J-19.874
G01 X153.231 Y87.885  
G01 X153.871 Y85.345 
G01 X154.736 Y81.786 
G01 X156.580 Y75.991 
