%
( TOMTEUGTANROUND ) ( File created: Sunday December 08 2024 - 12:22 PM)
( for LinuxCNC )
( Material Size) ( X= 1200.000, Y= 230.000, Z= 24.000)
G90 (Incremental distance mode)
G17 G21 (Active Plane: XY)(Metric Mode)
G40 G49 G80(Tool Diameter, Length compensation & canned cycles OFF)
G64 P0.05 Q0.05(Path Blending)
T22 M06 (TOOL USE Radiused End Mill Tip 0.25 - 3/4 Fine)
G90 (absolute distance mode)
G54 (Coordinate System)
S18000M3
G00 Z44.320
G4 P6
( bowl [1] )
G00 X633.422 Y140.125 Z29.080 F7000.0
G01 Z24.000 F300.0 M3
G01 Z23.667 
G01 Z23.334 
G01 Z23.037 
G01 Z22.856 
G01 Z22.603 
G01 Z22.311 
G01 Z21.681 
G01 Z21.051 
G01 Z20.819 
G01 Z20.798 
G01 Z20.465 
G01 Z20.132 
G01 Z19.834 
G01 Z19.654 
G01 Z19.401 
G01 Z19.250 
G01 Z19.099 
G01 Z18.846 
G01 Z18.666 
G01 Z18.368 
G01 Z18.035 
G01 Z17.702 
G01 Z17.681 
G01 Z17.449 
G01 Z16.819 
G01 Z16.189 
G01 Z15.897 
G01 Z15.644 
G01 Z15.463 
G01 Z15.166 
G01 Z14.833 
G01 Z14.500 
G02 X627.742 Y136.027 I-37.822 J46.438
G01 X625.936 Y133.469  F3500.0
G01 X624.775 Y131.963 
G01 X625.271 Y129.346 
G01 X625.699 Y126.298 
G02 X632.082 Y137.901 I67.053 J-29.326
G01 X633.482 Y139.903  
G01 X633.422 Y140.125 
G01 X634.591 Y143.251  
G01 X632.844 Y142.116  
G02 X626.381 Y137.418 I-37.244 J44.447
G01 X624.411 Y134.608  
G01 X622.720 Y132.447 
G01 X623.394 Y129.032 
G02 X624.104 Y116.496 I-57.002 J-9.517
G01 X624.144 Y116.314  
G01 X624.175 Y116.423 
G02 X633.659 Y136.837 I68.578 J-19.450
G01 X635.562 Y139.519  
G01 X634.591 Y143.251 
G01 X635.830 Y146.467  
G01 X631.723 Y143.659  
G02 X625.017 Y138.811 I-36.123 J42.903
G01 X622.886 Y135.746  
G01 X620.649 Y132.935 
G01 X621.517 Y128.719 
G02 X622.190 Y116.338 I-55.125 J-9.204
G01 X622.202 Y116.282  
G01 X623.123 Y110.996 
G01 X623.883 Y109.548 
G01 X624.645 Y110.109 
G01 X626.006 Y115.903 
G02 X635.237 Y135.773 I66.747 J-18.931
G01 X637.653 Y139.129  
G01 X636.304 Y144.277 
G01 X635.830 Y146.467 
G01 X637.146 Y149.941  
G02 X630.602 Y145.203 I-35.799 J42.564
G02 X623.652 Y140.207 I-35.002 J41.360
G01 X621.360 Y136.884  
G01 X618.560 Y133.428 
G01 X619.640 Y128.405 
G02 X620.274 Y116.179 I-53.248 J-8.891
G01 X620.346 Y115.865  
G01 X621.278 Y110.402 
G01 X623.177 Y106.613 
G01 X625.294 Y108.225 
G01 X626.381 Y109.016 
G01 X627.836 Y115.384 
G02 X636.815 Y134.709 I64.916 J-18.412
G01 X639.756 Y138.733  
G01 X638.158 Y144.709 
G01 X637.146 Y149.941 
G01 X636.978 Y152.310  
G02 X629.480 Y146.747 I-35.631 J40.195
G02 X622.284 Y141.606 I-33.880 J39.815
G01 X619.835 Y138.022  
G01 X616.450 Y133.925 
G01 X617.763 Y128.092 
G02 X618.357 Y116.021 I-51.371 J-8.577
G01 X618.489 Y115.448  
G01 X619.430 Y109.807 
G02 X622.407 Y103.538 I-43.299 J-24.394
G01 X626.423 Y106.693  
G01 X628.127 Y107.923 
G02 X629.667 Y114.865 I60.488 J-9.777
G02 X638.392 Y133.644 I63.086 J-17.893
G01 X641.872 Y138.329  
G01 X640.011 Y145.141 
G02 X638.659 Y152.981 I66.659 J15.531
G01 X636.978 Y152.310  
G01 X635.974 Y153.964  
G02 X628.358 Y148.292 I-34.627 J38.541
G02 X620.912 Y143.007 I-32.758 J38.271
G01 X618.310 Y139.160  
G01 X614.617 Y134.745 
G01 X614.499 Y133.822 
G01 X615.886 Y127.779 
G02 X616.438 Y115.863 I-49.494 J-8.264
G01 X616.632 Y115.031  
G01 X617.580 Y109.211 
G02 X621.554 Y100.283 I-41.449 J-23.799
G01 X627.552 Y105.162  
G01 X629.884 Y106.829 
G02 X631.498 Y114.346 I58.731 J-8.683
G02 X639.970 Y132.580 I61.255 J-17.373
G01 X644.002 Y137.916  
G01 X641.864 Y145.573 
G02 X640.308 Y155.791 I64.806 J15.099
G01 X635.974 Y153.964  
G01 X634.967 Y155.620  
G02 X627.236 Y149.837 I-33.620 J36.885
G02 X619.709 Y144.510 I-31.636 J36.726
G01 X619.538 Y144.412  
G01 X616.785 Y140.298 
G02 X612.799 Y135.593 I-40.003 J29.850
G01 X612.556 Y133.675  
G02 X614.009 Y127.465 I-47.465 J-14.377
G02 X614.517 Y115.704 I-47.617 J-7.950
G01 X614.775 Y114.614  
G02 X615.727 Y108.614 I-46.612 J-10.467
G02 X619.930 Y99.117 I-39.595 J-23.201
G01 X620.593 Y96.789  
G02 X628.682 Y103.630 I55.281 J-57.164
G01 X631.651 Y105.735  
G02 X633.329 Y113.826 I56.963 J-7.589
G02 X641.547 Y131.516 I59.424 J-16.854
G02 X646.146 Y137.492 I50.124 J-33.814
G01 X645.829 Y138.452  
G01 X643.718 Y146.005 
G02 X642.149 Y156.772 I62.952 J14.667
G01 X642.060 Y158.792  
G02 X634.967 Y155.620 I-27.131 J51.149
G01 X633.959 Y157.278  
G02 X626.114 Y151.382 I-32.612 J35.227
G02 X618.762 Y146.161 I-30.514 J35.181
G01 X618.159 Y145.821  
G01 X615.260 Y141.436 
G02 X610.973 Y136.446 I-38.477 J28.712
G01 X610.611 Y133.526  
G02 X612.132 Y127.152 I-45.520 J-14.229
G02 X612.595 Y115.546 I-45.740 J-7.637
G01 X612.919 Y114.197  
G02 X613.870 Y108.015 I-44.755 J-10.050
G02 X618.114 Y98.548 I-37.738 J-22.602
G01 X619.398 Y93.404  
G01 X619.610 Y93.096 
G02 X629.811 Y102.098 I56.263 J-53.470
G01 X633.432 Y104.640  
G02 X635.160 Y113.307 I55.183 J-6.494
G02 X643.125 Y130.452 I57.593 J-16.335
G02 X648.304 Y137.054 I48.546 J-32.749
G01 X647.638 Y139.043  
G01 X645.571 Y146.436 
G02 X644.049 Y156.886 I61.099 J14.235
G01 X643.956 Y162.056  
G01 X641.664 Y160.739 
G02 X633.959 Y157.278 I-26.735 J49.202
G01 X632.948 Y158.937  
G02 X624.991 Y152.927 I-31.601 J33.567
G02 X617.816 Y147.812 I-29.391 J33.635
G01 X616.776 Y147.233  
G01 X613.734 Y142.574 
G02 X609.141 Y137.304 I-36.952 J27.574
G01 X608.662 Y133.377  
G02 X610.255 Y126.838 I-43.571 J-14.079
G02 X610.670 Y115.388 I-43.862 J-7.324
G01 X611.062 Y113.780  
G02 X612.008 Y107.415 I-42.898 J-9.633
G02 X616.297 Y97.980 I-35.877 J-22.002
G01 X617.601 Y92.654  
G01 X619.344 Y89.996 
G02 X630.940 Y100.567 I56.530 J-50.371
G01 X635.226 Y103.545  
G02 X636.990 Y112.788 I53.388 J-5.399
G02 X644.702 Y129.387 I55.762 J-15.816
G02 X650.476 Y136.599 I46.968 J-31.685
G01 X649.446 Y139.635  
G01 X647.424 Y146.868 
G02 X645.948 Y157.001 I59.245 J13.804
G02 X646.065 Y165.710 I58.994 J3.566
G01 X640.755 Y162.411  
G02 X632.948 Y158.937 I-25.826 J47.530
G01 X631.934 Y160.599  
G02 X623.868 Y154.473 I-30.587 J31.906
G02 X616.869 Y149.463 I-28.268 J32.089
G01 X615.387 Y148.649  
G02 X612.209 Y143.712 I-37.206 J20.455
G02 X607.299 Y138.169 I-35.427 J26.436
G01 X606.708 Y133.225  
G02 X608.378 Y126.525 I-41.617 J-13.928
G02 X608.743 Y115.230 I-41.985 J-7.010
G01 X609.205 Y113.363  
G02 X610.143 Y106.812 I-41.042 J-9.216
G02 X614.481 Y97.412 I-34.011 J-21.399
G02 X615.800 Y91.902 I-39.579 J-12.383
G01 X618.448 Y87.762  
G01 X619.028 Y86.706 
G01 X620.669 Y88.623 
G02 X632.070 Y99.035 I55.205 J-48.997
G01 X637.036 Y102.449  
G01 X637.047 Y102.578 
G02 X638.821 Y112.268 I51.568 J-4.432
G02 X646.280 Y128.323 I53.932 J-15.296
G02 X652.663 Y136.126 I45.391 J-30.621
G01 X651.255 Y140.227  
G01 X649.278 Y147.300 
G02 X647.848 Y157.116 I57.392 J13.372
G02 X648.108 Y167.013 I57.095 J3.451
G01 X648.507 Y169.995  
G02 X639.847 Y164.083 I-33.435 J39.684
G02 X631.934 Y160.599 I-24.918 J45.858
G01 X630.917 Y162.263  
G02 X622.744 Y156.020 I-29.571 J30.241
G02 X615.923 Y151.114 I-27.144 J30.543
G01 X613.992 Y150.071  
G02 X610.684 Y144.850 I-35.811 J19.034
G02 X605.447 Y139.041 I-33.902 J25.298
G01 X604.750 Y133.072  
G01 X604.838 Y132.817 
G02 X606.501 Y126.212 I-39.747 J-13.519
G02 X606.813 Y115.072 I-40.108 J-6.697
G01 X607.348 Y112.946  
G02 X608.271 Y106.207 I-39.185 J-8.800
G02 X612.665 Y96.844 I-32.140 J-20.794
G02 X613.994 Y91.149 I-37.763 J-11.815
G01 X616.791 Y86.826  
G01 X618.655 Y83.162 
G01 X622.092 Y87.359 
G02 X633.199 Y97.503 I53.781 J-47.734
G01 X638.863 Y101.353  
G01 X638.943 Y102.415 
G02 X640.652 Y111.749 I49.672 J-4.269
G02 X647.858 Y127.259 I52.101 J-14.777
G02 X654.410 Y135.183 I43.813 J-29.557
G01 X654.868 Y135.634  
G01 X654.843 Y135.702 
G01 X653.064 Y140.819 
G01 X651.131 Y147.732 
G02 X649.747 Y157.231 I55.539 J12.940
G02 X649.999 Y166.799 I55.195 J3.337
G01 X651.131 Y173.760  
G01 X651.464 Y175.261 
G01 X647.768 Y171.866 
G02 X638.938 Y165.755 I-32.696 J37.813
G02 X630.917 Y162.263 I-24.009 J44.185
G01 X629.897 Y163.930  
G02 X621.619 Y157.567 I-28.550 J28.574
G02 X614.976 Y152.765 I-26.019 J28.996
G01 X612.590 Y151.498  
G02 X609.159 Y145.988 I-34.409 J17.607
G02 X603.583 Y139.921 I-32.377 J24.160
G02 X602.787 Y132.919 I-47.404 J1.844
G01 X603.036 Y132.204  
G02 X604.624 Y125.898 I-37.945 J-12.906
G02 X604.879 Y114.913 I-38.231 J-6.383
G01 X605.491 Y112.529  
G02 X606.393 Y105.600 I-37.328 J-8.383
G02 X610.849 Y96.275 I-30.262 J-20.187
G02 X612.140 Y90.683 I-35.947 J-11.247
G01 X612.183 Y90.394  
G01 X615.134 Y85.890 
G02 X618.074 Y79.602 I-39.317 J-22.213
G01 X618.202 Y79.259  
G02 X623.515 Y86.096 I54.944 J-37.214
G02 X634.328 Y95.972 I52.358 J-46.471
G01 X640.710 Y100.256  
G01 X640.839 Y102.252 
G02 X642.483 Y111.230 I47.776 J-4.106
G02 X649.435 Y126.195 I50.270 J-14.258
G02 X655.752 Y133.834 I42.236 J-28.492
G01 X657.073 Y135.110  
G01 X656.629 Y136.360 
G01 X654.872 Y141.411 
G01 X652.984 Y148.164 
G02 X651.647 Y157.346 I53.685 J12.508
G02 X651.890 Y166.584 I53.296 J3.222
G01 X652.993 Y173.364  
G01 X654.570 Y179.676 
G01 X652.482 Y178.745 
G01 X652.093 Y178.497 
G01 X651.872 Y178.306 
G01 X650.303 Y176.789 
G01 X646.523 Y173.305 
G02 X638.030 Y167.428 I-31.452 J36.373
G02 X629.897 Y163.930 I-23.101 J42.513
G01 X628.872 Y165.600  
G01 X628.792 Y165.518  
G02 X620.494 Y159.115 I-27.445 J26.986
G02 X614.030 Y154.416 I-24.894 J27.448
G01 X611.180 Y152.931  
G02 X607.634 Y147.127 I-32.999 J16.173
G02 X601.791 Y140.884 I-30.852 J23.022
G01 X601.706 Y140.812  
G02 X600.818 Y132.765 I-45.527 J0.953
G01 X601.235 Y131.591  
G02 X602.747 Y125.585 I-36.143 J-12.294
G02 X602.941 Y114.755 I-36.354 J-6.070
G01 X603.635 Y112.112  
G02 X604.508 Y104.989 I-35.471 J-7.966
G02 X609.033 Y95.707 I-28.377 J-19.576
G02 X610.259 Y90.397 I-34.130 J-10.679
G01 X610.367 Y89.637  
G02 X613.478 Y84.954 I-30.915 J-23.907
G02 X616.294 Y78.931 I-37.660 J-21.277
G01 X617.028 Y76.890  
G01 X618.349 Y75.986 
G02 X624.939 Y84.833 I54.798 J-33.941
G02 X635.458 Y94.440 I50.935 J-45.208
G01 X641.918 Y98.763  
G01 X642.577 Y99.161 
G01 X642.735 Y102.089 
G02 X644.314 Y110.711 I45.880 J-3.943
G02 X651.013 Y125.130 I48.439 J-13.738
G02 X657.093 Y132.484 I40.658 J-27.428
G01 X659.266 Y134.542  
G01 X658.414 Y137.018 
G01 X656.681 Y142.002 
G01 X654.838 Y148.596 
G02 X653.547 Y157.461 I51.832 J12.076
G02 X653.781 Y166.370 I51.396 J3.107
G01 X654.854 Y172.968  
G02 X657.455 Y182.566 I88.387 J-18.800
G01 X654.459 Y181.660  
G01 X651.609 Y180.436 
G01 X650.927 Y180.001 
G01 X650.558 Y179.683 
G01 X648.970 Y178.146 
G01 X645.279 Y174.745 
G02 X637.121 Y169.100 I-30.207 J34.934
G02 X628.872 Y165.600 I-22.192 J40.841
G01 X627.844 Y167.274  
G01 X627.435 Y166.852  
G02 X619.368 Y160.663 I-26.088 J25.652
G02 X613.083 Y156.066 I-23.768 J25.899
G01 X609.760 Y154.373  
G02 X606.109 Y148.265 I-31.579 J14.731
G02 X600.555 Y142.331 I-29.326 J21.884
G01 X599.813 Y141.709  
G01 X599.812 Y141.480 
G02 X598.908 Y132.922 I-43.633 J0.286
G01 X598.842 Y132.611  
G01 X599.433 Y130.978 
G02 X600.870 Y125.271 I-34.342 J-11.681
G02 X600.999 Y114.597 I-34.477 J-5.757
G01 X601.778 Y111.695  
G02 X602.614 Y104.374 I-33.615 J-7.549
G01 X602.890 Y103.984  
G02 X607.216 Y95.139 I-26.758 J-18.571
G02 X608.378 Y90.112 I-32.314 J-10.111
G01 X608.545 Y88.877  
G02 X611.821 Y84.018 I-29.093 J-23.147
G02 X614.513 Y78.259 I-36.003 J-20.341
G01 X615.435 Y75.660  
G01 X615.859 Y75.382 
G01 X618.911 Y73.209 
G01 X619.583 Y74.357 
G02 X626.362 Y83.570 I53.564 J-32.311
G02 X636.587 Y92.908 I49.512 J-43.944
G01 X642.903 Y97.135  
G01 X644.469 Y98.074 
G01 X644.631 Y101.926 
G02 X646.144 Y110.191 I43.984 J-3.780
G02 X652.590 Y124.066 I46.608 J-13.219
G02 X658.435 Y131.134 I39.080 J-26.364
G01 X661.444 Y133.928  
G01 X661.263 Y134.535 
G01 X660.200 Y137.676 
G01 X658.489 Y142.594 
G01 X656.691 Y149.027 
G02 X655.446 Y157.575 I49.979 J11.645
G02 X655.672 Y166.155 I49.497 J2.992
G01 X656.715 Y172.572  
G02 X659.743 Y183.381 I86.526 J-18.404
G01 X660.405 Y185.169  
G01 X657.200 Y184.465 
G01 X653.835 Y183.458 
G01 X650.735 Y182.127 
G01 X649.761 Y181.505 
G01 X649.244 Y181.060 
G01 X647.637 Y179.504 
G01 X644.034 Y176.184 
G02 X636.213 Y170.772 I-28.962 J33.494
G02 X628.058 Y167.340 I-21.284 J39.169
G01 X627.844 Y167.274  
G01 X626.807 Y168.949  
G01 X626.078 Y168.187  
G02 X618.241 Y162.213 I-24.731 J24.318
G02 X612.137 Y157.717 I-22.641 J24.350
G01 X608.329 Y155.824  
G02 X604.583 Y149.403 I-30.148 J13.280
G02 X599.318 Y143.778 I-27.801 J20.745
G01 X597.904 Y142.614  
G01 X597.909 Y141.492 
G02 X597.044 Y133.308 I-41.730 J0.273
G01 X596.861 Y132.453  
G01 X597.631 Y130.366 
G02 X598.993 Y124.958 I-32.540 J-11.068
G02 X599.052 Y114.439 I-32.600 J-5.443
G01 X599.921 Y111.278  
G02 X600.710 Y103.756 I-31.758 J-7.132
G01 X601.326 Y102.899  
G02 X605.400 Y94.571 I-25.195 J-17.486
G01 X606.496 Y89.826  
G01 X606.715 Y88.113 
G02 X610.164 Y83.082 I-27.263 J-22.383
G02 X612.732 Y77.588 I-34.346 J-19.405
G01 X613.835 Y74.430  
G01 X614.812 Y73.793 
G01 X619.505 Y70.291 
G01 X621.212 Y73.374 
G02 X627.785 Y82.307 I51.935 J-31.328
G02 X637.716 Y91.377 I48.088 J-42.681
G01 X643.888 Y95.507  
G01 X646.388 Y96.996 
G01 X646.527 Y101.763 
G02 X647.975 Y109.672 I42.088 J-3.617
G02 X654.168 Y123.002 I44.778 J-12.700
G02 X659.777 Y129.785 I37.503 J-25.300
G01 X663.220 Y132.943  
G01 X663.589 Y133.254 
G01 X663.081 Y135.097 
G01 X661.985 Y138.334 
G01 X660.298 Y143.186 
G01 X658.545 Y149.459 
G02 X657.346 Y157.690 I48.125 J11.213
G02 X657.562 Y165.941 I47.597 J2.877
G01 X658.577 Y172.176  
G02 X661.539 Y182.753 I84.664 J-18.008
G01 X663.510 Y187.571  
G03 X656.734 Y186.310 I6.528 J-53.931
G01 X653.211 Y185.256  
G01 X649.861 Y183.817 
G01 X648.595 Y183.009 
G01 X647.930 Y182.437 
G01 X646.304 Y180.862 
G01 X642.789 Y177.624 
G02 X635.304 Y172.444 I-27.718 J32.055
G02 X627.497 Y169.159 I-20.375 J37.497
G01 X626.807 Y168.949  
G01 X625.763 Y170.625  
G01 X624.721 Y169.521  
G02 X617.113 Y163.764 I-23.374 J22.984
G02 X611.190 Y159.368 I-21.513 J22.799
G01 X607.541 Y157.557  
G01 X606.886 Y157.285 
G01 X606.624 Y156.675 
G02 X603.058 Y150.541 I-28.443 J12.430
G02 X598.082 Y145.224 I-26.276 J19.607
G01 X595.978 Y143.528  
G01 X596.006 Y141.504 
G02 X595.180 Y133.693 I-39.827 J0.261
G01 X594.873 Y132.291  
G01 X595.830 Y129.753 
G02 X597.116 Y124.645 I-30.739 J-10.455
G02 X597.170 Y114.721 I-30.723 J-5.130
G01 X597.098 Y114.281  
G01 X598.064 Y110.861 
G02 X598.800 Y103.403 I-29.901 J-6.715
G01 X598.792 Y103.134  
G01 X599.763 Y101.814 
G02 X603.584 Y94.002 I-23.631 J-16.401
G01 X604.615 Y89.540  
G01 X604.877 Y87.345 
G02 X608.507 Y82.146 I-25.426 J-21.615
G02 X610.951 Y76.917 I-32.689 J-18.469
G01 X612.228 Y73.201  
G01 X613.764 Y72.204 
G02 X618.752 Y68.433 I-26.622 J-40.390
G01 X620.143 Y67.188  
G01 X622.842 Y72.391 
G02 X629.208 Y81.043 I50.305 J-30.345
G02 X638.846 Y89.845 I46.665 J-41.418
G01 X644.873 Y93.879  
G01 X648.337 Y95.929 
G02 X648.423 Y101.600 I40.238 J2.220
G02 X649.806 Y109.153 I40.192 J-3.454
G02 X655.746 Y121.938 I42.947 J-12.181
G02 X661.118 Y128.435 I35.925 J-24.235
G01 X664.449 Y131.490  
G01 X665.699 Y132.532 
G01 X664.899 Y135.659 
G01 X663.771 Y138.993 
G01 X662.107 Y143.778 
G01 X660.398 Y149.891 
G02 X659.245 Y157.805 I46.272 J10.781
G02 X659.453 Y165.726 I45.698 J2.762
G01 X660.438 Y171.780  
G02 X663.335 Y182.125 I82.803 J-17.612
G02 X666.120 Y188.549 I45.620 J-15.961
G01 X666.776 Y189.759  
G01 X664.221 Y189.566 
G03 X656.268 Y188.155 I5.818 J-55.926
G01 X652.586 Y187.053  
G01 X648.988 Y185.508 
G01 X647.429 Y184.513 
G01 X646.617 Y183.814 
G01 X644.971 Y182.220 
G01 X641.544 Y179.063 
G02 X634.395 Y174.116 I-26.473 J30.615
G02 X626.937 Y170.977 I-19.466 J35.825
G01 X625.763 Y170.625  
G01 X624.708 Y172.302  
G01 X623.364 Y170.855  
G02 X616.122 Y165.391 I-22.017 J21.649
G01 X615.981 Y165.314  
G02 X610.244 Y161.019 I-20.381 J21.249
G01 X606.798 Y159.309  
G01 X605.433 Y158.756 
G01 X604.880 Y157.437 
G02 X601.533 Y151.679 I-26.699 J11.668
G02 X596.846 Y146.671 I-24.751 J18.469
G01 X594.107 Y144.508  
G01 X594.032 Y144.452 
G01 X594.103 Y141.517 
G02 X593.317 Y134.079 I-37.924 J0.248
G01 X592.877 Y132.123  
G01 X594.028 Y129.140 
G02 X595.239 Y124.331 I-28.937 J-9.842
G02 X595.290 Y115.013 I-28.846 J-4.816
G01 X595.137 Y114.123  
G01 X596.208 Y110.444 
G02 X596.898 Y103.449 I-28.044 J-6.298
G01 X596.860 Y102.505  
G01 X598.199 Y100.729 
G02 X601.768 Y93.434 I-22.068 J-15.316
G01 X602.733 Y89.255  
G01 X603.029 Y86.572 
G01 X603.299 Y86.262 
G02 X606.850 Y81.210 I-23.848 J-20.532
G02 X609.171 Y76.246 I-31.032 J-17.533
G01 X610.566 Y72.129  
G01 X610.614 Y71.972 
G01 X612.717 Y70.615 
G02 X617.508 Y66.992 I-25.574 J-38.801
G01 X619.029 Y65.625  
G01 X619.512 Y65.230 
G01 X620.998 Y64.245 
G01 X621.223 Y64.831 
G02 X624.471 Y71.408 I40.693 J-16.011
G02 X630.632 Y79.780 I48.676 J-29.362
G02 X639.975 Y88.313 I45.242 J-40.155
G01 X645.859 Y92.251  
G01 X649.331 Y94.305 
G01 X650.272 Y94.899 
G01 X650.299 Y94.943 
G01 X650.270 Y95.502 
G02 X650.319 Y101.437 I38.305 J2.647
G02 X651.637 Y108.634 I38.296 J-3.291
G02 X657.323 Y120.873 I41.116 J-11.661
G02 X662.460 Y127.086 I34.348 J-23.171
G01 X665.678 Y130.038  
G01 X667.746 Y131.742 
G01 X667.573 Y132.869 
G01 X666.717 Y136.221 
G01 X665.556 Y139.651 
G01 X663.915 Y144.370 
G01 X662.251 Y150.323 
G02 X661.145 Y157.920 I44.419 J10.349
G02 X661.344 Y165.512 I43.798 J2.648
G01 X662.299 Y171.384  
G02 X665.131 Y181.496 I80.941 J-17.216
G02 X667.807 Y187.667 I43.824 J-15.333
G01 X670.194 Y191.687  
G01 X669.515 Y191.707 
G01 X664.024 Y191.459 
G03 X655.802 Y190.000 I6.014 J-57.819
G01 X651.962 Y188.851  
G01 X648.114 Y187.199 
G01 X646.263 Y186.017 
G01 X645.303 Y185.191 
G01 X643.637 Y183.578 
G01 X640.300 Y180.503 
G02 X633.487 Y175.788 I-25.228 J29.176
G02 X626.377 Y172.796 I-18.558 J34.153
G01 X624.708 Y172.302  
G01 X623.642 Y173.981  
G01 X622.007 Y172.189  
G02 X615.211 Y167.062 I-20.660 J20.315
G01 X614.843 Y166.859  
G01 X614.770 Y166.789 
G02 X609.297 Y162.670 I-19.170 J19.774
G01 X606.056 Y161.061  
G01 X603.970 Y160.238 
G01 X603.136 Y158.199 
G02 X600.008 Y152.817 I-24.956 J10.906
G02 X595.609 Y148.118 I-23.226 J17.331
G01 X592.986 Y146.045  
G01 X592.063 Y145.372 
G01 X592.064 Y145.365 
G01 X592.200 Y141.529 
G02 X591.453 Y134.465 I-36.021 J0.236
G01 X590.873 Y131.949  
G01 X592.226 Y128.527 
G01 X593.362 Y124.018 
G02 X593.409 Y115.306 I-26.969 J-4.503
G01 X593.168 Y113.971  
G01 X593.322 Y113.548 
G01 X594.351 Y110.027 
G02 X594.995 Y103.496 I-26.188 J-5.881
G01 X594.910 Y101.868  
G01 X596.636 Y99.644 
G02 X599.952 Y92.866 I-20.505 J-14.231
G01 X600.852 Y88.969  
G01 X601.169 Y85.792 
G01 X601.857 Y85.021 
G02 X605.193 Y80.273 I-22.405 J-19.291
G02 X607.390 Y75.575 I-29.376 J-16.597
G01 X608.744 Y71.579  
G01 X609.000 Y70.738 
G01 X611.670 Y69.026 
G01 X616.265 Y65.552 
G01 X617.728 Y64.236 
G01 X618.408 Y63.680 
G01 X620.197 Y62.505 
G01 X622.054 Y61.422 
G01 X622.993 Y64.134 
G02 X626.101 Y70.425 I38.923 J-15.315
G02 X632.055 Y78.517 I47.046 J-28.380
G02 X641.104 Y86.782 I43.819 J-38.892
G01 X646.844 Y90.623  
G01 X650.284 Y92.658 
G01 X651.245 Y93.258 
G01 X651.602 Y93.525 
G01 X651.709 Y93.636 
G01 X652.211 Y94.551 
G01 X652.168 Y95.633 
G02 X652.215 Y101.274 I36.406 J2.516
G02 X653.467 Y108.114 I36.400 J-3.128
G02 X658.901 Y119.809 I39.285 J-11.142
G02 X663.802 Y125.736 I32.770 J-22.107
G01 X666.907 Y128.585  
G01 X669.702 Y130.895 
G01 X669.687 Y131.373 
G01 X669.438 Y133.247 
G01 X668.536 Y136.783 
G01 X667.342 Y140.309 
G01 X665.724 Y144.961 
G01 X664.105 Y150.755 
G02 X663.044 Y158.035 I42.565 J9.917
G02 X663.235 Y165.298 I41.898 J2.533
G01 X664.161 Y170.988  
G02 X666.928 Y180.868 I79.080 J-16.820
G02 X669.493 Y186.786 I42.028 J-14.704
G02 X673.635 Y193.186 I36.428 J-19.037
G01 X673.051 Y193.294  
G01 X669.540 Y193.610 
G01 X663.827 Y193.351 
G03 X655.335 Y191.845 I6.211 J-59.712
G01 X651.338 Y190.649  
G01 X647.241 Y188.889 
G01 X645.097 Y187.521 
G01 X643.989 Y186.567 
G01 X642.304 Y184.936 
G01 X639.055 Y181.942 
G02 X632.578 Y177.460 I-23.983 J27.736
G02 X625.816 Y174.614 I-17.649 J32.481
G01 X623.642 Y173.981  
G01 X622.564 Y175.660  
G01 X620.650 Y173.524  
G02 X614.300 Y168.733 I-19.303 J18.981
G01 X613.735 Y168.419  
G01 X613.445 Y168.155 
G02 X608.351 Y164.321 I-17.845 J18.407
G01 X605.313 Y162.814  
G01 X602.495 Y161.734 
G01 X601.393 Y158.961 
G02 X598.483 Y153.955 I-23.212 J10.144
G02 X594.373 Y149.564 I-21.701 J16.193
G01 X591.865 Y147.583  
G01 X590.421 Y146.530 
G01 X590.185 Y145.808 
G01 X590.157 Y145.609 
G01 X590.166 Y145.218 
G01 X590.297 Y141.542 
G02 X589.590 Y134.850 I-34.118 J0.223
G01 X588.928 Y132.028  
G01 X588.864 Y131.759 
G01 X590.425 Y127.914 
G01 X591.485 Y123.704 
G02 X591.529 Y115.599 I-25.092 J-4.190
G01 X591.192 Y113.835  
G01 X591.533 Y112.899 
G01 X592.494 Y109.610 
G02 X593.093 Y103.542 I-24.331 J-5.464
G01 X592.936 Y101.220  
G01 X595.073 Y98.559 
G02 X598.136 Y92.298 I-18.941 J-13.146
G01 X598.970 Y88.683  
G01 X599.280 Y85.433 
G01 X599.299 Y85.000 
G01 X600.415 Y83.779 
G02 X603.536 Y79.337 I-20.963 J-18.049
G01 X605.609 Y74.904  
G01 X606.923 Y71.029 
G01 X607.390 Y69.498 
G01 X607.662 Y69.329 
G01 X610.622 Y67.437 
G01 X615.021 Y64.111 
G01 X616.428 Y62.847 
G01 X617.305 Y62.130 
G01 X619.213 Y60.876 
G01 X623.281 Y58.598 
G02 X624.764 Y63.438 I31.911 J-7.132
G02 X627.730 Y69.442 I37.152 J-14.618
G02 X633.478 Y77.254 I45.417 J-27.397
G02 X642.233 Y85.250 I42.395 J-37.628
G01 X647.829 Y88.995  
G01 X651.237 Y91.011 
G01 X652.305 Y91.677 
G01 X652.820 Y92.063 
G01 X653.222 Y92.482 
G01 X654.017 Y93.949 
G01 X654.115 Y94.527 
G01 X654.067 Y95.764 
G02 X654.111 Y101.111 I34.508 J2.385
G02 X655.298 Y107.595 I34.503 J-2.965
G02 X660.478 Y118.745 I37.455 J-10.623
G02 X665.143 Y124.387 I31.192 J-21.043
G01 X668.136 Y127.132  
G01 X670.292 Y128.905 
G01 X671.413 Y129.883 
G01 X671.562 Y130.034 
G01 X671.586 Y131.496 
G01 X671.303 Y133.624 
G01 X670.354 Y137.345 
G01 X669.128 Y140.967 
G01 X667.533 Y145.553 
G01 X665.958 Y151.186 
G02 X664.944 Y158.150 I40.712 J9.485
G02 X665.126 Y165.083 I39.999 J2.418
G01 X666.022 Y170.592  
G02 X668.724 Y180.239 I77.219 J-16.424
G02 X671.180 Y185.904 I40.232 J-14.076
G02 X676.989 Y194.198 I34.741 J-18.155
G01 X673.366 Y195.170  
G01 X669.566 Y195.513 
G01 X663.630 Y195.244 
G03 X654.869 Y193.690 I6.408 J-61.605
G01 X650.713 Y192.446  
G01 X646.367 Y190.580 
G01 X643.931 Y189.025 
G01 X642.676 Y187.944 
G01 X640.971 Y186.294 
G01 X637.810 Y183.382 
G02 X631.670 Y179.132 I-22.739 J26.297
G02 X625.256 Y176.433 I-16.741 J30.809
G01 X622.564 Y175.660  
G01 X621.471 Y177.342  
G01 X619.293 Y174.858  
G02 X613.390 Y170.404 I-17.947 J17.647
G01 X612.671 Y170.003  
G01 X612.120 Y169.522 
G02 X607.404 Y165.972 I-16.520 J17.041
G01 X604.571 Y164.566  
G01 X601.587 Y163.435 
G01 X601.348 Y163.349 
G01 X600.862 Y162.783 
G01 X600.720 Y162.422 
G01 X599.649 Y159.723 
G02 X596.958 Y155.093 I-21.468 J9.381
G02 X593.137 Y151.011 I-20.175 J15.055
G01 X590.743 Y149.120  
G01 X588.885 Y147.763 
G01 X588.344 Y146.289 
G01 X588.255 Y145.664 
G01 X588.269 Y145.070 
G01 X588.394 Y141.554 
G02 X587.727 Y135.236 I-32.215 J0.211
G01 X587.087 Y132.512  
G01 X586.891 Y131.495 
G01 X587.047 Y131.148 
G01 X588.623 Y127.302 
G01 X589.608 Y123.391 
G02 X589.649 Y115.892 I-23.215 J-3.876
G01 X589.207 Y113.719  
G01 X589.744 Y112.250 
G01 X590.637 Y109.193 
G02 X591.190 Y103.588 I-22.474 J-5.047
G01 X590.936 Y100.587  
G01 X590.932 Y100.559 
G01 X593.509 Y97.474 
G02 X596.319 Y91.729 I-17.378 J-12.061
G01 X597.089 Y88.398  
G01 X597.379 Y85.358 
G01 X597.441 Y84.169 
G01 X598.973 Y82.537 
G02 X601.880 Y78.401 I-19.521 J-16.808
G01 X603.828 Y74.233  
G01 X605.101 Y70.479 
G01 X605.780 Y68.264 
G01 X606.660 Y67.710 
G01 X609.575 Y65.848 
G01 X613.778 Y62.671 
G01 X615.127 Y61.457 
G01 X616.201 Y60.579 
G01 X618.228 Y59.248 
G01 X624.013 Y56.102 
G01 X624.715 Y55.769 
G01 X624.955 Y57.301 
G02 X626.535 Y62.741 I30.237 J-5.835
G02 X629.360 Y68.459 I35.381 J-13.921
G02 X634.901 Y75.990 I43.787 J-26.414
G02 X643.363 Y83.718 I40.972 J-36.365
G01 X648.814 Y87.366  
G01 X652.190 Y89.364 
G01 X653.364 Y90.096 
G01 X654.038 Y90.600 
G01 X654.735 Y91.328 
G01 X655.810 Y93.310 
G01 X656.018 Y94.544 
G01 X655.965 Y95.896 
G02 X656.007 Y100.948 I32.609 J2.254
G02 X657.129 Y107.076 I32.607 J-2.802
G02 X662.056 Y117.681 I35.624 J-10.104
G02 X666.485 Y123.037 I29.615 J-19.978
G01 X669.365 Y125.679  
G01 X671.480 Y127.419 
G01 X672.725 Y128.505 
G01 X673.233 Y129.062 
G01 X673.332 Y129.242 
G01 X673.445 Y129.746 
G01 X673.485 Y131.619 
G01 X673.168 Y134.002 
G01 X672.172 Y137.907 
G01 X670.913 Y141.625 
G01 X669.341 Y146.145 
G01 X667.811 Y151.618 
G02 X666.843 Y158.264 I38.859 J9.054
G02 X667.017 Y164.869 I38.099 J2.303
G01 X667.883 Y170.196  
G02 X670.520 Y179.611 I75.357 J-16.028
G02 X672.866 Y185.023 I38.436 J-13.447
G02 X679.568 Y194.141 I33.055 J-17.274
G01 X680.255 Y194.805  
G01 X679.916 Y194.982 
G03 X673.681 Y197.047 I-9.788 J-19.105
G01 X669.591 Y197.415  
G01 X663.433 Y197.137 
G03 X654.403 Y195.535 I6.605 J-63.497
G01 X650.089 Y194.244  
G01 X645.494 Y192.271 
G01 X642.766 Y190.529 
G01 X641.362 Y189.321 
G01 X639.638 Y187.652 
G01 X636.566 Y184.821 
G02 X630.761 Y180.804 I-21.494 J24.857
G02 X624.695 Y178.251 I-15.832 J29.137
G01 X621.471 Y177.342  
G00 Z29.080
G00 X633.422 Y140.125  F7000.0
G01 Z14.500 F300.0 M3
G01 Z14.167 
G01 Z13.834 
G01 Z13.537 
G01 Z13.356 
G01 Z13.103 
G01 Z12.811 
G01 Z12.181 
G01 Z11.551 
G01 Z11.319 
G01 Z11.298 
G01 Z10.965 
G01 Z10.632 
G01 Z10.334 
G01 Z10.154 
G01 Z9.901 
G01 Z9.750 
G01 Z9.599 
G01 Z9.346 
G01 Z9.166 
G01 Z8.868 
G01 Z8.535 
G01 Z8.202 
G01 Z8.181 
G01 Z7.949 
G01 Z7.319 
G01 Z6.689 
G01 Z6.397 
G01 Z6.144 
G01 Z5.963 
G01 Z5.666 
G01 Z5.333 
G01 Z5.000 
G02 X627.742 Y136.027 I-37.822 J46.438
G01 X625.936 Y133.469  F3500.0
G01 X624.775 Y131.963 
G01 X625.271 Y129.346 
G01 X625.699 Y126.298 
G02 X632.082 Y137.901 I67.053 J-29.326
G01 X633.482 Y139.903  
G01 X633.422 Y140.125 
G01 X634.591 Y143.251  
G01 X632.844 Y142.116  
G02 X626.381 Y137.418 I-37.244 J44.447
G01 X624.411 Y134.608  
G01 X622.720 Y132.447 
G01 X623.394 Y129.032 
G02 X624.104 Y116.496 I-57.002 J-9.517
G01 X624.144 Y116.314  
G01 X624.175 Y116.423 
G02 X633.659 Y136.837 I68.578 J-19.450
G01 X635.562 Y139.519  
G01 X634.591 Y143.251 
G01 X635.830 Y146.467  
G01 X631.723 Y143.659  
G02 X625.017 Y138.811 I-36.123 J42.903
G01 X622.886 Y135.746  
G01 X620.649 Y132.935 
G01 X621.517 Y128.719 
G02 X622.190 Y116.338 I-55.125 J-9.204
G01 X622.202 Y116.282  
G01 X623.123 Y110.996 
G01 X623.883 Y109.548 
G01 X624.645 Y110.109 
G01 X626.006 Y115.903 
G02 X635.237 Y135.773 I66.747 J-18.931
G01 X637.653 Y139.129  
G01 X636.304 Y144.277 
G01 X635.830 Y146.467 
G01 X637.146 Y149.941  
G02 X630.602 Y145.203 I-35.799 J42.564
G02 X623.652 Y140.207 I-35.002 J41.360
G01 X621.360 Y136.884  
G01 X618.560 Y133.428 
G01 X619.640 Y128.405 
G02 X620.274 Y116.179 I-53.248 J-8.891
G01 X620.346 Y115.865  
G01 X621.278 Y110.402 
G01 X623.177 Y106.613 
G01 X625.294 Y108.225 
G01 X626.381 Y109.016 
G01 X627.836 Y115.384 
G02 X636.815 Y134.709 I64.916 J-18.412
G01 X639.756 Y138.733  
G01 X638.158 Y144.709 
G01 X637.146 Y149.941 
G01 X636.978 Y152.310  
G02 X629.480 Y146.747 I-35.631 J40.195
G02 X622.284 Y141.606 I-33.880 J39.815
G01 X619.835 Y138.022  
G01 X616.450 Y133.925 
G01 X617.763 Y128.092 
G02 X618.357 Y116.021 I-51.371 J-8.577
G01 X618.489 Y115.448  
G01 X619.430 Y109.807 
G02 X622.407 Y103.538 I-43.299 J-24.394
G01 X626.423 Y106.693  
G01 X628.127 Y107.923 
G02 X629.667 Y114.865 I60.488 J-9.777
G02 X638.392 Y133.644 I63.086 J-17.893
G01 X641.872 Y138.329  
G01 X640.011 Y145.141 
G02 X638.659 Y152.981 I66.659 J15.531
G01 X636.978 Y152.310  
G01 X635.974 Y153.964  
G02 X628.358 Y148.292 I-34.627 J38.541
G02 X620.912 Y143.007 I-32.758 J38.271
G01 X618.310 Y139.160  
G01 X614.617 Y134.745 
G01 X614.499 Y133.822 
G01 X615.886 Y127.779 
G02 X616.438 Y115.863 I-49.494 J-8.264
G01 X616.632 Y115.031  
G01 X617.580 Y109.211 
G02 X621.554 Y100.283 I-41.449 J-23.799
G01 X627.552 Y105.162  
G01 X629.884 Y106.829 
G02 X631.498 Y114.346 I58.731 J-8.683
G02 X639.970 Y132.580 I61.255 J-17.373
G01 X644.002 Y137.916  
G01 X641.864 Y145.573 
G02 X640.308 Y155.791 I64.806 J15.099
G01 X635.974 Y153.964  
G01 X634.967 Y155.620  
G02 X627.236 Y149.837 I-33.620 J36.885
G02 X619.709 Y144.510 I-31.636 J36.726
G01 X619.538 Y144.412  
G01 X616.785 Y140.298 
G02 X612.799 Y135.593 I-40.003 J29.850
G01 X612.556 Y133.675  
G02 X614.009 Y127.465 I-47.465 J-14.377
G02 X614.517 Y115.704 I-47.617 J-7.950
G01 X614.775 Y114.614  
G02 X615.727 Y108.614 I-46.612 J-10.467
G02 X619.930 Y99.117 I-39.595 J-23.201
G01 X620.593 Y96.789  
G02 X628.682 Y103.630 I55.281 J-57.164
G01 X631.651 Y105.735  
G02 X633.329 Y113.826 I56.963 J-7.589
G02 X641.547 Y131.516 I59.424 J-16.854
G02 X646.146 Y137.492 I50.124 J-33.814
G01 X645.829 Y138.452  
G01 X643.718 Y146.005 
G02 X642.149 Y156.772 I62.952 J14.667
G01 X642.060 Y158.792  
G02 X634.967 Y155.620 I-27.131 J51.149
G01 X633.959 Y157.278  
G02 X626.114 Y151.382 I-32.612 J35.227
G02 X618.762 Y146.161 I-30.514 J35.181
G01 X618.159 Y145.821  
G01 X615.260 Y141.436 
G02 X610.973 Y136.446 I-38.477 J28.712
G01 X610.611 Y133.526  
G02 X612.132 Y127.152 I-45.520 J-14.229
G02 X612.595 Y115.546 I-45.740 J-7.637
G01 X612.919 Y114.197  
G02 X613.870 Y108.015 I-44.755 J-10.050
G02 X618.114 Y98.548 I-37.738 J-22.602
G01 X619.398 Y93.404  
G01 X619.610 Y93.096 
G02 X629.811 Y102.098 I56.263 J-53.470
G01 X633.432 Y104.640  
G02 X635.160 Y113.307 I55.183 J-6.494
G02 X643.125 Y130.452 I57.593 J-16.335
G02 X648.304 Y137.054 I48.546 J-32.749
G01 X647.638 Y139.043  
G01 X645.571 Y146.436 
G02 X644.049 Y156.886 I61.099 J14.235
G01 X643.956 Y162.056  
G01 X641.664 Y160.739 
G02 X633.959 Y157.278 I-26.735 J49.202
G01 X632.948 Y158.937  
G02 X624.991 Y152.927 I-31.601 J33.567
G02 X617.816 Y147.812 I-29.391 J33.635
G01 X616.776 Y147.233  
G01 X613.734 Y142.574 
G02 X609.141 Y137.304 I-36.952 J27.574
G01 X608.662 Y133.377  
G02 X610.255 Y126.838 I-43.571 J-14.079
G02 X610.670 Y115.388 I-43.862 J-7.324
G01 X611.062 Y113.780  
G02 X612.008 Y107.415 I-42.898 J-9.633
G02 X616.297 Y97.980 I-35.877 J-22.002
G01 X617.601 Y92.654  
G01 X619.344 Y89.996 
G02 X630.940 Y100.567 I56.530 J-50.371
G01 X635.226 Y103.545  
G02 X636.990 Y112.788 I53.388 J-5.399
G02 X644.702 Y129.387 I55.762 J-15.816
G02 X650.476 Y136.599 I46.968 J-31.685
G01 X649.446 Y139.635  
G01 X647.424 Y146.868 
G02 X645.948 Y157.001 I59.245 J13.804
G02 X646.065 Y165.710 I58.994 J3.566
G01 X640.755 Y162.411  
G02 X632.948 Y158.937 I-25.826 J47.530
G01 X631.934 Y160.599  
G02 X623.868 Y154.473 I-30.587 J31.906
G02 X616.869 Y149.463 I-28.268 J32.089
G01 X615.387 Y148.649  
G02 X612.209 Y143.712 I-37.206 J20.455
G02 X607.299 Y138.169 I-35.427 J26.436
G01 X606.708 Y133.225  
G02 X608.378 Y126.525 I-41.617 J-13.928
G02 X608.743 Y115.230 I-41.985 J-7.010
G01 X609.205 Y113.363  
G02 X610.143 Y106.812 I-41.042 J-9.216
G02 X614.481 Y97.412 I-34.011 J-21.399
G02 X615.800 Y91.902 I-39.579 J-12.383
G01 X618.448 Y87.762  
G01 X619.028 Y86.706 
G01 X620.669 Y88.623 
G02 X632.070 Y99.035 I55.205 J-48.997
G01 X637.036 Y102.449  
G01 X637.047 Y102.578 
G02 X638.821 Y112.268 I51.568 J-4.432
G02 X646.280 Y128.323 I53.932 J-15.296
G02 X652.663 Y136.126 I45.391 J-30.621
G01 X651.255 Y140.227  
G01 X649.278 Y147.300 
G02 X647.848 Y157.116 I57.392 J13.372
G02 X648.108 Y167.013 I57.095 J3.451
G01 X648.507 Y169.995  
G02 X639.847 Y164.083 I-33.435 J39.684
G02 X631.934 Y160.599 I-24.918 J45.858
G01 X630.917 Y162.263  
G02 X622.744 Y156.020 I-29.571 J30.241
G02 X615.923 Y151.114 I-27.144 J30.543
G01 X613.992 Y150.071  
G02 X610.684 Y144.850 I-35.811 J19.034
G02 X605.447 Y139.041 I-33.902 J25.298
G01 X604.750 Y133.072  
G01 X604.838 Y132.817 
G02 X606.501 Y126.212 I-39.747 J-13.519
G02 X606.813 Y115.072 I-40.108 J-6.697
G01 X607.348 Y112.946  
G02 X608.271 Y106.207 I-39.185 J-8.800
G02 X612.665 Y96.844 I-32.140 J-20.794
G02 X613.994 Y91.149 I-37.763 J-11.815
G01 X616.791 Y86.826  
G01 X618.655 Y83.162 
G01 X622.092 Y87.359 
G02 X633.199 Y97.503 I53.781 J-47.734
G01 X638.863 Y101.353  
G01 X638.943 Y102.415 
G02 X640.652 Y111.749 I49.672 J-4.269
G02 X647.858 Y127.259 I52.101 J-14.777
G02 X654.410 Y135.183 I43.813 J-29.557
G01 X654.868 Y135.634  
G01 X654.843 Y135.702 
G01 X653.064 Y140.819 
G01 X651.131 Y147.732 
G02 X649.747 Y157.231 I55.539 J12.940
G02 X649.999 Y166.799 I55.195 J3.337
G01 X651.131 Y173.760  
G01 X651.464 Y175.261 
G01 X647.768 Y171.866 
G02 X638.938 Y165.755 I-32.696 J37.813
G02 X630.917 Y162.263 I-24.009 J44.185
G01 X629.897 Y163.930  
G02 X621.619 Y157.567 I-28.550 J28.574
G02 X614.976 Y152.765 I-26.019 J28.996
G01 X612.590 Y151.498  
G02 X609.159 Y145.988 I-34.409 J17.607
G02 X603.583 Y139.921 I-32.377 J24.160
G02 X602.787 Y132.919 I-47.404 J1.844
G01 X603.036 Y132.204  
G02 X604.624 Y125.898 I-37.945 J-12.906
G02 X604.879 Y114.913 I-38.231 J-6.383
G01 X605.491 Y112.529  
G02 X606.393 Y105.600 I-37.328 J-8.383
G02 X610.849 Y96.275 I-30.262 J-20.187
G02 X612.140 Y90.683 I-35.947 J-11.247
G01 X612.183 Y90.394  
G01 X615.134 Y85.890 
G02 X618.074 Y79.602 I-39.317 J-22.213
G01 X618.202 Y79.259  
G02 X623.515 Y86.096 I54.944 J-37.214
G02 X634.328 Y95.972 I52.358 J-46.471
G01 X640.710 Y100.256  
G01 X640.839 Y102.252 
G02 X642.483 Y111.230 I47.776 J-4.106
G02 X649.435 Y126.195 I50.270 J-14.258
G02 X655.752 Y133.834 I42.236 J-28.492
G01 X657.073 Y135.110  
G01 X656.629 Y136.360 
G01 X654.872 Y141.411 
G01 X652.984 Y148.164 
G02 X651.647 Y157.346 I53.685 J12.508
G02 X651.890 Y166.584 I53.296 J3.222
G01 X652.993 Y173.364  
G01 X654.570 Y179.676 
G01 X652.482 Y178.745 
G01 X652.093 Y178.497 
G01 X651.872 Y178.306 
G01 X650.303 Y176.789 
G01 X646.523 Y173.305 
G02 X638.030 Y167.428 I-31.452 J36.373
G02 X629.897 Y163.930 I-23.101 J42.513
G01 X628.872 Y165.600  
G01 X628.792 Y165.518  
G02 X620.494 Y159.115 I-27.445 J26.986
G02 X614.030 Y154.416 I-24.894 J27.448
G01 X611.180 Y152.931  
G02 X607.634 Y147.127 I-32.999 J16.173
G02 X601.791 Y140.884 I-30.852 J23.022
G01 X601.706 Y140.812  
G02 X600.818 Y132.765 I-45.527 J0.953
G01 X601.235 Y131.591  
G02 X602.747 Y125.585 I-36.143 J-12.294
G02 X602.941 Y114.755 I-36.354 J-6.070
G01 X603.635 Y112.112  
G02 X604.508 Y104.989 I-35.471 J-7.966
G02 X609.033 Y95.707 I-28.377 J-19.576
G02 X610.259 Y90.397 I-34.130 J-10.679
G01 X610.367 Y89.637  
G02 X613.478 Y84.954 I-30.915 J-23.907
G02 X616.294 Y78.931 I-37.660 J-21.277
G01 X617.028 Y76.890  
G01 X618.349 Y75.986 
G02 X624.939 Y84.833 I54.798 J-33.941
G02 X635.458 Y94.440 I50.935 J-45.208
G01 X641.918 Y98.763  
G01 X642.577 Y99.161 
G01 X642.735 Y102.089 
G02 X644.314 Y110.711 I45.880 J-3.943
G02 X651.013 Y125.130 I48.439 J-13.738
G02 X657.093 Y132.484 I40.658 J-27.428
G01 X659.266 Y134.542  
G01 X658.414 Y137.018 
G01 X656.681 Y142.002 
G01 X654.838 Y148.596 
G02 X653.547 Y157.461 I51.832 J12.076
G02 X653.781 Y166.370 I51.396 J3.107
G01 X654.854 Y172.968  
G02 X657.455 Y182.566 I88.387 J-18.800
G01 X654.459 Y181.660  
G01 X651.609 Y180.436 
G01 X650.927 Y180.001 
G01 X650.558 Y179.683 
G01 X648.970 Y178.146 
G01 X645.279 Y174.745 
G02 X637.121 Y169.100 I-30.207 J34.934
G02 X628.872 Y165.600 I-22.192 J40.841
G01 X627.844 Y167.274  
G01 X627.435 Y166.852  
G02 X619.368 Y160.663 I-26.088 J25.652
G02 X613.083 Y156.066 I-23.768 J25.899
G01 X609.760 Y154.373  
G02 X606.109 Y148.265 I-31.579 J14.731
G02 X600.555 Y142.331 I-29.326 J21.884
G01 X599.813 Y141.709  
G01 X599.812 Y141.480 
G02 X598.908 Y132.922 I-43.633 J0.286
G01 X598.842 Y132.611  
G01 X599.433 Y130.978 
G02 X600.870 Y125.271 I-34.342 J-11.681
G02 X600.999 Y114.597 I-34.477 J-5.757
G01 X601.778 Y111.695  
G02 X602.614 Y104.374 I-33.615 J-7.549
G01 X602.890 Y103.984  
G02 X607.216 Y95.139 I-26.758 J-18.571
G02 X608.378 Y90.112 I-32.314 J-10.111
G01 X608.545 Y88.877  
G02 X611.821 Y84.018 I-29.093 J-23.147
G02 X614.513 Y78.259 I-36.003 J-20.341
G01 X615.435 Y75.660  
G01 X615.859 Y75.382 
G01 X618.911 Y73.209 
G01 X619.583 Y74.357 
G02 X626.362 Y83.570 I53.564 J-32.311
G02 X636.587 Y92.908 I49.512 J-43.944
G01 X642.903 Y97.135  
G01 X644.469 Y98.074 
G01 X644.631 Y101.926 
G02 X646.144 Y110.191 I43.984 J-3.780
G02 X652.590 Y124.066 I46.608 J-13.219
G02 X658.435 Y131.134 I39.080 J-26.364
G01 X661.444 Y133.928  
G01 X661.263 Y134.535 
G01 X660.200 Y137.676 
G01 X658.489 Y142.594 
G01 X656.691 Y149.027 
G02 X655.446 Y157.575 I49.979 J11.645
G02 X655.672 Y166.155 I49.497 J2.992
G01 X656.715 Y172.572  
G02 X659.743 Y183.381 I86.526 J-18.404
G01 X660.405 Y185.169  
G01 X657.200 Y184.465 
G01 X653.835 Y183.458 
G01 X650.735 Y182.127 
G01 X649.761 Y181.505 
G01 X649.244 Y181.060 
G01 X647.637 Y179.504 
G01 X644.034 Y176.184 
G02 X636.213 Y170.772 I-28.962 J33.494
G02 X628.058 Y167.340 I-21.284 J39.169
G01 X627.844 Y167.274  
G01 X626.807 Y168.949  
G01 X626.078 Y168.187  
G02 X618.241 Y162.213 I-24.731 J24.318
G02 X612.137 Y157.717 I-22.641 J24.350
G01 X608.329 Y155.824  
G02 X604.583 Y149.403 I-30.148 J13.280
G02 X599.318 Y143.778 I-27.801 J20.745
G01 X597.904 Y142.614  
G01 X597.909 Y141.492 
G02 X597.044 Y133.308 I-41.730 J0.273
G01 X596.861 Y132.453  
G01 X597.631 Y130.366 
G02 X598.993 Y124.958 I-32.540 J-11.068
G02 X599.052 Y114.439 I-32.600 J-5.443
G01 X599.921 Y111.278  
G02 X600.710 Y103.756 I-31.758 J-7.132
G01 X601.326 Y102.899  
G02 X605.400 Y94.571 I-25.195 J-17.486
G01 X606.496 Y89.826  
G01 X606.715 Y88.113 
G02 X610.164 Y83.082 I-27.263 J-22.383
G02 X612.732 Y77.588 I-34.346 J-19.405
G01 X613.835 Y74.430  
G01 X614.812 Y73.793 
G01 X619.505 Y70.291 
G01 X621.212 Y73.374 
G02 X627.785 Y82.307 I51.935 J-31.328
G02 X637.716 Y91.377 I48.088 J-42.681
G01 X643.888 Y95.507  
G01 X646.388 Y96.996 
G01 X646.527 Y101.763 
G02 X647.975 Y109.672 I42.088 J-3.617
G02 X654.168 Y123.002 I44.778 J-12.700
G02 X659.777 Y129.785 I37.503 J-25.300
G01 X663.220 Y132.943  
G01 X663.589 Y133.254 
G01 X663.081 Y135.097 
G01 X661.985 Y138.334 
G01 X660.298 Y143.186 
G01 X658.545 Y149.459 
G02 X657.346 Y157.690 I48.125 J11.213
G02 X657.562 Y165.941 I47.597 J2.877
G01 X658.577 Y172.176  
G02 X661.539 Y182.753 I84.664 J-18.008
G01 X663.510 Y187.571  
G03 X656.734 Y186.310 I6.528 J-53.931
G01 X653.211 Y185.256  
G01 X649.861 Y183.817 
G01 X648.595 Y183.009 
G01 X647.930 Y182.437 
G01 X646.304 Y180.862 
G01 X642.789 Y177.624 
G02 X635.304 Y172.444 I-27.718 J32.055
G02 X627.497 Y169.159 I-20.375 J37.497
G01 X626.807 Y168.949  
G01 X625.763 Y170.625  
G01 X624.721 Y169.521  
G02 X617.113 Y163.764 I-23.374 J22.984
G02 X611.190 Y159.368 I-21.513 J22.799
G01 X607.541 Y157.557  
G01 X606.886 Y157.285 
G01 X606.624 Y156.675 
G02 X603.058 Y150.541 I-28.443 J12.430
G02 X598.082 Y145.224 I-26.276 J19.607
G01 X595.978 Y143.528  
G01 X596.006 Y141.504 
G02 X595.180 Y133.693 I-39.827 J0.261
G01 X594.873 Y132.291  
G01 X595.830 Y129.753 
G02 X597.116 Y124.645 I-30.739 J-10.455
G02 X597.170 Y114.721 I-30.723 J-5.130
G01 X597.098 Y114.281  
G01 X598.064 Y110.861 
G02 X598.800 Y103.403 I-29.901 J-6.715
G01 X598.792 Y103.134  
G01 X599.763 Y101.814 
G02 X603.584 Y94.002 I-23.631 J-16.401
G01 X604.615 Y89.540  
G01 X604.877 Y87.345 
G02 X608.507 Y82.146 I-25.426 J-21.615
G02 X610.951 Y76.917 I-32.689 J-18.469
G01 X612.228 Y73.201  
G01 X613.764 Y72.204 
G02 X618.752 Y68.433 I-26.622 J-40.390
G01 X620.143 Y67.188  
G01 X622.842 Y72.391 
G02 X629.208 Y81.043 I50.305 J-30.345
G02 X638.846 Y89.845 I46.665 J-41.418
G01 X644.873 Y93.879  
G01 X648.337 Y95.929 
G02 X648.423 Y101.600 I40.238 J2.220
G02 X649.806 Y109.153 I40.192 J-3.454
G02 X655.746 Y121.938 I42.947 J-12.181
G02 X661.118 Y128.435 I35.925 J-24.235
G01 X664.449 Y131.490  
G01 X665.699 Y132.532 
G01 X664.899 Y135.659 
G01 X663.771 Y138.993 
G01 X662.107 Y143.778 
G01 X660.398 Y149.891 
G02 X659.245 Y157.805 I46.272 J10.781
G02 X659.453 Y165.726 I45.698 J2.762
G01 X660.438 Y171.780  
G02 X663.335 Y182.125 I82.803 J-17.612
G02 X666.120 Y188.549 I45.620 J-15.961
G01 X666.776 Y189.759  
G01 X664.221 Y189.566 
G03 X656.268 Y188.155 I5.818 J-55.926
G01 X652.586 Y187.053  
G01 X648.988 Y185.508 
G01 X647.429 Y184.513 
G01 X646.617 Y183.814 
G01 X644.971 Y182.220 
G01 X641.544 Y179.063 
G02 X634.395 Y174.116 I-26.473 J30.615
G02 X626.937 Y170.977 I-19.466 J35.825
G01 X625.763 Y170.625  
G01 X624.708 Y172.302  
G01 X623.364 Y170.855  
G02 X616.122 Y165.391 I-22.017 J21.649
G01 X615.981 Y165.314  
G02 X610.244 Y161.019 I-20.381 J21.249
G01 X606.798 Y159.309  
G01 X605.433 Y158.756 
G01 X604.880 Y157.437 
G02 X601.533 Y151.679 I-26.699 J11.668
G02 X596.846 Y146.671 I-24.751 J18.469
G01 X594.107 Y144.508  
G01 X594.032 Y144.452 
G01 X594.103 Y141.517 
G02 X593.317 Y134.079 I-37.924 J0.248
G01 X592.877 Y132.123  
G01 X594.028 Y129.140 
G02 X595.239 Y124.331 I-28.937 J-9.842
G02 X595.290 Y115.013 I-28.846 J-4.816
G01 X595.137 Y114.123  
G01 X596.208 Y110.444 
G02 X596.898 Y103.449 I-28.044 J-6.298
G01 X596.860 Y102.505  
G01 X598.199 Y100.729 
G02 X601.768 Y93.434 I-22.068 J-15.316
G01 X602.733 Y89.255  
G01 X603.029 Y86.572 
G01 X603.299 Y86.262 
G02 X606.850 Y81.210 I-23.848 J-20.532
G02 X609.171 Y76.246 I-31.032 J-17.533
G01 X610.566 Y72.129  
G01 X610.614 Y71.972 
G01 X612.717 Y70.615 
G02 X617.508 Y66.992 I-25.574 J-38.801
G01 X619.029 Y65.625  
G01 X619.512 Y65.230 
G01 X620.998 Y64.245 
G01 X621.223 Y64.831 
G02 X624.471 Y71.408 I40.693 J-16.011
G02 X630.632 Y79.780 I48.676 J-29.362
G02 X639.975 Y88.313 I45.242 J-40.155
G01 X645.859 Y92.251  
G01 X649.331 Y94.305 
G01 X650.272 Y94.899 
G01 X650.299 Y94.943 
G01 X650.270 Y95.502 
G02 X650.319 Y101.437 I38.305 J2.647
G02 X651.637 Y108.634 I38.296 J-3.291
G02 X657.323 Y120.873 I41.116 J-11.661
G02 X662.460 Y127.086 I34.348 J-23.171
G01 X665.678 Y130.038  
G01 X667.746 Y131.742 
G01 X667.573 Y132.869 
G01 X666.717 Y136.221 
G01 X665.556 Y139.651 
G01 X663.915 Y144.370 
G01 X662.251 Y150.323 
G02 X661.145 Y157.920 I44.419 J10.349
G02 X661.344 Y165.512 I43.798 J2.648
G01 X662.299 Y171.384  
G02 X665.131 Y181.496 I80.941 J-17.216
G02 X667.807 Y187.667 I43.824 J-15.333
G01 X670.194 Y191.687  
G01 X669.515 Y191.707 
G01 X664.024 Y191.459 
G03 X655.802 Y190.000 I6.014 J-57.819
G01 X651.962 Y188.851  
G01 X648.114 Y187.199 
G01 X646.263 Y186.017 
G01 X645.303 Y185.191 
G01 X643.637 Y183.578 
G01 X640.300 Y180.503 
G02 X633.487 Y175.788 I-25.228 J29.176
G02 X626.377 Y172.796 I-18.558 J34.153
G01 X624.708 Y172.302  
G01 X623.642 Y173.981  
G01 X622.007 Y172.189  
G02 X615.211 Y167.062 I-20.660 J20.315
G01 X614.843 Y166.859  
G01 X614.770 Y166.789 
G02 X609.297 Y162.670 I-19.170 J19.774
G01 X606.056 Y161.061  
G01 X603.970 Y160.238 
G01 X603.136 Y158.199 
G02 X600.008 Y152.817 I-24.956 J10.906
G02 X595.609 Y148.118 I-23.226 J17.331
G01 X592.986 Y146.045  
G01 X592.063 Y145.372 
G01 X592.064 Y145.365 
G01 X592.200 Y141.529 
G02 X591.453 Y134.465 I-36.021 J0.236
G01 X590.873 Y131.949  
G01 X592.226 Y128.527 
G01 X593.362 Y124.018 
G02 X593.409 Y115.306 I-26.969 J-4.503
G01 X593.168 Y113.971  
G01 X593.322 Y113.548 
G01 X594.351 Y110.027 
G02 X594.995 Y103.496 I-26.188 J-5.881
G01 X594.910 Y101.868  
G01 X596.636 Y99.644 
G02 X599.952 Y92.866 I-20.505 J-14.231
G01 X600.852 Y88.969  
G01 X601.169 Y85.792 
G01 X601.857 Y85.021 
G02 X605.193 Y80.273 I-22.405 J-19.291
G02 X607.390 Y75.575 I-29.376 J-16.597
G01 X608.744 Y71.579  
G01 X609.000 Y70.738 
G01 X611.670 Y69.026 
G01 X616.265 Y65.552 
G01 X617.728 Y64.236 
G01 X618.408 Y63.680 
G01 X620.197 Y62.505 
G01 X622.054 Y61.422 
G01 X622.993 Y64.134 
G02 X626.101 Y70.425 I38.923 J-15.315
G02 X632.055 Y78.517 I47.046 J-28.380
G02 X641.104 Y86.782 I43.819 J-38.892
G01 X646.844 Y90.623  
G01 X650.284 Y92.658 
G01 X651.245 Y93.258 
G01 X651.602 Y93.525 
G01 X651.709 Y93.636 
G01 X652.211 Y94.551 
G01 X652.168 Y95.633 
G02 X652.215 Y101.274 I36.406 J2.516
G02 X653.467 Y108.114 I36.400 J-3.128
G02 X658.901 Y119.809 I39.285 J-11.142
G02 X663.802 Y125.736 I32.770 J-22.107
G01 X666.907 Y128.585  
G01 X669.702 Y130.895 
G01 X669.687 Y131.373 
G01 X669.438 Y133.247 
G01 X668.536 Y136.783 
G01 X667.342 Y140.309 
G01 X665.724 Y144.961 
G01 X664.105 Y150.755 
G02 X663.044 Y158.035 I42.565 J9.917
G02 X663.235 Y165.298 I41.898 J2.533
G01 X664.161 Y170.988  
G02 X666.928 Y180.868 I79.080 J-16.820
G02 X669.493 Y186.786 I42.028 J-14.704
G02 X673.635 Y193.186 I36.428 J-19.037
G01 X673.051 Y193.294  
G01 X669.540 Y193.610 
G01 X663.827 Y193.351 
G03 X655.335 Y191.845 I6.211 J-59.712
G01 X651.338 Y190.649  
G01 X647.241 Y188.889 
G01 X645.097 Y187.521 
G01 X643.989 Y186.567 
G01 X642.304 Y184.936 
G01 X639.055 Y181.942 
G02 X632.578 Y177.460 I-23.983 J27.736
G02 X625.816 Y174.614 I-17.649 J32.481
G01 X623.642 Y173.981  
G01 X622.564 Y175.660  
G01 X620.650 Y173.524  
G02 X614.300 Y168.733 I-19.303 J18.981
G01 X613.735 Y168.419  
G01 X613.445 Y168.155 
G02 X608.351 Y164.321 I-17.845 J18.407
G01 X605.313 Y162.814  
G01 X602.495 Y161.734 
G01 X601.393 Y158.961 
G02 X598.483 Y153.955 I-23.212 J10.144
G02 X594.373 Y149.564 I-21.701 J16.193
G01 X591.865 Y147.583  
G01 X590.421 Y146.530 
G01 X590.185 Y145.808 
G01 X590.157 Y145.609 
G01 X590.166 Y145.218 
G01 X590.297 Y141.542 
G02 X589.590 Y134.850 I-34.118 J0.223
G01 X588.928 Y132.028  
G01 X588.864 Y131.759 
G01 X590.425 Y127.914 
G01 X591.485 Y123.704 
G02 X591.529 Y115.599 I-25.092 J-4.190
G01 X591.192 Y113.835  
G01 X591.533 Y112.899 
G01 X592.494 Y109.610 
G02 X593.093 Y103.542 I-24.331 J-5.464
G01 X592.936 Y101.220  
G01 X595.073 Y98.559 
G02 X598.136 Y92.298 I-18.941 J-13.146
G01 X598.970 Y88.683  
G01 X599.280 Y85.433 
G01 X599.299 Y85.000 
G01 X600.415 Y83.779 
G02 X603.536 Y79.337 I-20.963 J-18.049
G01 X605.609 Y74.904  
G01 X606.923 Y71.029 
G01 X607.390 Y69.498 
G01 X607.662 Y69.329 
G01 X610.622 Y67.437 
G01 X615.021 Y64.111 
G01 X616.428 Y62.847 
G01 X617.305 Y62.130 
G01 X619.213 Y60.876 
G01 X623.281 Y58.598 
G02 X624.764 Y63.438 I31.911 J-7.132
G02 X627.730 Y69.442 I37.152 J-14.618
G02 X633.478 Y77.254 I45.417 J-27.397
G02 X642.233 Y85.250 I42.395 J-37.628
G01 X647.829 Y88.995  
G01 X651.237 Y91.011 
G01 X652.305 Y91.677 
G01 X652.820 Y92.063 
G01 X653.222 Y92.482 
G01 X654.017 Y93.949 
G01 X654.115 Y94.527 
G01 X654.067 Y95.764 
G02 X654.111 Y101.111 I34.508 J2.385
G02 X655.298 Y107.595 I34.503 J-2.965
G02 X660.478 Y118.745 I37.455 J-10.623
G02 X665.143 Y124.387 I31.192 J-21.043
G01 X668.136 Y127.132  
G01 X670.292 Y128.905 
G01 X671.413 Y129.883 
G01 X671.562 Y130.034 
G01 X671.586 Y131.496 
G01 X671.303 Y133.624 
G01 X670.354 Y137.345 
G01 X669.128 Y140.967 
G01 X667.533 Y145.553 
G01 X665.958 Y151.186 
G02 X664.944 Y158.150 I40.712 J9.485
G02 X665.126 Y165.083 I39.999 J2.418
G01 X666.022 Y170.592  
G02 X668.724 Y180.239 I77.219 J-16.424
G02 X671.180 Y185.904 I40.232 J-14.076
G02 X676.989 Y194.198 I34.741 J-18.155
G01 X673.366 Y195.170  
G01 X669.566 Y195.513 
G01 X663.630 Y195.244 
G03 X654.869 Y193.690 I6.408 J-61.605
G01 X650.713 Y192.446  
G01 X646.367 Y190.580 
G01 X643.931 Y189.025 
G01 X642.676 Y187.944 
G01 X640.971 Y186.294 
G01 X637.810 Y183.382 
G02 X631.670 Y179.132 I-22.739 J26.297
G02 X625.256 Y176.433 I-16.741 J30.809
G01 X622.564 Y175.660  
G01 X621.471 Y177.342  
G01 X619.293 Y174.858  
G02 X613.390 Y170.404 I-17.947 J17.647
G01 X612.671 Y170.003  
G01 X612.120 Y169.522 
G02 X607.404 Y165.972 I-16.520 J17.041
G01 X604.571 Y164.566  
G01 X601.587 Y163.435 
G01 X601.348 Y163.349 
G01 X600.862 Y162.783 
G01 X600.720 Y162.422 
G01 X599.649 Y159.723 
G02 X596.958 Y155.093 I-21.468 J9.381
G02 X593.137 Y151.011 I-20.175 J15.055
G01 X590.743 Y149.120  
G01 X588.885 Y147.763 
G01 X588.344 Y146.289 
G01 X588.255 Y145.664 
G01 X588.269 Y145.070 
G01 X588.394 Y141.554 
G02 X587.727 Y135.236 I-32.215 J0.211
G01 X587.087 Y132.512  
G01 X586.891 Y131.495 
G01 X587.047 Y131.148 
G01 X588.623 Y127.302 
G01 X589.608 Y123.391 
G02 X589.649 Y115.892 I-23.215 J-3.876
G01 X589.207 Y113.719  
G01 X589.744 Y112.250 
G01 X590.637 Y109.193 
G02 X591.190 Y103.588 I-22.474 J-5.047
G01 X590.936 Y100.587  
G01 X590.932 Y100.559 
G01 X593.509 Y97.474 
G02 X596.319 Y91.729 I-17.378 J-12.061
G01 X597.089 Y88.398  
G01 X597.379 Y85.358 
G01 X597.441 Y84.169 
G01 X598.973 Y82.537 
G02 X601.880 Y78.401 I-19.521 J-16.808
G01 X603.828 Y74.233  
G01 X605.101 Y70.479 
G01 X605.780 Y68.264 
G01 X606.660 Y67.710 
G01 X609.575 Y65.848 
G01 X613.778 Y62.671 
G01 X615.127 Y61.457 
G01 X616.201 Y60.579 
G01 X618.228 Y59.248 
G01 X624.013 Y56.102 
G01 X624.715 Y55.769 
G01 X624.955 Y57.301 
G02 X626.535 Y62.741 I30.237 J-5.835
G02 X629.360 Y68.459 I35.381 J-13.921
G02 X634.901 Y75.990 I43.787 J-26.414
G02 X643.363 Y83.718 I40.972 J-36.365
G01 X648.814 Y87.366  
G01 X652.190 Y89.364 
G01 X653.364 Y90.096 
G01 X654.038 Y90.600 
G01 X654.735 Y91.328 
G01 X655.810 Y93.310 
G01 X656.018 Y94.544 
G01 X655.965 Y95.896 
G02 X656.007 Y100.948 I32.609 J2.254
G02 X657.129 Y107.076 I32.607 J-2.802
G02 X662.056 Y117.681 I35.624 J-10.104
G02 X666.485 Y123.037 I29.615 J-19.978
G01 X669.365 Y125.679  
G01 X671.480 Y127.419 
G01 X672.725 Y128.505 
G01 X673.233 Y129.062 
G01 X673.332 Y129.242 
G01 X673.445 Y129.746 
G01 X673.485 Y131.619 
G01 X673.168 Y134.002 
G01 X672.172 Y137.907 
G01 X670.913 Y141.625 
G01 X669.341 Y146.145 
G01 X667.811 Y151.618 
G02 X666.843 Y158.264 I38.859 J9.054
G02 X667.017 Y164.869 I38.099 J2.303
G01 X667.883 Y170.196  
G02 X670.520 Y179.611 I75.357 J-16.028
G02 X672.866 Y185.023 I38.436 J-13.447
G02 X679.568 Y194.141 I33.055 J-17.274
G01 X680.255 Y194.805  
G01 X679.916 Y194.982 
G03 X673.681 Y197.047 I-9.788 J-19.105
G01 X669.591 Y197.415  
G01 X663.433 Y197.137 
G03 X654.403 Y195.535 I6.605 J-63.497
G01 X650.089 Y194.244  
G01 X645.494 Y192.271 
G01 X642.766 Y190.529 
G01 X641.362 Y189.321 
G01 X639.638 Y187.652 
G01 X636.566 Y184.821 
G02 X630.761 Y180.804 I-21.494 J24.857
G02 X624.695 Y178.251 I-15.832 J29.137
G01 X621.471 Y177.342  
G00 Z29.080
G00 X714.819 Y95.937  F7000.0
G01 Z24.000 F300.0 M3
G01 Z23.740 
G01 Z23.182 
G01 Z22.854 
G01 Z22.526 
G01 Z21.804 
G01 Z21.115 
G01 Z20.856 
G01 Z20.297 
G01 Z19.969 
G01 Z19.641 
G01 Z19.250 
G01 Z18.859 
G01 Z18.531 
G01 Z18.202 
G01 Z17.644 
G01 Z17.384 
G01 Z16.696 
G01 Z15.974 
G01 Z15.646 
G01 Z15.318 
G01 Z14.760 
G01 Z14.500 
G01 X713.062 Y93.843  F3500.0
G01 X708.972 Y89.623 
G02 X707.961 Y82.792 I-55.431 J4.713
G01 X711.792 Y89.353  
G01 X714.819 Y95.937 
G01 X720.909 Y110.192  
G01 X719.714 Y107.432  
G02 X711.634 Y95.104 I-46.774 J21.843
G01 X707.130 Y90.513  
G02 X705.231 Y79.689 I-53.589 J3.824
G02 X702.838 Y72.885 I-55.935 J15.850
G03 X708.599 Y80.317 I-58.628 J51.396
G03 X713.482 Y88.474 I-65.791 J44.922
G03 X719.649 Y104.540 I-67.586 J35.158
G01 X720.909 Y110.192  
G01 X717.988 Y108.238  
G02 X710.206 Y96.365 I-45.048 J21.037
G02 X705.289 Y91.416 I-44.567 J39.358
G01 X705.279 Y91.406  
G02 X703.398 Y80.209 I-51.738 J2.931
G02 X695.383 Y63.319 I-54.102 J15.331
G01 X696.243 Y63.977  
G03 X702.982 Y70.194 I-34.564 J44.227
G03 X710.172 Y79.242 I-58.772 J54.087
G03 X715.172 Y87.595 I-67.365 J45.996
G03 X721.493 Y104.063 I-69.276 J36.037
G03 X723.613 Y115.188 I-84.387 J21.844
G03 X724.434 Y128.121 I-107.538 J13.326
G03 X723.216 Y145.065 I-112.776 J0.409
G01 X722.510 Y149.236  
G01 X719.943 Y150.382 
G02 X721.925 Y141.656 I-80.587 J-22.892
G02 X722.829 Y132.742 I-64.228 J-11.019
G02 X722.226 Y122.318 I-57.989 J-1.874
G02 X717.988 Y108.238 I-50.499 J7.524
G01 X716.262 Y109.044  
G02 X708.778 Y97.626 I-43.322 J20.231
G02 X704.019 Y92.835 I-43.140 J38.097
G01 X703.415 Y92.301  
G01 X703.400 Y91.957 
G02 X701.566 Y80.728 I-49.859 J2.380
G02 X692.489 Y62.587 I-52.269 J14.812
G02 X687.873 Y57.313 I-41.463 J31.633
G01 X688.767 Y56.972  
G01 X690.604 Y57.947 
G03 X697.416 Y62.476 I-26.099 J46.640
G03 X704.383 Y68.904 I-35.737 J45.728
G03 X711.746 Y78.168 I-60.174 J55.377
G03 X716.862 Y86.716 I-68.938 J47.070
G03 X723.337 Y103.586 I-70.966 J36.916
G03 X725.503 Y114.953 I-86.231 J22.322
G03 X726.339 Y128.114 I-109.428 J13.560
G03 X725.101 Y145.344 I-114.681 J0.416
G01 X724.194 Y150.553  
G01 X717.737 Y153.363 
G01 X716.942 Y153.674 
G01 X718.018 Y150.185 
G02 X720.048 Y141.334 I-78.662 J-22.695
G02 X720.925 Y132.681 I-62.351 J-10.697
G02 X720.342 Y122.599 I-56.084 J-1.813
G02 X716.262 Y109.044 I-48.615 J7.243
G01 X714.536 Y109.850  
G02 X707.350 Y98.887 I-41.596 J19.425
G02 X702.749 Y94.255 I-41.712 J36.836
G01 X701.539 Y93.197  
G01 X701.497 Y92.048 
G02 X699.733 Y81.247 I-47.956 J2.289
G02 X690.974 Y63.742 I-50.437 J14.292
G02 X684.385 Y56.644 I-39.948 J30.478
G01 X688.868 Y54.899  
G01 X691.534 Y56.285 
G03 X698.589 Y60.975 I-27.029 J48.303
G03 X705.785 Y67.614 I-36.911 J47.229
G03 X713.319 Y77.094 I-61.575 J56.667
G03 X718.552 Y85.836 I-70.511 J48.144
G03 X725.181 Y103.108 I-72.657 J37.796
G03 X727.394 Y114.719 I-88.075 J22.799
G03 X728.244 Y128.107 I-111.319 J13.794
G03 X726.985 Y145.623 I-116.586 J0.423
G01 X725.870 Y151.865  
G01 X718.445 Y155.131 
G01 X713.857 Y156.768 
G01 X714.531 Y154.851 
G01 X716.188 Y149.657 
G02 X718.170 Y141.012 I-76.831 J-22.166
G02 X719.021 Y132.619 I-60.473 J-10.375
G02 X718.458 Y122.879 I-54.180 J-1.751
G02 X714.536 Y109.850 I-46.731 J6.963
G01 X712.810 Y110.656  
G02 X705.923 Y100.148 I-39.870 J18.619
G01 X701.478 Y95.674  
G01 X699.650 Y94.096 
G01 X699.594 Y92.139 
G02 X697.900 Y81.767 I-46.053 J2.198
G02 X689.460 Y64.898 I-48.604 J13.773
G02 X681.758 Y56.904 I-38.434 J29.322
G01 X680.750 Y56.094  
G01 X688.956 Y52.835 
G01 X692.465 Y54.622 
G03 X699.762 Y59.474 I-27.959 J49.965
G03 X707.187 Y66.324 I-38.084 J48.730
G03 X714.892 Y76.020 I-62.977 J57.957
G03 X720.242 Y84.957 I-72.084 J49.218
G03 X727.025 Y102.631 I-74.347 J38.675
G03 X729.284 Y114.485 I-89.919 J23.277
G03 X730.149 Y128.100 I-113.209 J14.029
G03 X728.870 Y145.902 I-118.491 J0.430
G01 X727.538 Y153.172  
G01 X719.152 Y156.900 
G01 X713.595 Y158.841 
G01 X710.870 Y159.567 
G01 X711.342 Y158.174 
G01 X712.733 Y154.222 
G01 X714.357 Y149.129 
G02 X716.292 Y140.690 I-75.001 J-21.638
G02 X717.117 Y132.557 I-58.596 J-10.053
G02 X716.574 Y123.160 I-52.276 J-1.689
G02 X712.810 Y110.656 I-44.847 J6.682
G01 X711.084 Y111.463  
G02 X704.495 Y101.409 I-38.144 J17.813
G01 X700.208 Y97.094  
G01 X697.746 Y94.997 
G01 X697.691 Y92.229 
G02 X696.067 Y82.286 I-44.150 J2.107
G02 X687.945 Y66.053 I-46.771 J13.254
G02 X680.547 Y58.374 I-36.919 J28.167
G01 X676.969 Y55.674  
G01 X679.590 Y54.519 
G01 X688.370 Y51.020 
G01 X688.953 Y50.821 
G01 X689.056 Y50.824 
G01 X689.308 Y50.901 
G01 X693.395 Y52.960 
G03 X700.935 Y57.973 I-28.889 J51.627
G03 X708.589 Y65.034 I-39.257 J50.231
G03 X716.465 Y74.946 I-64.379 J59.247
G03 X721.932 Y84.078 I-73.658 J50.293
G03 X728.870 Y102.153 I-76.037 J39.554
G03 X731.175 Y114.250 I-91.764 J23.754
G03 X732.054 Y128.093 I-115.100 J14.263
G03 X730.754 Y146.182 I-120.396 J0.436
G01 X729.200 Y154.475  
G03 X719.859 Y158.669 I-55.057 J-110.129
G01 X714.143 Y160.665  
G01 X710.393 Y161.625 
G01 X708.795 Y161.893 
G01 X708.551 Y160.622 
G01 X708.573 Y160.543 
G01 X709.534 Y157.573 
G01 X710.935 Y153.592 
G01 X712.527 Y148.601 
G02 X714.415 Y140.368 I-73.171 J-21.110
G02 X715.213 Y132.496 I-56.718 J-9.730
G02 X714.689 Y123.441 I-50.372 J-1.628
G02 X711.084 Y111.463 I-42.963 J6.401
G01 X709.358 Y112.269  
G02 X703.067 Y102.670 I-36.418 J17.007
G01 X698.938 Y98.513  
G01 X696.003 Y96.041 
G01 X695.825 Y95.899 
G01 X695.789 Y92.320 
G02 X694.234 Y82.805 I-42.248 J2.016
G02 X686.431 Y67.209 I-44.938 J12.734
G02 X679.336 Y59.845 I-35.405 J27.011
G01 X675.006 Y56.647  
G01 X673.041 Y55.395 
G01 X678.837 Y52.769 
G01 X687.714 Y49.232 
G01 X688.425 Y48.990 
G01 X688.587 Y48.950 
G01 X689.378 Y48.947 
G01 X690.090 Y49.164 
G01 X694.325 Y51.298 
G03 X702.108 Y56.472 I-29.820 J53.290
G03 X709.990 Y63.744 I-40.430 J51.732
G03 X718.039 Y73.871 I-65.781 J60.537
G03 X723.622 Y83.199 I-75.231 J51.367
G03 X730.714 Y101.676 I-77.727 J40.433
G03 X733.065 Y114.016 I-93.608 J24.231
G03 X733.959 Y128.086 I-116.990 J14.497
G03 X732.638 Y146.461 I-122.301 J0.443
G03 X730.854 Y155.774 I-111.351 J-16.504
G03 X720.567 Y160.438 I-56.712 J-111.428
G01 X714.691 Y162.490  
G01 X710.789 Y163.488 
G01 X707.707 Y163.904 
G01 X707.331 Y163.921 
G01 X706.868 Y162.002 
G01 X706.617 Y160.552 
G01 X706.746 Y160.004 
G01 X707.738 Y156.939 
G01 X709.137 Y152.963 
G01 X710.697 Y148.073 
G02 X712.537 Y140.045 I-71.340 J-20.582
G02 X713.309 Y132.434 I-54.840 J-9.408
G02 X712.805 Y123.722 I-48.468 J-1.566
G02 X709.358 Y112.269 I-41.078 J6.120
G01 X707.631 Y113.075  
G02 X701.639 Y103.931 I-34.692 J16.201
G01 X697.667 Y99.933  
G01 X694.820 Y97.534 
G01 X693.887 Y96.764 
G01 X693.886 Y92.411 
G02 X692.401 Y83.325 I-40.345 J1.926
G02 X684.916 Y68.364 I-43.105 J12.215
G02 X678.125 Y61.315 I-33.890 J25.856
G01 X673.957 Y58.237  
G01 X671.466 Y56.667 
G01 X669.090 Y55.207 
G01 X678.084 Y51.019 
G01 X687.057 Y47.444 
G01 X687.856 Y47.172 
G01 X688.249 Y47.076 
G01 X689.699 Y47.069 
G01 X690.872 Y47.427 
G01 X695.255 Y49.635 
G03 X703.281 Y54.971 I-30.750 J54.952
G03 X711.392 Y62.454 I-41.603 J53.233
G03 X719.612 Y72.797 I-67.182 J61.827
G03 X725.312 Y82.320 I-76.804 J52.441
G03 X732.558 Y101.199 I-79.417 J41.312
G03 X734.956 Y113.782 I-95.452 J24.709
G03 X735.864 Y128.079 I-118.881 J14.732
G03 X734.523 Y146.740 I-124.206 J0.450
G03 X732.503 Y157.070 I-113.236 J-16.784
G01 X731.896 Y157.382  
G03 X721.274 Y162.207 I-57.754 J-113.035
G01 X715.238 Y164.315  
G01 X711.185 Y165.352 
G01 X707.818 Y165.805 
G01 X705.891 Y165.809 
G01 X705.006 Y162.402 
G01 X704.704 Y160.611 
G01 X704.706 Y160.439 
G01 X704.919 Y159.466 
G01 X705.942 Y156.304 
G01 X707.339 Y152.333 
G01 X708.866 Y147.545 
G02 X710.660 Y139.723 I-69.510 J-20.054
G02 X711.405 Y132.373 I-52.963 J-9.086
G02 X710.921 Y124.002 I-46.564 J-1.505
G02 X707.631 Y113.075 I-39.194 J5.840
G01 X705.905 Y113.881  
G02 X700.211 Y105.192 I-32.966 J15.395
G01 X696.397 Y101.353  
G01 X693.636 Y99.026 
G01 X692.324 Y97.930 
G01 X691.935 Y97.555 
G01 X691.950 Y97.306 
G01 X691.983 Y92.502 
G02 X690.569 Y83.844 I-38.442 J1.835
G02 X683.401 Y69.520 I-41.272 J11.695
G02 X676.914 Y62.786 I-32.375 J24.700
G01 X672.907 Y59.827  
G01 X670.485 Y58.301 
G01 X667.495 Y56.452 
G01 X665.337 Y54.995 
G01 X665.722 Y54.793 
G03 X677.331 Y49.269 I78.818 J150.686
G01 X686.400 Y45.656  
G01 X687.286 Y45.354 
G01 X687.910 Y45.201 
G01 X690.021 Y45.191 
G01 X691.654 Y45.690 
G01 X696.186 Y47.973 
G03 X704.454 Y53.470 I-31.680 J56.615
G03 X712.794 Y61.164 I-42.776 J54.734
G03 X721.185 Y71.723 I-68.584 J63.117
G03 X727.002 Y81.441 I-78.377 J53.515
G03 X734.402 Y100.721 I-81.107 J42.191
G03 X736.846 Y113.548 I-97.296 J25.186
G03 X737.769 Y128.072 I-120.772 J14.966
G03 X736.407 Y147.020 I-126.111 J0.457
G03 X734.145 Y158.364 I-115.120 J-17.063
G01 X732.763 Y159.078  
G03 X721.982 Y163.975 I-58.620 J-114.731
G01 X715.786 Y166.139  
G01 X711.580 Y167.215 
G01 X707.930 Y167.707 
G01 X705.648 Y167.703 
G01 X704.466 Y167.595 
G01 X704.460 Y167.577 
G01 X703.143 Y162.801 
G01 X702.813 Y160.843 
G01 X702.821 Y160.167 
G01 X703.091 Y158.928 
G01 X704.146 Y155.669 
G01 X705.541 Y151.704 
G01 X707.036 Y147.017 
G02 X708.782 Y139.401 I-67.680 J-19.526
G02 X709.501 Y132.311 I-51.085 J-8.764
G02 X709.037 Y124.283 I-44.660 J-1.443
G02 X705.905 Y113.881 I-37.310 J5.559
G01 X704.179 Y114.687  
G02 X698.783 Y106.453 I-31.240 J14.589
G01 X695.126 Y102.772  
G01 X692.453 Y100.519 
G01 X691.066 Y99.360 
G01 X690.515 Y98.826 
G01 X690.256 Y98.481 
G01 X690.009 Y97.963 
G01 X690.048 Y97.189 
G01 X690.080 Y92.593 
G02 X688.736 Y84.364 I-36.539 J1.744
G02 X681.887 Y70.675 I-39.440 J11.176
G02 X675.702 Y64.256 I-30.861 J23.545
G01 X671.858 Y61.416  
G01 X669.504 Y59.934 
G01 X666.473 Y58.060 
G01 X661.886 Y54.762 
G01 X661.826 Y54.713 
G01 X664.840 Y53.105 
G03 X676.579 Y47.519 I79.701 J152.374
G01 X685.743 Y43.868  
G01 X686.717 Y43.536 
G01 X687.572 Y43.326 
G03 X690.343 Y43.314 I1.421 J7.868
G01 X692.436 Y43.953  
G01 X697.116 Y46.310 
G03 X705.627 Y51.969 I-32.610 J58.277
G03 X714.196 Y59.874 I-43.949 J56.235
G03 X722.758 Y70.649 I-69.986 J64.407
G03 X728.692 Y80.562 I-79.951 J54.590
G03 X736.247 Y100.244 I-82.797 J43.070
G03 X738.737 Y113.313 I-99.141 J25.664
G03 X739.674 Y128.065 I-122.662 J15.200
G03 X738.292 Y147.299 I-128.016 J0.464
G03 X735.781 Y159.656 I-117.005 J-17.342
G01 X733.629 Y160.774  
G03 X722.689 Y165.744 I-59.487 J-116.428
G01 X716.333 Y167.964  
G01 X711.976 Y169.079 
G01 X708.041 Y169.609 
G01 X705.531 Y169.605 
G01 X703.197 Y169.335 
G01 X703.186 Y169.332 
G01 X703.124 Y169.227 
G01 X702.655 Y168.188 
G01 X701.281 Y163.201 
G01 X700.923 Y161.075 
G01 X700.935 Y159.895 
G01 X701.264 Y158.390 
G01 X702.350 Y155.035 
G01 X703.743 Y151.074 
G01 X705.206 Y146.489 
G02 X706.905 Y139.079 I-65.849 J-18.998
G02 X707.597 Y132.250 I-49.208 J-8.442
G02 X707.153 Y124.564 I-42.756 J-1.382
G02 X704.179 Y114.687 I-35.426 J5.278
G01 X702.453 Y115.493  
G02 X697.355 Y107.714 I-29.514 J13.783
G01 X693.856 Y104.192  
G01 X691.269 Y102.012 
G01 X689.807 Y100.790 
G01 X689.124 Y100.128 
G01 X688.617 Y99.451 
G01 X688.096 Y98.235 
G01 X688.147 Y97.072 
G01 X688.177 Y92.684 
G02 X686.903 Y84.883 I-34.636 J1.653
G02 X680.372 Y71.831 I-37.607 J10.657
G02 X674.491 Y65.727 I-29.346 J22.389
G01 X670.808 Y63.006  
G01 X668.523 Y61.567 
G01 X665.450 Y59.667 
G01 X660.688 Y56.243 
G01 X658.566 Y54.337 
G01 X663.957 Y51.417 
G03 X675.826 Y45.769 I80.584 J154.062
G01 X685.086 Y42.079  
G01 X686.147 Y41.719 
G01 X687.233 Y41.451 
G03 X690.665 Y41.436 I1.759 J9.743
G01 X693.218 Y42.216  
G01 X698.046 Y44.648 
G03 X706.800 Y50.468 I-33.540 J59.940
G03 X715.597 Y58.584 I-45.122 J57.736
G03 X724.332 Y69.575 I-71.388 J65.697
G03 X730.382 Y79.683 I-81.524 J55.664
G03 X738.091 Y99.766 I-84.487 J43.950
G03 X740.628 Y113.079 I-100.985 J26.141
G03 X741.579 Y128.058 I-124.553 J15.434
G03 X740.176 Y147.578 I-129.921 J0.471
G03 X737.411 Y160.947 I-118.889 J-17.622
G01 X734.496 Y162.471  
G03 X723.396 Y167.513 I-60.354 J-118.124
G01 X716.881 Y169.788  
G01 X712.372 Y170.942 
G01 X708.152 Y171.511 
G01 X705.413 Y171.506 
G01 X702.779 Y171.196 
G01 X702.001 Y170.958 
G01 X701.471 Y170.175 
G01 X700.851 Y168.799 
G01 X699.418 Y163.601 
G01 X699.032 Y161.306 
G01 X699.050 Y159.623 
G01 X699.436 Y157.852 
G01 X700.554 Y154.400 
G01 X701.945 Y150.445 
G01 X703.375 Y145.961 
G02 X705.027 Y138.757 I-64.019 J-18.470
G02 X705.693 Y132.188 I-47.330 J-8.120
G02 X705.268 Y124.844 I-40.852 J-1.320
G02 X702.453 Y115.493 I-33.542 J4.998
G01 X700.727 Y116.299  
G02 X695.927 Y108.975 I-27.788 J12.977
G01 X692.586 Y105.611  
G01 X690.085 Y103.504 
G01 X688.548 Y102.220 
G01 X687.734 Y101.430 
G01 X686.977 Y100.422 
G01 X686.262 Y98.753 
G01 X686.190 Y98.167 
G01 X686.245 Y96.955 
G01 X686.274 Y92.774 
G02 X685.070 Y85.402 I-32.733 J1.562
G02 X678.858 Y72.986 I-35.774 J10.137
G02 X673.280 Y67.197 I-27.832 J21.234
G01 X669.759 Y64.596  
G01 X667.543 Y63.200 
G01 X664.428 Y61.274 
G01 X659.490 Y57.724 
G01 X656.408 Y54.843 
G01 X655.560 Y53.855 
G01 X663.074 Y49.729 
G03 X675.073 Y44.019 I81.467 J155.750
G01 X684.429 Y40.291  
G01 X685.578 Y39.901 
G01 X686.895 Y39.577 
G03 X690.987 Y39.559 I2.098 J11.618
G03 X694.000 Y40.479 I-2.107 J12.294
G01 X698.976 Y42.985  
G03 X707.973 Y48.967 I-34.471 J61.602
G03 X716.999 Y57.294 I-46.295 J59.237
G03 X725.905 Y68.500 I-72.789 J66.987
G03 X732.072 Y78.803 I-83.097 J56.738
G03 X739.935 Y99.289 I-86.177 J44.829
G03 X742.518 Y112.845 I-102.829 J26.618
G03 X743.484 Y128.052 I-126.443 J15.669
G03 X742.061 Y147.858 I-131.826 J0.478
G03 X739.176 Y161.720 I-120.773 J-17.901
G01 X739.032 Y162.239  
G01 X735.363 Y164.167 
G03 X724.104 Y169.282 I-61.221 J-119.821
G01 X717.429 Y171.613  
G01 X712.768 Y172.805 
G01 X708.264 Y173.412 
G01 X705.295 Y173.407 
G01 X702.364 Y173.057 
G01 X700.881 Y172.581 
G01 X699.819 Y171.123 
G01 X699.046 Y169.410 
G01 X697.555 Y164.001 
G01 X697.141 Y161.538 
G01 X697.164 Y159.350 
G01 X697.609 Y157.314 
G01 X698.757 Y153.765 
G01 X700.147 Y149.815 
G01 X701.545 Y145.433 
G02 X703.149 Y138.435 I-62.189 J-17.942
G02 X703.789 Y132.127 I-45.453 J-7.798
G02 X703.384 Y125.125 I-38.948 J-1.259
G02 X700.727 Y116.299 I-31.657 J4.717
G01 X699.001 Y117.105  
G02 X694.499 Y110.236 I-26.062 J12.171
G01 X691.315 Y107.031  
G01 X688.902 Y104.997 
G01 X687.290 Y103.650 
G01 X686.343 Y102.732 
G01 X685.338 Y101.392 
G01 X684.429 Y99.271 
G01 X684.286 Y98.111 
G01 X684.344 Y96.838 
G01 X684.372 Y92.865 
G02 X683.237 Y85.922 I-30.831 J1.472
G02 X677.343 Y74.142 I-33.941 J9.618
G02 X672.069 Y68.668 I-26.317 J20.078
G01 X668.709 Y66.186  
G01 X666.562 Y64.833 
G01 X663.405 Y62.881 
G01 X658.292 Y59.205 
G01 X655.011 Y56.139 
G01 X653.473 Y54.245 
G01 X653.095 Y53.608 
G01 X653.199 Y53.023 
G01 X662.191 Y48.041 
G03 X674.320 Y42.270 I82.350 J157.438
G01 X683.772 Y38.503  
G01 X685.008 Y38.083 
G01 X686.556 Y37.702 
G03 X691.309 Y37.681 I2.436 J13.492
G03 X694.782 Y38.742 I-2.429 J14.171
G01 X699.907 Y41.323  
G03 X709.147 Y47.466 I-35.401 J63.264
G03 X718.401 Y56.004 I-47.468 J60.738
G03 X727.478 Y67.426 I-74.191 J68.277
G03 X733.762 Y77.924 I-84.670 J57.812
G03 X741.779 Y98.812 I-87.867 J45.708
G03 X744.409 Y112.611 I-104.673 J27.096
G03 X745.389 Y128.045 I-128.334 J15.903
G03 X743.945 Y148.137 I-133.731 J0.485
G03 X741.015 Y162.216 I-122.658 J-18.180
G01 X740.689 Y163.347  
G01 X740.572 Y163.515 
G01 X740.414 Y163.645 
G01 X740.091 Y163.831 
G01 X736.230 Y165.864 
G03 X724.811 Y171.051 I-62.087 J-121.517
G01 X717.976 Y173.438  
G01 X713.164 Y174.669 
G01 X708.375 Y175.314 
G01 X705.177 Y175.309 
G01 X701.951 Y174.919 
G01 X699.876 Y174.234 
G01 X699.812 Y174.200 
G01 X699.706 Y174.112 
G01 X698.167 Y172.071 
G01 X697.242 Y170.021 
G01 X695.693 Y164.401 
G01 X695.250 Y161.770 
G01 X695.279 Y159.078 
G01 X695.781 Y156.775 
G01 X696.961 Y153.131 
G01 X698.349 Y149.186 
G01 X699.715 Y144.904 
G02 X701.272 Y138.113 I-60.358 J-17.414
G02 X701.885 Y132.065 I-43.575 J-7.476
G02 X701.500 Y125.406 I-37.044 J-1.197
G02 X699.001 Y117.105 I-29.773 J4.436
G00 Z29.080
G00 X714.819 Y95.937  F7000.0
G01 Z14.500 F300.0 M3
G01 Z14.240 
G01 Z13.682 
G01 Z13.354 
G01 Z13.026 
G01 Z12.304 
G01 Z11.615 
G01 Z11.356 
G01 Z10.797 
G01 Z10.469 
G01 Z10.141 
G01 Z9.750 
G01 Z9.359 
G01 Z9.031 
G01 Z8.702 
G01 Z8.144 
G01 Z7.884 
G01 Z7.196 
G01 Z6.474 
G01 Z6.146 
G01 Z5.818 
G01 Z5.260 
G01 Z5.000 
G01 X713.062 Y93.843  F3500.0
G01 X708.972 Y89.623 
G02 X707.961 Y82.792 I-55.431 J4.713
G01 X711.792 Y89.353  
G01 X714.819 Y95.937 
G01 X720.909 Y110.192  
G01 X719.714 Y107.432  
G02 X711.634 Y95.104 I-46.774 J21.843
G01 X707.130 Y90.513  
G02 X705.231 Y79.689 I-53.589 J3.824
G02 X702.838 Y72.885 I-55.935 J15.850
G03 X708.599 Y80.317 I-58.628 J51.396
G03 X713.482 Y88.474 I-65.791 J44.922
G03 X719.649 Y104.540 I-67.586 J35.158
G01 X720.909 Y110.192  
G01 X717.988 Y108.238  
G02 X710.206 Y96.365 I-45.048 J21.037
G02 X705.289 Y91.416 I-44.567 J39.358
G01 X705.279 Y91.406  
G02 X703.398 Y80.209 I-51.738 J2.931
G02 X695.383 Y63.319 I-54.102 J15.331
G01 X696.243 Y63.977  
G03 X702.982 Y70.194 I-34.564 J44.227
G03 X710.172 Y79.242 I-58.772 J54.087
G03 X715.172 Y87.595 I-67.365 J45.996
G03 X721.493 Y104.063 I-69.276 J36.037
G03 X723.613 Y115.188 I-84.387 J21.844
G03 X724.434 Y128.121 I-107.538 J13.326
G03 X723.216 Y145.065 I-112.776 J0.409
G01 X722.510 Y149.236  
G01 X719.943 Y150.382 
G02 X721.925 Y141.656 I-80.587 J-22.892
G02 X722.829 Y132.742 I-64.228 J-11.019
G02 X722.226 Y122.318 I-57.989 J-1.874
G02 X717.988 Y108.238 I-50.499 J7.524
G01 X716.262 Y109.044  
G02 X708.778 Y97.626 I-43.322 J20.231
G02 X704.019 Y92.835 I-43.140 J38.097
G01 X703.415 Y92.301  
G01 X703.400 Y91.957 
G02 X701.566 Y80.728 I-49.859 J2.380
G02 X692.489 Y62.587 I-52.269 J14.812
G02 X687.873 Y57.313 I-41.463 J31.633
G01 X688.767 Y56.972  
G01 X690.604 Y57.947 
G03 X697.416 Y62.476 I-26.099 J46.640
G03 X704.383 Y68.904 I-35.737 J45.728
G03 X711.746 Y78.168 I-60.174 J55.377
G03 X716.862 Y86.716 I-68.938 J47.070
G03 X723.337 Y103.586 I-70.966 J36.916
G03 X725.503 Y114.953 I-86.231 J22.322
G03 X726.339 Y128.114 I-109.428 J13.560
G03 X725.101 Y145.344 I-114.681 J0.416
G01 X724.194 Y150.553  
G01 X717.737 Y153.363 
G01 X716.942 Y153.674 
G01 X718.018 Y150.185 
G02 X720.048 Y141.334 I-78.662 J-22.695
G02 X720.925 Y132.681 I-62.351 J-10.697
G02 X720.342 Y122.599 I-56.084 J-1.813
G02 X716.262 Y109.044 I-48.615 J7.243
G01 X714.536 Y109.850  
G02 X707.350 Y98.887 I-41.596 J19.425
G02 X702.749 Y94.255 I-41.712 J36.836
G01 X701.539 Y93.197  
G01 X701.497 Y92.048 
G02 X699.733 Y81.247 I-47.956 J2.289
G02 X690.974 Y63.742 I-50.437 J14.292
G02 X684.385 Y56.644 I-39.948 J30.478
G01 X688.868 Y54.899  
G01 X691.534 Y56.285 
G03 X698.589 Y60.975 I-27.029 J48.303
G03 X705.785 Y67.614 I-36.911 J47.229
G03 X713.319 Y77.094 I-61.575 J56.667
G03 X718.552 Y85.836 I-70.511 J48.144
G03 X725.181 Y103.108 I-72.657 J37.796
G03 X727.394 Y114.719 I-88.075 J22.799
G03 X728.244 Y128.107 I-111.319 J13.794
G03 X726.985 Y145.623 I-116.586 J0.423
G01 X725.870 Y151.865  
G01 X718.445 Y155.131 
G01 X713.857 Y156.768 
G01 X714.531 Y154.851 
G01 X716.188 Y149.657 
G02 X718.170 Y141.012 I-76.831 J-22.166
G02 X719.021 Y132.619 I-60.473 J-10.375
G02 X718.458 Y122.879 I-54.180 J-1.751
G02 X714.536 Y109.850 I-46.731 J6.963
G01 X712.810 Y110.656  
G02 X705.923 Y100.148 I-39.870 J18.619
G01 X701.478 Y95.674  
G01 X699.650 Y94.096 
G01 X699.594 Y92.139 
G02 X697.900 Y81.767 I-46.053 J2.198
G02 X689.460 Y64.898 I-48.604 J13.773
G02 X681.758 Y56.904 I-38.434 J29.322
G01 X680.750 Y56.094  
G01 X688.956 Y52.835 
G01 X692.465 Y54.622 
G03 X699.762 Y59.474 I-27.959 J49.965
G03 X707.187 Y66.324 I-38.084 J48.730
G03 X714.892 Y76.020 I-62.977 J57.957
G03 X720.242 Y84.957 I-72.084 J49.218
G03 X727.025 Y102.631 I-74.347 J38.675
G03 X729.284 Y114.485 I-89.919 J23.277
G03 X730.149 Y128.100 I-113.209 J14.029
G03 X728.870 Y145.902 I-118.491 J0.430
G01 X727.538 Y153.172  
G01 X719.152 Y156.900 
G01 X713.595 Y158.841 
G01 X710.870 Y159.567 
G01 X711.342 Y158.174 
G01 X712.733 Y154.222 
G01 X714.357 Y149.129 
G02 X716.292 Y140.690 I-75.001 J-21.638
G02 X717.117 Y132.557 I-58.596 J-10.053
G02 X716.574 Y123.160 I-52.276 J-1.689
G02 X712.810 Y110.656 I-44.847 J6.682
G01 X711.084 Y111.463  
G02 X704.495 Y101.409 I-38.144 J17.813
G01 X700.208 Y97.094  
G01 X697.746 Y94.997 
G01 X697.691 Y92.229 
G02 X696.067 Y82.286 I-44.150 J2.107
G02 X687.945 Y66.053 I-46.771 J13.254
G02 X680.547 Y58.374 I-36.919 J28.167
G01 X676.969 Y55.674  
G01 X679.590 Y54.519 
G01 X688.370 Y51.020 
G01 X688.953 Y50.821 
G01 X689.056 Y50.824 
G01 X689.308 Y50.901 
G01 X693.395 Y52.960 
G03 X700.935 Y57.973 I-28.889 J51.627
G03 X708.589 Y65.034 I-39.257 J50.231
G03 X716.465 Y74.946 I-64.379 J59.247
G03 X721.932 Y84.078 I-73.658 J50.293
G03 X728.870 Y102.153 I-76.037 J39.554
G03 X731.175 Y114.250 I-91.764 J23.754
G03 X732.054 Y128.093 I-115.100 J14.263
G03 X730.754 Y146.182 I-120.396 J0.436
G01 X729.200 Y154.475  
G03 X719.859 Y158.669 I-55.057 J-110.129
G01 X714.143 Y160.665  
G01 X710.393 Y161.625 
G01 X708.795 Y161.893 
G01 X708.551 Y160.622 
G01 X708.573 Y160.543 
G01 X709.534 Y157.573 
G01 X710.935 Y153.592 
G01 X712.527 Y148.601 
G02 X714.415 Y140.368 I-73.171 J-21.110
G02 X715.213 Y132.496 I-56.718 J-9.730
G02 X714.689 Y123.441 I-50.372 J-1.628
G02 X711.084 Y111.463 I-42.963 J6.401
G01 X709.358 Y112.269  
G02 X703.067 Y102.670 I-36.418 J17.007
G01 X698.938 Y98.513  
G01 X696.003 Y96.041 
G01 X695.825 Y95.899 
G01 X695.789 Y92.320 
G02 X694.234 Y82.805 I-42.248 J2.016
G02 X686.431 Y67.209 I-44.938 J12.734
G02 X679.336 Y59.845 I-35.405 J27.011
G01 X675.006 Y56.647  
G01 X673.041 Y55.395 
G01 X678.837 Y52.769 
G01 X687.714 Y49.232 
G01 X688.425 Y48.990 
G01 X688.587 Y48.950 
G01 X689.378 Y48.947 
G01 X690.090 Y49.164 
G01 X694.325 Y51.298 
G03 X702.108 Y56.472 I-29.820 J53.290
G03 X709.990 Y63.744 I-40.430 J51.732
G03 X718.039 Y73.871 I-65.781 J60.537
G03 X723.622 Y83.199 I-75.231 J51.367
G03 X730.714 Y101.676 I-77.727 J40.433
G03 X733.065 Y114.016 I-93.608 J24.231
G03 X733.959 Y128.086 I-116.990 J14.497
G03 X732.638 Y146.461 I-122.301 J0.443
G03 X730.854 Y155.774 I-111.351 J-16.504
G03 X720.567 Y160.438 I-56.712 J-111.428
G01 X714.691 Y162.490  
G01 X710.789 Y163.488 
G01 X707.707 Y163.904 
G01 X707.331 Y163.921 
G01 X706.868 Y162.002 
G01 X706.617 Y160.552 
G01 X706.746 Y160.004 
G01 X707.738 Y156.939 
G01 X709.137 Y152.963 
G01 X710.697 Y148.073 
G02 X712.537 Y140.045 I-71.340 J-20.582
G02 X713.309 Y132.434 I-54.840 J-9.408
G02 X712.805 Y123.722 I-48.468 J-1.566
G02 X709.358 Y112.269 I-41.078 J6.120
G01 X707.631 Y113.075  
G02 X701.639 Y103.931 I-34.692 J16.201
G01 X697.667 Y99.933  
G01 X694.820 Y97.534 
G01 X693.887 Y96.764 
G01 X693.886 Y92.411 
G02 X692.401 Y83.325 I-40.345 J1.926
G02 X684.916 Y68.364 I-43.105 J12.215
G02 X678.125 Y61.315 I-33.890 J25.856
G01 X673.957 Y58.237  
G01 X671.466 Y56.667 
G01 X669.090 Y55.207 
G01 X678.084 Y51.019 
G01 X687.057 Y47.444 
G01 X687.856 Y47.172 
G01 X688.249 Y47.076 
G01 X689.699 Y47.069 
G01 X690.872 Y47.427 
G01 X695.255 Y49.635 
G03 X703.281 Y54.971 I-30.750 J54.952
G03 X711.392 Y62.454 I-41.603 J53.233
G03 X719.612 Y72.797 I-67.182 J61.827
G03 X725.312 Y82.320 I-76.804 J52.441
G03 X732.558 Y101.199 I-79.417 J41.312
G03 X734.956 Y113.782 I-95.452 J24.709
G03 X735.864 Y128.079 I-118.881 J14.732
G03 X734.523 Y146.740 I-124.206 J0.450
G03 X732.503 Y157.070 I-113.236 J-16.784
G01 X731.896 Y157.382  
G03 X721.274 Y162.207 I-57.754 J-113.035
G01 X715.238 Y164.315  
G01 X711.185 Y165.352 
G01 X707.818 Y165.805 
G01 X705.891 Y165.809 
G01 X705.006 Y162.402 
G01 X704.704 Y160.611 
G01 X704.706 Y160.439 
G01 X704.919 Y159.466 
G01 X705.942 Y156.304 
G01 X707.339 Y152.333 
G01 X708.866 Y147.545 
G02 X710.660 Y139.723 I-69.510 J-20.054
G02 X711.405 Y132.373 I-52.963 J-9.086
G02 X710.921 Y124.002 I-46.564 J-1.505
G02 X707.631 Y113.075 I-39.194 J5.840
G01 X705.905 Y113.881  
G02 X700.211 Y105.192 I-32.966 J15.395
G01 X696.397 Y101.353  
G01 X693.636 Y99.026 
G01 X692.324 Y97.930 
G01 X691.935 Y97.555 
G01 X691.950 Y97.306 
G01 X691.983 Y92.502 
G02 X690.569 Y83.844 I-38.442 J1.835
G02 X683.401 Y69.520 I-41.272 J11.695
G02 X676.914 Y62.786 I-32.375 J24.700
G01 X672.907 Y59.827  
G01 X670.485 Y58.301 
G01 X667.495 Y56.452 
G01 X665.337 Y54.995 
G01 X665.722 Y54.793 
G03 X677.331 Y49.269 I78.818 J150.686
G01 X686.400 Y45.656  
G01 X687.286 Y45.354 
G01 X687.910 Y45.201 
G01 X690.021 Y45.191 
G01 X691.654 Y45.690 
G01 X696.186 Y47.973 
G03 X704.454 Y53.470 I-31.680 J56.615
G03 X712.794 Y61.164 I-42.776 J54.734
G03 X721.185 Y71.723 I-68.584 J63.117
G03 X727.002 Y81.441 I-78.377 J53.515
G03 X734.402 Y100.721 I-81.107 J42.191
G03 X736.846 Y113.548 I-97.296 J25.186
G03 X737.769 Y128.072 I-120.772 J14.966
G03 X736.407 Y147.020 I-126.111 J0.457
G03 X734.145 Y158.364 I-115.120 J-17.063
G01 X732.763 Y159.078  
G03 X721.982 Y163.975 I-58.620 J-114.731
G01 X715.786 Y166.139  
G01 X711.580 Y167.215 
G01 X707.930 Y167.707 
G01 X705.648 Y167.703 
G01 X704.466 Y167.595 
G01 X704.460 Y167.577 
G01 X703.143 Y162.801 
G01 X702.813 Y160.843 
G01 X702.821 Y160.167 
G01 X703.091 Y158.928 
G01 X704.146 Y155.669 
G01 X705.541 Y151.704 
G01 X707.036 Y147.017 
G02 X708.782 Y139.401 I-67.680 J-19.526
G02 X709.501 Y132.311 I-51.085 J-8.764
G02 X709.037 Y124.283 I-44.660 J-1.443
G02 X705.905 Y113.881 I-37.310 J5.559
G01 X704.179 Y114.687  
G02 X698.783 Y106.453 I-31.240 J14.589
G01 X695.126 Y102.772  
G01 X692.453 Y100.519 
G01 X691.066 Y99.360 
G01 X690.515 Y98.826 
G01 X690.256 Y98.481 
G01 X690.009 Y97.963 
G01 X690.048 Y97.189 
G01 X690.080 Y92.593 
G02 X688.736 Y84.364 I-36.539 J1.744
G02 X681.887 Y70.675 I-39.440 J11.176
G02 X675.702 Y64.256 I-30.861 J23.545
G01 X671.858 Y61.416  
G01 X669.504 Y59.934 
G01 X666.473 Y58.060 
G01 X661.886 Y54.762 
G01 X661.826 Y54.713 
G01 X664.840 Y53.105 
G03 X676.579 Y47.519 I79.701 J152.374
G01 X685.743 Y43.868  
G01 X686.717 Y43.536 
G01 X687.572 Y43.326 
G03 X690.343 Y43.314 I1.421 J7.868
G01 X692.436 Y43.953  
G01 X697.116 Y46.310 
G03 X705.627 Y51.969 I-32.610 J58.277
G03 X714.196 Y59.874 I-43.949 J56.235
G03 X722.758 Y70.649 I-69.986 J64.407
G03 X728.692 Y80.562 I-79.951 J54.590
G03 X736.247 Y100.244 I-82.797 J43.070
G03 X738.737 Y113.313 I-99.141 J25.664
G03 X739.674 Y128.065 I-122.662 J15.200
G03 X738.292 Y147.299 I-128.016 J0.464
G03 X735.781 Y159.656 I-117.005 J-17.342
G01 X733.629 Y160.774  
G03 X722.689 Y165.744 I-59.487 J-116.428
G01 X716.333 Y167.964  
G01 X711.976 Y169.079 
G01 X708.041 Y169.609 
G01 X705.531 Y169.605 
G01 X703.197 Y169.335 
G01 X703.186 Y169.332 
G01 X703.124 Y169.227 
G01 X702.655 Y168.188 
G01 X701.281 Y163.201 
G01 X700.923 Y161.075 
G01 X700.935 Y159.895 
G01 X701.264 Y158.390 
G01 X702.350 Y155.035 
G01 X703.743 Y151.074 
G01 X705.206 Y146.489 
G02 X706.905 Y139.079 I-65.849 J-18.998
G02 X707.597 Y132.250 I-49.208 J-8.442
G02 X707.153 Y124.564 I-42.756 J-1.382
G02 X704.179 Y114.687 I-35.426 J5.278
G01 X702.453 Y115.493  
G02 X697.355 Y107.714 I-29.514 J13.783
G01 X693.856 Y104.192  
G01 X691.269 Y102.012 
G01 X689.807 Y100.790 
G01 X689.124 Y100.128 
G01 X688.617 Y99.451 
G01 X688.096 Y98.235 
G01 X688.147 Y97.072 
G01 X688.177 Y92.684 
G02 X686.903 Y84.883 I-34.636 J1.653
G02 X680.372 Y71.831 I-37.607 J10.657
G02 X674.491 Y65.727 I-29.346 J22.389
G01 X670.808 Y63.006  
G01 X668.523 Y61.567 
G01 X665.450 Y59.667 
G01 X660.688 Y56.243 
G01 X658.566 Y54.337 
G01 X663.957 Y51.417 
G03 X675.826 Y45.769 I80.584 J154.062
G01 X685.086 Y42.079  
G01 X686.147 Y41.719 
G01 X687.233 Y41.451 
G03 X690.665 Y41.436 I1.759 J9.743
G01 X693.218 Y42.216  
G01 X698.046 Y44.648 
G03 X706.800 Y50.468 I-33.540 J59.940
G03 X715.597 Y58.584 I-45.122 J57.736
G03 X724.332 Y69.575 I-71.388 J65.697
G03 X730.382 Y79.683 I-81.524 J55.664
G03 X738.091 Y99.766 I-84.487 J43.950
G03 X740.628 Y113.079 I-100.985 J26.141
G03 X741.579 Y128.058 I-124.553 J15.434
G03 X740.176 Y147.578 I-129.921 J0.471
G03 X737.411 Y160.947 I-118.889 J-17.622
G01 X734.496 Y162.471  
G03 X723.396 Y167.513 I-60.354 J-118.124
G01 X716.881 Y169.788  
G01 X712.372 Y170.942 
G01 X708.152 Y171.511 
G01 X705.413 Y171.506 
G01 X702.779 Y171.196 
G01 X702.001 Y170.958 
G01 X701.471 Y170.175 
G01 X700.851 Y168.799 
G01 X699.418 Y163.601 
G01 X699.032 Y161.306 
G01 X699.050 Y159.623 
G01 X699.436 Y157.852 
G01 X700.554 Y154.400 
G01 X701.945 Y150.445 
G01 X703.375 Y145.961 
G02 X705.027 Y138.757 I-64.019 J-18.470
G02 X705.693 Y132.188 I-47.330 J-8.120
G02 X705.268 Y124.844 I-40.852 J-1.320
G02 X702.453 Y115.493 I-33.542 J4.998
G01 X700.727 Y116.299  
G02 X695.927 Y108.975 I-27.788 J12.977
G01 X692.586 Y105.611  
G01 X690.085 Y103.504 
G01 X688.548 Y102.220 
G01 X687.734 Y101.430 
G01 X686.977 Y100.422 
G01 X686.262 Y98.753 
G01 X686.190 Y98.167 
G01 X686.245 Y96.955 
G01 X686.274 Y92.774 
G02 X685.070 Y85.402 I-32.733 J1.562
G02 X678.858 Y72.986 I-35.774 J10.137
G02 X673.280 Y67.197 I-27.832 J21.234
G01 X669.759 Y64.596  
G01 X667.543 Y63.200 
G01 X664.428 Y61.274 
G01 X659.490 Y57.724 
G01 X656.408 Y54.843 
G01 X655.560 Y53.855 
G01 X663.074 Y49.729 
G03 X675.073 Y44.019 I81.467 J155.750
G01 X684.429 Y40.291  
G01 X685.578 Y39.901 
G01 X686.895 Y39.577 
G03 X690.987 Y39.559 I2.098 J11.618
G03 X694.000 Y40.479 I-2.107 J12.294
G01 X698.976 Y42.985  
G03 X707.973 Y48.967 I-34.471 J61.602
G03 X716.999 Y57.294 I-46.295 J59.237
G03 X725.905 Y68.500 I-72.789 J66.987
G03 X732.072 Y78.803 I-83.097 J56.738
G03 X739.935 Y99.289 I-86.177 J44.829
G03 X742.518 Y112.845 I-102.829 J26.618
G03 X743.484 Y128.052 I-126.443 J15.669
G03 X742.061 Y147.858 I-131.826 J0.478
G03 X739.176 Y161.720 I-120.773 J-17.901
G01 X739.032 Y162.239  
G01 X735.363 Y164.167 
G03 X724.104 Y169.282 I-61.221 J-119.821
G01 X717.429 Y171.613  
G01 X712.768 Y172.805 
G01 X708.264 Y173.412 
G01 X705.295 Y173.407 
G01 X702.364 Y173.057 
G01 X700.881 Y172.581 
G01 X699.819 Y171.123 
G01 X699.046 Y169.410 
G01 X697.555 Y164.001 
G01 X697.141 Y161.538 
G01 X697.164 Y159.350 
G01 X697.609 Y157.314 
G01 X698.757 Y153.765 
G01 X700.147 Y149.815 
G01 X701.545 Y145.433 
G02 X703.149 Y138.435 I-62.189 J-17.942
G02 X703.789 Y132.127 I-45.453 J-7.798
G02 X703.384 Y125.125 I-38.948 J-1.259
G02 X700.727 Y116.299 I-31.657 J4.717
G01 X699.001 Y117.105  
G02 X694.499 Y110.236 I-26.062 J12.171
G01 X691.315 Y107.031  
G01 X688.902 Y104.997 
G01 X687.290 Y103.650 
G01 X686.343 Y102.732 
G01 X685.338 Y101.392 
G01 X684.429 Y99.271 
G01 X684.286 Y98.111 
G01 X684.344 Y96.838 
G01 X684.372 Y92.865 
G02 X683.237 Y85.922 I-30.831 J1.472
G02 X677.343 Y74.142 I-33.941 J9.618
G02 X672.069 Y68.668 I-26.317 J20.078
G01 X668.709 Y66.186  
G01 X666.562 Y64.833 
G01 X663.405 Y62.881 
G01 X658.292 Y59.205 
G01 X655.011 Y56.139 
G01 X653.473 Y54.245 
G01 X653.095 Y53.608 
G01 X653.199 Y53.023 
G01 X662.191 Y48.041 
G03 X674.320 Y42.270 I82.350 J157.438
G01 X683.772 Y38.503  
G01 X685.008 Y38.083 
G01 X686.556 Y37.702 
G03 X691.309 Y37.681 I2.436 J13.492
G03 X694.782 Y38.742 I-2.429 J14.171
G01 X699.907 Y41.323  
G03 X709.147 Y47.466 I-35.401 J63.264
G03 X718.401 Y56.004 I-47.468 J60.738
G03 X727.478 Y67.426 I-74.191 J68.277
G03 X733.762 Y77.924 I-84.670 J57.812
G03 X741.779 Y98.812 I-87.867 J45.708
G03 X744.409 Y112.611 I-104.673 J27.096
G03 X745.389 Y128.045 I-128.334 J15.903
G03 X743.945 Y148.137 I-133.731 J0.485
G03 X741.015 Y162.216 I-122.658 J-18.180
G01 X740.689 Y163.347  
G01 X740.572 Y163.515 
G01 X740.414 Y163.645 
G01 X740.091 Y163.831 
G01 X736.230 Y165.864 
G03 X724.811 Y171.051 I-62.087 J-121.517
G01 X717.976 Y173.438  
G01 X713.164 Y174.669 
G01 X708.375 Y175.314 
G01 X705.177 Y175.309 
G01 X701.951 Y174.919 
G01 X699.876 Y174.234 
G01 X699.812 Y174.200 
G01 X699.706 Y174.112 
G01 X698.167 Y172.071 
G01 X697.242 Y170.021 
G01 X695.693 Y164.401 
G01 X695.250 Y161.770 
G01 X695.279 Y159.078 
G01 X695.781 Y156.775 
G01 X696.961 Y153.131 
G01 X698.349 Y149.186 
G01 X699.715 Y144.904 
G02 X701.272 Y138.113 I-60.358 J-17.414
G02 X701.885 Y132.065 I-43.575 J-7.476
G02 X701.500 Y125.406 I-37.044 J-1.197
G02 X699.001 Y117.105 I-29.773 J4.436
G00 Z29.080
G00 X809.391 Y98.828  F7000.0
G01 Z24.000 F300.0 M3
G01 Z23.803 
G01 Z23.588 
G01 Z23.372 
G01 Z23.156 
G01 Z22.939 
G01 Z22.722 
G01 Z22.504 
G01 Z22.283 
G01 Z22.003 
G01 Z21.721 
G01 Z21.440 
G01 Z21.161 
G01 Z20.883 
G01 Z20.607 
G01 Z20.332 
G01 Z20.058 
G01 Z19.906 
G01 Z19.759 
G01 Z19.570 
G01 Z19.391 
G01 Z19.250 
G01 Z19.109 
G01 Z18.930 
G01 Z18.741 
G01 Z18.594 
G01 Z18.442 
G01 Z18.168 
G01 Z17.893 
G01 Z17.617 
G01 Z17.339 
G01 Z17.060 
G01 Z16.779 
G01 Z16.497 
G01 Z16.217 
G01 Z15.996 
G01 Z15.778 
G01 Z15.561 
G01 Z15.344 
G01 Z15.128 
G01 Z14.912 
G01 Z14.697 
G01 Z14.500 
G01 X809.120 Y96.769  F3500.0
G01 X808.784 Y94.529 
G01 X808.408 Y92.290 
G01 X807.992 Y90.053 
G01 X807.533 Y87.819 
G01 X807.032 Y85.590 
G01 X806.488 Y83.365 
G01 X805.892 Y81.116 
G01 X805.073 Y78.279 
G01 X804.180 Y75.445 
G01 X803.225 Y72.649 
G01 X802.212 Y69.889 
G01 X801.144 Y67.168 
G01 X800.025 Y64.484 
G01 X798.857 Y61.838 
G01 X797.644 Y59.229 
G01 X796.939 Y57.786 
G01 X797.957 Y58.953 
G01 X799.219 Y60.490 
G01 X800.366 Y61.985 
G01 X801.404 Y63.433 
G01 X802.341 Y64.828 
G01 X803.182 Y66.168 
G01 X803.528 Y66.746 
G01 X804.279 Y68.067 
G01 X804.906 Y69.247 
G01 X805.458 Y70.355 
G01 X805.941 Y71.389 
G01 X806.360 Y72.346 
G01 X807.026 Y74.009 
G01 X807.618 Y75.683 
G01 X808.147 Y77.394 
G01 X808.613 Y79.143 
G01 X809.013 Y80.921 
G01 X809.347 Y82.721 
G01 X809.612 Y84.535 
G01 X809.807 Y86.354 
G01 X809.934 Y88.189 
G01 X809.988 Y89.861 
G01 X809.995 Y90.839 
G01 X809.981 Y91.906 
G01 X809.941 Y93.064 
G01 X809.871 Y94.314 
G01 X809.765 Y95.656 
G01 X809.617 Y97.090 
G01 X809.391 Y98.828 
G01 X808.450 Y111.233  
G01 X808.421 Y110.278  
G01 X808.318 Y108.074 
G01 X808.178 Y105.868 
G01 X808.001 Y103.660 
G01 X807.787 Y101.452 
G01 X807.534 Y99.242 
G01 X807.243 Y97.034 
G01 X806.913 Y94.826 
G01 X806.542 Y92.620 
G01 X806.132 Y90.417 
G01 X805.680 Y88.218 
G01 X805.187 Y86.023 
G01 X804.651 Y83.833 
G01 X804.066 Y81.621 
G01 X803.259 Y78.827 
G01 X802.379 Y76.036 
G01 X801.438 Y73.281 
G01 X800.440 Y70.562 
G01 X799.387 Y67.879 
G01 X798.283 Y65.231 
G01 X797.131 Y62.620 
G01 X795.933 Y60.044 
G01 X794.692 Y57.504 
G01 X793.412 Y54.999 
G01 X792.094 Y52.530 
G01 X790.741 Y50.097 
G01 X789.780 Y48.432 
G01 X791.082 Y49.496 
G01 X792.468 Y50.687 
G01 X793.849 Y51.936 
G01 X794.724 Y52.761 
G01 X795.589 Y53.607 
G01 X796.419 Y54.446 
G01 X797.976 Y56.103 
G01 X799.402 Y57.726 
G01 X800.704 Y59.313 
G01 X801.888 Y60.856 
G01 X802.961 Y62.352 
G01 X803.931 Y63.797 
G01 X804.802 Y65.184 
G01 X805.165 Y65.792 
G01 X805.939 Y67.154 
G01 X806.591 Y68.379 
G01 X807.165 Y69.532 
G01 X807.668 Y70.608 
G01 X808.104 Y71.606 
G01 X808.799 Y73.342 
G01 X809.417 Y75.087 
G01 X809.968 Y76.870 
G01 X810.453 Y78.690 
G01 X810.870 Y80.540 
G01 X811.217 Y82.411 
G01 X811.492 Y84.296 
G01 X811.695 Y86.188 
G01 X811.826 Y88.094 
G01 X811.883 Y89.832 
G01 X811.890 Y90.846 
G01 X811.875 Y91.951 
G01 X811.834 Y93.150 
G01 X811.761 Y94.442 
G01 X811.652 Y95.827 
G01 X811.500 Y97.306 
G01 X811.300 Y98.877 
G01 X811.037 Y100.607 
G01 X810.735 Y102.297 
G01 X810.357 Y104.141 
G01 X809.908 Y106.075 
G01 X809.381 Y108.096 
G01 X808.770 Y110.205 
G01 X808.450 Y111.233 
G01 X806.495 Y121.522  
G01 X806.592 Y118.587  
G01 X806.620 Y116.830 
G01 X806.624 Y114.687 
G01 X806.594 Y112.521 
G01 X806.528 Y110.351 
G01 X806.426 Y108.179 
G01 X806.288 Y106.004 
G01 X806.114 Y103.828 
G01 X805.902 Y101.651 
G01 X805.653 Y99.474 
G01 X805.367 Y97.298 
G01 X805.041 Y95.123 
G01 X804.676 Y92.951 
G01 X804.272 Y90.781 
G01 X803.827 Y88.616 
G01 X803.342 Y86.456 
G01 X802.815 Y84.300 
G01 X802.239 Y82.127 
G01 X801.445 Y79.375 
G01 X800.579 Y76.627 
G01 X799.652 Y73.914 
G01 X798.668 Y71.235 
G01 X797.631 Y68.590 
G01 X796.542 Y65.979 
G01 X795.405 Y63.402 
G01 X794.222 Y60.859 
G01 X792.997 Y58.351 
G01 X791.732 Y55.877 
G01 X790.430 Y53.437 
G01 X789.093 Y51.031 
G01 X787.723 Y48.659 
G01 X786.324 Y46.321 
G01 X784.897 Y44.016 
G01 X783.396 Y41.671 
G01 X784.788 Y42.530 
G01 X786.335 Y43.542 
G01 X787.862 Y44.603 
G01 X789.367 Y45.708 
G01 X790.800 Y46.818 
G01 X792.300 Y48.044 
G01 X793.721 Y49.266 
G01 X795.135 Y50.544 
G01 X796.036 Y51.394 
G01 X796.925 Y52.263 
G01 X797.778 Y53.125 
G01 X799.379 Y54.829 
G01 X800.847 Y56.500 
G01 X802.188 Y58.135 
G01 X803.410 Y59.727 
G01 X804.518 Y61.272 
G01 X805.520 Y62.765 
G01 X806.422 Y64.201 
G01 X806.802 Y64.838 
G01 X807.600 Y66.240 
G01 X808.276 Y67.511 
G01 X808.872 Y68.709 
G01 X809.395 Y69.827 
G01 X809.849 Y70.865 
G01 X810.573 Y72.674 
G01 X811.216 Y74.491 
G01 X811.789 Y76.346 
G01 X812.294 Y78.238 
G01 X812.726 Y80.159 
G01 X813.086 Y82.102 
G01 X813.372 Y84.058 
G01 X813.583 Y86.021 
G01 X813.719 Y87.998 
G01 X813.778 Y89.802 
G01 X813.785 Y90.852 
G01 X813.770 Y91.996 
G01 X813.727 Y93.235 
G01 X813.652 Y94.569 
G01 X813.539 Y95.999 
G01 X813.383 Y97.522 
G01 X813.177 Y99.140 
G01 X812.908 Y100.910 
G01 X812.596 Y102.654 
G01 X812.208 Y104.546 
G01 X811.748 Y106.528 
G01 X811.208 Y108.598 
G01 X810.583 Y110.757 
G01 X809.868 Y112.999 
G01 X809.095 Y115.209 
G01 X808.258 Y117.404 
G01 X807.357 Y119.583 
G01 X806.495 Y121.522 
G01 X803.895 Y130.594  
G01 X804.076 Y128.895  
G01 X804.236 Y127.164 
G01 X804.373 Y125.435 
G01 X804.488 Y123.709 
G01 X804.579 Y121.984 
G01 X804.649 Y120.263 
G01 X804.698 Y118.545 
G01 X804.725 Y116.814 
G01 X804.729 Y114.698 
G01 X804.699 Y112.563 
G01 X804.634 Y110.424 
G01 X804.534 Y108.283 
G01 X804.398 Y106.139 
G01 X804.226 Y103.995 
G01 X804.018 Y101.850 
G01 X803.773 Y99.705 
G01 X803.490 Y97.562 
G01 X803.169 Y95.420 
G01 X802.810 Y93.281 
G01 X802.412 Y91.146 
G01 X801.975 Y89.014 
G01 X801.497 Y86.888 
G01 X800.979 Y84.768 
G01 X800.413 Y82.632 
G01 X799.631 Y79.922 
G01 X798.778 Y77.219 
G01 X797.866 Y74.547 
G01 X796.897 Y71.907 
G01 X795.874 Y69.300 
G01 X794.800 Y66.726 
G01 X793.679 Y64.184 
G01 X792.512 Y61.675 
G01 X791.302 Y59.198 
G01 X790.052 Y56.755 
G01 X788.766 Y54.343 
G01 X787.444 Y51.965 
G01 X786.089 Y49.619 
G01 X784.705 Y47.306 
G01 X783.293 Y45.026 
G01 X781.851 Y42.770 
G01 X780.150 Y40.196 
G01 X778.394 Y37.631 
G01 X777.604 Y36.520 
G01 X779.291 Y37.299 
G01 X780.937 Y38.122 
G01 X782.573 Y39.003 
G01 X784.196 Y39.940 
G01 X785.804 Y40.930 
G01 X787.394 Y41.971 
G01 X788.963 Y43.061 
G01 X790.509 Y44.195 
G01 X791.985 Y45.339 
G01 X793.517 Y46.591 
G01 X794.975 Y47.845 
G01 X796.421 Y49.152 
G01 X797.348 Y50.027 
G01 X798.261 Y50.918 
G01 X799.137 Y51.804 
G01 X799.977 Y52.683 
G01 X801.554 Y54.419 
G01 X802.998 Y56.121 
G01 X804.317 Y57.783 
G01 X805.518 Y59.401 
G01 X806.606 Y60.970 
G01 X807.588 Y62.483 
G01 X808.440 Y63.884 
G01 X809.260 Y65.327 
G01 X809.961 Y66.644 
G01 X810.579 Y67.885 
G01 X811.121 Y69.047 
G01 X811.593 Y70.124 
G01 X812.001 Y71.116 
G01 X812.690 Y72.948 
G01 X813.015 Y73.896 
G01 X813.322 Y74.854 
G01 X813.881 Y76.800 
G01 X814.368 Y78.779 
G01 X814.779 Y80.783 
G01 X815.114 Y82.805 
G01 X815.371 Y84.837 
G01 X815.550 Y86.872 
G01 X815.648 Y88.780 
G01 X815.680 Y90.859 
G01 X815.664 Y92.041 
G01 X815.620 Y93.321 
G01 X815.543 Y94.697 
G01 X815.427 Y96.170 
G01 X815.266 Y97.739 
G01 X815.054 Y99.402 
G01 X814.778 Y101.213 
G01 X814.457 Y103.010 
G01 X814.060 Y104.951 
G01 X813.588 Y106.981 
G01 X813.035 Y109.101 
G01 X812.396 Y111.308 
G01 X811.665 Y113.600 
G01 X810.875 Y115.860 
G01 X810.019 Y118.103 
G01 X809.098 Y120.331 
G01 X808.115 Y122.538 
G01 X807.070 Y124.724 
G01 X805.967 Y126.883 
G01 X804.806 Y129.013 
G01 X803.895 Y130.594 
G01 X800.745 Y138.912  
G01 X801.043 Y137.243  
G01 X801.321 Y135.536 
G01 X801.575 Y133.829 
G01 X801.804 Y132.122 
G01 X802.009 Y130.414 
G01 X802.190 Y128.708 
G01 X802.348 Y127.002 
G01 X802.483 Y125.298 
G01 X802.596 Y123.595 
G01 X802.687 Y121.895 
G01 X802.756 Y120.198 
G01 X802.803 Y118.503 
G01 X802.831 Y116.797 
G01 X802.834 Y114.710 
G01 X802.804 Y112.605 
G01 X802.740 Y110.497 
G01 X802.641 Y108.387 
G01 X802.508 Y106.275 
G01 X802.338 Y104.162 
G01 X802.133 Y102.049 
G01 X801.892 Y99.937 
G01 X801.613 Y97.826 
G01 X801.298 Y95.717 
G01 X800.944 Y93.612 
G01 X800.552 Y91.510 
G01 X800.122 Y89.413 
G01 X799.652 Y87.321 
G01 X799.142 Y85.236 
G01 X798.586 Y83.138 
G01 X797.816 Y80.470 
G01 X796.977 Y77.810 
G01 X796.079 Y75.180 
G01 X795.125 Y72.580 
G01 X794.117 Y70.011 
G01 X793.059 Y67.473 
G01 X791.952 Y64.966 
G01 X790.801 Y62.490 
G01 X789.607 Y60.046 
G01 X788.373 Y57.632 
G01 X787.101 Y55.250 
G01 X785.795 Y52.899 
G01 X784.456 Y50.579 
G01 X783.086 Y48.291 
G01 X781.689 Y46.035 
G01 X780.262 Y43.803 
G01 X778.578 Y41.253 
G01 X776.840 Y38.715 
G01 X775.049 Y36.195 
G01 X773.204 Y33.697 
G01 X772.293 Y32.512 
G01 X774.119 Y33.108 
G01 X775.836 Y33.737 
G01 X777.551 Y34.431 
G01 X779.261 Y35.189 
G01 X780.963 Y36.008 
G01 X782.655 Y36.887 
G01 X784.333 Y37.823 
G01 X785.996 Y38.815 
G01 X787.640 Y39.859 
G01 X789.262 Y40.953 
G01 X790.861 Y42.095 
G01 X792.433 Y43.281 
G01 X793.170 Y43.860 
G01 X794.735 Y45.139 
G01 X796.228 Y46.423 
G01 X797.706 Y47.760 
G01 X798.660 Y48.660 
G01 X799.596 Y49.574 
G01 X800.495 Y50.483 
G01 X801.358 Y51.385 
G01 X802.185 Y52.281 
G01 X803.737 Y54.048 
G01 X805.158 Y55.779 
G01 X806.454 Y57.469 
G01 X807.633 Y59.112 
G01 X808.700 Y60.702 
G01 X809.661 Y62.233 
G01 X810.077 Y62.930 
G01 X810.921 Y64.413 
G01 X811.646 Y65.776 
G01 X812.286 Y67.062 
G01 X812.848 Y68.266 
G01 X813.338 Y69.384 
G01 X813.761 Y70.413 
G01 X814.120 Y71.339 
G01 X814.477 Y72.316 
G01 X814.814 Y73.300 
G01 X815.132 Y74.294 
G01 X815.432 Y75.299 
G01 X815.713 Y76.312 
G01 X815.974 Y77.334 
G01 X816.216 Y78.362 
G01 X816.439 Y79.397 
G01 X816.642 Y80.438 
G01 X816.826 Y81.483 
G01 X816.989 Y82.531 
G01 X817.132 Y83.582 
G01 X817.255 Y84.635 
G01 X817.358 Y85.688 
G01 X817.441 Y86.742 
G01 X817.542 Y88.717 
G01 X817.575 Y90.865 
G01 X817.559 Y92.086 
G01 X817.513 Y93.406 
G01 X817.434 Y94.825 
G01 X817.314 Y96.342 
G01 X817.148 Y97.955 
G01 X816.931 Y99.664 
G01 X816.649 Y101.516 
G01 X816.319 Y103.367 
G01 X815.911 Y105.355 
G01 X815.428 Y107.434 
G01 X814.863 Y109.603 
G01 X814.210 Y111.859 
G01 X813.462 Y114.201 
G01 X812.654 Y116.510 
G01 X811.780 Y118.803 
G01 X810.839 Y121.078 
G01 X809.835 Y123.333 
G01 X808.769 Y125.563 
G01 X807.643 Y127.767 
G01 X806.458 Y129.941 
G01 X805.237 Y132.051 
G01 X804.113 Y133.886 
G01 X802.960 Y135.679 
G01 X801.760 Y137.464 
G01 X800.745 Y138.912 
G01 X796.970 Y147.010  
G01 X797.367 Y145.498  
G01 X797.822 Y143.630 
G01 X798.201 Y141.951 
G01 X798.551 Y140.277 
G01 X798.876 Y138.602 
G01 X799.175 Y136.924 
G01 X799.449 Y135.244 
G01 X799.699 Y133.564 
G01 X799.924 Y131.883 
G01 X800.126 Y130.202 
G01 X800.304 Y128.520 
G01 X800.460 Y126.840 
G01 X800.593 Y125.160 
G01 X800.704 Y123.482 
G01 X800.794 Y121.806 
G01 X800.862 Y120.132 
G01 X800.909 Y118.461 
G01 X800.936 Y116.780 
G01 X800.939 Y114.722 
G01 X800.910 Y112.648 
G01 X800.847 Y110.570 
G01 X800.749 Y108.491 
G01 X800.617 Y106.411 
G01 X800.451 Y104.329 
G01 X800.249 Y102.248 
G01 X800.011 Y100.168 
G01 X799.737 Y98.090 
G01 X799.426 Y96.015 
G01 X799.078 Y93.942 
G01 X798.693 Y91.874 
G01 X798.269 Y89.811 
G01 X797.807 Y87.754 
G01 X797.306 Y85.704 
G01 X796.760 Y83.643 
G01 X796.002 Y81.018 
G01 X795.177 Y78.401 
G01 X794.293 Y75.812 
G01 X793.353 Y73.253 
G01 X792.360 Y70.722 
G01 X791.317 Y68.221 
G01 X790.226 Y65.748 
G01 X789.090 Y63.306 
G01 X787.912 Y60.893 
G01 X786.693 Y58.510 
G01 X785.437 Y56.156 
G01 X784.146 Y53.833 
G01 X782.822 Y51.540 
G01 X781.468 Y49.277 
G01 X780.085 Y47.044 
G01 X778.673 Y44.836 
G01 X777.005 Y42.311 
G01 X775.285 Y39.799 
G01 X773.514 Y37.307 
G01 X771.690 Y34.838 
G01 X769.811 Y32.394 
G01 X767.898 Y30.008 
G01 X767.329 Y29.320 
G01 X768.855 Y29.642 
G01 X770.106 Y29.939 
G01 X772.061 Y30.465 
G01 X773.850 Y31.017 
G01 X775.630 Y31.635 
G01 X777.406 Y32.320 
G01 X779.175 Y33.070 
G01 X780.935 Y33.884 
G01 X782.684 Y34.759 
G01 X784.419 Y35.693 
G01 X786.137 Y36.685 
G01 X787.836 Y37.731 
G01 X789.513 Y38.829 
G01 X791.166 Y39.976 
G01 X792.792 Y41.170 
G01 X794.355 Y42.381 
G01 X795.952 Y43.686 
G01 X797.482 Y45.002 
G01 X798.992 Y46.368 
G01 X799.973 Y47.293 
G01 X800.932 Y48.230 
G01 X801.854 Y49.161 
G01 X802.739 Y50.087 
G01 X803.588 Y51.007 
G01 X804.402 Y51.918 
G01 X805.928 Y53.717 
G01 X807.325 Y55.476 
G01 X808.597 Y57.192 
G01 X809.753 Y58.858 
G01 X810.798 Y60.468 
G01 X811.715 Y61.976 
G01 X812.581 Y63.500 
G01 X813.330 Y64.908 
G01 X813.993 Y66.238 
G01 X814.575 Y67.485 
G01 X815.082 Y68.643 
G01 X815.521 Y69.710 
G01 X815.894 Y70.671 
G01 X816.264 Y71.684 
G01 X816.613 Y72.704 
G01 X816.943 Y73.734 
G01 X817.253 Y74.775 
G01 X817.544 Y75.824 
G01 X817.814 Y76.881 
G01 X818.065 Y77.946 
G01 X818.296 Y79.016 
G01 X818.506 Y80.092 
G01 X818.695 Y81.173 
G01 X818.864 Y82.257 
G01 X819.012 Y83.344 
G01 X819.140 Y84.433 
G01 X819.246 Y85.522 
G01 X819.332 Y86.611 
G01 X819.436 Y88.654 
G01 X819.463 Y89.713 
G01 X819.470 Y90.872 
G01 X819.453 Y92.132 
G01 X819.407 Y93.492 
G01 X819.325 Y94.953 
G01 X819.201 Y96.513 
G01 X819.031 Y98.171 
G01 X818.808 Y99.926 
G01 X818.520 Y101.819 
G01 X818.180 Y103.723 
G01 X817.762 Y105.760 
G01 X817.268 Y107.888 
G01 X816.690 Y110.105 
G01 X816.023 Y112.411 
G01 X815.260 Y114.801 
G01 X814.434 Y117.161 
G01 X813.541 Y119.503 
G01 X812.581 Y121.826 
G01 X811.556 Y124.127 
G01 X810.468 Y126.403 
G01 X809.319 Y128.652 
G01 X808.110 Y130.870 
G01 X806.862 Y133.026 
G01 X805.718 Y134.894 
G01 X804.544 Y136.720 
G01 X803.322 Y138.537 
G01 X802.056 Y140.344 
G01 X800.746 Y142.143 
G01 X799.394 Y143.935 
G01 X798.004 Y145.720 
G01 X796.970 Y147.010 
G01 X792.180 Y155.594  
G01 X792.582 Y154.543  
G01 X793.089 Y153.142 
G01 X793.594 Y151.668 
G01 X794.094 Y150.121 
G01 X794.585 Y148.499 
G01 X795.065 Y146.803 
G01 X795.530 Y145.033 
G01 X795.977 Y143.198 
G01 X796.349 Y141.548 
G01 X796.694 Y139.903 
G01 X797.013 Y138.255 
G01 X797.307 Y136.605 
G01 X797.577 Y134.953 
G01 X797.822 Y133.299 
G01 X798.044 Y131.644 
G01 X798.243 Y129.989 
G01 X798.419 Y128.333 
G01 X798.572 Y126.678 
G01 X798.703 Y125.023 
G01 X798.813 Y123.369 
G01 X798.901 Y121.717 
G01 X798.968 Y120.067 
G01 X799.014 Y118.419 
G01 X799.041 Y116.763 
G01 X799.044 Y114.734 
G01 X799.015 Y112.690 
G01 X798.953 Y110.644 
G01 X798.857 Y108.595 
G01 X798.727 Y106.546 
G01 X798.563 Y104.497 
G01 X798.364 Y102.448 
G01 X798.130 Y100.400 
G01 X797.860 Y98.354 
G01 X797.554 Y96.312 
G01 X797.212 Y94.273 
G01 X796.833 Y92.238 
G01 X796.416 Y90.209 
G01 X795.962 Y88.187 
G01 X795.469 Y86.171 
G01 X794.933 Y84.149 
G01 X794.188 Y81.566 
G01 X793.376 Y78.992 
G01 X792.507 Y76.445 
G01 X791.582 Y73.925 
G01 X790.604 Y71.433 
G01 X789.576 Y68.968 
G01 X788.500 Y66.531 
G01 X787.380 Y64.121 
G01 X786.217 Y61.740 
G01 X785.014 Y59.387 
G01 X783.773 Y57.063 
G01 X782.497 Y54.767 
G01 X781.188 Y52.500 
G01 X779.849 Y50.262 
G01 X778.481 Y48.053 
G01 X777.085 Y45.869 
G01 X775.433 Y43.369 
G01 X773.731 Y40.883 
G01 X771.980 Y38.419 
G01 X770.177 Y35.978 
G01 X768.321 Y33.564 
G01 X766.429 Y31.205 
G01 X764.442 Y28.832 
G01 X762.521 Y26.638 
G01 X764.158 Y26.855 
G01 X766.094 Y27.163 
G01 X767.783 Y27.478 
G01 X769.271 Y27.793 
G01 X770.563 Y28.100 
G01 X772.587 Y28.645 
G01 X774.440 Y29.216 
G01 X776.282 Y29.855 
G01 X778.117 Y30.563 
G01 X779.943 Y31.337 
G01 X781.757 Y32.176 
G01 X783.558 Y33.077 
G01 X785.342 Y34.038 
G01 X787.108 Y35.057 
G01 X788.852 Y36.131 
G01 X790.573 Y37.258 
G01 X792.267 Y38.434 
G01 X793.933 Y39.657 
G01 X795.540 Y40.902 
G01 X797.170 Y42.234 
G01 X798.735 Y43.580 
G01 X800.278 Y44.976 
G01 X801.285 Y45.925 
G01 X802.268 Y46.885 
G01 X803.213 Y47.840 
G01 X804.120 Y48.790 
G01 X804.991 Y49.733 
G01 X805.826 Y50.668 
G01 X806.627 Y51.596 
G01 X808.127 Y53.424 
G01 X809.498 Y55.211 
G01 X810.747 Y56.951 
G01 X811.879 Y58.638 
G01 X812.901 Y60.266 
G01 X813.352 Y61.022 
G01 X814.242 Y62.587 
G01 X815.015 Y64.041 
G01 X815.700 Y65.415 
G01 X816.302 Y66.704 
G01 X816.826 Y67.902 
G01 X817.281 Y69.007 
G01 X817.667 Y70.004 
G01 X818.050 Y71.052 
G01 X818.412 Y72.108 
G01 X818.753 Y73.175 
G01 X819.074 Y74.251 
G01 X819.375 Y75.336 
G01 X819.655 Y76.429 
G01 X819.914 Y77.529 
G01 X820.152 Y78.635 
G01 X820.369 Y79.747 
G01 X820.565 Y80.863 
G01 X820.739 Y81.983 
G01 X820.892 Y83.106 
G01 X821.024 Y84.230 
G01 X821.134 Y85.356 
G01 X821.222 Y86.481 
G01 X821.330 Y88.591 
G01 X821.358 Y89.683 
G01 X821.365 Y90.878 
G01 X821.348 Y92.177 
G01 X821.300 Y93.578 
G01 X821.215 Y95.081 
G01 X821.089 Y96.684 
G01 X820.914 Y98.387 
G01 X820.685 Y100.188 
G01 X820.390 Y102.122 
G01 X820.041 Y104.079 
G01 X819.614 Y106.164 
G01 X819.108 Y108.341 
G01 X818.517 Y110.607 
G01 X817.836 Y112.962 
G01 X817.057 Y115.402 
G01 X816.214 Y117.812 
G01 X815.302 Y120.203 
G01 X814.322 Y122.573 
G01 X813.276 Y124.921 
G01 X812.167 Y127.243 
G01 X810.995 Y129.537 
G01 X809.763 Y131.798 
G01 X808.487 Y134.001 
G01 X807.323 Y135.901 
G01 X806.127 Y137.762 
G01 X804.885 Y139.609 
G01 X803.598 Y141.446 
G01 X802.268 Y143.271 
G01 X800.899 Y145.088 
G01 X799.491 Y146.895 
G01 X798.048 Y148.694 
G01 X796.572 Y150.487 
G01 X795.065 Y152.274 
G01 X793.530 Y154.056 
G01 X792.180 Y155.594 
G01 X786.917 Y164.215  
G01 X786.245 Y164.915  
G01 X786.012 Y164.777 
G01 X785.821 Y164.585 
G01 X786.726 Y162.953 
G01 X787.524 Y161.426 
G01 X788.380 Y159.669 
G01 X789.333 Y157.553 
G01 X789.818 Y156.402 
G01 X790.310 Y155.178 
G01 X790.806 Y153.882 
G01 X791.302 Y152.512 
G01 X791.796 Y151.070 
G01 X792.285 Y149.555 
G01 X792.766 Y147.966 
G01 X793.236 Y146.304 
G01 X793.693 Y144.568 
G01 X794.132 Y142.765 
G01 X794.497 Y141.146 
G01 X794.836 Y139.529 
G01 X795.150 Y137.909 
G01 X795.439 Y136.286 
G01 X795.704 Y134.661 
G01 X795.946 Y133.034 
G01 X796.164 Y131.405 
G01 X796.360 Y129.776 
G01 X796.533 Y128.146 
G01 X796.684 Y126.515 
G01 X796.813 Y124.886 
G01 X796.921 Y123.256 
G01 X797.008 Y121.628 
G01 X797.074 Y120.002 
G01 X797.146 Y116.746 
G01 X797.149 Y114.745 
G01 X797.121 Y112.732 
G01 X797.059 Y110.717 
G01 X796.965 Y108.700 
G01 X796.837 Y106.682 
G01 X796.675 Y104.664 
G01 X796.479 Y102.647 
G01 X796.249 Y100.631 
G01 X795.984 Y98.619 
G01 X795.683 Y96.609 
G01 X795.346 Y94.603 
G01 X794.973 Y92.603 
G01 X794.564 Y90.608 
G01 X794.117 Y88.620 
G01 X793.633 Y86.639 
G01 X793.107 Y84.654 
G01 X792.374 Y82.114 
G01 X791.576 Y79.583 
G01 X790.720 Y77.078 
G01 X789.810 Y74.598 
G01 X788.847 Y72.144 
G01 X787.834 Y69.715 
G01 X786.774 Y67.313 
G01 X785.669 Y64.937 
G01 X784.521 Y62.587 
G01 X783.334 Y60.265 
G01 X782.109 Y57.969 
G01 X780.848 Y55.701 
