%
( tomtarX6 ) ( File created: Sunday December 08 2024 - 01:56 PM)
( for LinuxCNC )
( Material Size) ( X= 800.000, Y= 620.000, Z= 26.000)
G90 (Incremental distance mode)
G17 G21 (Active Plane: XY)(Metric Mode)
G40 G49 G80(Tool Diameter, Length compensation & canned cycles OFF)
G64 P0.05 Q0.05(Path Blending)
T6 M06 (TOOL USE End Mill 1.1 mm)
G90 (absolute distance mode)
G54 (Coordinate System)
S19000M3
G00 Z46.320
G4 P6
( Array Toolpath 1 [1] )
G00 X42.374 Y30.812 Z31.080 F8000.0
G01 Z22.500 F1200.0 M3
G03 X45.470 Y28.266 I12.334 J11.851
G03 X47.855 Y27.093 I6.355 J9.905
G03 X49.340 Y26.648 I4.912 J13.703
G02 X51.994 Y25.886 I-7.720 J-31.873
G02 X56.178 Y24.014 I-7.352 J-22.048
G02 X58.166 Y22.807 I-21.928 J-38.350
G03 X60.112 Y21.729 I9.088 J14.114
G03 X61.545 Y21.175 I4.642 J9.874
G03 X63.963 Y20.861 I2.127 J6.911
G03 X65.516 Y20.997 I-0.664 J16.474
G02 X68.567 Y21.223 I3.364 J-24.795
G02 X71.137 Y21.046 I0.199 J-15.880
G02 X75.556 Y19.631 I-2.175 J-14.398
G02 X77.017 Y18.784 I-6.876 J-13.540
G01 X78.372 Y17.885  F4000.0
G01 X78.669 Y17.690 
G01 X78.812 Y17.630 
G03 X79.461 Y17.546 I0.773 J3.426
G03 X81.321 Y17.550 I0.886 J25.038
G01 X83.404 Y17.624  
G02 X85.448 Y17.561 I0.525 J-16.095
G02 X88.806 Y16.821 I-1.326 J-13.996
G02 X90.586 Y16.068 I-5.333 J-15.095
G01 X91.764 Y15.485  
G03 X92.748 Y15.108 I2.540 J5.149
G03 X95.786 Y14.999 I1.743 J6.189
G03 X97.536 Y15.561 I-1.721 J8.366
G01 X98.646 Y16.089  
G02 X100.905 Y16.995 I6.160 J-12.101
G02 X104.551 Y17.507 I3.498 J-11.665
G02 X106.595 Y17.326 I-0.163 J-13.465
G02 X108.600 Y16.877 I-3.026 J-18.216
G01 X110.508 Y16.374  
G01 X111.900 Y16.073 
G03 X113.438 Y16.028 I0.910 J4.840
G03 X114.443 Y16.270 I-0.610 J4.741
G03 X115.498 Y16.769 I-2.018 J5.624
G02 X117.679 Y17.871 I8.698 J-14.506
G02 X120.829 Y18.836 I6.467 J-15.489
G02 X124.027 Y19.228 I4.142 J-20.546
G02 X127.387 Y19.267 I2.252 J-49.944
G01 X130.652 Y19.213  
G03 X132.230 Y19.280 I0.159 J14.955
G03 X132.932 Y19.395 I-0.494 J5.178
G03 X133.444 Y19.607 I-0.398 J1.688
G03 X134.166 Y20.111 I-4.093 J6.632
G03 X136.492 Y22.006 I-52.594 J66.933
G02 X138.968 Y24.037 I72.366 J-85.697
G02 X142.340 Y26.384 I19.807 J-24.862
G01 X143.599 Y27.111  
G03 X145.776 Y28.506 I-9.335 J16.963
G03 X148.196 Y30.440 I-24.585 J33.248
G03 X153.578 Y35.529 I-52.832 J61.261
G03 X156.429 Y38.742 I-36.946 J35.651
G03 X157.353 Y40.051 I-8.982 J7.321
G03 X158.123 Y41.548 I-10.236 J6.213
G01 X159.451 Y44.549  
G01 X159.670 Y45.094 
G03 X159.828 Y45.875 I-2.771 J0.969
G03 X159.152 Y48.050 I-3.178 J0.205
G03 X157.197 Y49.216 I-2.499 J-1.968
G01 X156.807 Y49.251  
G02 X154.798 Y49.422 I0.066 J12.647
G02 X150.621 Y50.878 I2.138 J12.854
G02 X147.304 Y53.138 I10.575 J19.086
G02 X143.820 Y56.544 I18.493 J22.398
G02 X139.334 Y62.814 I31.901 J27.568
G02 X135.385 Y71.544 I39.533 J23.140
G02 X133.829 Y77.071 I59.824 J19.825
G01 X133.015 Y80.727  
G03 X132.542 Y82.644 I-29.340 J-6.228
G03 X131.971 Y84.326 I-16.422 J-4.634
G03 X130.545 Y86.990 I-12.512 J-4.985
G03 X127.093 Y90.632 I-13.411 J-9.254
G03 X123.209 Y92.665 I-7.676 J-9.940
G03 X121.386 Y93.182 I-9.476 J-29.920
G02 X117.911 Y94.348 I5.782 J22.996
G02 X113.935 Y96.502 I9.273 J21.868
G02 X107.455 Y102.542 I15.648 J23.284
G02 X104.670 Y106.938 I21.099 J16.442
G02 X103.350 Y109.840 I35.441 J17.874
G01 X102.443 Y112.158  
G03 X101.493 Y114.392 I-26.311 J-9.874
G03 X100.502 Y116.141 I-12.960 J-6.187
G03 X98.303 Y118.483 I-7.991 J-5.299
G03 X96.116 Y119.781 I-6.806 J-8.978
G03 X92.894 Y120.908 I-8.156 J-18.144
G03 X89.340 Y121.566 I-6.643 J-25.948
G03 X84.424 Y121.889 I-5.685 J-48.975
G03 X80.019 Y121.840 I-1.288 J-82.497
G02 X75.566 Y121.754 I-4.562 J120.669
G02 X70.671 Y121.964 I-0.050 J56.123
G02 X65.541 Y122.848 I2.669 J30.809
G02 X60.780 Y124.541 I7.363 J28.250
G02 X56.754 Y126.619 I19.476 J42.661
G02 X49.569 Y131.413 I34.111 J58.904
G02 X46.125 Y134.461 I19.260 J25.235
G02 X41.121 Y141.446 I20.255 J19.795
G02 X39.612 Y145.345 I18.671 J9.469
G02 X39.046 Y148.351 I17.740 J4.896
G03 X38.917 Y148.965 I-3.002 J-0.310
G03 X37.544 Y150.704 I-3.014 J-0.969
G03 X35.357 Y151.121 I-1.654 J-2.729
G03 X34.792 Y150.966 I0.494 J-2.920
G03 X34.187 Y150.670 I1.351 J-3.526
G01 X32.968 Y149.896  
G03 X30.344 Y148.030 I29.960 J-44.928
G03 X26.100 Y144.346 I25.281 J-33.411
G03 X20.573 Y136.849 I21.452 J-21.599
G03 X18.414 Y131.814 I31.761 J-16.601
G03 X16.489 Y124.863 I58.419 J-19.919
G03 X15.032 Y114.504 I71.190 J-15.299
G03 X14.902 Y109.224 I60.715 J-4.129
G03 X15.468 Y102.969 I44.053 J0.834
G03 X16.687 Y98.251 I26.384 J4.301
G03 X17.755 Y95.694 I25.466 J9.127
G01 X18.862 Y93.422  
G02 X20.365 Y90.139 I-51.171 J-25.406
G02 X21.832 Y85.222 I-22.023 J-9.250
G02 X22.230 Y80.439 I-23.784 J-4.387
G02 X22.078 Y77.013 I-61.136 J1.002
G01 X22.059 Y76.718  
G01 X22.052 Y76.576 
G03 X22.349 Y74.371 I6.825 J-0.205
G03 X23.360 Y72.315 I6.892 J2.111
G02 X24.788 Y69.972 I-16.241 J-11.508
G02 X26.335 Y65.472 I-14.375 J-7.456
G01 X26.527 Y64.488  
G01 X26.682 Y63.854 
G03 X27.007 Y62.897 I9.797 J2.792
G03 X27.540 Y61.689 I15.806 J6.256
G02 X28.729 Y58.217 I-13.261 J-6.480
G02 X29.031 Y56.149 I-17.093 J-3.558
G02 X29.148 Y53.655 I-32.170 J-2.756
G03 X29.216 Y52.384 I14.193 J0.115
G03 X29.603 Y50.648 I7.279 J0.714
G03 X31.552 Y47.178 I11.081 J3.940
G03 X32.578 Y46.109 I6.928 J5.622
G01 X33.322 Y45.493  
G02 X35.084 Y44.030 I-20.497 J-26.469
G02 X37.284 Y41.566 I-9.610 J-10.796
G02 X39.019 Y38.414 I-13.236 J-9.338
G02 X39.835 Y36.200 I-28.277 J-11.684
G01 X40.527 Y34.078  
G03 X41.240 Y32.386 I10.449 J3.408
G03 X42.374 Y30.812 I6.095 J3.193
G01 Z22.000 F1200.0 M3
G03 X45.470 Y28.266 I12.334 J11.851
G03 X47.855 Y27.093 I6.355 J9.905
G03 X49.340 Y26.648 I4.912 J13.703
G02 X51.994 Y25.886 I-7.720 J-31.873
G02 X56.178 Y24.014 I-7.352 J-22.048
G02 X58.166 Y22.807 I-21.928 J-38.350
G03 X60.112 Y21.729 I9.088 J14.114
G03 X61.545 Y21.175 I4.642 J9.874
G03 X63.963 Y20.861 I2.127 J6.911
G03 X65.516 Y20.997 I-0.664 J16.474
G02 X68.567 Y21.223 I3.364 J-24.795
G02 X71.137 Y21.046 I0.199 J-15.880
G02 X75.556 Y19.631 I-2.175 J-14.398
G02 X77.017 Y18.784 I-6.876 J-13.540
G01 X78.372 Y17.885  F4000.0
G01 X78.669 Y17.690 
G01 X78.812 Y17.630 
G03 X79.461 Y17.546 I0.773 J3.426
G03 X81.321 Y17.550 I0.886 J25.038
G01 X83.404 Y17.624  
G02 X85.448 Y17.561 I0.525 J-16.095
G02 X88.806 Y16.821 I-1.326 J-13.996
G02 X90.586 Y16.068 I-5.333 J-15.095
G01 X91.764 Y15.485  
G03 X92.748 Y15.108 I2.540 J5.149
G03 X95.786 Y14.999 I1.743 J6.189
G03 X97.536 Y15.561 I-1.721 J8.366
G01 X98.646 Y16.089  
G02 X100.905 Y16.995 I6.160 J-12.101
G02 X104.551 Y17.507 I3.498 J-11.665
G02 X106.595 Y17.326 I-0.163 J-13.465
G02 X108.600 Y16.877 I-3.026 J-18.216
G01 X110.508 Y16.374  
G01 X111.900 Y16.073 
G03 X113.438 Y16.028 I0.910 J4.840
G03 X114.443 Y16.270 I-0.610 J4.741
G03 X115.498 Y16.769 I-2.018 J5.624
G02 X117.679 Y17.871 I8.698 J-14.506
G02 X120.829 Y18.836 I6.467 J-15.489
G02 X124.027 Y19.228 I4.142 J-20.546
G02 X127.387 Y19.267 I2.252 J-49.944
G01 X130.652 Y19.213  
G03 X132.230 Y19.280 I0.159 J14.955
G03 X132.932 Y19.395 I-0.494 J5.178
G03 X133.444 Y19.607 I-0.398 J1.688
G03 X134.166 Y20.111 I-4.093 J6.632
G03 X136.492 Y22.006 I-52.594 J66.933
G02 X138.968 Y24.037 I72.366 J-85.697
G02 X142.340 Y26.384 I19.807 J-24.862
G01 X143.599 Y27.111  
G03 X145.776 Y28.506 I-9.335 J16.963
G03 X148.196 Y30.440 I-24.585 J33.248
G03 X153.578 Y35.529 I-52.832 J61.261
G03 X156.429 Y38.742 I-36.946 J35.651
G03 X157.353 Y40.051 I-8.982 J7.321
G03 X158.123 Y41.548 I-10.236 J6.213
G01 X159.451 Y44.549  
G01 X159.670 Y45.094 
G03 X159.828 Y45.875 I-2.771 J0.969
G03 X159.152 Y48.050 I-3.178 J0.205
G03 X157.197 Y49.216 I-2.499 J-1.968
G01 X156.807 Y49.251  
G02 X154.798 Y49.422 I0.066 J12.647
G02 X150.621 Y50.878 I2.138 J12.854
G02 X147.304 Y53.138 I10.575 J19.086
G02 X143.820 Y56.544 I18.493 J22.398
G02 X139.334 Y62.814 I31.901 J27.568
G02 X135.385 Y71.544 I39.533 J23.140
G02 X133.829 Y77.071 I59.824 J19.825
G01 X133.015 Y80.727  
G03 X132.542 Y82.644 I-29.340 J-6.228
G03 X131.971 Y84.326 I-16.422 J-4.634
G03 X130.545 Y86.990 I-12.512 J-4.985
G03 X127.093 Y90.632 I-13.411 J-9.254
G03 X123.209 Y92.665 I-7.676 J-9.940
G03 X121.386 Y93.182 I-9.476 J-29.920
G02 X117.911 Y94.348 I5.782 J22.996
G02 X113.935 Y96.502 I9.273 J21.868
G02 X107.455 Y102.542 I15.648 J23.284
G02 X104.670 Y106.938 I21.099 J16.442
G02 X103.350 Y109.840 I35.441 J17.874
G01 X102.443 Y112.158  
G03 X101.493 Y114.392 I-26.311 J-9.874
G03 X100.502 Y116.141 I-12.960 J-6.187
G03 X98.303 Y118.483 I-7.991 J-5.299
G03 X96.116 Y119.781 I-6.806 J-8.978
G03 X92.894 Y120.908 I-8.156 J-18.144
G03 X89.340 Y121.566 I-6.643 J-25.948
G03 X84.424 Y121.889 I-5.685 J-48.975
G03 X80.019 Y121.840 I-1.288 J-82.497
G02 X75.566 Y121.754 I-4.562 J120.669
G02 X70.671 Y121.964 I-0.050 J56.123
G02 X65.541 Y122.848 I2.669 J30.809
G02 X60.780 Y124.541 I7.363 J28.250
G02 X56.754 Y126.619 I19.476 J42.661
G02 X49.569 Y131.413 I34.111 J58.904
G02 X46.125 Y134.461 I19.260 J25.235
G02 X41.121 Y141.446 I20.255 J19.795
G02 X39.612 Y145.345 I18.671 J9.469
G02 X39.046 Y148.351 I17.740 J4.896
G03 X38.917 Y148.965 I-3.002 J-0.310
G03 X37.544 Y150.704 I-3.014 J-0.969
G03 X35.357 Y151.121 I-1.654 J-2.729
G03 X34.792 Y150.966 I0.494 J-2.920
G03 X34.187 Y150.670 I1.351 J-3.526
G01 X32.968 Y149.896  
G03 X30.344 Y148.030 I29.960 J-44.928
G03 X26.100 Y144.346 I25.281 J-33.411
G03 X20.573 Y136.849 I21.452 J-21.599
G03 X18.414 Y131.814 I31.761 J-16.601
G03 X16.489 Y124.863 I58.419 J-19.919
G03 X15.032 Y114.504 I71.190 J-15.299
G03 X14.902 Y109.224 I60.715 J-4.129
G03 X15.468 Y102.969 I44.053 J0.834
G03 X16.687 Y98.251 I26.384 J4.301
G03 X17.755 Y95.694 I25.466 J9.127
G01 X18.862 Y93.422  
G02 X20.365 Y90.139 I-51.171 J-25.406
G02 X21.832 Y85.222 I-22.023 J-9.250
G02 X22.230 Y80.439 I-23.784 J-4.387
G02 X22.078 Y77.013 I-61.136 J1.002
G01 X22.059 Y76.718  
G01 X22.052 Y76.576 
G03 X22.349 Y74.371 I6.825 J-0.205
G03 X23.360 Y72.315 I6.892 J2.111
G02 X24.788 Y69.972 I-16.241 J-11.508
G02 X26.335 Y65.472 I-14.375 J-7.456
G01 X26.527 Y64.488  
G01 X26.682 Y63.854 
G03 X27.007 Y62.897 I9.797 J2.792
G03 X27.540 Y61.689 I15.806 J6.256
G02 X28.729 Y58.217 I-13.261 J-6.480
G02 X29.031 Y56.149 I-17.093 J-3.558
G02 X29.148 Y53.655 I-32.170 J-2.756
G03 X29.216 Y52.384 I14.193 J0.115
G03 X29.603 Y50.648 I7.279 J0.714
G03 X31.552 Y47.178 I11.081 J3.940
G03 X32.578 Y46.109 I6.928 J5.622
G01 X33.322 Y45.493  
G02 X35.084 Y44.030 I-20.497 J-26.469
G02 X37.284 Y41.566 I-9.610 J-10.796
G02 X39.019 Y38.414 I-13.236 J-9.338
G02 X39.835 Y36.200 I-28.277 J-11.684
G01 X40.527 Y34.078  
G03 X41.240 Y32.386 I10.449 J3.408
G03 X42.374 Y30.812 I6.095 J3.193
G00 Z31.080
G00 X67.384 Y231.896  F8000.0
G01 Z22.500 F1200.0 M3
G03 X70.107 Y241.990 I-10.814 J8.332
G03 X64.888 Y251.064 I-13.571 J-1.767
G03 X42.997 Y238.474 I-8.340 J-10.826
G03 X67.384 Y231.896 I13.557 J1.765
G01 Z22.000 F1200.0 M3
G03 X70.107 Y241.990 I-10.814 J8.332
G03 X64.888 Y251.064 I-13.571 J-1.767
G03 X42.997 Y238.474 I-8.340 J-10.826
G03 X67.384 Y231.896 I13.557 J1.765
G00 Z31.080
G00 X72.457 Y225.299  F8000.0
G01 Z22.500 F1200.0 M3
G01 X72.207 Y225.090  F4000.0
G01 X71.780 Y224.681 
G01 X71.337 Y224.249 
G01 X70.874 Y223.823 
G01 X70.399 Y223.411 
G01 X69.912 Y223.013 
G01 X69.404 Y222.622 
G01 X68.886 Y222.246 
G01 X68.356 Y221.886 
G01 X67.817 Y221.541 
G01 X67.267 Y221.213 
G01 X66.708 Y220.901 
G01 X66.140 Y220.605 
G01 X65.563 Y220.326 
G01 X65.026 Y220.085 
G01 X64.483 Y219.860 
G01 X63.935 Y219.650 
G01 X63.381 Y219.456 
G01 X62.823 Y219.277 
G01 X62.260 Y219.115 
G01 X61.693 Y218.968 
G01 X61.122 Y218.838 
G01 X60.548 Y218.723 
G01 X59.970 Y218.625 
G01 X59.390 Y218.543 
G01 X58.808 Y218.477 
G01 X58.223 Y218.427 
G01 X57.637 Y218.394 
G01 X57.049 Y218.377 
G01 X56.460 Y218.377 
G01 X55.720 Y218.400 
G01 X54.980 Y218.448 
G01 X54.244 Y218.521 
G01 X53.510 Y218.618 
G01 X52.780 Y218.740 
G01 X52.055 Y218.887 
G01 X51.334 Y219.058 
G01 X50.619 Y219.253 
G01 X49.953 Y219.459 
G01 X49.294 Y219.684 
G01 X48.644 Y219.929 
G01 X48.002 Y220.194 
G01 X47.370 Y220.478 
G01 X46.747 Y220.781 
G01 X46.133 Y221.103 
G01 X45.530 Y221.444 
G01 X44.938 Y221.803 
G01 X44.356 Y222.180 
G01 X43.787 Y222.574 
G01 X43.229 Y222.987 
G01 X42.684 Y223.416 
G01 X42.151 Y223.863 
G01 X41.632 Y224.326 
G01 X41.126 Y224.807 
G01 X40.647 Y225.291 
G01 X40.184 Y225.789 
G01 X39.737 Y226.302 
G01 X39.307 Y226.829 
G01 X38.893 Y227.369 
G01 X38.497 Y227.921 
G01 X38.118 Y228.487 
G01 X37.757 Y229.064 
G01 X37.440 Y229.607 
G01 X37.140 Y230.158 
G01 X36.857 Y230.717 
G01 X36.592 Y231.284 
G01 X36.343 Y231.858 
G01 X36.112 Y232.438 
G01 X35.899 Y233.025 
G01 X35.703 Y233.618 
G01 X35.525 Y234.217 
G01 X35.365 Y234.820 
G01 X35.223 Y235.429 
G01 X35.099 Y236.042 
G01 X34.994 Y236.659 
G01 X34.907 Y237.279 
G01 X34.838 Y237.903 
G01 X34.788 Y238.531 
G01 X34.745 Y239.541 
G01 X34.748 Y240.554 
G01 X34.796 Y241.566 
G01 X34.889 Y242.573 
G01 X34.980 Y243.268 
G01 X35.090 Y243.957 
G01 X35.221 Y244.642 
G01 X35.372 Y245.323 
G01 X35.543 Y246.000 
G01 X35.734 Y246.671 
G01 X35.945 Y247.336 
G01 X36.175 Y247.996 
G01 X36.395 Y248.570 
G01 X36.631 Y249.138 
G01 X36.883 Y249.698 
G01 X37.152 Y250.251 
G01 X37.435 Y250.796 
G01 X37.735 Y251.332 
G01 X38.050 Y251.860 
G01 X38.382 Y252.382 
G01 X39.028 Y253.312 
G01 X39.725 Y254.205 
G01 X40.468 Y255.059 
G01 X41.255 Y255.871 
G01 X42.086 Y256.639 
G01 X42.957 Y257.361 
G01 X43.864 Y258.034 
G01 X44.336 Y258.356 
G01 X44.815 Y258.663 
G01 X45.435 Y259.035 
G01 X46.067 Y259.386 
G01 X46.709 Y259.717 
G01 X47.362 Y260.026 
G01 X48.025 Y260.313 
G01 X48.697 Y260.579 
G01 X49.378 Y260.823 
G01 X50.066 Y261.044 
G01 X50.720 Y261.231 
G01 X51.377 Y261.399 
G01 X52.039 Y261.547 
G01 X52.703 Y261.674 
G01 X53.371 Y261.781 
G01 X54.041 Y261.869 
G01 X54.713 Y261.936 
G01 X55.387 Y261.983 
G01 X56.062 Y262.010 
G01 X56.737 Y262.017 
G01 X57.413 Y262.004 
G01 X58.088 Y261.970 
G01 X58.763 Y261.917 
G01 X59.437 Y261.843 
G01 X60.109 Y261.748 
G01 X60.779 Y261.634 
G01 X61.446 Y261.498 
G01 X62.108 Y261.342 
G01 X62.765 Y261.165 
G01 X63.416 Y260.967 
G01 X64.060 Y260.749 
G01 X64.697 Y260.510 
G01 X65.327 Y260.251 
G01 X65.948 Y259.973 
G01 X66.513 Y259.698 
G01 X67.069 Y259.408 
G01 X67.615 Y259.100 
G01 X68.152 Y258.778 
G01 X68.677 Y258.439 
G01 X69.192 Y258.085 
G01 X69.696 Y257.717 
G01 X70.189 Y257.333 
G01 X70.670 Y256.935 
G01 X71.139 Y256.523 
G01 X71.596 Y256.096 
G01 X72.040 Y255.656 
G01 X72.471 Y255.202 
G01 X72.889 Y254.736 
G01 X73.293 Y254.256 
G01 X73.683 Y253.763 
G01 X74.067 Y253.248 
G01 X74.436 Y252.722 
G01 X74.789 Y252.185 
G01 X75.126 Y251.638 
G01 X75.461 Y251.058 
G01 X75.779 Y250.470 
G01 X76.080 Y249.873 
G01 X76.362 Y249.273 
G01 X76.699 Y248.545 
G01 X76.876 Y248.207 
G01 X77.076 Y247.894 
G01 X77.335 Y247.555 
G01 X77.621 Y247.241 
G01 X77.931 Y246.952 
G01 X78.264 Y246.692 
G01 X78.617 Y246.460 
G01 X78.989 Y246.258 
G01 X79.377 Y246.087 
G01 X79.782 Y245.949 
G01 X80.196 Y245.846 
G01 X80.616 Y245.778 
G01 X81.038 Y245.746 
G01 X81.461 Y245.749 
G01 X81.882 Y245.788 
G01 X82.299 Y245.862 
G01 X82.710 Y245.971 
G01 X83.115 Y246.116 
G01 X83.705 Y246.379 
G01 X86.135 Y247.536 
G01 X88.527 Y248.639 
G01 X90.929 Y249.721 
G01 X93.340 Y250.781 
G01 X95.760 Y251.819 
G01 X98.189 Y252.836 
G01 X100.628 Y253.830 
G01 X103.075 Y254.803 
G01 X105.533 Y255.754 
G01 X108.503 Y256.859 
G01 X111.492 Y257.912 
G01 X114.500 Y258.914 
G01 X117.525 Y259.862 
G01 X120.084 Y260.616 
G01 X122.656 Y261.323 
G01 X125.241 Y261.984 
G01 X127.837 Y262.598 
G01 X129.368 Y262.933 
G01 X130.904 Y263.246 
G01 X132.444 Y263.536 
G01 X133.988 Y263.803 
G01 X135.536 Y264.048 
G01 X137.087 Y264.269 
G01 X138.641 Y264.467 
G01 X140.200 Y264.642 
G01 X142.046 Y264.818 
G01 X143.895 Y264.959 
G01 X145.747 Y265.064 
G01 X147.600 Y265.134 
G01 X149.454 Y265.169 
G01 X151.308 Y265.168 
G01 X153.163 Y265.132 
G01 X155.016 Y265.061 
G01 X156.330 Y264.990 
G01 X157.643 Y264.903 
G01 X158.954 Y264.800 
G01 X160.263 Y264.681 
G01 X161.571 Y264.547 
G01 X162.877 Y264.396 
G01 X164.181 Y264.230 
G01 X165.482 Y264.049 
G01 X166.782 Y263.851 
G01 X168.079 Y263.638 
G01 X169.373 Y263.409 
G01 X170.665 Y263.164 
G01 X171.953 Y262.904 
G01 X173.239 Y262.628 
G01 X174.522 Y262.337 
G01 X175.801 Y262.030 
G01 X177.241 Y261.663 
G01 X178.675 Y261.274 
G01 X180.103 Y260.862 
G01 X181.524 Y260.428 
G01 X182.938 Y259.972 
G01 X184.344 Y259.494 
G01 X185.744 Y258.994 
G01 X187.136 Y258.472 
G01 X188.835 Y257.795 
G01 X190.518 Y257.077 
G01 X192.182 Y256.320 
G01 X193.827 Y255.522 
G01 X195.453 Y254.685 
G01 X197.057 Y253.808 
G01 X198.641 Y252.893 
G01 X200.202 Y251.940 
G01 X201.161 Y251.328 
G01 X202.109 Y250.703 
G01 X203.047 Y250.064 
G01 X203.975 Y249.410 
G01 X204.893 Y248.743 
G01 X205.801 Y248.063 
G01 X206.698 Y247.368 
G01 X207.584 Y246.661 
G01 X208.460 Y245.940 
G01 X209.325 Y245.206 
G01 X210.178 Y244.458 
G01 X211.021 Y243.698 
G01 X211.852 Y242.925 
G01 X212.671 Y242.139 
G01 X213.479 Y241.341 
G01 X214.275 Y240.530 
G01 X215.514 Y239.223 
G01 X216.726 Y237.891 
G01 X217.910 Y236.535 
G01 X219.067 Y235.156 
G01 X220.195 Y233.753 
G01 X221.295 Y232.328 
G01 X222.366 Y230.881 
G01 X223.408 Y229.412 
G01 X224.120 Y228.372 
G01 X224.818 Y227.323 
G01 X225.502 Y226.266 
G01 X226.172 Y225.200 
G01 X226.829 Y224.125 
G01 X227.471 Y223.042 
G01 X228.100 Y221.950 
G01 X228.715 Y220.849 
G01 X229.832 Y218.762 
G01 X230.900 Y216.648 
G01 X231.918 Y214.510 
G01 X232.884 Y212.349 
G01 X233.800 Y210.166 
G01 X234.665 Y207.962 
G01 X235.477 Y205.738 
G01 X236.237 Y203.495 
G01 X236.730 Y201.934 
G01 X237.196 Y200.366 
G01 X237.634 Y198.791 
G01 X238.044 Y197.208 
G01 X238.427 Y195.618 
G01 X238.782 Y194.022 
G01 X239.108 Y192.419 
G01 X239.407 Y190.810 
G01 X239.645 Y189.391 
G01 X239.857 Y187.968 
G01 X240.042 Y186.542 
G01 X240.202 Y185.114 
G01 X240.336 Y183.684 
G01 X240.444 Y182.251 
G01 X240.526 Y180.817 
G01 X240.583 Y179.382 
G01 X240.613 Y177.947 
G01 X240.617 Y176.511 
G01 X240.595 Y175.074 
G01 X240.548 Y173.638 
G01 X240.474 Y172.203 
G01 X240.374 Y170.769 
G01 X240.248 Y169.336 
G01 X240.096 Y167.903 
G01 X239.805 Y165.627 
G01 X239.457 Y163.358 
G01 X239.053 Y161.098 
G01 X238.593 Y158.850 
G01 X238.109 Y156.692 
G01 X237.599 Y154.542 
G01 X237.062 Y152.399 
G01 X236.497 Y150.262 
G01 X235.531 Y146.790 
G01 X234.517 Y143.333 
G01 X233.454 Y139.890 
G01 X232.343 Y136.461 
G01 X231.784 Y134.824 
G01 X231.196 Y133.197 
G01 X230.578 Y131.581 
G01 X229.932 Y129.976 
G01 X229.313 Y128.524 
G01 X228.661 Y127.086 
G01 X227.978 Y125.663 
G01 X227.264 Y124.256 
G01 X226.805 Y123.396 
G01 X226.333 Y122.544 
G01 X225.845 Y121.701 
G01 X225.344 Y120.866 
G01 X224.828 Y120.040 
G01 X224.298 Y119.223 
G01 X223.754 Y118.415 
G01 X223.199 Y117.621 
G01 X222.630 Y116.799 
G01 X222.311 Y116.293 
G01 X222.025 Y115.770 
G01 X221.851 Y115.410 
G01 X221.691 Y115.042 
G01 X221.544 Y114.667 
G01 X221.412 Y114.288 
G01 X221.294 Y113.904 
G01 X221.192 Y113.515 
G01 X221.104 Y113.123 
G01 X221.031 Y112.727 
G01 X220.966 Y112.277 
G01 X220.918 Y111.826 
G01 X220.888 Y111.373 
G01 X220.874 Y110.910 
G01 X220.849 Y109.919 
G01 X220.794 Y108.919 
G01 X220.719 Y108.057 
G01 X220.616 Y107.197 
G01 X220.484 Y106.342 
G01 X220.326 Y105.491 
G01 X220.145 Y104.662 
G01 X219.941 Y103.840 
G01 X219.715 Y103.024 
G01 X219.466 Y102.215 
G01 X219.194 Y101.413 
G01 X218.900 Y100.618 
G01 X218.583 Y99.833 
G01 X218.245 Y99.055 
G01 X217.703 Y97.906 
G01 X217.123 Y96.776 
G01 X216.507 Y95.667 
G01 X215.856 Y94.578 
G01 X215.169 Y93.512 
G01 X214.447 Y92.468 
G01 X213.691 Y91.448 
G01 X212.902 Y90.453 
G01 X212.264 Y89.696 
G01 X211.608 Y88.956 
G01 X210.934 Y88.233 
G01 X210.242 Y87.527 
G01 X209.533 Y86.839 
G01 X208.806 Y86.168 
G01 X208.062 Y85.517 
G01 X207.302 Y84.884 
G01 X206.490 Y84.240 
G01 X205.662 Y83.616 
G01 X204.820 Y83.012 
G01 X203.963 Y82.429 
G01 X203.093 Y81.867 
G01 X202.210 Y81.326 
G01 X201.313 Y80.805 
G01 X200.414 Y80.312 
G01 X199.839 Y79.985 
G01 X199.502 Y79.756 
G01 X199.194 Y79.493 
G01 X198.986 Y79.280 
G01 X198.792 Y79.049 
G01 X198.616 Y78.804 
G01 X198.458 Y78.546 
G01 X198.311 Y78.260 
G01 X198.185 Y77.964 
G01 X198.081 Y77.659 
G01 X197.996 Y77.337 
G01 X197.616 Y75.696 
G01 X197.367 Y74.698 
G01 X197.095 Y73.705 
G01 X196.842 Y72.854 
G01 X196.572 Y72.009 
G01 X196.286 Y71.169 
G01 X195.983 Y70.336 
G01 X195.664 Y69.508 
G01 X195.329 Y68.688 
G01 X194.977 Y67.873 
G01 X194.609 Y67.064 
G01 X194.149 Y66.121 
G01 X193.659 Y65.193 
G01 X193.139 Y64.281 
G01 X192.590 Y63.387 
G01 X192.013 Y62.511 
G01 X191.407 Y61.654 
G01 X190.773 Y60.817 
G01 X190.113 Y60.000 
G01 X189.502 Y59.290 
G01 X188.872 Y58.598 
G01 X188.222 Y57.925 
G01 X187.555 Y57.270 
G01 X186.869 Y56.634 
G01 X186.165 Y56.017 
G01 X185.444 Y55.421 
G01 X184.705 Y54.844 
G01 X183.390 Y53.880 
G01 X182.044 Y52.959 
G01 X180.668 Y52.083 
G01 X179.264 Y51.253 
G01 X177.916 Y50.511 
G01 X176.550 Y49.808 
G01 X174.554 Y48.836 
G01 X174.238 Y48.672 
G01 X173.943 Y48.494 
G01 X173.660 Y48.297 
G01 X173.393 Y48.084 
G01 X173.051 Y47.765 
G01 X172.742 Y47.420 
G01 X172.465 Y47.049 
G01 X172.216 Y46.645 
G01 X171.672 Y45.654 
G01 X171.137 Y44.647 
G01 X170.133 Y42.671 
G01 X169.173 Y40.673 
G01 X168.430 Y39.051 
G01 X167.704 Y37.412 
G01 X167.294 Y36.522 
G01 X166.845 Y35.641 
G01 X166.349 Y34.764 
G01 X165.814 Y33.911 
G01 X165.239 Y33.083 
G01 X164.629 Y32.285 
G01 X163.937 Y31.439 
G01 X163.232 Y30.609 
G01 X162.511 Y29.792 
G01 X161.775 Y28.989 
G01 X160.522 Y27.677 
G01 X159.242 Y26.391 
G01 X157.935 Y25.132 
G01 X156.602 Y23.900 
G01 X155.237 Y22.697 
G01 X153.840 Y21.528 
G01 X152.732 Y20.654 
G01 X151.597 Y19.815 
G01 X150.934 Y19.356 
G01 X150.259 Y18.915 
G01 X149.572 Y18.493 
G01 X148.880 Y18.095 
G01 X147.733 Y17.434 
G01 X146.998 Y16.970 
G01 X146.288 Y16.469 
G01 X145.375 Y15.764 
G01 X144.479 Y15.021 
G01 X142.683 Y13.501 
G01 X141.420 Y12.482 
G01 X140.122 Y11.501 
G01 X139.550 Y11.103 
G01 X138.960 Y10.730 
G01 X138.353 Y10.384 
G01 X137.732 Y10.065 
G01 X137.229 Y9.834 
G01 X136.719 Y9.625 
G01 X136.201 Y9.438 
G01 X135.675 Y9.272 
G01 X135.144 Y9.129 
G01 X134.606 Y9.008 
G01 X134.064 Y8.909 
G01 X133.519 Y8.833 
G01 X132.775 Y8.754 
G01 X132.031 Y8.696 
G01 X131.286 Y8.657 
G01 X130.541 Y8.638 
G01 X128.915 Y8.632 
G01 X127.296 Y8.658 
G01 X126.495 Y8.670 
G01 X125.699 Y8.664 
G01 X124.904 Y8.641 
G01 X124.110 Y8.601 
G01 X123.536 Y8.558 
G01 X122.965 Y8.499 
G01 X122.395 Y8.423 
G01 X121.828 Y8.332 
G01 X121.363 Y8.243 
G01 X120.901 Y8.139 
G01 X120.444 Y8.020 
G01 X119.991 Y7.886 
G01 X119.542 Y7.738 
G01 X119.099 Y7.575 
G01 X118.660 Y7.398 
G01 X118.228 Y7.206 
G01 X116.842 Y6.536 
G01 X116.445 Y6.351 
G01 X116.021 Y6.185 
G01 X115.540 Y6.039 
G01 X115.044 Y5.937 
G01 X114.542 Y5.879 
G01 X114.041 Y5.868 
G01 X113.322 Y5.900 
G01 X112.611 Y5.963 
G01 X111.318 Y6.135 
G01 X110.041 Y6.359 
G01 X107.525 Y6.829 
G01 X106.557 Y6.984 
G01 X105.593 Y7.106 
G01 X105.212 Y7.133 
G01 X104.836 Y7.129 
G01 X104.609 Y7.109 
G01 X104.386 Y7.070 
G01 X104.166 Y7.014 
G01 X103.947 Y6.939 
G01 X103.632 Y6.807 
G01 X103.313 Y6.653 
G01 X102.133 Y6.058 
G01 X101.454 Y5.743 
G01 X100.757 Y5.462 
G01 X100.191 Y5.264 
G01 X99.621 Y5.087 
G01 X99.045 Y4.932 
G01 X98.464 Y4.798 
G01 X97.878 Y4.686 
G01 X97.288 Y4.596 
G01 X96.695 Y4.528 
G01 X96.100 Y4.482 
G01 X95.511 Y4.457 
G01 X94.924 Y4.450 
G01 X94.337 Y4.461 
G01 X93.752 Y4.490 
G01 X93.168 Y4.537 
G01 X92.587 Y4.602 
G01 X92.008 Y4.685 
G01 X91.432 Y4.786 
G01 X90.859 Y4.904 
G01 X90.290 Y5.040 
G01 X89.726 Y5.193 
G01 X89.166 Y5.364 
G01 X88.610 Y5.552 
G01 X88.061 Y5.758 
G01 X87.517 Y5.980 
G01 X86.981 Y6.219 
G01 X85.716 Y6.822 
G01 X85.509 Y6.915 
G01 X85.307 Y6.991 
G01 X85.101 Y7.055 
G01 X84.898 Y7.103 
G01 X84.442 Y7.172 
G01 X83.976 Y7.191 
G01 X82.080 Y7.137 
G01 X80.779 Y7.100 
G01 X79.467 Y7.101 
G01 X78.885 Y7.122 
G01 X78.303 Y7.165 
G01 X77.722 Y7.230 
G01 X77.144 Y7.318 
G01 X76.623 Y7.420 
G01 X76.106 Y7.546 
G01 X75.596 Y7.696 
G01 X75.093 Y7.870 
G01 X74.607 Y8.064 
G01 X74.130 Y8.281 
G01 X73.664 Y8.520 
G01 X73.211 Y8.780 
G01 X72.661 Y9.128 
G01 X72.137 Y9.490 
G01 X71.630 Y9.838 
G01 X71.122 Y10.153 
G01 X70.781 Y10.336 
G01 X70.431 Y10.490 
G01 X70.117 Y10.599 
G01 X69.795 Y10.683 
G01 X69.468 Y10.741 
G01 X69.137 Y10.773 
G01 X68.496 Y10.783 
G01 X67.844 Y10.738 
G01 X65.992 Y10.545 
G01 X64.845 Y10.457 
G01 X63.689 Y10.420 
G01 X62.755 Y10.436 
G01 X61.821 Y10.505 
G01 X60.894 Y10.625 
G01 X59.976 Y10.795 
G01 X59.394 Y10.930 
G01 X58.820 Y11.082 
G01 X58.251 Y11.251 
G01 X57.687 Y11.438 
G01 X57.130 Y11.643 
G01 X56.579 Y11.865 
G01 X56.036 Y12.104 
G01 X55.500 Y12.359 
G01 X54.806 Y12.713 
G01 X54.120 Y13.082 
G01 X53.443 Y13.465 
G01 X52.777 Y13.861 
G01 X51.091 Y14.886 
G01 X50.723 Y15.099 
G01 X50.352 Y15.297 
G01 X49.974 Y15.481 
G01 X49.589 Y15.651 
G01 X49.085 Y15.851 
G01 X48.574 Y16.031 
G01 X48.056 Y16.190 
G01 X47.527 Y16.330 
G01 X45.237 Y16.879 
G01 X44.630 Y17.032 
G01 X44.020 Y17.207 
G01 X43.580 Y17.353 
G01 X43.147 Y17.522 
G01 X42.723 Y17.714 
G01 X42.312 Y17.927 
G01 X41.598 Y18.334 
G01 X40.900 Y18.759 
G01 X40.174 Y19.227 
G01 X39.460 Y19.710 
G01 X38.757 Y20.208 
G01 X38.063 Y20.722 
G01 X37.342 Y21.287 
G01 X36.638 Y21.875 
G01 X35.953 Y22.485 
G01 X35.287 Y23.118 
G01 X34.775 Y23.641 
G01 X34.284 Y24.185 
G01 X33.817 Y24.748 
G01 X33.373 Y25.330 
G01 X32.953 Y25.929 
G01 X32.558 Y26.546 
G01 X32.188 Y27.178 
G01 X31.845 Y27.825 
G01 X31.546 Y28.442 
G01 X31.269 Y29.067 
G01 X31.011 Y29.702 
G01 X30.775 Y30.343 
G01 X30.091 Y32.390 
G01 X29.786 Y33.305 
G01 X29.464 Y34.201 
G01 X29.350 Y34.484 
G01 X29.224 Y34.756 
G01 X29.085 Y35.022 
G01 X28.934 Y35.278 
G01 X28.739 Y35.565 
G01 X28.525 Y35.833 
G01 X28.292 Y36.085 
G01 X28.036 Y36.324 
G01 X27.547 Y36.734 
G01 X27.037 Y37.141 
G01 X26.300 Y37.735 
G01 X25.578 Y38.359 
G01 X25.003 Y38.894 
G01 X24.449 Y39.452 
G01 X23.919 Y40.032 
G01 X23.413 Y40.633 
G01 X22.914 Y41.274 
G01 X22.439 Y41.932 
G01 X21.989 Y42.605 
G01 X21.563 Y43.295 
G01 X21.163 Y43.999 
G01 X20.788 Y44.718 
G01 X20.440 Y45.450 
G01 X20.117 Y46.196 
G01 X19.850 Y46.886 
G01 X19.610 Y47.585 
G01 X19.399 Y48.294 
G01 X19.216 Y49.009 
G01 X19.062 Y49.732 
G01 X18.937 Y50.460 
G01 X18.841 Y51.194 
G01 X18.774 Y51.930 
G01 X18.705 Y53.176 
G01 X18.673 Y54.409 
G01 X18.646 Y55.050 
G01 X18.580 Y55.677 
G01 X18.539 Y55.935 
G01 X18.483 Y56.192 
G01 X18.414 Y56.445 
G01 X18.333 Y56.694 
G01 X18.249 Y56.908 
G01 X18.153 Y57.116 
G01 X18.045 Y57.318 
G01 X17.925 Y57.515 
G01 X17.644 Y57.926 
G01 X17.335 Y58.337 
G01 X17.167 Y58.563 
G01 X17.006 Y58.811 
G01 X16.860 Y59.068 
G01 X16.728 Y59.336 
G01 X16.584 Y59.692 
G01 X16.469 Y60.061 
G01 X16.384 Y60.439 
G01 X16.332 Y60.815 
G01 X16.224 Y62.133 
G01 X16.171 Y62.769 
G01 X16.095 Y63.388 
G01 X16.024 Y63.785 
G01 X15.927 Y64.171 
G01 X15.802 Y64.549 
G01 X15.649 Y64.919 
G01 X15.487 Y65.250 
G01 X15.306 Y65.573 
G01 X15.109 Y65.886 
G01 X14.890 Y66.193 
G01 X13.851 Y67.562 
G01 X13.367 Y68.223 
G01 X12.906 Y68.912 
G01 X12.598 Y69.436 
G01 X12.327 Y69.982 
G01 X12.095 Y70.546 
G01 X11.903 Y71.125 
G01 X11.758 Y71.680 
G01 X11.647 Y72.240 
G01 X11.567 Y72.806 
G01 X11.521 Y73.374 
G01 X11.490 Y74.556 
G01 X11.517 Y75.732 
G01 X11.597 Y77.101 
G01 X11.703 Y78.457 
G01 X11.752 Y79.125 
G01 X11.782 Y79.787 
G01 X11.793 Y80.449 
G01 X11.785 Y81.111 
G01 X11.764 Y81.604 
G01 X11.725 Y82.095 
G01 X11.670 Y82.584 
G01 X11.598 Y83.069 
G01 X11.474 Y83.719 
G01 X11.320 Y84.360 
G01 X11.136 Y84.994 
G01 X10.923 Y85.618 
G01 X10.516 Y86.638 
G01 X10.053 Y87.643 
G01 X8.749 Y90.306 
G01 X8.066 Y91.769 
G01 X7.428 Y93.257 
G01 X6.942 Y94.509 
G01 X6.501 Y95.779 
G01 X6.109 Y97.064 
G01 X5.764 Y98.360 
G01 X5.572 Y99.173 
G01 X5.397 Y99.987 
G01 X5.238 Y100.804 
G01 X5.095 Y101.623 
G01 X4.969 Y102.446 
G01 X4.858 Y103.270 
G01 X4.763 Y104.097 
G01 X4.685 Y104.926 
G01 X4.605 Y105.959 
G01 X4.542 Y106.993 
G01 X4.495 Y108.028 
G01 X4.465 Y109.063 
G01 X4.450 Y110.098 
G01 X4.452 Y111.134 
G01 X4.470 Y112.170 
G01 X4.504 Y113.205 
G01 X4.571 Y114.567 
G01 X4.661 Y115.928 
G01 X4.775 Y117.286 
G01 X4.912 Y118.643 
G01 X5.061 Y119.913 
G01 X5.229 Y121.180 
G01 X5.418 Y122.443 
G01 X5.626 Y123.704 
G01 X5.853 Y124.961 
G01 X6.100 Y126.215 
G01 X6.367 Y127.465 
G01 X6.653 Y128.713 
G01 X7.131 Y130.600 
G01 X7.663 Y132.474 
G01 X8.249 Y134.332 
G01 X8.889 Y136.173 
G01 X9.461 Y137.665 
G01 X10.086 Y139.135 
G01 X10.762 Y140.583 
G01 X11.488 Y142.005 
G01 X11.895 Y142.750 
G01 X12.317 Y143.484 
G01 X12.753 Y144.209 
G01 X13.203 Y144.925 
G01 X13.669 Y145.631 
G01 X14.148 Y146.327 
G01 X14.642 Y147.012 
G01 X15.150 Y147.687 
G01 X15.671 Y148.352 
G01 X16.206 Y149.006 
G01 X16.755 Y149.648 
G01 X17.317 Y150.280 
G01 X17.892 Y150.900 
G01 X18.480 Y151.508 
G01 X19.081 Y152.105 
G01 X19.694 Y152.689 
G01 X20.442 Y153.373 
G01 X21.201 Y154.044 
G01 X21.972 Y154.701 
G01 X22.755 Y155.345 
G01 X23.548 Y155.974 
G01 X24.354 Y156.589 
G01 X25.170 Y157.189 
G01 X25.997 Y157.775 
G01 X27.238 Y158.617 
G01 X28.499 Y159.430 
G01 X29.872 Y160.273 
G01 X31.263 Y161.086 
G01 X31.782 Y161.373 
G01 X32.274 Y161.660 
G01 X32.481 Y161.800 
G01 X32.679 Y161.953 
G01 X32.867 Y162.117 
G01 X33.044 Y162.293 
G01 X33.210 Y162.479 
G01 X33.365 Y162.675 
G01 X33.507 Y162.880 
G01 X33.635 Y163.092 
G01 X33.811 Y163.438 
G01 X33.954 Y163.794 
G01 X34.066 Y164.161 
G01 X34.147 Y164.545 
G01 X34.338 Y165.799 
G01 X34.525 Y167.073 
G01 X34.730 Y168.350 
G01 X34.951 Y169.623 
G01 X35.188 Y170.895 
G01 X35.403 Y171.942 
G01 X35.640 Y172.984 
G01 X35.899 Y174.021 
G01 X36.182 Y175.056 
G01 X36.494 Y176.059 
G01 X36.853 Y177.048 
G01 X37.260 Y178.020 
G01 X37.711 Y178.970 
G01 X37.989 Y179.500 
G01 X38.285 Y180.018 
G01 X38.597 Y180.526 
G01 X38.927 Y181.022 
G01 X39.273 Y181.508 
G01 X39.635 Y181.981 
G01 X40.014 Y182.442 
G01 X40.408 Y182.891 
G01 X40.856 Y183.366 
G01 X41.319 Y183.825 
G01 X41.799 Y184.267 
G01 X42.294 Y184.691 
G01 X42.867 Y185.150 
G01 X43.453 Y185.590 
G01 X44.053 Y186.010 
G01 X44.666 Y186.410 
G01 X45.533 Y186.944 
G01 X46.411 Y187.456 
G01 X47.300 Y187.948 
G01 X48.193 Y188.416 
G01 X48.678 Y188.676 
G01 X49.140 Y188.949 
G01 X49.618 Y189.272 
G01 X50.067 Y189.628 
G01 X50.453 Y189.983 
G01 X50.815 Y190.363 
G01 X51.151 Y190.766 
G01 X51.461 Y191.191 
G01 X51.755 Y191.657 
G01 X52.019 Y192.141 
G01 X52.253 Y192.640 
G01 X52.455 Y193.158 
G01 X52.770 Y194.083 
G01 X53.063 Y195.026 
G01 X54.143 Y198.570 
G01 X54.671 Y200.162 
G01 X55.255 Y201.736 
G01 X55.486 Y202.304 
G01 X55.733 Y202.864 
G01 X55.995 Y203.417 
G01 X56.272 Y203.962 
G01 X56.564 Y204.500 
G01 X56.872 Y205.029 
G01 X57.194 Y205.549 
G01 X57.532 Y206.064 
G01 X58.210 Y207.011 
G01 X58.937 Y207.924 
G01 X59.710 Y208.799 
G01 X60.525 Y209.632 
G01 X61.188 Y210.258 
G01 X61.866 Y210.863 
G01 X62.560 Y211.448 
G01 X63.271 Y212.013 
G01 X63.997 Y212.558 
G01 X64.739 Y213.082 
G01 X65.496 Y213.585 
G01 X66.266 Y214.066 
G01 X67.014 Y214.508 
G01 X67.770 Y214.933 
G01 X68.536 Y215.343 
G01 X69.304 Y215.732 
G01 X70.819 Y216.510 
G01 X72.304 Y217.329 
G01 X73.041 Y217.765 
G01 X73.764 Y218.222 
G01 X74.473 Y218.701 
G01 X75.167 Y219.199 
G01 X75.580 Y219.521 
G01 X75.976 Y219.860 
G01 X76.355 Y220.218 
G01 X76.712 Y220.589 
G01 X76.920 Y220.838 
G01 X77.095 Y221.095 
G01 X77.241 Y221.365 
G01 X77.360 Y221.644 
G01 X77.451 Y221.931 
G01 X77.514 Y222.223 
G01 X77.549 Y222.520 
G01 X77.557 Y222.818 
G01 X77.537 Y223.115 
G01 X77.489 Y223.410 
G01 X77.413 Y223.700 
G01 X77.310 Y223.983 
G01 X77.180 Y224.257 
G01 X77.022 Y224.519 
G01 X76.837 Y224.769 
G01 X76.623 Y225.004 
G01 X76.388 Y225.218 
G01 X76.138 Y225.403 
G01 X75.875 Y225.561 
G01 X75.601 Y225.691 
G01 X75.319 Y225.794 
G01 X75.029 Y225.869 
G01 X74.734 Y225.917 
G01 X74.436 Y225.937 
G01 X74.138 Y225.929 
G01 X73.842 Y225.893 
G01 X73.549 Y225.830 
G01 X73.262 Y225.739 
G01 X72.983 Y225.620 
G01 X72.714 Y225.473 
G01 X72.457 Y225.299 
G01 Z22.000 F1200.0 M3
G01 X72.207 Y225.090  F4000.0
G01 X71.780 Y224.681 
G01 X71.337 Y224.249 
G01 X70.874 Y223.823 
G01 X70.399 Y223.411 
G01 X69.912 Y223.013 
G01 X69.404 Y222.622 
G01 X68.886 Y222.246 
G01 X68.356 Y221.886 
G01 X67.817 Y221.541 
G01 X67.267 Y221.213 
G01 X66.708 Y220.901 
G01 X66.140 Y220.605 
G01 X65.563 Y220.326 
G01 X65.026 Y220.085 
G01 X64.483 Y219.860 
G01 X63.935 Y219.650 
G01 X63.381 Y219.456 
G01 X62.823 Y219.277 
G01 X62.260 Y219.115 
G01 X61.693 Y218.968 
G01 X61.122 Y218.838 
G01 X60.548 Y218.723 
G01 X59.970 Y218.625 
G01 X59.390 Y218.543 
G01 X58.808 Y218.477 
G01 X58.223 Y218.427 
G01 X57.637 Y218.394 
G01 X57.049 Y218.377 
G01 X56.460 Y218.377 
G01 X55.720 Y218.400 
G01 X54.980 Y218.448 
G01 X54.244 Y218.521 
G01 X53.510 Y218.618 
G01 X52.780 Y218.740 
G01 X52.055 Y218.887 
G01 X51.334 Y219.058 
G01 X50.619 Y219.253 
G01 X49.953 Y219.459 
G01 X49.294 Y219.684 
G01 X48.644 Y219.929 
G01 X48.002 Y220.194 
G01 X47.370 Y220.478 
G01 X46.747 Y220.781 
G01 X46.133 Y221.103 
G01 X45.530 Y221.444 
G01 X44.938 Y221.803 
G01 X44.356 Y222.180 
G01 X43.787 Y222.574 
G01 X43.229 Y222.987 
G01 X42.684 Y223.416 
G01 X42.151 Y223.863 
G01 X41.632 Y224.326 
G01 X41.126 Y224.807 
G01 X40.647 Y225.291 
G01 X40.184 Y225.789 
G01 X39.737 Y226.302 
G01 X39.307 Y226.829 
G01 X38.893 Y227.369 
G01 X38.497 Y227.921 
G01 X38.118 Y228.487 
G01 X37.757 Y229.064 
G01 X37.440 Y229.607 
G01 X37.140 Y230.158 
G01 X36.857 Y230.717 
G01 X36.592 Y231.284 
G01 X36.343 Y231.858 
G01 X36.112 Y232.438 
G01 X35.899 Y233.025 
G01 X35.703 Y233.618 
G01 X35.525 Y234.217 
G01 X35.365 Y234.820 
G01 X35.223 Y235.429 
G01 X35.099 Y236.042 
G01 X34.994 Y236.659 
G01 X34.907 Y237.279 
G01 X34.838 Y237.903 
G01 X34.788 Y238.531 
G01 X34.745 Y239.541 
G01 X34.748 Y240.554 
G01 X34.796 Y241.566 
G01 X34.889 Y242.573 
G01 X34.980 Y243.268 
G01 X35.090 Y243.957 
G01 X35.221 Y244.642 
G01 X35.372 Y245.323 
G01 X35.543 Y246.000 
G01 X35.734 Y246.671 
G01 X35.945 Y247.336 
G01 X36.175 Y247.996 
G01 X36.395 Y248.570 
G01 X36.631 Y249.138 
G01 X36.883 Y249.698 
G01 X37.152 Y250.251 
G01 X37.435 Y250.796 
G01 X37.735 Y251.332 
G01 X38.050 Y251.860 
G01 X38.382 Y252.382 
G01 X39.028 Y253.312 
G01 X39.725 Y254.205 
G01 X40.468 Y255.059 
G01 X41.255 Y255.871 
G01 X42.086 Y256.639 
G01 X42.957 Y257.361 
G01 X43.864 Y258.034 
G01 X44.336 Y258.356 
G01 X44.815 Y258.663 
G01 X45.435 Y259.035 
G01 X46.067 Y259.386 
G01 X46.709 Y259.717 
G01 X47.362 Y260.026 
G01 X48.025 Y260.313 
G01 X48.697 Y260.579 
G01 X49.378 Y260.823 
G01 X50.066 Y261.044 
G01 X50.720 Y261.231 
G01 X51.377 Y261.399 
G01 X52.039 Y261.547 
G01 X52.703 Y261.674 
G01 X53.371 Y261.781 
G01 X54.041 Y261.869 
G01 X54.713 Y261.936 
G01 X55.387 Y261.983 
G01 X56.062 Y262.010 
G01 X56.737 Y262.017 
G01 X57.413 Y262.004 
G01 X58.088 Y261.970 
G01 X58.763 Y261.917 
G01 X59.437 Y261.843 
G01 X60.109 Y261.748 
G01 X60.779 Y261.634 
G01 X61.446 Y261.498 
G01 X62.108 Y261.342 
G01 X62.765 Y261.165 
G01 X63.416 Y260.967 
G01 X64.060 Y260.749 
G01 X64.697 Y260.510 
G01 X65.327 Y260.251 
G01 X65.948 Y259.973 
G01 X66.513 Y259.698 
G01 X67.069 Y259.408 
G01 X67.615 Y259.100 
G01 X68.152 Y258.778 
G01 X68.677 Y258.439 
G01 X69.192 Y258.085 
G01 X69.696 Y257.717 
G01 X70.189 Y257.333 
G01 X70.670 Y256.935 
G01 X71.139 Y256.523 
G01 X71.596 Y256.096 
G01 X72.040 Y255.656 
G01 X72.471 Y255.202 
G01 X72.889 Y254.736 
G01 X73.293 Y254.256 
G01 X73.683 Y253.763 
G01 X74.067 Y253.248 
G01 X74.436 Y252.722 
G01 X74.789 Y252.185 
G01 X75.126 Y251.638 
G01 X75.461 Y251.058 
G01 X75.779 Y250.470 
G01 X76.080 Y249.873 
G01 X76.362 Y249.273 
G01 X76.699 Y248.545 
G01 X76.876 Y248.207 
G01 X77.076 Y247.894 
G01 X77.335 Y247.555 
G01 X77.621 Y247.241 
G01 X77.931 Y246.952 
G01 X78.264 Y246.692 
G01 X78.617 Y246.460 
G01 X78.989 Y246.258 
G01 X79.377 Y246.087 
G01 X79.782 Y245.949 
G01 X80.196 Y245.846 
G01 X80.616 Y245.778 
G01 X81.038 Y245.746 
G01 X81.461 Y245.749 
G01 X81.882 Y245.788 
G01 X82.299 Y245.862 
G01 X82.710 Y245.971 
G01 X83.115 Y246.116 
G01 X83.705 Y246.379 
G01 X86.135 Y247.536 
G01 X88.527 Y248.639 
G01 X90.929 Y249.721 
G01 X93.340 Y250.781 
G01 X95.760 Y251.819 
G01 X98.189 Y252.836 
G01 X100.628 Y253.830 
G01 X103.075 Y254.803 
G01 X105.533 Y255.754 
G01 X108.503 Y256.859 
G01 X111.492 Y257.912 
G01 X114.500 Y258.914 
G01 X117.525 Y259.862 
G01 X120.084 Y260.616 
G01 X122.656 Y261.323 
G01 X125.241 Y261.984 
G01 X127.837 Y262.598 
G01 X129.368 Y262.933 
G01 X130.904 Y263.246 
G01 X132.444 Y263.536 
G01 X133.988 Y263.803 
G01 X135.536 Y264.048 
G01 X137.087 Y264.269 
G01 X138.641 Y264.467 
G01 X140.200 Y264.642 
G01 X142.046 Y264.818 
G01 X143.895 Y264.959 
G01 X145.747 Y265.064 
G01 X147.600 Y265.134 
G01 X149.454 Y265.169 
G01 X151.308 Y265.168 
G01 X153.163 Y265.132 
G01 X155.016 Y265.061 
G01 X156.330 Y264.990 
G01 X157.643 Y264.903 
G01 X158.954 Y264.800 
G01 X160.263 Y264.681 
G01 X161.571 Y264.547 
G01 X162.877 Y264.396 
G01 X164.181 Y264.230 
G01 X165.482 Y264.049 
G01 X166.782 Y263.851 
G01 X168.079 Y263.638 
G01 X169.373 Y263.409 
G01 X170.665 Y263.164 
G01 X171.953 Y262.904 
G01 X173.239 Y262.628 
G01 X174.522 Y262.337 
G01 X175.801 Y262.030 
G01 X177.241 Y261.663 
G01 X178.675 Y261.274 
G01 X180.103 Y260.862 
G01 X181.524 Y260.428 
G01 X182.938 Y259.972 
G01 X184.344 Y259.494 
G01 X185.744 Y258.994 
G01 X187.136 Y258.472 
G01 X188.835 Y257.795 
G01 X190.518 Y257.077 
G01 X192.182 Y256.320 
G01 X193.827 Y255.522 
G01 X195.453 Y254.685 
G01 X197.057 Y253.808 
G01 X198.641 Y252.893 
G01 X200.202 Y251.940 
G01 X201.161 Y251.328 
G01 X202.109 Y250.703 
G01 X203.047 Y250.064 
G01 X203.975 Y249.410 
G01 X204.893 Y248.743 
G01 X205.801 Y248.063 
G01 X206.698 Y247.368 
G01 X207.584 Y246.661 
G01 X208.460 Y245.940 
G01 X209.325 Y245.206 
G01 X210.178 Y244.458 
G01 X211.021 Y243.698 
G01 X211.852 Y242.925 
G01 X212.671 Y242.139 
G01 X213.479 Y241.341 
G01 X214.275 Y240.530 
G01 X215.514 Y239.223 
G01 X216.726 Y237.891 
G01 X217.910 Y236.535 
G01 X219.067 Y235.156 
G01 X220.195 Y233.753 
G01 X221.295 Y232.328 
G01 X222.366 Y230.881 
G01 X223.408 Y229.412 
G01 X224.120 Y228.372 
G01 X224.818 Y227.323 
G01 X225.502 Y226.266 
G01 X226.172 Y225.200 
G01 X226.829 Y224.125 
G01 X227.471 Y223.042 
G01 X228.100 Y221.950 
G01 X228.715 Y220.849 
G01 X229.832 Y218.762 
G01 X230.900 Y216.648 
G01 X231.918 Y214.510 
G01 X232.884 Y212.349 
G01 X233.800 Y210.166 
G01 X234.665 Y207.962 
G01 X235.477 Y205.738 
G01 X236.237 Y203.495 
G01 X236.730 Y201.934 
G01 X237.196 Y200.366 
G01 X237.634 Y198.791 
G01 X238.044 Y197.208 
G01 X238.427 Y195.618 
G01 X238.782 Y194.022 
G01 X239.108 Y192.419 
G01 X239.407 Y190.810 
G01 X239.645 Y189.391 
G01 X239.857 Y187.968 
G01 X240.042 Y186.542 
G01 X240.202 Y185.114 
G01 X240.336 Y183.684 
G01 X240.444 Y182.251 
G01 X240.526 Y180.817 
G01 X240.583 Y179.382 
G01 X240.613 Y177.947 
G01 X240.617 Y176.511 
G01 X240.595 Y175.074 
G01 X240.548 Y173.638 
G01 X240.474 Y172.203 
G01 X240.374 Y170.769 
G01 X240.248 Y169.336 
G01 X240.096 Y167.903 
G01 X239.805 Y165.627 
G01 X239.457 Y163.358 
G01 X239.053 Y161.098 
G01 X238.593 Y158.850 
G01 X238.109 Y156.692 
G01 X237.599 Y154.542 
G01 X237.062 Y152.399 
G01 X236.497 Y150.262 
G01 X235.531 Y146.790 
G01 X234.517 Y143.333 
G01 X233.454 Y139.890 
G01 X232.343 Y136.461 
G01 X231.784 Y134.824 
G01 X231.196 Y133.197 
G01 X230.578 Y131.581 
G01 X229.932 Y129.976 
G01 X229.313 Y128.524 
G01 X228.661 Y127.086 
G01 X227.978 Y125.663 
G01 X227.264 Y124.256 
G01 X226.805 Y123.396 
G01 X226.333 Y122.544 
G01 X225.845 Y121.701 
G01 X225.344 Y120.866 
G01 X224.828 Y120.040 
G01 X224.298 Y119.223 
G01 X223.754 Y118.415 
G01 X223.199 Y117.621 
G01 X222.630 Y116.799 
G01 X222.311 Y116.293 
G01 X222.025 Y115.770 
G01 X221.851 Y115.410 
G01 X221.691 Y115.042 
G01 X221.544 Y114.667 
G01 X221.412 Y114.288 
G01 X221.294 Y113.904 
G01 X221.192 Y113.515 
G01 X221.104 Y113.123 
G01 X221.031 Y112.727 
G01 X220.966 Y112.277 
G01 X220.918 Y111.826 
G01 X220.888 Y111.373 
G01 X220.874 Y110.910 
G01 X220.849 Y109.919 
G01 X220.794 Y108.919 
G01 X220.719 Y108.057 
G01 X220.616 Y107.197 
G01 X220.484 Y106.342 
G01 X220.326 Y105.491 
G01 X220.145 Y104.662 
G01 X219.941 Y103.840 
G01 X219.715 Y103.024 
G01 X219.466 Y102.215 
G01 X219.194 Y101.413 
G01 X218.900 Y100.618 
G01 X218.583 Y99.833 
G01 X218.245 Y99.055 
G01 X217.703 Y97.906 
G01 X217.123 Y96.776 
G01 X216.507 Y95.667 
G01 X215.856 Y94.578 
G01 X215.169 Y93.512 
G01 X214.447 Y92.468 
G01 X213.691 Y91.448 
G01 X212.902 Y90.453 
G01 X212.264 Y89.696 
G01 X211.608 Y88.956 
G01 X210.934 Y88.233 
G01 X210.242 Y87.527 
G01 X209.533 Y86.839 
G01 X208.806 Y86.168 
G01 X208.062 Y85.517 
G01 X207.302 Y84.884 
G01 X206.490 Y84.240 
G01 X205.662 Y83.616 
G01 X204.820 Y83.012 
G01 X203.963 Y82.429 
G01 X203.093 Y81.867 
G01 X202.210 Y81.326 
G01 X201.313 Y80.805 
G01 X200.414 Y80.312 
G01 X199.839 Y79.985 
G01 X199.502 Y79.756 
G01 X199.194 Y79.493 
G01 X198.986 Y79.280 
G01 X198.792 Y79.049 
G01 X198.616 Y78.804 
G01 X198.458 Y78.546 
G01 X198.311 Y78.260 
G01 X198.185 Y77.964 
G01 X198.081 Y77.659 
G01 X197.996 Y77.337 
G01 X197.616 Y75.696 
G01 X197.367 Y74.698 
G01 X197.095 Y73.705 
G01 X196.842 Y72.854 
G01 X196.572 Y72.009 
G01 X196.286 Y71.169 
G01 X195.983 Y70.336 
G01 X195.664 Y69.508 
G01 X195.329 Y68.688 
G01 X194.977 Y67.873 
G01 X194.609 Y67.064 
G01 X194.149 Y66.121 
G01 X193.659 Y65.193 
G01 X193.139 Y64.281 
G01 X192.590 Y63.387 
G01 X192.013 Y62.511 
G01 X191.407 Y61.654 
G01 X190.773 Y60.817 
G01 X190.113 Y60.000 
G01 X189.502 Y59.290 
G01 X188.872 Y58.598 
G01 X188.222 Y57.925 
G01 X187.555 Y57.270 
G01 X186.869 Y56.634 
G01 X186.165 Y56.017 
G01 X185.444 Y55.421 
G01 X184.705 Y54.844 
G01 X183.390 Y53.880 
G01 X182.044 Y52.959 
G01 X180.668 Y52.083 
G01 X179.264 Y51.253 
G01 X177.916 Y50.511 
G01 X176.550 Y49.808 
G01 X174.554 Y48.836 
G01 X174.238 Y48.672 
G01 X173.943 Y48.494 
G01 X173.660 Y48.297 
G01 X173.393 Y48.084 
G01 X173.051 Y47.765 
G01 X172.742 Y47.420 
G01 X172.465 Y47.049 
G01 X172.216 Y46.645 
G01 X171.672 Y45.654 
G01 X171.137 Y44.647 
G01 X170.133 Y42.671 
G01 X169.173 Y40.673 
G01 X168.430 Y39.051 
G01 X167.704 Y37.412 
G01 X167.294 Y36.522 
G01 X166.845 Y35.641 
G01 X166.349 Y34.764 
G01 X165.814 Y33.911 
G01 X165.239 Y33.083 
G01 X164.629 Y32.285 
G01 X163.937 Y31.439 
G01 X163.232 Y30.609 
G01 X162.511 Y29.792 
G01 X161.775 Y28.989 
G01 X160.522 Y27.677 
G01 X159.242 Y26.391 
G01 X157.935 Y25.132 
G01 X156.602 Y23.900 
G01 X155.237 Y22.697 
G01 X153.840 Y21.528 
G01 X152.732 Y20.654 
G01 X151.597 Y19.815 
G01 X150.934 Y19.356 
G01 X150.259 Y18.915 
G01 X149.572 Y18.493 
G01 X148.880 Y18.095 
G01 X147.733 Y17.434 
G01 X146.998 Y16.970 
G01 X146.288 Y16.469 
G01 X145.375 Y15.764 
G01 X144.479 Y15.021 
G01 X142.683 Y13.501 
G01 X141.420 Y12.482 
G01 X140.122 Y11.501 
G01 X139.550 Y11.103 
G01 X138.960 Y10.730 
G01 X138.353 Y10.384 
G01 X137.732 Y10.065 
G01 X137.229 Y9.834 
G01 X136.719 Y9.625 
G01 X136.201 Y9.438 
G01 X135.675 Y9.272 
G01 X135.144 Y9.129 
G01 X134.606 Y9.008 
G01 X134.064 Y8.909 
G01 X133.519 Y8.833 
G01 X132.775 Y8.754 
G01 X132.031 Y8.696 
G01 X131.286 Y8.657 
G01 X130.541 Y8.638 
G01 X128.915 Y8.632 
G01 X127.296 Y8.658 
G01 X126.495 Y8.670 
G01 X125.699 Y8.664 
G01 X124.904 Y8.641 
G01 X124.110 Y8.601 
G01 X123.536 Y8.558 
G01 X122.965 Y8.499 
G01 X122.395 Y8.423 
G01 X121.828 Y8.332 
G01 X121.363 Y8.243 
G01 X120.901 Y8.139 
G01 X120.444 Y8.020 
G01 X119.991 Y7.886 
G01 X119.542 Y7.738 
G01 X119.099 Y7.575 
G01 X118.660 Y7.398 
G01 X118.228 Y7.206 
G01 X116.842 Y6.536 
G01 X116.445 Y6.351 
G01 X116.021 Y6.185 
G01 X115.540 Y6.039 
G01 X115.044 Y5.937 
G01 X114.542 Y5.879 
G01 X114.041 Y5.868 
G01 X113.322 Y5.900 
G01 X112.611 Y5.963 
G01 X111.318 Y6.135 
G01 X110.041 Y6.359 
G01 X107.525 Y6.829 
G01 X106.557 Y6.984 
G01 X105.593 Y7.106 
G01 X105.212 Y7.133 
G01 X104.836 Y7.129 
G01 X104.609 Y7.109 
G01 X104.386 Y7.070 
G01 X104.166 Y7.014 
G01 X103.947 Y6.939 
G01 X103.632 Y6.807 
G01 X103.313 Y6.653 
G01 X102.133 Y6.058 
G01 X101.454 Y5.743 
G01 X100.757 Y5.462 
G01 X100.191 Y5.264 
G01 X99.621 Y5.087 
G01 X99.045 Y4.932 
G01 X98.464 Y4.798 
G01 X97.878 Y4.686 
G01 X97.288 Y4.596 
G01 X96.695 Y4.528 
G01 X96.100 Y4.482 
G01 X95.511 Y4.457 
G01 X94.924 Y4.450 
G01 X94.337 Y4.461 
G01 X93.752 Y4.490 
G01 X93.168 Y4.537 
G01 X92.587 Y4.602 
G01 X92.008 Y4.685 
G01 X91.432 Y4.786 
G01 X90.859 Y4.904 
G01 X90.290 Y5.040 
G01 X89.726 Y5.193 
G01 X89.166 Y5.364 
G01 X88.610 Y5.552 
G01 X88.061 Y5.758 
G01 X87.517 Y5.980 
G01 X86.981 Y6.219 
G01 X85.716 Y6.822 
G01 X85.509 Y6.915 
G01 X85.307 Y6.991 
G01 X85.101 Y7.055 
G01 X84.898 Y7.103 
G01 X84.442 Y7.172 
G01 X83.976 Y7.191 
G01 X82.080 Y7.137 
G01 X80.779 Y7.100 
G01 X79.467 Y7.101 
G01 X78.885 Y7.122 
G01 X78.303 Y7.165 
G01 X77.722 Y7.230 
G01 X77.144 Y7.318 
G01 X76.623 Y7.420 
G01 X76.106 Y7.546 
G01 X75.596 Y7.696 
G01 X75.093 Y7.870 
G01 X74.607 Y8.064 
G01 X74.130 Y8.281 
G01 X73.664 Y8.520 
G01 X73.211 Y8.780 
G01 X72.661 Y9.128 
G01 X72.137 Y9.490 
G01 X71.630 Y9.838 
G01 X71.122 Y10.153 
G01 X70.781 Y10.336 
G01 X70.431 Y10.490 
G01 X70.117 Y10.599 
G01 X69.795 Y10.683 
G01 X69.468 Y10.741 
G01 X69.137 Y10.773 
G01 X68.496 Y10.783 
G01 X67.844 Y10.738 
G01 X65.992 Y10.545 
G01 X64.845 Y10.457 
G01 X63.689 Y10.420 
G01 X62.755 Y10.436 
G01 X61.821 Y10.505 
G01 X60.894 Y10.625 
G01 X59.976 Y10.795 
G01 X59.394 Y10.930 
G01 X58.820 Y11.082 
G01 X58.251 Y11.251 
G01 X57.687 Y11.438 
G01 X57.130 Y11.643 
G01 X56.579 Y11.865 
G01 X56.036 Y12.104 
G01 X55.500 Y12.359 
G01 X54.806 Y12.713 
G01 X54.120 Y13.082 
G01 X53.443 Y13.465 
G01 X52.777 Y13.861 
G01 X51.091 Y14.886 
G01 X50.723 Y15.099 
G01 X50.352 Y15.297 
G01 X49.974 Y15.481 
G01 X49.589 Y15.651 
G01 X49.085 Y15.851 
G01 X48.574 Y16.031 
G01 X48.056 Y16.190 
G01 X47.527 Y16.330 
G01 X45.237 Y16.879 
G01 X44.630 Y17.032 
G01 X44.020 Y17.207 
G01 X43.580 Y17.353 
G01 X43.147 Y17.522 
G01 X42.723 Y17.714 
G01 X42.312 Y17.927 
G01 X41.598 Y18.334 
G01 X40.900 Y18.759 
G01 X40.174 Y19.227 
G01 X39.460 Y19.710 
G01 X38.757 Y20.208 
G01 X38.063 Y20.722 
G01 X37.342 Y21.287 
G01 X36.638 Y21.875 
G01 X35.953 Y22.485 
G01 X35.287 Y23.118 
G01 X34.775 Y23.641 
G01 X34.284 Y24.185 
G01 X33.817 Y24.748 
G01 X33.373 Y25.330 
G01 X32.953 Y25.929 
G01 X32.558 Y26.546 
G01 X32.188 Y27.178 
G01 X31.845 Y27.825 
G01 X31.546 Y28.442 
G01 X31.269 Y29.067 
G01 X31.011 Y29.702 
G01 X30.775 Y30.343 
G01 X30.091 Y32.390 
G01 X29.786 Y33.305 
G01 X29.464 Y34.201 
G01 X29.350 Y34.484 
G01 X29.224 Y34.756 
G01 X29.085 Y35.022 
G01 X28.934 Y35.278 
G01 X28.739 Y35.565 
G01 X28.525 Y35.833 
G01 X28.292 Y36.085 
G01 X28.036 Y36.324 
G01 X27.547 Y36.734 
G01 X27.037 Y37.141 
G01 X26.300 Y37.735 
G01 X25.578 Y38.359 
G01 X25.003 Y38.894 
G01 X24.449 Y39.452 
G01 X23.919 Y40.032 
G01 X23.413 Y40.633 
G01 X22.914 Y41.274 
G01 X22.439 Y41.932 
G01 X21.989 Y42.605 
G01 X21.563 Y43.295 
G01 X21.163 Y43.999 
G01 X20.788 Y44.718 
G01 X20.440 Y45.450 
G01 X20.117 Y46.196 
G01 X19.850 Y46.886 
G01 X19.610 Y47.585 
G01 X19.399 Y48.294 
G01 X19.216 Y49.009 
G01 X19.062 Y49.732 
G01 X18.937 Y50.460 
G01 X18.841 Y51.194 
G01 X18.774 Y51.930 
G01 X18.705 Y53.176 
G01 X18.673 Y54.409 
G01 X18.646 Y55.050 
G01 X18.580 Y55.677 
G01 X18.539 Y55.935 
G01 X18.483 Y56.192 
G01 X18.414 Y56.445 
G01 X18.333 Y56.694 
G01 X18.249 Y56.908 
G01 X18.153 Y57.116 
G01 X18.045 Y57.318 
G01 X17.925 Y57.515 
G01 X17.644 Y57.926 
G01 X17.335 Y58.337 
G01 X17.167 Y58.563 
G01 X17.006 Y58.811 
G01 X16.860 Y59.068 
G01 X16.728 Y59.336 
G01 X16.584 Y59.692 
G01 X16.469 Y60.061 
G01 X16.384 Y60.439 
G01 X16.332 Y60.815 
G01 X16.224 Y62.133 
G01 X16.171 Y62.769 
G01 X16.095 Y63.388 
G01 X16.024 Y63.785 
G01 X15.927 Y64.171 
G01 X15.802 Y64.549 
G01 X15.649 Y64.919 
G01 X15.487 Y65.250 
G01 X15.306 Y65.573 
G01 X15.109 Y65.886 
G01 X14.890 Y66.193 
G01 X13.851 Y67.562 
G01 X13.367 Y68.223 
G01 X12.906 Y68.912 
G01 X12.598 Y69.436 
G01 X12.327 Y69.982 
G01 X12.095 Y70.546 
G01 X11.903 Y71.125 
G01 X11.758 Y71.680 
G01 X11.647 Y72.240 
G01 X11.567 Y72.806 
G01 X11.521 Y73.374 
G01 X11.490 Y74.556 
G01 X11.517 Y75.732 
G01 X11.597 Y77.101 
G01 X11.703 Y78.457 
G01 X11.752 Y79.125 
G01 X11.782 Y79.787 
G01 X11.793 Y80.449 
G01 X11.785 Y81.111 
G01 X11.764 Y81.604 
G01 X11.725 Y82.095 
G01 X11.670 Y82.584 
G01 X11.598 Y83.069 
G01 X11.474 Y83.719 
G01 X11.320 Y84.360 
G01 X11.136 Y84.994 
G01 X10.923 Y85.618 
G01 X10.516 Y86.638 
G01 X10.053 Y87.643 
G01 X8.749 Y90.306 
G01 X8.066 Y91.769 
G01 X7.428 Y93.257 
G01 X6.942 Y94.509 
G01 X6.501 Y95.779 
G01 X6.109 Y97.064 
G01 X5.764 Y98.360 
G01 X5.572 Y99.173 
G01 X5.397 Y99.987 
G01 X5.238 Y100.804 
G01 X5.095 Y101.623 
G01 X4.969 Y102.446 
G01 X4.858 Y103.270 
G01 X4.763 Y104.097 
G01 X4.685 Y104.926 
G01 X4.605 Y105.959 
G01 X4.542 Y106.993 
G01 X4.495 Y108.028 
G01 X4.465 Y109.063 
G01 X4.450 Y110.098 
G01 X4.452 Y111.134 
G01 X4.470 Y112.170 
G01 X4.504 Y113.205 
G01 X4.571 Y114.567 
G01 X4.661 Y115.928 
G01 X4.775 Y117.286 
G01 X4.912 Y118.643 
G01 X5.061 Y119.913 
G01 X5.229 Y121.180 
G01 X5.418 Y122.443 
G01 X5.626 Y123.704 
G01 X5.853 Y124.961 
G01 X6.100 Y126.215 
G01 X6.367 Y127.465 
G01 X6.653 Y128.713 
G01 X7.131 Y130.600 
G01 X7.663 Y132.474 
G01 X8.249 Y134.332 
G01 X8.889 Y136.173 
G01 X9.461 Y137.665 
G01 X10.086 Y139.135 
G01 X10.762 Y140.583 
G01 X11.488 Y142.005 
G01 X11.895 Y142.750 
G01 X12.317 Y143.484 
G01 X12.753 Y144.209 
G01 X13.203 Y144.925 
G01 X13.669 Y145.631 
G01 X14.148 Y146.327 
G01 X14.642 Y147.012 
G01 X15.150 Y147.687 
G01 X15.671 Y148.352 
G01 X16.206 Y149.006 
G01 X16.755 Y149.648 
G01 X17.317 Y150.280 
G01 X17.892 Y150.900 
G01 X18.480 Y151.508 
G01 X19.081 Y152.105 
G01 X19.694 Y152.689 
G01 X20.442 Y153.373 
G01 X21.201 Y154.044 
G01 X21.972 Y154.701 
G01 X22.755 Y155.345 
G01 X23.548 Y155.974 
G01 X24.354 Y156.589 
G01 X25.170 Y157.189 
G01 X25.997 Y157.775 
G01 X27.238 Y158.617 
G01 X28.499 Y159.430 
G01 X29.872 Y160.273 
G01 X31.263 Y161.086 
G01 X31.782 Y161.373 
G01 X32.274 Y161.660 
G01 X32.481 Y161.800 
G01 X32.679 Y161.953 
G01 X32.867 Y162.117 
G01 X33.044 Y162.293 
G01 X33.210 Y162.479 
G01 X33.365 Y162.675 
G01 X33.507 Y162.880 
G01 X33.635 Y163.092 
G01 X33.811 Y163.438 
G01 X33.954 Y163.794 
G01 X34.066 Y164.161 
G01 X34.147 Y164.545 
G01 X34.338 Y165.799 
G01 X34.525 Y167.073 
G01 X34.730 Y168.350 
G01 X34.951 Y169.623 
G01 X35.188 Y170.895 
G01 X35.403 Y171.942 
G01 X35.640 Y172.984 
G01 X35.899 Y174.021 
G01 X36.182 Y175.056 
G01 X36.494 Y176.059 
G01 X36.853 Y177.048 
G01 X37.260 Y178.020 
G01 X37.711 Y178.970 
G01 X37.989 Y179.500 
G01 X38.285 Y180.018 
G01 X38.597 Y180.526 
G01 X38.927 Y181.022 
G01 X39.273 Y181.508 
G01 X39.635 Y181.981 
G01 X40.014 Y182.442 
G01 X40.408 Y182.891 
G01 X40.856 Y183.366 
G01 X41.319 Y183.825 
G01 X41.799 Y184.267 
G01 X42.294 Y184.691 
G01 X42.867 Y185.150 
G01 X43.453 Y185.590 
G01 X44.053 Y186.010 
G01 X44.666 Y186.410 
G01 X45.533 Y186.944 
G01 X46.411 Y187.456 
G01 X47.300 Y187.948 
G01 X48.193 Y188.416 
G01 X48.678 Y188.676 
G01 X49.140 Y188.949 
G01 X49.618 Y189.272 
G01 X50.067 Y189.628 
G01 X50.453 Y189.983 
G01 X50.815 Y190.363 
G01 X51.151 Y190.766 
G01 X51.461 Y191.191 
G01 X51.755 Y191.657 
G01 X52.019 Y192.141 
G01 X52.253 Y192.640 
G01 X52.455 Y193.158 
G01 X52.770 Y194.083 
G01 X53.063 Y195.026 
G01 X54.143 Y198.570 
G01 X54.671 Y200.162 
G01 X55.255 Y201.736 
G01 X55.486 Y202.304 
G01 X55.733 Y202.864 
G01 X55.995 Y203.417 
G01 X56.272 Y203.962 
G01 X56.564 Y204.500 
G01 X56.872 Y205.029 
G01 X57.194 Y205.549 
G01 X57.532 Y206.064 
G01 X58.210 Y207.011 
G01 X58.937 Y207.924 
G01 X59.710 Y208.799 
G01 X60.525 Y209.632 
G01 X61.188 Y210.258 
G01 X61.866 Y210.863 
G01 X62.560 Y211.448 
G01 X63.271 Y212.013 
G01 X63.997 Y212.558 
G01 X64.739 Y213.082 
G01 X65.496 Y213.585 
G01 X66.266 Y214.066 
G01 X67.014 Y214.508 
G01 X67.770 Y214.933 
G01 X68.536 Y215.343 
G01 X69.304 Y215.732 
G01 X70.819 Y216.510 
G01 X72.304 Y217.329 
G01 X73.041 Y217.765 
G01 X73.764 Y218.222 
G01 X74.473 Y218.701 
G01 X75.167 Y219.199 
G01 X75.580 Y219.521 
G01 X75.976 Y219.860 
G01 X76.355 Y220.218 
G01 X76.712 Y220.589 
G01 X76.920 Y220.838 
G01 X77.095 Y221.095 
G01 X77.241 Y221.365 
G01 X77.360 Y221.644 
G01 X77.451 Y221.931 
G01 X77.514 Y222.223 
G01 X77.549 Y222.520 
G01 X77.557 Y222.818 
G01 X77.537 Y223.115 
G01 X77.489 Y223.410 
G01 X77.413 Y223.700 
G01 X77.310 Y223.983 
G01 X77.180 Y224.257 
G01 X77.022 Y224.519 
G01 X76.837 Y224.769 
G01 X76.623 Y225.004 
G01 X76.388 Y225.218 
G01 X76.138 Y225.403 
G01 X75.875 Y225.561 
G01 X75.601 Y225.691 
G01 X75.319 Y225.794 
G01 X75.029 Y225.869 
G01 X74.734 Y225.917 
G01 X74.436 Y225.937 
G01 X74.138 Y225.929 
G01 X73.842 Y225.893 
G01 X73.549 Y225.830 
G01 X73.262 Y225.739 
G01 X72.983 Y225.620 
G01 X72.714 Y225.473 
G01 X72.457 Y225.299 
G00 Z31.080
G00 X289.441 Y30.812  F8000.0
G01 Z22.500 F1200.0 M3
G03 X292.538 Y28.266 I12.334 J11.851
G03 X294.922 Y27.093 I6.355 J9.905
G03 X296.407 Y26.648 I4.912 J13.703
G02 X299.062 Y25.886 I-7.720 J-31.873
G02 X303.246 Y24.014 I-7.352 J-22.048
G02 X305.233 Y22.807 I-21.928 J-38.350
G03 X307.179 Y21.729 I9.088 J14.114
G03 X308.612 Y21.175 I4.642 J9.874
G03 X311.030 Y20.861 I2.127 J6.911
G03 X312.583 Y20.997 I-0.664 J16.474
G02 X315.634 Y21.223 I3.364 J-24.795
G02 X318.204 Y21.046 I0.199 J-15.880
G02 X322.623 Y19.631 I-2.175 J-14.398
G02 X324.084 Y18.784 I-6.876 J-13.540
G01 X325.439 Y17.885  F4000.0
G01 X325.736 Y17.690 
G01 X325.879 Y17.630 
G03 X326.528 Y17.546 I0.773 J3.426
G03 X328.388 Y17.550 I0.886 J25.038
G01 X330.472 Y17.624  
G02 X332.515 Y17.561 I0.525 J-16.095
G02 X335.873 Y16.821 I-1.326 J-13.996
G02 X337.653 Y16.068 I-5.333 J-15.095
G01 X338.831 Y15.485  
G03 X339.815 Y15.108 I2.540 J5.149
G03 X342.853 Y14.999 I1.743 J6.189
G03 X344.603 Y15.561 I-1.721 J8.366
G01 X345.713 Y16.089  
G02 X347.972 Y16.995 I6.160 J-12.101
G02 X351.618 Y17.507 I3.498 J-11.665
G02 X353.662 Y17.326 I-0.163 J-13.465
G02 X355.667 Y16.877 I-3.026 J-18.216
G01 X357.575 Y16.374  
G01 X358.967 Y16.073 
G03 X360.506 Y16.028 I0.910 J4.840
G03 X361.510 Y16.270 I-0.610 J4.741
G03 X362.565 Y16.769 I-2.018 J5.624
G02 X364.746 Y17.871 I8.698 J-14.506
G02 X367.896 Y18.836 I6.467 J-15.489
G02 X371.094 Y19.228 I4.142 J-20.546
G02 X374.454 Y19.267 I2.252 J-49.944
G01 X377.719 Y19.213  
G03 X379.297 Y19.280 I0.159 J14.955
G03 X379.999 Y19.395 I-0.494 J5.178
G03 X380.511 Y19.607 I-0.398 J1.688
G03 X381.233 Y20.111 I-4.093 J6.632
G03 X383.559 Y22.006 I-52.594 J66.933
G02 X386.035 Y24.037 I72.366 J-85.697
G02 X389.407 Y26.384 I19.807 J-24.862
G01 X390.666 Y27.111  
G03 X392.843 Y28.506 I-9.335 J16.963
G03 X395.263 Y30.440 I-24.585 J33.248
G03 X400.645 Y35.529 I-52.832 J61.261
G03 X403.496 Y38.742 I-36.946 J35.651
G03 X404.420 Y40.051 I-8.982 J7.321
G03 X405.190 Y41.548 I-10.236 J6.213
G01 X406.518 Y44.549  
G01 X406.737 Y45.094 
G03 X406.895 Y45.875 I-2.771 J0.969
G03 X406.219 Y48.050 I-3.178 J0.205
G03 X404.264 Y49.216 I-2.499 J-1.968
G01 X403.875 Y49.251  
G02 X401.866 Y49.422 I0.066 J12.647
G02 X397.688 Y50.878 I2.138 J12.854
G02 X394.371 Y53.138 I10.575 J19.086
G02 X390.888 Y56.544 I18.493 J22.398
G02 X386.401 Y62.814 I31.901 J27.568
G02 X382.452 Y71.544 I39.533 J23.140
G02 X380.896 Y77.071 I59.824 J19.825
G01 X380.082 Y80.727  
G03 X379.609 Y82.644 I-29.340 J-6.228
G03 X379.038 Y84.326 I-16.422 J-4.634
G03 X377.612 Y86.990 I-12.512 J-4.985
G03 X374.160 Y90.632 I-13.411 J-9.254
G03 X370.276 Y92.665 I-7.676 J-9.940
G03 X368.453 Y93.182 I-9.476 J-29.920
G02 X364.978 Y94.348 I5.782 J22.996
G02 X361.002 Y96.502 I9.273 J21.868
G02 X354.522 Y102.542 I15.648 J23.284
G02 X351.737 Y106.938 I21.099 J16.442
G02 X350.417 Y109.840 I35.441 J17.874
G01 X349.510 Y112.158  
G03 X348.560 Y114.392 I-26.311 J-9.874
G03 X347.569 Y116.141 I-12.960 J-6.187
G03 X345.370 Y118.483 I-7.991 J-5.299
G03 X343.184 Y119.781 I-6.806 J-8.978
G03 X339.961 Y120.908 I-8.156 J-18.144
G03 X336.407 Y121.566 I-6.643 J-25.948
G03 X331.491 Y121.889 I-5.685 J-48.975
G03 X327.087 Y121.840 I-1.288 J-82.497
G02 X322.633 Y121.754 I-4.562 J120.669
G02 X317.738 Y121.964 I-0.050 J56.123
G02 X312.608 Y122.848 I2.669 J30.809
G02 X307.847 Y124.541 I7.363 J28.250
G02 X303.821 Y126.619 I19.476 J42.661
G02 X296.636 Y131.413 I34.111 J58.904
G02 X293.192 Y134.461 I19.260 J25.235
G02 X288.188 Y141.446 I20.255 J19.795
G02 X286.679 Y145.345 I18.671 J9.469
G02 X286.113 Y148.351 I17.740 J4.896
G03 X285.984 Y148.965 I-3.002 J-0.310
G03 X284.611 Y150.704 I-3.014 J-0.969
G03 X282.424 Y151.121 I-1.654 J-2.729
G03 X281.859 Y150.966 I0.494 J-2.920
G03 X281.254 Y150.670 I1.351 J-3.526
G01 X280.036 Y149.896  
G03 X277.411 Y148.030 I29.960 J-44.928
G03 X273.167 Y144.346 I25.281 J-33.411
G03 X267.641 Y136.849 I21.452 J-21.599
G03 X265.481 Y131.814 I31.761 J-16.601
G03 X263.556 Y124.863 I58.419 J-19.919
G03 X262.099 Y114.504 I71.190 J-15.299
G03 X261.970 Y109.224 I60.715 J-4.129
G03 X262.536 Y102.969 I44.053 J0.834
G03 X263.755 Y98.251 I26.384 J4.301
G03 X264.822 Y95.694 I25.466 J9.127
G01 X265.930 Y93.422  
G02 X267.432 Y90.139 I-51.171 J-25.406
G02 X268.899 Y85.222 I-22.023 J-9.250
G02 X269.297 Y80.439 I-23.784 J-4.387
G02 X269.145 Y77.013 I-61.136 J1.002
G01 X269.126 Y76.718  
G01 X269.120 Y76.576 
G03 X269.416 Y74.371 I6.825 J-0.205
G03 X270.427 Y72.315 I6.892 J2.111
G02 X271.855 Y69.972 I-16.241 J-11.508
G02 X273.402 Y65.472 I-14.375 J-7.456
G01 X273.594 Y64.488  
G01 X273.749 Y63.854 
G03 X274.074 Y62.897 I9.797 J2.792
G03 X274.607 Y61.689 I15.806 J6.256
G02 X275.796 Y58.217 I-13.261 J-6.480
G02 X276.099 Y56.149 I-17.093 J-3.558
G02 X276.215 Y53.655 I-32.170 J-2.756
G03 X276.283 Y52.384 I14.193 J0.115
G03 X276.671 Y50.648 I7.279 J0.714
G03 X278.619 Y47.178 I11.081 J3.940
G03 X279.645 Y46.109 I6.928 J5.622
G01 X280.389 Y45.493  
G02 X282.151 Y44.030 I-20.497 J-26.469
G02 X284.352 Y41.566 I-9.610 J-10.796
G02 X286.086 Y38.414 I-13.236 J-9.338
G02 X286.903 Y36.200 I-28.277 J-11.684
G01 X287.594 Y34.078  
G03 X288.307 Y32.386 I10.449 J3.408
G03 X289.441 Y30.812 I6.095 J3.193
G01 Z22.000 F1200.0 M3
G03 X292.538 Y28.266 I12.334 J11.851
G03 X294.922 Y27.093 I6.355 J9.905
G03 X296.407 Y26.648 I4.912 J13.703
G02 X299.062 Y25.886 I-7.720 J-31.873
G02 X303.246 Y24.014 I-7.352 J-22.048
G02 X305.233 Y22.807 I-21.928 J-38.350
G03 X307.179 Y21.729 I9.088 J14.114
G03 X308.612 Y21.175 I4.642 J9.874
G03 X311.030 Y20.861 I2.127 J6.911
G03 X312.583 Y20.997 I-0.664 J16.474
G02 X315.634 Y21.223 I3.364 J-24.795
G02 X318.204 Y21.046 I0.199 J-15.880
G02 X322.623 Y19.631 I-2.175 J-14.398
G02 X324.084 Y18.784 I-6.876 J-13.540
G01 X325.439 Y17.885  F4000.0
G01 X325.736 Y17.690 
G01 X325.879 Y17.630 
G03 X326.528 Y17.546 I0.773 J3.426
G03 X328.388 Y17.550 I0.886 J25.038
G01 X330.472 Y17.624  
G02 X332.515 Y17.561 I0.525 J-16.095
G02 X335.873 Y16.821 I-1.326 J-13.996
G02 X337.653 Y16.068 I-5.333 J-15.095
G01 X338.831 Y15.485  
G03 X339.815 Y15.108 I2.540 J5.149
G03 X342.853 Y14.999 I1.743 J6.189
G03 X344.603 Y15.561 I-1.721 J8.366
G01 X345.713 Y16.089  
G02 X347.972 Y16.995 I6.160 J-12.101
G02 X351.618 Y17.507 I3.498 J-11.665
G02 X353.662 Y17.326 I-0.163 J-13.465
G02 X355.667 Y16.877 I-3.026 J-18.216
G01 X357.575 Y16.374  
G01 X358.967 Y16.073 
G03 X360.506 Y16.028 I0.910 J4.840
G03 X361.510 Y16.270 I-0.610 J4.741
G03 X362.565 Y16.769 I-2.018 J5.624
G02 X364.746 Y17.871 I8.698 J-14.506
G02 X367.896 Y18.836 I6.467 J-15.489
G02 X371.094 Y19.228 I4.142 J-20.546
G02 X374.454 Y19.267 I2.252 J-49.944
G01 X377.719 Y19.213  
G03 X379.297 Y19.280 I0.159 J14.955
G03 X379.999 Y19.395 I-0.494 J5.178
G03 X380.511 Y19.607 I-0.398 J1.688
G03 X381.233 Y20.111 I-4.093 J6.632
G03 X383.559 Y22.006 I-52.594 J66.933
G02 X386.035 Y24.037 I72.366 J-85.697
G02 X389.407 Y26.384 I19.807 J-24.862
G01 X390.666 Y27.111  
G03 X392.843 Y28.506 I-9.335 J16.963
G03 X395.263 Y30.440 I-24.585 J33.248
G03 X400.645 Y35.529 I-52.832 J61.261
G03 X403.496 Y38.742 I-36.946 J35.651
G03 X404.420 Y40.051 I-8.982 J7.321
G03 X405.190 Y41.548 I-10.236 J6.213
G01 X406.518 Y44.549  
G01 X406.737 Y45.094 
G03 X406.895 Y45.875 I-2.771 J0.969
G03 X406.219 Y48.050 I-3.178 J0.205
G03 X404.264 Y49.216 I-2.499 J-1.968
G01 X403.875 Y49.251  
G02 X401.866 Y49.422 I0.066 J12.647
G02 X397.688 Y50.878 I2.138 J12.854
G02 X394.371 Y53.138 I10.575 J19.086
G02 X390.888 Y56.544 I18.493 J22.398
G02 X386.401 Y62.814 I31.901 J27.568
G02 X382.452 Y71.544 I39.533 J23.140
G02 X380.896 Y77.071 I59.824 J19.825
G01 X380.082 Y80.727  
G03 X379.609 Y82.644 I-29.340 J-6.228
G03 X379.038 Y84.326 I-16.422 J-4.634
G03 X377.612 Y86.990 I-12.512 J-4.985
G03 X374.160 Y90.632 I-13.411 J-9.254
G03 X370.276 Y92.665 I-7.676 J-9.940
G03 X368.453 Y93.182 I-9.476 J-29.920
G02 X364.978 Y94.348 I5.782 J22.996
G02 X361.002 Y96.502 I9.273 J21.868
G02 X354.522 Y102.542 I15.648 J23.284
G02 X351.737 Y106.938 I21.099 J16.442
G02 X350.417 Y109.840 I35.441 J17.874
G01 X349.510 Y112.158  
G03 X348.560 Y114.392 I-26.311 J-9.874
G03 X347.569 Y116.141 I-12.960 J-6.187
G03 X345.370 Y118.483 I-7.991 J-5.299
G03 X343.184 Y119.781 I-6.806 J-8.978
G03 X339.961 Y120.908 I-8.156 J-18.144
G03 X336.407 Y121.566 I-6.643 J-25.948
G03 X331.491 Y121.889 I-5.685 J-48.975
G03 X327.087 Y121.840 I-1.288 J-82.497
G02 X322.633 Y121.754 I-4.562 J120.669
G02 X317.738 Y121.964 I-0.050 J56.123
G02 X312.608 Y122.848 I2.669 J30.809
G02 X307.847 Y124.541 I7.363 J28.250
G02 X303.821 Y126.619 I19.476 J42.661
G02 X296.636 Y131.413 I34.111 J58.904
G02 X293.192 Y134.461 I19.260 J25.235
G02 X288.188 Y141.446 I20.255 J19.795
G02 X286.679 Y145.345 I18.671 J9.469
G02 X286.113 Y148.351 I17.740 J4.896
G03 X285.984 Y148.965 I-3.002 J-0.310
G03 X284.611 Y150.704 I-3.014 J-0.969
G03 X282.424 Y151.121 I-1.654 J-2.729
G03 X281.859 Y150.966 I0.494 J-2.920
G03 X281.254 Y150.670 I1.351 J-3.526
G01 X280.036 Y149.896  
G03 X277.411 Y148.030 I29.960 J-44.928
G03 X273.167 Y144.346 I25.281 J-33.411
G03 X267.641 Y136.849 I21.452 J-21.599
G03 X265.481 Y131.814 I31.761 J-16.601
G03 X263.556 Y124.863 I58.419 J-19.919
G03 X262.099 Y114.504 I71.190 J-15.299
G03 X261.970 Y109.224 I60.715 J-4.129
G03 X262.536 Y102.969 I44.053 J0.834
G03 X263.755 Y98.251 I26.384 J4.301
G03 X264.822 Y95.694 I25.466 J9.127
G01 X265.930 Y93.422  
G02 X267.432 Y90.139 I-51.171 J-25.406
G02 X268.899 Y85.222 I-22.023 J-9.250
G02 X269.297 Y80.439 I-23.784 J-4.387
G02 X269.145 Y77.013 I-61.136 J1.002
G01 X269.126 Y76.718  
G01 X269.120 Y76.576 
G03 X269.416 Y74.371 I6.825 J-0.205
G03 X270.427 Y72.315 I6.892 J2.111
G02 X271.855 Y69.972 I-16.241 J-11.508
G02 X273.402 Y65.472 I-14.375 J-7.456
G01 X273.594 Y64.488  
G01 X273.749 Y63.854 
G03 X274.074 Y62.897 I9.797 J2.792
G03 X274.607 Y61.689 I15.806 J6.256
G02 X275.796 Y58.217 I-13.261 J-6.480
G02 X276.099 Y56.149 I-17.093 J-3.558
G02 X276.215 Y53.655 I-32.170 J-2.756
G03 X276.283 Y52.384 I14.193 J0.115
G03 X276.671 Y50.648 I7.279 J0.714
G03 X278.619 Y47.178 I11.081 J3.940
G03 X279.645 Y46.109 I6.928 J5.622
G01 X280.389 Y45.493  
G02 X282.151 Y44.030 I-20.497 J-26.469
G02 X284.352 Y41.566 I-9.610 J-10.796
G02 X286.086 Y38.414 I-13.236 J-9.338
G02 X286.903 Y36.200 I-28.277 J-11.684
G01 X287.594 Y34.078  
G03 X288.307 Y32.386 I10.449 J3.408
G03 X289.441 Y30.812 I6.095 J3.193
G00 Z31.080
G00 X314.451 Y231.896  F8000.0
G01 Z22.500 F1200.0 M3
G03 X317.174 Y241.990 I-10.814 J8.332
G03 X311.956 Y251.064 I-13.571 J-1.767
G03 X290.064 Y238.474 I-8.340 J-10.826
G03 X314.451 Y231.896 I13.557 J1.765
G01 Z22.000 F1200.0 M3
G03 X317.174 Y241.990 I-10.814 J8.332
G03 X311.956 Y251.064 I-13.571 J-1.767
G03 X290.064 Y238.474 I-8.340 J-10.826
G03 X314.451 Y231.896 I13.557 J1.765
G00 Z31.080
G00 X319.524 Y225.299  F8000.0
G01 Z22.500 F1200.0 M3
G01 X319.274 Y225.090  F4000.0
G01 X318.847 Y224.681 
G01 X318.404 Y224.249 
G01 X317.941 Y223.823 
G01 X317.466 Y223.411 
G01 X316.979 Y223.013 
G01 X316.471 Y222.622 
G01 X315.953 Y222.246 
G01 X315.423 Y221.886 
G01 X314.884 Y221.541 
G01 X314.335 Y221.213 
G01 X313.776 Y220.901 
G01 X313.207 Y220.605 
G01 X312.630 Y220.326 
G01 X312.093 Y220.085 
G01 X311.550 Y219.860 
G01 X311.002 Y219.650 
G01 X310.448 Y219.456 
G01 X309.890 Y219.277 
G01 X309.327 Y219.115 
G01 X308.760 Y218.968 
G01 X308.189 Y218.838 
G01 X307.615 Y218.723 
G01 X307.038 Y218.625 
G01 X306.457 Y218.543 
G01 X305.875 Y218.477 
G01 X305.290 Y218.427 
G01 X304.704 Y218.394 
G01 X304.116 Y218.377 
G01 X303.527 Y218.377 
G01 X302.787 Y218.400 
G01 X302.048 Y218.448 
G01 X301.311 Y218.521 
G01 X300.577 Y218.618 
G01 X299.847 Y218.740 
G01 X299.122 Y218.887 
G01 X298.401 Y219.058 
G01 X297.687 Y219.253 
G01 X297.020 Y219.459 
G01 X296.362 Y219.684 
G01 X295.711 Y219.929 
G01 X295.070 Y220.194 
G01 X294.437 Y220.478 
G01 X293.814 Y220.781 
G01 X293.200 Y221.103 
G01 X292.597 Y221.444 
G01 X292.005 Y221.803 
G01 X291.424 Y222.180 
G01 X290.854 Y222.574 
G01 X290.296 Y222.987 
G01 X289.751 Y223.416 
G01 X289.218 Y223.863 
G01 X288.699 Y224.326 
G01 X288.194 Y224.807 
G01 X287.715 Y225.291 
G01 X287.251 Y225.789 
G01 X286.804 Y226.302 
G01 X286.374 Y226.829 
G01 X285.960 Y227.369 
G01 X285.564 Y227.921 
G01 X285.185 Y228.487 
G01 X284.824 Y229.064 
G01 X284.507 Y229.607 
G01 X284.207 Y230.158 
G01 X283.924 Y230.717 
G01 X283.659 Y231.284 
G01 X283.410 Y231.858 
G01 X283.180 Y232.438 
G01 X282.966 Y233.025 
G01 X282.770 Y233.618 
G01 X282.592 Y234.217 
G01 X282.432 Y234.820 
G01 X282.290 Y235.429 
G01 X282.167 Y236.042 
G01 X282.061 Y236.659 
G01 X281.974 Y237.279 
G01 X281.905 Y237.903 
G01 X281.855 Y238.531 
G01 X281.812 Y239.541 
G01 X281.815 Y240.554 
G01 X281.863 Y241.566 
G01 X281.956 Y242.573 
G01 X282.047 Y243.268 
G01 X282.157 Y243.957 
G01 X282.288 Y244.642 
G01 X282.439 Y245.323 
G01 X282.610 Y246.000 
G01 X282.801 Y246.671 
G01 X283.012 Y247.336 
G01 X283.242 Y247.996 
G01 X283.462 Y248.570 
G01 X283.698 Y249.138 
G01 X283.951 Y249.698 
G01 X284.219 Y250.251 
G01 X284.503 Y250.796 
G01 X284.802 Y251.332 
G01 X285.117 Y251.860 
G01 X285.449 Y252.382 
G01 X286.095 Y253.312 
G01 X286.792 Y254.205 
G01 X287.535 Y255.059 
G01 X288.323 Y255.871 
G01 X289.153 Y256.639 
G01 X290.024 Y257.361 
G01 X290.931 Y258.034 
G01 X291.403 Y258.356 
G01 X291.882 Y258.663 
G01 X292.502 Y259.035 
G01 X293.134 Y259.386 
G01 X293.776 Y259.717 
G01 X294.429 Y260.026 
G01 X295.092 Y260.313 
G01 X295.764 Y260.579 
G01 X296.445 Y260.823 
G01 X297.133 Y261.044 
G01 X297.787 Y261.231 
G01 X298.444 Y261.399 
G01 X299.106 Y261.547 
G01 X299.770 Y261.674 
G01 X300.438 Y261.781 
G01 X301.108 Y261.869 
G01 X301.780 Y261.936 
G01 X302.454 Y261.983 
G01 X303.129 Y262.010 
G01 X303.804 Y262.017 
G01 X304.480 Y262.004 
G01 X305.155 Y261.970 
G01 X305.830 Y261.917 
G01 X306.504 Y261.843 
G01 X307.176 Y261.748 
G01 X307.846 Y261.634 
G01 X308.513 Y261.498 
G01 X309.175 Y261.342 
G01 X309.832 Y261.165 
G01 X310.483 Y260.967 
G01 X311.127 Y260.749 
G01 X311.764 Y260.510 
G01 X312.394 Y260.251 
G01 X313.015 Y259.973 
G01 X313.581 Y259.698 
G01 X314.136 Y259.408 
G01 X314.683 Y259.100 
G01 X315.219 Y258.778 
G01 X315.744 Y258.439 
G01 X316.259 Y258.085 
G01 X316.763 Y257.717 
G01 X317.256 Y257.333 
G01 X317.737 Y256.935 
G01 X318.206 Y256.523 
G01 X318.663 Y256.096 
G01 X319.107 Y255.656 
G01 X319.538 Y255.202 
G01 X319.956 Y254.736 
G01 X320.360 Y254.256 
G01 X320.750 Y253.763 
G01 X321.134 Y253.248 
G01 X321.503 Y252.722 
G01 X321.856 Y252.185 
G01 X322.193 Y251.638 
G01 X322.528 Y251.058 
G01 X322.846 Y250.470 
G01 X323.147 Y249.873 
G01 X323.429 Y249.273 
G01 X323.766 Y248.545 
G01 X323.943 Y248.207 
G01 X324.143 Y247.894 
G01 X324.403 Y247.555 
G01 X324.688 Y247.241 
G01 X324.998 Y246.952 
G01 X325.331 Y246.692 
G01 X325.684 Y246.460 
G01 X326.056 Y246.258 
G01 X326.445 Y246.087 
G01 X326.849 Y245.949 
G01 X327.263 Y245.846 
G01 X327.683 Y245.778 
G01 X328.105 Y245.746 
G01 X328.528 Y245.749 
G01 X328.949 Y245.788 
G01 X329.366 Y245.862 
G01 X329.777 Y245.971 
G01 X330.182 Y246.116 
G01 X330.772 Y246.379 
G01 X333.202 Y247.536 
G01 X335.595 Y248.639 
G01 X337.996 Y249.721 
G01 X340.407 Y250.781 
G01 X342.827 Y251.819 
G01 X345.257 Y252.836 
G01 X347.695 Y253.830 
G01 X350.143 Y254.803 
G01 X352.600 Y255.754 
G01 X355.570 Y256.859 
G01 X358.560 Y257.912 
G01 X361.567 Y258.914 
G01 X364.592 Y259.862 
G01 X367.151 Y260.616 
G01 X369.724 Y261.323 
G01 X372.308 Y261.984 
G01 X374.904 Y262.598 
G01 X376.436 Y262.933 
G01 X377.971 Y263.246 
G01 X379.511 Y263.536 
G01 X381.055 Y263.803 
G01 X382.603 Y264.048 
G01 X384.154 Y264.269 
G01 X385.709 Y264.467 
G01 X387.267 Y264.642 
G01 X389.113 Y264.818 
G01 X390.963 Y264.959 
G01 X392.814 Y265.064 
G01 X394.667 Y265.134 
G01 X396.521 Y265.169 
G01 X398.375 Y265.168 
G01 X400.230 Y265.132 
G01 X402.083 Y265.061 
G01 X403.397 Y264.990 
G01 X404.710 Y264.903 
G01 X406.021 Y264.800 
G01 X407.330 Y264.681 
G01 X408.638 Y264.547 
G01 X409.944 Y264.396 
G01 X411.248 Y264.230 
G01 X412.549 Y264.049 
G01 X413.849 Y263.851 
G01 X415.146 Y263.638 
G01 X416.440 Y263.409 
G01 X417.732 Y263.164 
G01 X419.020 Y262.904 
G01 X420.306 Y262.628 
G01 X421.589 Y262.337 
G01 X422.869 Y262.030 
G01 X424.308 Y261.663 
G01 X425.742 Y261.274 
G01 X427.170 Y260.862 
G01 X428.591 Y260.428 
G01 X430.005 Y259.972 
G01 X431.411 Y259.494 
G01 X432.811 Y258.994 
G01 X434.203 Y258.472 
G01 X435.902 Y257.795 
G01 X437.585 Y257.077 
G01 X439.249 Y256.320 
G01 X440.894 Y255.522 
G01 X442.520 Y254.685 
G01 X444.125 Y253.808 
G01 X445.708 Y252.893 
G01 X447.269 Y251.940 
G01 X448.228 Y251.328 
G01 X449.176 Y250.703 
G01 X450.114 Y250.064 
G01 X451.042 Y249.410 
G01 X451.960 Y248.743 
G01 X452.868 Y248.063 
G01 X453.765 Y247.368 
G01 X454.651 Y246.661 
G01 X455.527 Y245.940 
G01 X456.392 Y245.206 
G01 X457.245 Y244.458 
G01 X458.088 Y243.698 
G01 X458.919 Y242.925 
G01 X459.738 Y242.139 
G01 X460.546 Y241.341 
G01 X461.342 Y240.530 
G01 X462.581 Y239.223 
G01 X463.793 Y237.891 
G01 X464.977 Y236.535 
G01 X466.134 Y235.156 
G01 X467.262 Y233.753 
G01 X468.362 Y232.328 
G01 X469.433 Y230.881 
G01 X470.475 Y229.412 
G01 X471.187 Y228.372 
G01 X471.885 Y227.323 
G01 X472.569 Y226.266 
G01 X473.239 Y225.200 
G01 X473.896 Y224.125 
G01 X474.539 Y223.042 
G01 X475.167 Y221.950 
G01 X475.782 Y220.849 
G01 X476.899 Y218.762 
G01 X477.967 Y216.648 
G01 X478.985 Y214.510 
G01 X479.952 Y212.349 
G01 X480.867 Y210.166 
G01 X481.732 Y207.962 
G01 X482.544 Y205.738 
G01 X483.304 Y203.495 
G01 X483.797 Y201.934 
G01 X484.263 Y200.366 
G01 X484.701 Y198.791 
G01 X485.111 Y197.208 
G01 X485.494 Y195.618 
G01 X485.849 Y194.022 
G01 X486.176 Y192.419 
G01 X486.474 Y190.810 
G01 X486.712 Y189.391 
G01 X486.924 Y187.968 
G01 X487.110 Y186.542 
G01 X487.269 Y185.114 
G01 X487.403 Y183.684 
G01 X487.512 Y182.251 
G01 X487.594 Y180.817 
G01 X487.650 Y179.382 
G01 X487.680 Y177.947 
G01 X487.684 Y176.511 
G01 X487.662 Y175.074 
G01 X487.615 Y173.638 
G01 X487.541 Y172.203 
G01 X487.441 Y170.769 
G01 X487.315 Y169.336 
G01 X487.163 Y167.903 
G01 X486.872 Y165.627 
G01 X486.524 Y163.358 
G01 X486.120 Y161.098 
G01 X485.660 Y158.850 
G01 X485.177 Y156.692 
G01 X484.666 Y154.542 
G01 X484.129 Y152.399 
G01 X483.564 Y150.262 
G01 X482.598 Y146.790 
G01 X481.584 Y143.333 
G01 X480.521 Y139.890 
G01 X479.411 Y136.461 
G01 X478.851 Y134.824 
G01 X478.263 Y133.197 
G01 X477.645 Y131.581 
G01 X476.999 Y129.976 
G01 X476.380 Y128.524 
G01 X475.729 Y127.086 
G01 X475.045 Y125.663 
G01 X474.331 Y124.256 
G01 X473.872 Y123.396 
G01 X473.400 Y122.544 
G01 X472.912 Y121.701 
G01 X472.411 Y120.866 
G01 X471.895 Y120.040 
G01 X471.365 Y119.223 
G01 X470.821 Y118.415 
G01 X470.266 Y117.621 
G01 X469.697 Y116.799 
G01 X469.378 Y116.293 
G01 X469.092 Y115.770 
G01 X468.919 Y115.410 
G01 X468.758 Y115.042 
G01 X468.611 Y114.667 
G01 X468.479 Y114.288 
G01 X468.361 Y113.904 
G01 X468.259 Y113.515 
G01 X468.171 Y113.123 
G01 X468.098 Y112.727 
G01 X468.033 Y112.277 
G01 X467.985 Y111.826 
G01 X467.955 Y111.373 
G01 X467.942 Y110.910 
G01 X467.917 Y109.919 
G01 X467.861 Y108.919 
G01 X467.786 Y108.057 
G01 X467.683 Y107.197 
G01 X467.552 Y106.342 
G01 X467.393 Y105.491 
G01 X467.212 Y104.662 
G01 X467.008 Y103.840 
G01 X466.782 Y103.024 
G01 X466.533 Y102.215 
G01 X466.261 Y101.413 
G01 X465.967 Y100.618 
G01 X465.651 Y99.833 
G01 X465.312 Y99.055 
G01 X464.770 Y97.906 
G01 X464.190 Y96.776 
G01 X463.575 Y95.667 
G01 X462.923 Y94.578 
G01 X462.236 Y93.512 
G01 X461.514 Y92.468 
G01 X460.758 Y91.448 
G01 X459.969 Y90.453 
G01 X459.331 Y89.696 
G01 X458.675 Y88.956 
G01 X458.001 Y88.233 
G01 X457.309 Y87.527 
G01 X456.600 Y86.839 
G01 X455.873 Y86.168 
G01 X455.130 Y85.517 
G01 X454.370 Y84.884 
G01 X453.557 Y84.240 
G01 X452.729 Y83.616 
G01 X451.887 Y83.012 
G01 X451.031 Y82.429 
G01 X450.160 Y81.867 
G01 X449.277 Y81.326 
G01 X448.381 Y80.805 
G01 X447.481 Y80.312 
G01 X446.906 Y79.985 
G01 X446.569 Y79.756 
G01 X446.261 Y79.493 
G01 X446.053 Y79.280 
G01 X445.859 Y79.049 
G01 X445.683 Y78.804 
G01 X445.525 Y78.546 
G01 X445.378 Y78.260 
G01 X445.252 Y77.964 
G01 X445.148 Y77.659 
G01 X445.063 Y77.337 
G01 X444.683 Y75.696 
G01 X444.435 Y74.698 
G01 X444.162 Y73.705 
G01 X443.909 Y72.854 
G01 X443.639 Y72.009 
G01 X443.353 Y71.169 
G01 X443.050 Y70.336 
G01 X442.731 Y69.508 
G01 X442.396 Y68.688 
G01 X442.044 Y67.873 
G01 X441.676 Y67.064 
G01 X441.216 Y66.121 
G01 X440.726 Y65.193 
G01 X440.206 Y64.281 
G01 X439.657 Y63.387 
G01 X439.080 Y62.511 
G01 X438.474 Y61.654 
G01 X437.840 Y60.817 
G01 X437.180 Y60.000 
G01 X436.569 Y59.290 
G01 X435.939 Y58.598 
G01 X435.290 Y57.925 
G01 X434.622 Y57.270 
G01 X433.936 Y56.634 
G01 X433.232 Y56.017 
G01 X432.511 Y55.421 
G01 X431.773 Y54.844 
G01 X430.457 Y53.880 
G01 X429.111 Y52.959 
G01 X427.735 Y52.083 
G01 X426.331 Y51.253 
G01 X424.983 Y50.511 
G01 X423.617 Y49.808 
G01 X421.621 Y48.836 
G01 X421.305 Y48.672 
G01 X421.010 Y48.494 
G01 X420.727 Y48.297 
G01 X420.460 Y48.084 
G01 X420.118 Y47.765 
G01 X419.809 Y47.420 
G01 X419.532 Y47.049 
G01 X419.283 Y46.645 
G01 X418.739 Y45.654 
G01 X418.205 Y44.647 
G01 X417.200 Y42.671 
G01 X416.240 Y40.673 
G01 X415.497 Y39.051 
G01 X414.771 Y37.412 
G01 X414.361 Y36.522 
G01 X413.913 Y35.641 
G01 X413.417 Y34.764 
G01 X412.881 Y33.911 
G01 X412.306 Y33.083 
G01 X411.696 Y32.285 
G01 X411.004 Y31.439 
G01 X410.299 Y30.609 
G01 X409.578 Y29.792 
G01 X408.842 Y28.989 
G01 X407.589 Y27.677 
G01 X406.309 Y26.391 
G01 X405.002 Y25.132 
G01 X403.669 Y23.900 
G01 X402.304 Y22.697 
G01 X400.907 Y21.528 
G01 X399.800 Y20.654 
G01 X398.664 Y19.815 
G01 X398.001 Y19.356 
G01 X397.326 Y18.915 
G01 X396.639 Y18.493 
G01 X395.947 Y18.095 
G01 X394.801 Y17.434 
G01 X394.065 Y16.970 
G01 X393.355 Y16.469 
G01 X392.442 Y15.764 
G01 X391.547 Y15.021 
G01 X389.750 Y13.501 
G01 X388.487 Y12.482 
G01 X387.190 Y11.501 
G01 X386.618 Y11.103 
G01 X386.027 Y10.730 
G01 X385.420 Y10.384 
G01 X384.799 Y10.065 
G01 X384.297 Y9.834 
G01 X383.786 Y9.625 
G01 X383.268 Y9.438 
G01 X382.743 Y9.272 
G01 X382.211 Y9.129 
G01 X381.673 Y9.008 
G01 X381.131 Y8.909 
G01 X380.586 Y8.833 
G01 X379.842 Y8.754 
G01 X379.098 Y8.696 
G01 X378.353 Y8.657 
G01 X377.609 Y8.638 
G01 X375.982 Y8.632 
G01 X374.363 Y8.658 
G01 X373.562 Y8.670 
G01 X372.766 Y8.664 
G01 X371.971 Y8.641 
G01 X371.177 Y8.601 
G01 X370.603 Y8.558 
G01 X370.032 Y8.499 
G01 X369.462 Y8.423 
G01 X368.895 Y8.332 
G01 X368.430 Y8.243 
G01 X367.969 Y8.139 
G01 X367.511 Y8.020 
G01 X367.058 Y7.886 
G01 X366.609 Y7.738 
G01 X366.166 Y7.575 
G01 X365.727 Y7.398 
G01 X365.295 Y7.206 
G01 X363.909 Y6.536 
G01 X363.513 Y6.351 
G01 X363.088 Y6.185 
G01 X362.607 Y6.039 
G01 X362.111 Y5.937 
G01 X361.609 Y5.879 
G01 X361.108 Y5.868 
G01 X360.389 Y5.900 
G01 X359.678 Y5.963 
G01 X358.385 Y6.135 
G01 X357.108 Y6.359 
G01 X354.592 Y6.829 
G01 X353.624 Y6.984 
G01 X352.660 Y7.106 
G01 X352.279 Y7.133 
G01 X351.903 Y7.129 
G01 X351.677 Y7.109 
G01 X351.453 Y7.070 
G01 X351.233 Y7.014 
G01 X351.015 Y6.939 
G01 X350.699 Y6.807 
G01 X350.380 Y6.653 
G01 X349.200 Y6.058 
G01 X348.521 Y5.743 
G01 X347.824 Y5.462 
G01 X347.258 Y5.264 
G01 X346.688 Y5.087 
G01 X346.112 Y4.932 
G01 X345.531 Y4.798 
G01 X344.945 Y4.686 
G01 X344.355 Y4.596 
G01 X343.762 Y4.528 
G01 X343.167 Y4.482 
G01 X342.578 Y4.457 
G01 X341.991 Y4.450 
G01 X341.404 Y4.461 
G01 X340.819 Y4.490 
G01 X340.235 Y4.537 
G01 X339.654 Y4.602 
G01 X339.075 Y4.685 
G01 X338.499 Y4.786 
G01 X337.926 Y4.904 
G01 X337.357 Y5.040 
G01 X336.793 Y5.193 
G01 X336.233 Y5.364 
G01 X335.678 Y5.552 
G01 X335.128 Y5.758 
G01 X334.584 Y5.980 
G01 X334.048 Y6.219 
G01 X332.783 Y6.822 
G01 X332.576 Y6.915 
G01 X332.375 Y6.991 
G01 X332.169 Y7.055 
G01 X331.965 Y7.103 
G01 X331.509 Y7.172 
G01 X331.043 Y7.191 
G01 X329.147 Y7.137 
G01 X327.846 Y7.100 
G01 X326.535 Y7.101 
G01 X325.952 Y7.122 
G01 X325.370 Y7.165 
G01 X324.789 Y7.230 
G01 X324.211 Y7.318 
G01 X323.690 Y7.420 
G01 X323.173 Y7.546 
G01 X322.663 Y7.696 
G01 X322.160 Y7.870 
G01 X321.674 Y8.064 
G01 X321.197 Y8.281 
G01 X320.731 Y8.520 
G01 X320.278 Y8.780 
G01 X319.728 Y9.128 
G01 X319.204 Y9.490 
G01 X318.697 Y9.838 
G01 X318.189 Y10.153 
G01 X317.848 Y10.336 
G01 X317.499 Y10.490 
G01 X317.184 Y10.599 
G01 X316.862 Y10.683 
G01 X316.535 Y10.741 
G01 X316.204 Y10.773 
G01 X315.563 Y10.783 
G01 X314.911 Y10.738 
G01 X313.059 Y10.545 
G01 X311.912 Y10.457 
G01 X310.756 Y10.420 
G01 X309.822 Y10.436 
G01 X308.889 Y10.505 
G01 X307.961 Y10.625 
G01 X307.044 Y10.795 
G01 X306.461 Y10.930 
G01 X305.887 Y11.082 
G01 X305.318 Y11.251 
G01 X304.754 Y11.438 
G01 X304.197 Y11.643 
G01 X303.646 Y11.865 
G01 X303.103 Y12.104 
G01 X302.567 Y12.359 
G01 X301.873 Y12.713 
G01 X301.187 Y13.082 
G01 X300.510 Y13.465 
G01 X299.844 Y13.861 
G01 X298.158 Y14.886 
G01 X297.790 Y15.099 
G01 X297.419 Y15.297 
G01 X297.041 Y15.481 
G01 X296.656 Y15.651 
G01 X296.152 Y15.851 
G01 X295.641 Y16.031 
G01 X295.123 Y16.190 
G01 X294.595 Y16.330 
G01 X292.304 Y16.879 
G01 X291.697 Y17.032 
G01 X291.087 Y17.207 
G01 X290.647 Y17.353 
G01 X290.214 Y17.522 
G01 X289.790 Y17.714 
G01 X289.379 Y17.927 
G01 X288.665 Y18.334 
G01 X287.967 Y18.759 
G01 X287.242 Y19.227 
G01 X286.528 Y19.710 
G01 X285.824 Y20.208 
G01 X285.131 Y20.722 
G01 X284.409 Y21.287 
G01 X283.705 Y21.875 
G01 X283.021 Y22.485 
G01 X282.354 Y23.118 
G01 X281.842 Y23.641 
G01 X281.351 Y24.185 
G01 X280.884 Y24.748 
G01 X280.440 Y25.330 
G01 X280.020 Y25.929 
G01 X279.625 Y26.546 
G01 X279.256 Y27.178 
G01 X278.912 Y27.825 
G01 X278.614 Y28.442 
G01 X278.336 Y29.067 
G01 X278.079 Y29.702 
G01 X277.843 Y30.343 
G01 X277.158 Y32.390 
G01 X276.854 Y33.305 
G01 X276.531 Y34.201 
G01 X276.417 Y34.484 
G01 X276.292 Y34.756 
G01 X276.152 Y35.022 
G01 X276.001 Y35.278 
G01 X275.806 Y35.565 
G01 X275.592 Y35.833 
G01 X275.360 Y36.085 
G01 X275.103 Y36.324 
G01 X274.614 Y36.734 
G01 X274.104 Y37.141 
G01 X273.368 Y37.735 
G01 X272.645 Y38.359 
G01 X272.070 Y38.894 
G01 X271.516 Y39.452 
G01 X270.986 Y40.032 
G01 X270.480 Y40.633 
G01 X269.981 Y41.274 
G01 X269.506 Y41.932 
G01 X269.056 Y42.605 
G01 X268.630 Y43.295 
G01 X268.230 Y43.999 
G01 X267.855 Y44.718 
G01 X267.507 Y45.450 
G01 X267.184 Y46.196 
G01 X266.917 Y46.886 
G01 X266.677 Y47.585 
G01 X266.466 Y48.294 
G01 X266.283 Y49.009 
G01 X266.129 Y49.732 
G01 X266.004 Y50.460 
G01 X265.908 Y51.194 
G01 X265.841 Y51.930 
G01 X265.772 Y53.176 
G01 X265.740 Y54.409 
G01 X265.713 Y55.050 
G01 X265.648 Y55.677 
G01 X265.606 Y55.935 
G01 X265.550 Y56.192 
G01 X265.482 Y56.445 
G01 X265.400 Y56.694 
G01 X265.316 Y56.908 
G01 X265.220 Y57.116 
G01 X265.112 Y57.318 
G01 X264.992 Y57.515 
G01 X264.711 Y57.926 
G01 X264.402 Y58.337 
G01 X264.234 Y58.563 
G01 X264.073 Y58.811 
G01 X263.927 Y59.068 
G01 X263.796 Y59.336 
G01 X263.651 Y59.692 
G01 X263.536 Y60.061 
G01 X263.451 Y60.439 
G01 X263.399 Y60.815 
G01 X263.291 Y62.133 
G01 X263.238 Y62.769 
G01 X263.162 Y63.388 
G01 X263.092 Y63.785 
G01 X262.994 Y64.171 
G01 X262.869 Y64.549 
G01 X262.716 Y64.919 
G01 X262.554 Y65.250 
G01 X262.374 Y65.573 
G01 X262.176 Y65.886 
G01 X261.957 Y66.193 
G01 X260.918 Y67.562 
G01 X260.434 Y68.223 
G01 X259.973 Y68.912 
G01 X259.665 Y69.436 
G01 X259.394 Y69.982 
G01 X259.162 Y70.546 
G01 X258.970 Y71.125 
G01 X258.826 Y71.680 
G01 X258.714 Y72.240 
G01 X258.635 Y72.806 
G01 X258.589 Y73.374 
G01 X258.557 Y74.556 
G01 X258.584 Y75.732 
G01 X258.664 Y77.101 
G01 X258.770 Y78.457 
G01 X258.820 Y79.125 
G01 X258.850 Y79.787 
G01 X258.861 Y80.449 
G01 X258.853 Y81.111 
G01 X258.831 Y81.604 
G01 X258.793 Y82.095 
G01 X258.737 Y82.584 
G01 X258.665 Y83.069 
G01 X258.541 Y83.719 
G01 X258.388 Y84.360 
G01 X258.204 Y84.994 
G01 X257.990 Y85.618 
G01 X257.583 Y86.638 
G01 X257.120 Y87.643 
G01 X255.816 Y90.306 
G01 X255.133 Y91.769 
G01 X254.495 Y93.257 
G01 X254.009 Y94.509 
G01 X253.569 Y95.779 
G01 X253.176 Y97.064 
G01 X252.831 Y98.360 
G01 X252.640 Y99.173 
G01 X252.465 Y99.987 
G01 X252.306 Y100.804 
G01 X252.163 Y101.623 
G01 X252.036 Y102.446 
G01 X251.925 Y103.270 
G01 X251.830 Y104.097 
G01 X251.752 Y104.926 
G01 X251.673 Y105.959 
G01 X251.609 Y106.993 
G01 X251.562 Y108.028 
G01 X251.532 Y109.063 
G01 X251.517 Y110.098 
G01 X251.519 Y111.134 
G01 X251.537 Y112.170 
G01 X251.571 Y113.205 
G01 X251.638 Y114.567 
G01 X251.728 Y115.928 
G01 X251.842 Y117.286 
G01 X251.979 Y118.643 
G01 X252.128 Y119.913 
G01 X252.296 Y121.180 
G01 X252.485 Y122.443 
G01 X252.693 Y123.704 
G01 X252.920 Y124.961 
G01 X253.167 Y126.215 
G01 X253.434 Y127.465 
G01 X253.720 Y128.713 
G01 X254.198 Y130.600 
G01 X254.730 Y132.474 
G01 X255.316 Y134.332 
G01 X255.956 Y136.173 
G01 X256.528 Y137.665 
G01 X257.153 Y139.135 
G01 X257.829 Y140.583 
G01 X258.555 Y142.005 
G01 X258.962 Y142.750 
G01 X259.384 Y143.484 
G01 X259.820 Y144.209 
G01 X260.271 Y144.925 
G01 X260.736 Y145.631 
G01 X261.215 Y146.327 
G01 X261.709 Y147.012 
G01 X262.217 Y147.687 
G01 X262.738 Y148.352 
G01 X263.273 Y149.006 
G01 X263.822 Y149.648 
G01 X264.384 Y150.280 
G01 X264.959 Y150.900 
G01 X265.547 Y151.508 
G01 X266.148 Y152.105 
G01 X266.762 Y152.689 
G01 X267.509 Y153.373 
G01 X268.268 Y154.044 
G01 X269.039 Y154.701 
G01 X269.822 Y155.345 
G01 X270.616 Y155.974 
G01 X271.421 Y156.589 
G01 X272.237 Y157.189 
G01 X273.064 Y157.775 
G01 X274.305 Y158.617 
G01 X275.566 Y159.430 
G01 X276.939 Y160.273 
G01 X278.330 Y161.086 
G01 X278.849 Y161.373 
G01 X279.341 Y161.660 
G01 X279.548 Y161.800 
G01 X279.746 Y161.953 
G01 X279.934 Y162.117 
G01 X280.111 Y162.293 
G01 X280.277 Y162.479 
G01 X280.432 Y162.675 
G01 X280.574 Y162.880 
G01 X280.703 Y163.092 
G01 X280.878 Y163.438 
G01 X281.021 Y163.794 
G01 X281.133 Y164.161 
G01 X281.214 Y164.545 
G01 X281.406 Y165.799 
G01 X281.593 Y167.073 
G01 X281.797 Y168.350 
G01 X282.018 Y169.623 
G01 X282.255 Y170.895 
G01 X282.470 Y171.942 
G01 X282.707 Y172.984 
G01 X282.966 Y174.021 
G01 X283.249 Y175.056 
G01 X283.561 Y176.059 
G01 X283.921 Y177.048 
G01 X284.327 Y178.020 
G01 X284.778 Y178.970 
G01 X285.056 Y179.500 
G01 X285.352 Y180.018 
G01 X285.664 Y180.526 
G01 X285.994 Y181.022 
G01 X286.340 Y181.508 
G01 X286.702 Y181.981 
G01 X287.081 Y182.442 
G01 X287.475 Y182.891 
G01 X287.923 Y183.366 
G01 X288.387 Y183.825 
G01 X288.866 Y184.267 
G01 X289.361 Y184.691 
G01 X289.934 Y185.150 
G01 X290.520 Y185.590 
G01 X291.120 Y186.010 
G01 X291.733 Y186.410 
G01 X292.600 Y186.944 
G01 X293.478 Y187.456 
G01 X294.367 Y187.948 
G01 X295.260 Y188.416 
G01 X295.745 Y188.676 
G01 X296.207 Y188.949 
G01 X296.685 Y189.272 
G01 X297.134 Y189.628 
G01 X297.520 Y189.983 
G01 X297.882 Y190.363 
G01 X298.218 Y190.766 
G01 X298.528 Y191.191 
G01 X298.822 Y191.657 
G01 X299.087 Y192.141 
G01 X299.320 Y192.640 
G01 X299.523 Y193.158 
G01 X299.837 Y194.083 
G01 X300.131 Y195.026 
G01 X301.210 Y198.570 
G01 X301.738 Y200.162 
G01 X302.322 Y201.736 
G01 X302.554 Y202.304 
G01 X302.800 Y202.864 
G01 X303.062 Y203.417 
G01 X303.339 Y203.962 
G01 X303.632 Y204.500 
G01 X303.939 Y205.029 
G01 X304.261 Y205.549 
G01 X304.599 Y206.064 
G01 X305.277 Y207.011 
G01 X306.005 Y207.924 
G01 X306.777 Y208.799 
G01 X307.592 Y209.632 
G01 X308.255 Y210.258 
G01 X308.933 Y210.863 
G01 X309.627 Y211.448 
G01 X310.338 Y212.013 
G01 X311.064 Y212.558 
G01 X311.806 Y213.082 
G01 X312.563 Y213.585 
G01 X313.333 Y214.066 
G01 X314.081 Y214.508 
G01 X314.838 Y214.933 
G01 X315.603 Y215.343 
G01 X316.371 Y215.732 
G01 X317.886 Y216.510 
G01 X319.371 Y217.329 
G01 X320.108 Y217.765 
G01 X320.831 Y218.222 
G01 X321.541 Y218.701 
G01 X322.234 Y219.199 
G01 X322.647 Y219.521 
G01 X323.043 Y219.860 
G01 X323.422 Y220.218 
G01 X323.779 Y220.589 
G01 X323.987 Y220.838 
G01 X324.162 Y221.095 
G01 X324.308 Y221.365 
G01 X324.427 Y221.644 
G01 X324.518 Y221.931 
G01 X324.581 Y222.223 
G01 X324.616 Y222.520 
G01 X324.624 Y222.818 
G01 X324.604 Y223.115 
G01 X324.556 Y223.410 
G01 X324.480 Y223.700 
G01 X324.378 Y223.983 
G01 X324.247 Y224.257 
G01 X324.089 Y224.519 
G01 X323.904 Y224.769 
G01 X323.691 Y225.004 
G01 X323.455 Y225.218 
G01 X323.205 Y225.403 
G01 X322.942 Y225.561 
G01 X322.669 Y225.691 
G01 X322.386 Y225.794 
G01 X322.096 Y225.869 
G01 X321.801 Y225.917 
G01 X321.504 Y225.937 
G01 X321.205 Y225.929 
G01 X320.909 Y225.893 
G01 X320.616 Y225.830 
G01 X320.329 Y225.739 
G01 X320.050 Y225.620 
G01 X319.781 Y225.473 
G01 X319.524 Y225.299 
G01 Z22.000 F1200.0 M3
G01 X319.274 Y225.090  F4000.0
G01 X318.847 Y224.681 
G01 X318.404 Y224.249 
G01 X317.941 Y223.823 
G01 X317.466 Y223.411 
G01 X316.979 Y223.013 
G01 X316.471 Y222.622 
G01 X315.953 Y222.246 
G01 X315.423 Y221.886 
G01 X314.884 Y221.541 
G01 X314.335 Y221.213 
G01 X313.776 Y220.901 
G01 X313.207 Y220.605 
G01 X312.630 Y220.326 
G01 X312.093 Y220.085 
G01 X311.550 Y219.860 
G01 X311.002 Y219.650 
G01 X310.448 Y219.456 
G01 X309.890 Y219.277 
G01 X309.327 Y219.115 
G01 X308.760 Y218.968 
G01 X308.189 Y218.838 
G01 X307.615 Y218.723 
G01 X307.038 Y218.625 
G01 X306.457 Y218.543 
G01 X305.875 Y218.477 
G01 X305.290 Y218.427 
G01 X304.704 Y218.394 
G01 X304.116 Y218.377 
G01 X303.527 Y218.377 
G01 X302.787 Y218.400 
G01 X302.048 Y218.448 
G01 X301.311 Y218.521 
G01 X300.577 Y218.618 
G01 X299.847 Y218.740 
G01 X299.122 Y218.887 
G01 X298.401 Y219.058 
G01 X297.687 Y219.253 
G01 X297.020 Y219.459 
G01 X296.362 Y219.684 
G01 X295.711 Y219.929 
G01 X295.070 Y220.194 
G01 X294.437 Y220.478 
G01 X293.814 Y220.781 
G01 X293.200 Y221.103 
G01 X292.597 Y221.444 
G01 X292.005 Y221.803 
G01 X291.424 Y222.180 
G01 X290.854 Y222.574 
G01 X290.296 Y222.987 
G01 X289.751 Y223.416 
G01 X289.218 Y223.863 
G01 X288.699 Y224.326 
G01 X288.194 Y224.807 
G01 X287.715 Y225.291 
G01 X287.251 Y225.789 
G01 X286.804 Y226.302 
G01 X286.374 Y226.829 
G01 X285.960 Y227.369 
G01 X285.564 Y227.921 
G01 X285.185 Y228.487 
G01 X284.824 Y229.064 
G01 X284.507 Y229.607 
G01 X284.207 Y230.158 
G01 X283.924 Y230.717 
G01 X283.659 Y231.284 
G01 X283.410 Y231.858 
G01 X283.180 Y232.438 
G01 X282.966 Y233.025 
G01 X282.770 Y233.618 
G01 X282.592 Y234.217 
G01 X282.432 Y234.820 
G01 X282.290 Y235.429 
G01 X282.167 Y236.042 
G01 X282.061 Y236.659 
G01 X281.974 Y237.279 
G01 X281.905 Y237.903 
G01 X281.855 Y238.531 
G01 X281.812 Y239.541 
G01 X281.815 Y240.554 
G01 X281.863 Y241.566 
G01 X281.956 Y242.573 
G01 X282.047 Y243.268 
G01 X282.157 Y243.957 
G01 X282.288 Y244.642 
G01 X282.439 Y245.323 
G01 X282.610 Y246.000 
G01 X282.801 Y246.671 
G01 X283.012 Y247.336 
G01 X283.242 Y247.996 
G01 X283.462 Y248.570 
G01 X283.698 Y249.138 
G01 X283.951 Y249.698 
G01 X284.219 Y250.251 
G01 X284.503 Y250.796 
G01 X284.802 Y251.332 
G01 X285.117 Y251.860 
G01 X285.449 Y252.382 
G01 X286.095 Y253.312 
G01 X286.792 Y254.205 
G01 X287.535 Y255.059 
G01 X288.323 Y255.871 
G01 X289.153 Y256.639 
G01 X290.024 Y257.361 
G01 X290.931 Y258.034 
G01 X291.403 Y258.356 
G01 X291.882 Y258.663 
G01 X292.502 Y259.035 
G01 X293.134 Y259.386 
G01 X293.776 Y259.717 
G01 X294.429 Y260.026 
G01 X295.092 Y260.313 
G01 X295.764 Y260.579 
G01 X296.445 Y260.823 
G01 X297.133 Y261.044 
G01 X297.787 Y261.231 
G01 X298.444 Y261.399 
G01 X299.106 Y261.547 
G01 X299.770 Y261.674 
G01 X300.438 Y261.781 
G01 X301.108 Y261.869 
G01 X301.780 Y261.936 
G01 X302.454 Y261.983 
G01 X303.129 Y262.010 
G01 X303.804 Y262.017 
G01 X304.480 Y262.004 
G01 X305.155 Y261.970 
G01 X305.830 Y261.917 
G01 X306.504 Y261.843 
G01 X307.176 Y261.748 
G01 X307.846 Y261.634 
G01 X308.513 Y261.498 
G01 X309.175 Y261.342 
G01 X309.832 Y261.165 
G01 X310.483 Y260.967 
G01 X311.127 Y260.749 
G01 X311.764 Y260.510 
G01 X312.394 Y260.251 
G01 X313.015 Y259.973 
G01 X313.581 Y259.698 
G01 X314.136 Y259.408 
G01 X314.683 Y259.100 
G01 X315.219 Y258.778 
G01 X315.744 Y258.439 
G01 X316.259 Y258.085 
G01 X316.763 Y257.717 
G01 X317.256 Y257.333 
G01 X317.737 Y256.935 
G01 X318.206 Y256.523 
G01 X318.663 Y256.096 
G01 X319.107 Y255.656 
G01 X319.538 Y255.202 
G01 X319.956 Y254.736 
G01 X320.360 Y254.256 
G01 X320.750 Y253.763 
G01 X321.134 Y253.248 
G01 X321.503 Y252.722 
G01 X321.856 Y252.185 
G01 X322.193 Y251.638 
G01 X322.528 Y251.058 
G01 X322.846 Y250.470 
G01 X323.147 Y249.873 
G01 X323.429 Y249.273 
G01 X323.766 Y248.545 
G01 X323.943 Y248.207 
G01 X324.143 Y247.894 
G01 X324.403 Y247.555 
G01 X324.688 Y247.241 
G01 X324.998 Y246.952 
G01 X325.331 Y246.692 
G01 X325.684 Y246.460 
G01 X326.056 Y246.258 
G01 X326.445 Y246.087 
G01 X326.849 Y245.949 
G01 X327.263 Y245.846 
G01 X327.683 Y245.778 
G01 X328.105 Y245.746 
G01 X328.528 Y245.749 
G01 X328.949 Y245.788 
G01 X329.366 Y245.862 
G01 X329.777 Y245.971 
G01 X330.182 Y246.116 
G01 X330.772 Y246.379 
G01 X333.202 Y247.536 
G01 X335.595 Y248.639 
G01 X337.996 Y249.721 
G01 X340.407 Y250.781 
G01 X342.827 Y251.819 
G01 X345.257 Y252.836 
G01 X347.695 Y253.830 
G01 X350.143 Y254.803 
G01 X352.600 Y255.754 
G01 X355.570 Y256.859 
G01 X358.560 Y257.912 
G01 X361.567 Y258.914 
G01 X364.592 Y259.862 
G01 X367.151 Y260.616 
G01 X369.724 Y261.323 
G01 X372.308 Y261.984 
G01 X374.904 Y262.598 
G01 X376.436 Y262.933 
G01 X377.971 Y263.246 
G01 X379.511 Y263.536 
G01 X381.055 Y263.803 
G01 X382.603 Y264.048 
G01 X384.154 Y264.269 
G01 X385.709 Y264.467 
G01 X387.267 Y264.642 
G01 X389.113 Y264.818 
G01 X390.963 Y264.959 
G01 X392.814 Y265.064 
G01 X394.667 Y265.134 
G01 X396.521 Y265.169 
G01 X398.375 Y265.168 
G01 X400.230 Y265.132 
G01 X402.083 Y265.061 
G01 X403.397 Y264.990 
G01 X404.710 Y264.903 
G01 X406.021 Y264.800 
G01 X407.330 Y264.681 
G01 X408.638 Y264.547 
G01 X409.944 Y264.396 
G01 X411.248 Y264.230 
G01 X412.549 Y264.049 
G01 X413.849 Y263.851 
G01 X415.146 Y263.638 
G01 X416.440 Y263.409 
G01 X417.732 Y263.164 
G01 X419.020 Y262.904 
G01 X420.306 Y262.628 
G01 X421.589 Y262.337 
G01 X422.869 Y262.030 
G01 X424.308 Y261.663 
G01 X425.742 Y261.274 
G01 X427.170 Y260.862 
G01 X428.591 Y260.428 
G01 X430.005 Y259.972 
G01 X431.411 Y259.494 
G01 X432.811 Y258.994 
G01 X434.203 Y258.472 
G01 X435.902 Y257.795 
G01 X437.585 Y257.077 
G01 X439.249 Y256.320 
G01 X440.894 Y255.522 
G01 X442.520 Y254.685 
G01 X444.125 Y253.808 
G01 X445.708 Y252.893 
G01 X447.269 Y251.940 
G01 X448.228 Y251.328 
G01 X449.176 Y250.703 
G01 X450.114 Y250.064 
G01 X451.042 Y249.410 
G01 X451.960 Y248.743 
G01 X452.868 Y248.063 
G01 X453.765 Y247.368 
G01 X454.651 Y246.661 
G01 X455.527 Y245.940 
G01 X456.392 Y245.206 
G01 X457.245 Y244.458 
G01 X458.088 Y243.698 
G01 X458.919 Y242.925 
G01 X459.738 Y242.139 
G01 X460.546 Y241.341 
G01 X461.342 Y240.530 
G01 X462.581 Y239.223 
G01 X463.793 Y237.891 
G01 X464.977 Y236.535 
G01 X466.134 Y235.156 
G01 X467.262 Y233.753 
G01 X468.362 Y232.328 
G01 X469.433 Y230.881 
G01 X470.475 Y229.412 
G01 X471.187 Y228.372 
G01 X471.885 Y227.323 
G01 X472.569 Y226.266 
G01 X473.239 Y225.200 
G01 X473.896 Y224.125 
G01 X474.539 Y223.042 
G01 X475.167 Y221.950 
G01 X475.782 Y220.849 
G01 X476.899 Y218.762 
G01 X477.967 Y216.648 
G01 X478.985 Y214.510 
G01 X479.952 Y212.349 
G01 X480.867 Y210.166 
G01 X481.732 Y207.962 
G01 X482.544 Y205.738 
G01 X483.304 Y203.495 
G01 X483.797 Y201.934 
G01 X484.263 Y200.366 
G01 X484.701 Y198.791 
G01 X485.111 Y197.208 
G01 X485.494 Y195.618 
G01 X485.849 Y194.022 
G01 X486.176 Y192.419 
G01 X486.474 Y190.810 
G01 X486.712 Y189.391 
G01 X486.924 Y187.968 
G01 X487.110 Y186.542 
G01 X487.269 Y185.114 
G01 X487.403 Y183.684 
G01 X487.512 Y182.251 
G01 X487.594 Y180.817 
G01 X487.650 Y179.382 
G01 X487.680 Y177.947 
G01 X487.684 Y176.511 
G01 X487.662 Y175.074 
G01 X487.615 Y173.638 
G01 X487.541 Y172.203 
G01 X487.441 Y170.769 
G01 X487.315 Y169.336 
G01 X487.163 Y167.903 
G01 X486.872 Y165.627 
G01 X486.524 Y163.358 
G01 X486.120 Y161.098 
G01 X485.660 Y158.850 
G01 X485.177 Y156.692 
G01 X484.666 Y154.542 
G01 X484.129 Y152.399 
G01 X483.564 Y150.262 
G01 X482.598 Y146.790 
G01 X481.584 Y143.333 
G01 X480.521 Y139.890 
G01 X479.411 Y136.461 
G01 X478.851 Y134.824 
G01 X478.263 Y133.197 
G01 X477.645 Y131.581 
G01 X476.999 Y129.976 
G01 X476.380 Y128.524 
G01 X475.729 Y127.086 
G01 X475.045 Y125.663 
G01 X474.331 Y124.256 
G01 X473.872 Y123.396 
G01 X473.400 Y122.544 
G01 X472.912 Y121.701 
G01 X472.411 Y120.866 
G01 X471.895 Y120.040 
G01 X471.365 Y119.223 
G01 X470.821 Y118.415 
G01 X470.266 Y117.621 
G01 X469.697 Y116.799 
G01 X469.378 Y116.293 
G01 X469.092 Y115.770 
G01 X468.919 Y115.410 
G01 X468.758 Y115.042 
G01 X468.611 Y114.667 
G01 X468.479 Y114.288 
G01 X468.361 Y113.904 
G01 X468.259 Y113.515 
G01 X468.171 Y113.123 
G01 X468.098 Y112.727 
G01 X468.033 Y112.277 
G01 X467.985 Y111.826 
G01 X467.955 Y111.373 
G01 X467.942 Y110.910 
G01 X467.917 Y109.919 
G01 X467.861 Y108.919 
G01 X467.786 Y108.057 
G01 X467.683 Y107.197 
G01 X467.552 Y106.342 
G01 X467.393 Y105.491 
G01 X467.212 Y104.662 
G01 X467.008 Y103.840 
G01 X466.782 Y103.024 
G01 X466.533 Y102.215 
G01 X466.261 Y101.413 
G01 X465.967 Y100.618 
G01 X465.651 Y99.833 
G01 X465.312 Y99.055 
G01 X464.770 Y97.906 
G01 X464.190 Y96.776 
G01 X463.575 Y95.667 
G01 X462.923 Y94.578 
G01 X462.236 Y93.512 
G01 X461.514 Y92.468 
G01 X460.758 Y91.448 
G01 X459.969 Y90.453 
G01 X459.331 Y89.696 
G01 X458.675 Y88.956 
G01 X458.001 Y88.233 
G01 X457.309 Y87.527 
G01 X456.600 Y86.839 
G01 X455.873 Y86.168 
G01 X455.130 Y85.517 
G01 X454.370 Y84.884 
G01 X453.557 Y84.240 
G01 X452.729 Y83.616 
G01 X451.887 Y83.012 
G01 X451.031 Y82.429 
G01 X450.160 Y81.867 
G01 X449.277 Y81.326 
G01 X448.381 Y80.805 
G01 X447.481 Y80.312 
G01 X446.906 Y79.985 
G01 X446.569 Y79.756 
G01 X446.261 Y79.493 
G01 X446.053 Y79.280 
G01 X445.859 Y79.049 
G01 X445.683 Y78.804 
G01 X445.525 Y78.546 
G01 X445.378 Y78.260 
G01 X445.252 Y77.964 
G01 X445.148 Y77.659 
G01 X445.063 Y77.337 
G01 X444.683 Y75.696 
G01 X444.435 Y74.698 
G01 X444.162 Y73.705 
G01 X443.909 Y72.854 
G01 X443.639 Y72.009 
G01 X443.353 Y71.169 
G01 X443.050 Y70.336 
G01 X442.731 Y69.508 
G01 X442.396 Y68.688 
G01 X442.044 Y67.873 
G01 X441.676 Y67.064 
G01 X441.216 Y66.121 
G01 X440.726 Y65.193 
G01 X440.206 Y64.281 
G01 X439.657 Y63.387 
G01 X439.080 Y62.511 
G01 X438.474 Y61.654 
G01 X437.840 Y60.817 
G01 X437.180 Y60.000 
G01 X436.569 Y59.290 
G01 X435.939 Y58.598 
G01 X435.290 Y57.925 
G01 X434.622 Y57.270 
G01 X433.936 Y56.634 
G01 X433.232 Y56.017 
G01 X432.511 Y55.421 
G01 X431.773 Y54.844 
G01 X430.457 Y53.880 
G01 X429.111 Y52.959 
G01 X427.735 Y52.083 
G01 X426.331 Y51.253 
G01 X424.983 Y50.511 
G01 X423.617 Y49.808 
G01 X421.621 Y48.836 
G01 X421.305 Y48.672 
G01 X421.010 Y48.494 
G01 X420.727 Y48.297 
G01 X420.460 Y48.084 
G01 X420.118 Y47.765 
G01 X419.809 Y47.420 
G01 X419.532 Y47.049 
G01 X419.283 Y46.645 
G01 X418.739 Y45.654 
G01 X418.205 Y44.647 
G01 X417.200 Y42.671 
G01 X416.240 Y40.673 
G01 X415.497 Y39.051 
G01 X414.771 Y37.412 
G01 X414.361 Y36.522 
G01 X413.913 Y35.641 
G01 X413.417 Y34.764 
G01 X412.881 Y33.911 
G01 X412.306 Y33.083 
G01 X411.696 Y32.285 
G01 X411.004 Y31.439 
G01 X410.299 Y30.609 
G01 X409.578 Y29.792 
G01 X408.842 Y28.989 
G01 X407.589 Y27.677 
G01 X406.309 Y26.391 
G01 X405.002 Y25.132 
G01 X403.669 Y23.900 
G01 X402.304 Y22.697 
G01 X400.907 Y21.528 
G01 X399.800 Y20.654 
G01 X398.664 Y19.815 
G01 X398.001 Y19.356 
G01 X397.326 Y18.915 
G01 X396.639 Y18.493 
G01 X395.947 Y18.095 
G01 X394.801 Y17.434 
G01 X394.065 Y16.970 
G01 X393.355 Y16.469 
G01 X392.442 Y15.764 
G01 X391.547 Y15.021 
G01 X389.750 Y13.501 
G01 X388.487 Y12.482 
G01 X387.190 Y11.501 
G01 X386.618 Y11.103 
G01 X386.027 Y10.730 
G01 X385.420 Y10.384 
G01 X384.799 Y10.065 
G01 X384.297 Y9.834 
G01 X383.786 Y9.625 
G01 X383.268 Y9.438 
G01 X382.743 Y9.272 
G01 X382.211 Y9.129 
G01 X381.673 Y9.008 
G01 X381.131 Y8.909 
G01 X380.586 Y8.833 
G01 X379.842 Y8.754 
G01 X379.098 Y8.696 
G01 X378.353 Y8.657 
G01 X377.609 Y8.638 
G01 X375.982 Y8.632 
G01 X374.363 Y8.658 
G01 X373.562 Y8.670 
G01 X372.766 Y8.664 
G01 X371.971 Y8.641 
G01 X371.177 Y8.601 
G01 X370.603 Y8.558 
G01 X370.032 Y8.499 
G01 X369.462 Y8.423 
G01 X368.895 Y8.332 
G01 X368.430 Y8.243 
G01 X367.969 Y8.139 
G01 X367.511 Y8.020 
G01 X367.058 Y7.886 
G01 X366.609 Y7.738 
G01 X366.166 Y7.575 
G01 X365.727 Y7.398 
G01 X365.295 Y7.206 
G01 X363.909 Y6.536 
G01 X363.513 Y6.351 
G01 X363.088 Y6.185 
G01 X362.607 Y6.039 
G01 X362.111 Y5.937 
G01 X361.609 Y5.879 
G01 X361.108 Y5.868 
G01 X360.389 Y5.900 
G01 X359.678 Y5.963 
G01 X358.385 Y6.135 
G01 X357.108 Y6.359 
G01 X354.592 Y6.829 
G01 X353.624 Y6.984 
G01 X352.660 Y7.106 
G01 X352.279 Y7.133 
G01 X351.903 Y7.129 
G01 X351.677 Y7.109 
G01 X351.453 Y7.070 
G01 X351.233 Y7.014 
G01 X351.015 Y6.939 
G01 X350.699 Y6.807 
G01 X350.380 Y6.653 
G01 X349.200 Y6.058 
G01 X348.521 Y5.743 
G01 X347.824 Y5.462 
G01 X347.258 Y5.264 
G01 X346.688 Y5.087 
G01 X346.112 Y4.932 
G01 X345.531 Y4.798 
G01 X344.945 Y4.686 
G01 X344.355 Y4.596 
G01 X343.762 Y4.528 
G01 X343.167 Y4.482 
G01 X342.578 Y4.457 
G01 X341.991 Y4.450 
G01 X341.404 Y4.461 
G01 X340.819 Y4.490 
G01 X340.235 Y4.537 
G01 X339.654 Y4.602 
G01 X339.075 Y4.685 
G01 X338.499 Y4.786 
G01 X337.926 Y4.904 
G01 X337.357 Y5.040 
G01 X336.793 Y5.193 
G01 X336.233 Y5.364 
G01 X335.678 Y5.552 
G01 X335.128 Y5.758 
G01 X334.584 Y5.980 
G01 X334.048 Y6.219 
G01 X332.783 Y6.822 
G01 X332.576 Y6.915 
G01 X332.375 Y6.991 
G01 X332.169 Y7.055 
G01 X331.965 Y7.103 
G01 X331.509 Y7.172 
G01 X331.043 Y7.191 
G01 X329.147 Y7.137 
G01 X327.846 Y7.100 
G01 X326.535 Y7.101 
G01 X325.952 Y7.122 
G01 X325.370 Y7.165 
G01 X324.789 Y7.230 
G01 X324.211 Y7.318 
G01 X323.690 Y7.420 
G01 X323.173 Y7.546 
G01 X322.663 Y7.696 
G01 X322.160 Y7.870 
G01 X321.674 Y8.064 
G01 X321.197 Y8.281 
G01 X320.731 Y8.520 
G01 X320.278 Y8.780 
G01 X319.728 Y9.128 
G01 X319.204 Y9.490 
G01 X318.697 Y9.838 
G01 X318.189 Y10.153 
G01 X317.848 Y10.336 
G01 X317.499 Y10.490 
G01 X317.184 Y10.599 
G01 X316.862 Y10.683 
G01 X316.535 Y10.741 
G01 X316.204 Y10.773 
G01 X315.563 Y10.783 
G01 X314.911 Y10.738 
G01 X313.059 Y10.545 
G01 X311.912 Y10.457 
G01 X310.756 Y10.420 
G01 X309.822 Y10.436 
G01 X308.889 Y10.505 
G01 X307.961 Y10.625 
G01 X307.044 Y10.795 
G01 X306.461 Y10.930 
G01 X305.887 Y11.082 
G01 X305.318 Y11.251 
G01 X304.754 Y11.438 
G01 X304.197 Y11.643 
G01 X303.646 Y11.865 
G01 X303.103 Y12.104 
G01 X302.567 Y12.359 
G01 X301.873 Y12.713 
G01 X301.187 Y13.082 
G01 X300.510 Y13.465 
G01 X299.844 Y13.861 
G01 X298.158 Y14.886 
G01 X297.790 Y15.099 
G01 X297.419 Y15.297 
G01 X297.041 Y15.481 
G01 X296.656 Y15.651 
G01 X296.152 Y15.851 
G01 X295.641 Y16.031 
G01 X295.123 Y16.190 
G01 X294.595 Y16.330 
G01 X292.304 Y16.879 
G01 X291.697 Y17.032 
G01 X291.087 Y17.207 
G01 X290.647 Y17.353 
G01 X290.214 Y17.522 
G01 X289.790 Y17.714 
G01 X289.379 Y17.927 
G01 X288.665 Y18.334 
G01 X287.967 Y18.759 
G01 X287.242 Y19.227 
G01 X286.528 Y19.710 
G01 X285.824 Y20.208 
G01 X285.131 Y20.722 
G01 X284.409 Y21.287 
G01 X283.705 Y21.875 
G01 X283.021 Y22.485 
G01 X282.354 Y23.118 
G01 X281.842 Y23.641 
G01 X281.351 Y24.185 
G01 X280.884 Y24.748 
G01 X280.440 Y25.330 
G01 X280.020 Y25.929 
G01 X279.625 Y26.546 
G01 X279.256 Y27.178 
G01 X278.912 Y27.825 
G01 X278.614 Y28.442 
G01 X278.336 Y29.067 
G01 X278.079 Y29.702 
G01 X277.843 Y30.343 
G01 X277.158 Y32.390 
G01 X276.854 Y33.305 
G01 X276.531 Y34.201 
G01 X276.417 Y34.484 
G01 X276.292 Y34.756 
G01 X276.152 Y35.022 
G01 X276.001 Y35.278 
G01 X275.806 Y35.565 
G01 X275.592 Y35.833 
G01 X275.360 Y36.085 
G01 X275.103 Y36.324 
G01 X274.614 Y36.734 
G01 X274.104 Y37.141 
G01 X273.368 Y37.735 
G01 X272.645 Y38.359 
G01 X272.070 Y38.894 
G01 X271.516 Y39.452 
G01 X270.986 Y40.032 
G01 X270.480 Y40.633 
G01 X269.981 Y41.274 
