%
( tomtarX3nO ROUND and no bowl ) ( File created: Sunday December 08 2024 - 05:58 PM)
( for LinuxCNC )
( Material Size) ( X= 800.000, Y= 620.000, Z= 26.000)
G90 (Incremental distance mode)
G17 G21 (Active Plane: XY)(Metric Mode)
G40 G49 G80(Tool Diameter, Length compensation & canned cycles OFF)
G64 P0.05 Q0.05(Path Blending)
T2 M06 (TOOL USE End Mill 4 mm)
G90 (absolute distance mode)
G54 (Coordinate System)
S18000M3
G00 Z46.320
G4 P6
( Array Toolpath 1 [1] )
G00 X88.923 Y83.832 Z31.080 F4000.0
G01 Z5.500 F1200.0 M3
G01 X89.693 Y83.302  F2000.0
G01 X90.299 Y82.433 
G01 X90.809 Y81.784 
G01 X91.540 Y80.967 
G01 X92.277 Y80.262 
G01 X93.061 Y79.619 
G01 X93.895 Y79.035 
G01 X94.125 Y78.891 
G01 X94.747 Y78.104 
G01 X94.125 Y78.891 
G01 X93.673 Y80.534 
G01 X93.338 Y81.880 
G01 X93.147 Y82.722 
G01 X93.457 Y83.056 
G01 X93.147 Y82.722 
G01 X91.388 Y83.001 
G01 X89.693 Y83.302 
G01 X88.923 Y83.832 
G01 X87.053 Y83.021  
G01 X87.556 Y82.185  
G01 X88.095 Y81.382 
G01 X88.666 Y80.619 
G01 X89.269 Y79.892 
G01 X89.816 Y79.298 
G01 X90.389 Y78.735 
G01 X90.987 Y78.205 
G01 X91.610 Y77.707 
G01 X92.260 Y77.240 
G01 X92.935 Y76.804 
G01 X93.638 Y76.400 
G01 X94.363 Y76.030 
G01 X95.377 Y75.578 
G01 X96.424 Y75.179 
G01 X97.509 Y74.830 
G01 X98.100 Y74.666 
G01 X98.723 Y74.127 
G01 X98.100 Y74.666 
G01 X97.818 Y75.366 
G01 X97.241 Y76.956 
G01 X96.728 Y78.542 
G01 X96.345 Y79.849 
G01 X95.996 Y81.137 
G01 X95.673 Y82.436 
G01 X95.380 Y83.728 
G01 X95.141 Y84.865 
G01 X95.455 Y85.201 
G01 X95.141 Y84.865 
G01 X93.672 Y85.069 
G01 X91.785 Y85.368 
G01 X89.910 Y85.701 
G01 X88.046 Y86.068 
G01 X86.194 Y86.470 
G01 X85.344 Y86.672 
G01 X84.751 Y87.199 
G01 X85.344 Y86.672 
G01 X85.831 Y85.470 
G01 X86.414 Y84.221 
G01 X87.053 Y83.021 
G01 X84.965 Y81.837  
G01 X85.531 Y80.897  
G01 X86.137 Y79.995 
G01 X86.780 Y79.133 
G01 X87.462 Y78.312 
G01 X88.092 Y77.628 
G01 X88.752 Y76.980 
G01 X89.441 Y76.369 
G01 X90.160 Y75.794 
G01 X90.908 Y75.256 
G01 X91.686 Y74.755 
G01 X92.494 Y74.290 
G01 X93.327 Y73.865 
G01 X94.460 Y73.360 
G01 X95.628 Y72.914 
G01 X96.835 Y72.526 
G01 X98.087 Y72.196 
G01 X99.703 Y71.851 
G01 X101.360 Y71.572 
G01 X102.224 Y71.456 
G01 X102.895 Y71.000 
G01 X102.224 Y71.456 
G01 X102.007 Y71.859 
G01 X101.308 Y73.285 
G01 X100.658 Y74.741 
G01 X100.060 Y76.224 
G01 X99.512 Y77.735 
G01 X99.022 Y79.249 
G01 X98.655 Y80.501 
G01 X98.319 Y81.741 
G01 X98.008 Y82.991 
G01 X97.724 Y84.240 
G01 X97.138 Y87.034 
G01 X97.452 Y87.375 
G01 X97.138 Y87.034 
G01 X95.879 Y87.185 
G01 X94.025 Y87.443 
G01 X92.183 Y87.735 
G01 X90.352 Y88.060 
G01 X88.533 Y88.419 
G01 X86.726 Y88.811 
G01 X84.932 Y89.236 
G01 X83.150 Y89.696 
G01 X81.779 Y90.077 
G01 X81.255 Y90.618 
G01 X81.779 Y90.077 
G01 X82.245 Y88.390 
G01 X82.545 Y87.410 
G01 X83.057 Y85.931 
G01 X83.630 Y84.513 
G01 X84.266 Y83.149 
G01 X84.965 Y81.837 
G01 X82.878 Y80.653  
G01 X83.505 Y79.609  
G01 X84.178 Y78.607 
G01 X84.895 Y77.648 
G01 X85.655 Y76.732 
G01 X86.367 Y75.958 
G01 X87.114 Y75.225 
G01 X87.895 Y74.533 
G01 X88.710 Y73.882 
G01 X89.557 Y73.272 
G01 X90.437 Y72.705 
G01 X91.350 Y72.180 
G01 X92.292 Y71.700 
G01 X93.544 Y71.142 
G01 X94.833 Y70.650 
G01 X96.162 Y70.222 
G01 X97.533 Y69.861 
G01 X99.254 Y69.493 
G01 X101.012 Y69.197 
G01 X102.801 Y68.974 
G01 X104.621 Y68.824 
G01 X106.655 Y68.738 
G01 X107.378 Y68.352 
G01 X106.655 Y68.738 
G01 X106.401 Y69.106 
G01 X105.604 Y70.354 
G01 X104.850 Y71.639 
G01 X104.142 Y72.956 
G01 X103.482 Y74.303 
G01 X102.868 Y75.679 
G01 X102.301 Y77.083 
G01 X101.782 Y78.514 
G01 X101.315 Y79.956 
G01 X100.965 Y81.152 
G01 X100.642 Y82.344 
G01 X100.343 Y83.547 
G01 X100.069 Y84.753 
G01 X99.447 Y87.716 
G01 X99.149 Y89.234 
G01 X99.464 Y89.580 
G01 X99.149 Y89.234 
G01 X97.814 Y89.370 
G01 X96.188 Y89.565 
G01 X94.378 Y89.817 
G01 X92.580 Y90.102 
G01 X90.794 Y90.419 
G01 X89.020 Y90.769 
G01 X87.257 Y91.151 
G01 X85.508 Y91.566 
G01 X83.772 Y92.014 
G01 X82.051 Y92.493 
G01 X80.926 Y92.829 
G01 X79.813 Y93.182 
G01 X78.550 Y93.611 
G01 X78.067 Y94.183 
G01 X78.550 Y93.611 
G01 X78.869 Y91.964 
G01 X79.108 Y90.884 
G01 X79.367 Y89.814 
G01 X79.645 Y88.756 
G01 X79.943 Y87.710 
G01 X80.259 Y86.680 
G01 X80.526 Y85.875 
G01 X80.809 Y85.089 
G01 X81.110 Y84.315 
G01 X81.429 Y83.556 
G01 X81.765 Y82.810 
G01 X82.119 Y82.077 
G01 X82.489 Y81.359 
G01 X82.878 Y80.653 
G01 X80.790 Y79.468  
G01 X81.480 Y78.322  
G01 X82.220 Y77.219 
G01 X83.010 Y76.162 
G01 X83.848 Y75.152 
G01 X84.643 Y74.289 
G01 X85.477 Y73.470 
G01 X86.349 Y72.697 
G01 X87.259 Y71.969 
G01 X88.206 Y71.289 
G01 X89.188 Y70.655 
G01 X90.206 Y70.070 
G01 X91.257 Y69.534 
G01 X91.937 Y69.220 
G01 X92.627 Y68.924 
G01 X93.327 Y68.645 
G01 X94.038 Y68.385 
G01 X94.758 Y68.143 
G01 X95.488 Y67.919 
G01 X96.227 Y67.713 
G01 X96.978 Y67.525 
G01 X97.886 Y67.321 
G01 X98.804 Y67.136 
G01 X99.730 Y66.970 
G01 X100.664 Y66.823 
G01 X101.605 Y66.695 
G01 X102.554 Y66.587 
G01 X104.472 Y66.428 
G01 X105.549 Y66.372 
G01 X106.632 Y66.338 
G01 X107.789 Y66.322 
G01 X109.422 Y66.336 
G02 X110.727 Y65.881 I0.035 J-2.000
G01 X110.776 Y65.841  
G01 X111.097 Y65.509 
G01 X111.835 Y64.632 
G01 X113.167 Y63.175 
G01 X114.553 Y61.777 
G01 X115.991 Y60.437 
G01 X117.485 Y59.154 
G01 X119.031 Y57.932 
G01 X120.626 Y56.771 
G01 X122.268 Y55.674 
G01 X123.104 Y55.152 
G01 X124.059 Y54.585 
G01 X125.027 Y54.044 
G01 X126.011 Y53.527 
G01 X127.011 Y53.035 
G01 X128.026 Y52.568 
G01 X129.056 Y52.125 
G01 X130.100 Y51.708 
G01 X131.157 Y51.316 
G01 X132.044 Y51.015 
G01 X132.941 Y50.740 
G01 X133.851 Y50.491 
G01 X134.774 Y50.267 
G01 X135.707 Y50.068 
G01 X136.653 Y49.895 
G01 X137.609 Y49.749 
G01 X138.571 Y49.629 
G01 X139.773 Y49.519 
G01 X140.985 Y49.454 
G01 X142.210 Y49.434 
G01 X143.454 Y49.465 
G01 X143.631 Y49.547 
G01 X143.819 Y49.711 
G01 X143.920 Y49.842 
G01 X143.327 Y49.818 
G01 X142.357 Y49.814 
G01 X141.458 Y49.840 
G01 X140.570 Y49.891 
G01 X139.689 Y49.966 
G01 X138.815 Y50.065 
G01 X137.948 Y50.188 
G01 X137.089 Y50.336 
G01 X136.238 Y50.508 
G01 X135.398 Y50.704 
G01 X134.418 Y50.961 
G01 X133.451 Y51.241 
G01 X132.495 Y51.544 
G01 X131.549 Y51.870 
G01 X130.615 Y52.220 
G01 X129.693 Y52.593 
G01 X128.783 Y52.988 
G01 X127.881 Y53.409 
G01 X126.391 Y54.162 
G01 X124.929 Y54.969 
G01 X123.500 Y55.828 
G01 X122.109 Y56.737 
G01 X120.773 Y57.676 
G01 X119.469 Y58.654 
G01 X118.198 Y59.671 
G01 X116.958 Y60.727 
G01 X115.752 Y61.821 
G01 X114.578 Y62.953 
G01 X113.439 Y64.122 
G01 X112.332 Y65.330 
G01 X111.288 Y66.547 
G01 X110.284 Y67.805 
G01 X109.322 Y69.100 
G01 X108.400 Y70.434 
G01 X107.651 Y71.608 
G01 X106.943 Y72.815 
G01 X106.278 Y74.053 
G01 X105.656 Y75.320 
G01 X105.077 Y76.617 
G01 X104.543 Y77.941 
G01 X104.053 Y79.293 
G01 X103.609 Y80.664 
G01 X103.275 Y81.803 
G01 X102.965 Y82.947 
G01 X102.678 Y84.103 
G01 X102.414 Y85.265 
G01 X101.799 Y88.194 
G01 X101.152 Y91.449 
G01 X98.078 Y91.755 
G01 X96.496 Y91.945 
G01 X94.731 Y92.191 
G01 X92.978 Y92.469 
G01 X91.236 Y92.778 
G01 X89.506 Y93.119 
G01 X87.789 Y93.492 
G01 X86.085 Y93.896 
G01 X84.393 Y94.332 
G01 X82.716 Y94.799 
G01 X80.559 Y95.464 
G01 X78.438 Y96.199 
G01 X76.353 Y97.006 
G01 X74.305 Y97.884 
G01 X72.507 Y98.733 
G01 X70.747 Y99.647 
G01 X69.027 Y100.624 
G01 X67.344 Y101.666 
G01 X66.361 Y102.322 
G01 X65.396 Y103.011 
G01 X64.453 Y103.729 
G01 X63.533 Y104.476 
G01 X62.636 Y105.251 
G01 X61.764 Y106.053 
G01 X60.916 Y106.883 
G01 X60.090 Y107.743 
G01 X59.187 Y108.750 
G01 X58.318 Y109.795 
G01 X57.487 Y110.873 
G01 X56.695 Y111.984 
G01 X55.940 Y113.128 
G01 X55.225 Y114.304 
G01 X54.550 Y115.510 
G01 X53.917 Y116.741 
G01 X53.452 Y117.716 
G01 X53.011 Y118.700 
G01 X52.593 Y119.698 
G01 X52.197 Y120.709 
G01 X51.823 Y121.734 
G01 X51.472 Y122.771 
G01 X51.144 Y123.822 
G01 X50.842 Y124.868 
G01 X50.664 Y124.658 
G01 X50.558 Y124.439 
G01 X50.529 Y124.286 
G01 X50.905 Y122.934 
G01 X51.228 Y121.890 
G01 X51.572 Y120.860 
G01 X51.939 Y119.844 
G01 X52.328 Y118.842 
G01 X52.738 Y117.855 
G01 X53.171 Y116.883 
G01 X53.625 Y115.926 
G01 X54.053 Y115.077 
G01 X54.500 Y114.244 
G01 X54.964 Y113.425 
G01 X55.447 Y112.622 
G01 X55.947 Y111.834 
G01 X56.464 Y111.062 
G01 X56.999 Y110.306 
G01 X57.551 Y109.566 
G01 X58.120 Y108.843 
G01 X58.706 Y108.136 
G01 X59.309 Y107.445 
G01 X59.928 Y106.772 
G01 X60.563 Y106.115 
G01 X61.215 Y105.476 
G01 X61.883 Y104.854 
G01 X63.180 Y103.732 
G01 X64.437 Y102.735 
G01 X65.734 Y101.790 
G01 X67.071 Y100.898 
G01 X68.547 Y99.995 
G01 X70.163 Y99.086 
G01 X71.814 Y98.231 
G01 X73.500 Y97.432 
G01 X74.639 Y96.932 
G02 X75.830 Y95.386 I-0.788 J-1.838
G01 X76.086 Y93.754  
G01 X76.293 Y92.606 
G01 X76.521 Y91.469 
G01 X76.770 Y90.342 
G01 X77.040 Y89.227 
G01 X77.330 Y88.122 
G01 X77.641 Y87.029 
G01 X77.972 Y85.950 
G01 X78.258 Y85.091 
G01 X78.562 Y84.247 
G01 X78.885 Y83.416 
G01 X79.228 Y82.598 
G01 X79.590 Y81.795 
G01 X79.971 Y81.005 
G01 X80.371 Y80.230 
G01 X80.790 Y79.468 
G00 Z31.080
G00 X152.283 Y106.370  F4000.0
G01 Z5.500 F1200.0 M3
G03 X150.870 Y105.408 I-0.535 J-0.732
G03 X152.583 Y105.258 I0.883 J0.231
G03 X152.635 Y105.854 I-0.808 J0.371
G03 X152.283 Y106.370 I-0.901 J-0.236
G01 X153.700 Y108.307  F2000.0
G03 X148.548 Y104.800 I-1.952 J-2.670
G03 X154.764 Y104.258 I3.205 J0.838
G03 X154.957 Y106.461 I-2.990 J1.371
G03 X153.700 Y108.307 I-3.223 J-0.843
G01 X155.116 Y110.245  
G03 X146.227 Y104.193 I-3.368 J-4.608
G03 X156.946 Y103.257 I5.527 J1.445
G03 X157.279 Y107.068 I-5.171 J2.372
G03 X155.116 Y110.245 I-5.545 J-1.450
G00 Z31.080
G00 X177.324 Y109.454  F4000.0
G01 Z5.500 F1200.0 M3
G03 X177.695 Y109.877 I-0.730 J1.017
G03 X177.902 Y111.581 I-2.068 J1.116
G01 X177.769 Y111.886  F2000.0
G01 X177.514 Y112.230 
G01 X176.940 Y112.906 
G02 X175.644 Y115.724 I4.446 J3.752
G01 X175.564 Y116.617  
G01 X175.611 Y117.903 
G01 X175.586 Y118.093 
G01 X175.826 Y118.374 
G01 X175.586 Y118.093 
G01 X174.952 Y118.281 
G02 X173.679 Y118.802 I2.060 J6.849
G02 X171.300 Y121.174 I2.657 J5.044
G02 X170.752 Y122.713 I4.951 J2.628
G01 X170.540 Y124.158  
G01 X170.446 Y125.234 
G01 X170.773 Y125.398 
G01 X170.446 Y125.234 
G01 X170.026 Y125.532 
G01 X169.112 Y126.070 
G01 X167.690 Y126.957 
G02 X166.018 Y128.524 I4.199 J6.156
G02 X164.834 Y130.824 I5.448 J4.259
G01 X164.475 Y132.203  
G01 X164.692 Y132.317 
G01 X164.475 Y132.203 
G03 X163.178 Y132.571 I-1.340 J-2.249
G03 X161.538 Y132.081 I-0.047 J-2.831
G03 X161.031 Y131.583 I1.121 J-1.648
G03 X160.810 Y131.090 I1.156 J-0.816
G03 X160.855 Y130.840 I0.309 J-0.073
G01 X160.920 Y130.760  
G01 X161.197 Y130.517 
G01 X162.280 Y129.745 
G02 X163.852 Y128.567 I-11.527 J-17.025
G02 X166.445 Y125.859 I-10.300 J-12.461
G02 X168.030 Y123.413 I-15.985 J-12.092
G01 X169.013 Y121.533  
G01 X169.782 Y120.126 
G01 X170.304 Y119.373 
G01 X171.072 Y118.523 
G01 X171.797 Y117.841 
G01 X172.876 Y116.794 
G02 X173.955 Y115.488 I-8.379 J-8.023
G02 X175.322 Y112.447 I-7.010 J-4.978
G02 X175.596 Y110.646 I-11.650 J-2.694
G01 X175.655 Y110.286  
G01 X175.758 Y110.078 
G03 X176.851 Y109.355 I1.635 J1.282
G01 X177.090 Y109.340  
G01 X177.225 Y109.389 
G01 X177.324 Y109.454 
G01 X178.724 Y107.505  
G03 X179.808 Y108.737 I-2.130 J2.966
G03 X180.226 Y112.183 I-4.180 J2.256
G03 X179.790 Y113.181 I-3.346 J-0.866
G01 X179.338 Y113.790  
G01 X178.774 Y114.454 
G02 X178.013 Y116.109 I2.612 J2.204
G01 X177.963 Y116.659  
G01 X178.010 Y117.843 
G01 X177.972 Y118.407 
G03 X177.580 Y119.459 I-2.834 J-0.458
G03 X176.675 Y120.253 I-1.754 J-1.084
G01 X176.395 Y120.357  
G01 X175.643 Y120.580 
G02 X174.797 Y120.926 I1.369 J4.551
G02 X173.419 Y122.299 I1.538 J2.921
G02 X173.106 Y123.179 I2.831 J1.503
G01 X172.930 Y124.387  
G01 X172.828 Y125.550 
G01 X172.757 Y125.951 
G03 X172.518 Y126.493 I-1.984 J-0.553
G03 X172.127 Y126.953 I-1.789 J-1.123
G03 X171.275 Y127.582 I-3.978 J-4.500
G01 X170.298 Y128.157  
G01 X169.042 Y128.940 
G02 X167.909 Y130.002 I2.847 J4.173
G02 X167.136 Y131.504 I3.557 J2.781
G01 X166.760 Y132.938  
G01 X166.562 Y133.397 
G03 X165.716 Y134.257 I-2.084 J-1.204
G03 X163.219 Y134.971 I-2.581 J-4.303
G03 X160.189 Y134.066 I-0.087 J-5.231
G03 X159.071 Y132.968 I2.471 J-3.632
G03 X158.473 Y131.638 I3.116 J-2.201
G03 X158.864 Y129.501 I2.646 J-0.621
G01 X159.202 Y129.085  
G01 X159.757 Y128.597 
G01 X160.934 Y127.757 
G02 X162.323 Y126.717 I-10.182 J-15.038
G02 X164.531 Y124.411 I-8.771 J-10.611
G02 X165.926 Y122.258 I-14.071 J-10.644
G01 X166.864 Y120.464  
G01 X167.721 Y118.895 
G03 X168.428 Y117.876 I7.881 J4.710
G03 X169.392 Y116.809 I9.252 J7.388
G01 X170.190 Y116.058  
G01 X171.142 Y115.134 
G02 X171.998 Y114.099 I-6.646 J-6.363
G02 X172.984 Y111.906 I-5.053 J-3.589
G02 X173.203 Y110.466 I-9.312 J-2.153
G01 X173.332 Y109.683  
G03 X173.870 Y108.597 I2.873 J0.745
G03 X176.225 Y107.038 I3.523 J2.763
G03 X177.429 Y106.964 I0.781 J2.891
G03 X178.495 Y107.353 I-0.388 J2.718
G01 X178.724 Y107.505  
G00 Z31.080
G00 X99.366 Y148.340  F4000.0
G01 Z5.500 F1200.0 M3
G03 X97.953 Y147.378 I-0.535 J-0.732
G03 X99.665 Y147.229 I0.883 J0.231
G03 X99.717 Y147.824 I-0.808 J0.371
G03 X99.366 Y148.340 I-0.901 J-0.236
G01 X100.782 Y150.278  F2000.0
G03 X95.631 Y146.771 I-1.952 J-2.670
G03 X101.847 Y146.228 I3.205 J0.838
G03 X102.039 Y148.432 I-2.990 J1.371
G03 X100.782 Y150.278 I-3.223 J-0.843
G01 X102.198 Y152.216  
G03 X93.309 Y146.164 I-3.368 J-4.608
G03 X104.028 Y145.228 I5.527 J1.445
G03 X104.361 Y149.039 I-5.171 J2.372
G03 X102.198 Y152.216 I-5.544 J-1.450
G00 Z31.080
G00 X97.112 Y173.178  F4000.0
G01 Z5.500 F1200.0 M3
G03 X97.139 Y172.898 I0.429 J-0.100
G03 X97.896 Y172.003 I1.941 J0.873
G01 X98.149 Y171.882  F2000.0
G01 X98.379 Y171.847 
G01 X99.066 Y171.892 
G02 X100.392 Y171.974 I1.232 J-9.128
G02 X102.566 Y171.680 I-0.090 J-8.853
G02 X104.601 Y170.858 I-2.249 J-8.498
G01 X105.844 Y170.082  
G01 X107.386 Y169.026 
G01 X108.280 Y168.497 
G03 X109.428 Y168.030 I3.229 J6.296
G01 X111.000 Y167.583  
G01 X112.983 Y167.004 
G01 X114.616 Y166.413 
G02 X117.305 Y165.028 I-5.948 J-14.846
G01 X118.431 Y164.235  
G01 X119.522 Y163.321 
G01 X120.669 Y162.247 
G01 X121.336 Y161.682 
G01 X121.572 Y161.570 
G01 X121.771 Y161.593 
G03 X122.438 Y162.246 I-0.792 J1.475
G03 X122.753 Y164.107 I-2.426 J1.368
G03 X122.446 Y164.969 I-2.763 J-0.497
G03 X122.068 Y165.445 I-1.603 J-0.887
G01 X122.165 Y165.610  
G01 X122.068 Y165.445 
G01 X121.953 Y165.466 
G01 X121.524 Y165.473 
G02 X119.607 Y165.679 I-0.175 J7.415
G02 X116.750 Y167.107 I1.669 J6.908
G02 X115.688 Y168.113 I6.861 J8.308
G01 X114.595 Y169.312  
G01 X114.198 Y169.708 
G01 X114.029 Y169.849 
G01 X114.145 Y170.215 
G01 X114.029 Y169.849 
G01 X113.152 Y169.750 
G02 X111.758 Y169.626 I-1.743 J11.713
G02 X109.753 Y169.902 I-0.180 J6.107
G02 X106.547 Y172.425 I1.714 J5.478
G01 X106.065 Y173.308  
G01 X106.009 Y173.410 
G01 X106.227 Y173.730 
G01 X106.009 Y173.410 
G01 X105.505 Y173.328 
G01 X104.849 Y173.164 
G02 X102.426 Y173.051 I-1.476 J5.594
G02 X101.124 Y173.425 I0.962 J5.795
G02 X100.068 Y173.961 I3.100 J7.420
G01 X99.597 Y174.231  
G01 X99.421 Y174.306 
G01 X99.027 Y174.363 
G03 X97.745 Y173.947 I0.077 J-2.419
G03 X97.235 Y173.449 I1.141 J-1.683
G01 X97.112 Y173.178  
G01 X94.788 Y173.718  
G03 X94.963 Y171.919 I2.752 J-0.640
G03 X96.568 Y170.021 I4.116 J1.852
G03 X97.445 Y169.603 I1.866 J2.787
G03 X98.370 Y169.461 I0.937 J3.036
G01 X99.385 Y169.527  
G01 X100.367 Y169.588 
G02 X101.956 Y169.374 I-0.066 J-6.467
G02 X103.438 Y168.775 I-1.639 J-6.192
G01 X104.483 Y168.123  
G01 X106.050 Y167.050 
G01 X107.191 Y166.375 
G03 X108.727 Y165.750 I4.318 J8.419
G01 X110.395 Y165.275  
G01 X112.249 Y164.733 
G01 X113.729 Y164.199 
G02 X116.016 Y163.020 I-5.061 J-12.631
G01 X116.974 Y162.346  
G01 X117.918 Y161.555 
G01 X119.013 Y160.530 
G01 X119.915 Y159.766 
G03 X120.966 Y159.262 I1.831 J2.470
G03 X122.900 Y159.491 I0.675 J2.573
G03 X124.515 Y161.074 I-1.920 J3.577
G03 X125.101 Y164.530 I-4.504 J2.540
G03 X124.534 Y166.124 I-5.111 J-0.920
G03 X123.603 Y167.271 I-3.690 J-2.041
G03 X122.967 Y167.655 I-1.438 J-1.662
G03 X122.092 Y167.847 I-1.042 J-2.656
G01 X121.467 Y167.858  
G02 X120.167 Y167.997 I-0.119 J5.030
G02 X118.269 Y168.946 I1.109 J4.589
G01 X117.442 Y169.729  
G01 X116.368 Y170.909 
G01 X115.785 Y171.489 
G01 X115.301 Y171.877 
G03 X114.750 Y172.156 I-1.171 J-1.629
G03 X114.215 Y172.239 I-0.529 J-1.626
G01 X113.580 Y172.207  
G01 X112.801 Y172.110 
G01 X111.687 Y172.011 
G02 X110.466 Y172.179 I-0.110 J3.722
G02 X108.592 Y173.653 I1.002 J3.201
G01 X108.206 Y174.362  
G03 X107.798 Y175.007 I-3.216 J-1.584
G03 X107.073 Y175.569 I-1.510 J-1.198
G03 X105.948 Y175.795 I-1.065 J-2.388
G01 X105.562 Y175.763  
G01 X104.958 Y175.650 
G01 X104.241 Y175.471 
G02 X102.817 Y175.404 I-0.867 J3.288
G02 X102.043 Y175.627 I0.571 J3.441
G01 X101.301 Y176.003  
G01 X100.734 Y176.328 
G01 X100.161 Y176.574 
G03 X98.950 Y176.747 I-1.098 J-3.363
G03 X96.407 Y175.921 I0.154 J-4.804
G03 X95.296 Y174.840 I2.480 J-3.658
G03 X94.788 Y173.718 I2.556 J-1.834
G00 Z31.080
G00 X335.991 Y83.832  F4000.0
G01 Z5.500 F1200.0 M3
G01 X336.760 Y83.302  F2000.0
G01 X337.366 Y82.433 
G01 X337.877 Y81.784 
G01 X338.607 Y80.967 
G01 X339.344 Y80.262 
G01 X340.128 Y79.619 
G01 X340.962 Y79.035 
G01 X341.192 Y78.891 
G01 X341.814 Y78.104 
G01 X341.192 Y78.891 
G01 X340.740 Y80.534 
G01 X340.405 Y81.880 
G01 X340.214 Y82.722 
G01 X340.524 Y83.056 
G01 X340.214 Y82.722 
G01 X338.455 Y83.001 
G01 X336.760 Y83.302 
G01 X335.991 Y83.832 
G01 X334.120 Y83.021  
G01 X334.623 Y82.185  
G01 X335.162 Y81.382 
G01 X335.733 Y80.619 
G01 X336.336 Y79.892 
G01 X336.883 Y79.298 
G01 X337.456 Y78.735 
G01 X338.054 Y78.205 
G01 X338.678 Y77.707 
G01 X339.327 Y77.240 
G01 X340.002 Y76.804 
G01 X340.705 Y76.400 
G01 X341.430 Y76.030 
G01 X342.444 Y75.578 
G01 X343.491 Y75.179 
G01 X344.576 Y74.830 
G01 X345.167 Y74.666 
G01 X345.790 Y74.127 
G01 X345.167 Y74.666 
G01 X344.885 Y75.366 
G01 X344.308 Y76.956 
G01 X343.795 Y78.542 
G01 X343.412 Y79.849 
G01 X343.063 Y81.137 
G01 X342.740 Y82.436 
G01 X342.447 Y83.728 
G01 X342.208 Y84.865 
G01 X342.522 Y85.201 
G01 X342.208 Y84.865 
G01 X340.739 Y85.069 
G01 X338.852 Y85.368 
G01 X336.977 Y85.701 
G01 X335.113 Y86.068 
G01 X333.262 Y86.470 
G01 X332.411 Y86.672 
G01 X331.818 Y87.199 
G01 X332.411 Y86.672 
G01 X332.898 Y85.470 
G01 X333.481 Y84.221 
G01 X334.120 Y83.021 
G01 X332.033 Y81.837  
G01 X332.598 Y80.897  
G01 X333.204 Y79.995 
G01 X333.847 Y79.133 
G01 X334.529 Y78.312 
G01 X335.159 Y77.628 
G01 X335.819 Y76.980 
G01 X336.508 Y76.369 
G01 X337.227 Y75.794 
G01 X337.976 Y75.256 
G01 X338.753 Y74.755 
G01 X339.561 Y74.290 
G01 X340.395 Y73.865 
G01 X341.527 Y73.360 
G01 X342.696 Y72.914 
G01 X343.902 Y72.526 
G01 X345.154 Y72.196 
G01 X346.770 Y71.851 
G01 X348.427 Y71.572 
G01 X349.291 Y71.456 
G01 X349.963 Y71.000 
G01 X349.291 Y71.456 
G01 X349.074 Y71.859 
G01 X348.375 Y73.285 
G01 X347.726 Y74.741 
G01 X347.127 Y76.224 
G01 X346.579 Y77.735 
G01 X346.089 Y79.249 
G01 X345.722 Y80.501 
G01 X345.386 Y81.741 
G01 X345.075 Y82.991 
G01 X344.791 Y84.240 
G01 X344.205 Y87.034 
G01 X344.519 Y87.375 
G01 X344.205 Y87.034 
G01 X342.946 Y87.185 
G01 X341.092 Y87.443 
G01 X339.250 Y87.735 
G01 X337.419 Y88.060 
G01 X335.600 Y88.419 
G01 X333.793 Y88.811 
G01 X331.999 Y89.236 
G01 X330.217 Y89.696 
G01 X328.846 Y90.077 
G01 X328.322 Y90.618 
G01 X328.846 Y90.077 
G01 X329.312 Y88.390 
G01 X329.612 Y87.410 
G01 X330.124 Y85.931 
G01 X330.697 Y84.513 
G01 X331.333 Y83.149 
G01 X332.033 Y81.837 
G01 X329.945 Y80.653  
G01 X330.572 Y79.609  
G01 X331.245 Y78.607 
G01 X331.962 Y77.648 
G01 X332.722 Y76.732 
G01 X333.434 Y75.958 
G01 X334.181 Y75.225 
G01 X334.962 Y74.533 
G01 X335.777 Y73.882 
G01 X336.624 Y73.272 
G01 X337.504 Y72.705 
G01 X338.417 Y72.180 
G01 X339.359 Y71.700 
G01 X340.611 Y71.142 
G01 X341.900 Y70.650 
G01 X343.229 Y70.222 
G01 X344.600 Y69.861 
G01 X346.321 Y69.493 
G01 X348.079 Y69.197 
G01 X349.868 Y68.974 
G01 X351.688 Y68.824 
G01 X353.722 Y68.738 
G01 X354.446 Y68.352 
G01 X353.722 Y68.738 
G01 X353.468 Y69.106 
G01 X352.671 Y70.354 
G01 X351.917 Y71.639 
G01 X351.210 Y72.956 
G01 X350.549 Y74.303 
G01 X349.935 Y75.679 
G01 X349.368 Y77.083 
G01 X348.849 Y78.514 
G01 X348.382 Y79.956 
G01 X348.032 Y81.152 
G01 X347.709 Y82.344 
G01 X347.410 Y83.547 
G01 X347.136 Y84.753 
G01 X346.514 Y87.716 
G01 X346.216 Y89.234 
G01 X346.531 Y89.580 
G01 X346.216 Y89.234 
G01 X344.881 Y89.370 
G01 X343.255 Y89.565 
G01 X341.445 Y89.817 
G01 X339.647 Y90.102 
G01 X337.861 Y90.419 
G01 X336.087 Y90.769 
G01 X334.325 Y91.151 
G01 X332.575 Y91.566 
G01 X330.839 Y92.014 
G01 X329.118 Y92.493 
G01 X327.994 Y92.829 
G01 X326.880 Y93.182 
G01 X325.617 Y93.611 
G01 X325.134 Y94.183 
G01 X325.617 Y93.611 
G01 X325.937 Y91.964 
G01 X326.175 Y90.884 
G01 X326.434 Y89.814 
G01 X326.712 Y88.756 
G01 X327.010 Y87.710 
G01 X327.326 Y86.680 
G01 X327.593 Y85.875 
G01 X327.876 Y85.089 
G01 X328.177 Y84.315 
G01 X328.496 Y83.556 
G01 X328.832 Y82.810 
G01 X329.186 Y82.077 
G01 X329.556 Y81.359 
G01 X329.945 Y80.653 
G01 X327.857 Y79.468  
G01 X328.547 Y78.322  
G01 X329.287 Y77.219 
G01 X330.077 Y76.162 
G01 X330.915 Y75.152 
G01 X331.710 Y74.289 
G01 X332.544 Y73.470 
G01 X333.417 Y72.697 
G01 X334.326 Y71.969 
G01 X335.273 Y71.289 
G01 X336.255 Y70.655 
G01 X337.273 Y70.070 
G01 X338.324 Y69.534 
G01 X339.004 Y69.220 
G01 X339.694 Y68.924 
G01 X340.394 Y68.645 
G01 X341.105 Y68.385 
G01 X341.825 Y68.143 
G01 X342.555 Y67.919 
G01 X343.294 Y67.713 
G01 X344.045 Y67.525 
G01 X344.953 Y67.321 
G01 X345.871 Y67.136 
G01 X346.797 Y66.970 
G01 X347.731 Y66.823 
G01 X348.672 Y66.695 
G01 X349.621 Y66.587 
G01 X351.540 Y66.428 
G01 X352.616 Y66.372 
G01 X353.699 Y66.338 
G01 X354.856 Y66.322 
G01 X356.490 Y66.336 
G02 X357.795 Y65.881 I0.035 J-2.000
G01 X357.844 Y65.841  
G01 X358.164 Y65.509 
G01 X358.903 Y64.632 
G01 X360.234 Y63.175 
G01 X361.620 Y61.777 
G01 X363.059 Y60.437 
G01 X364.552 Y59.154 
G01 X366.098 Y57.932 
G01 X367.693 Y56.771 
G01 X369.335 Y55.674 
G01 X370.171 Y55.152 
G01 X371.126 Y54.585 
G01 X372.095 Y54.044 
G01 X373.079 Y53.527 
G01 X374.078 Y53.035 
G01 X375.093 Y52.568 
G01 X376.123 Y52.125 
G01 X377.167 Y51.708 
G01 X378.224 Y51.316 
G01 X379.111 Y51.015 
G01 X380.009 Y50.740 
G01 X380.919 Y50.491 
G01 X381.841 Y50.267 
G01 X382.775 Y50.068 
G01 X383.720 Y49.895 
G01 X384.676 Y49.749 
G01 X385.638 Y49.629 
G01 X386.840 Y49.519 
G01 X388.052 Y49.454 
G01 X389.277 Y49.434 
G01 X390.521 Y49.465 
G01 X390.698 Y49.547 
G01 X390.886 Y49.711 
G01 X390.987 Y49.842 
G01 X390.394 Y49.818 
G01 X389.424 Y49.814 
G01 X388.525 Y49.840 
G01 X387.637 Y49.891 
G01 X386.756 Y49.966 
G01 X385.882 Y50.065 
G01 X385.015 Y50.188 
G01 X384.156 Y50.336 
G01 X383.305 Y50.508 
G01 X382.465 Y50.704 
G01 X381.485 Y50.961 
G01 X380.518 Y51.241 
G01 X379.562 Y51.544 
G01 X378.616 Y51.870 
G01 X377.683 Y52.220 
G01 X376.760 Y52.593 
G01 X375.850 Y52.988 
G01 X374.948 Y53.409 
G01 X373.458 Y54.162 
G01 X371.996 Y54.969 
G01 X370.567 Y55.828 
G01 X369.177 Y56.737 
G01 X367.840 Y57.676 
G01 X366.536 Y58.654 
G01 X365.265 Y59.671 
G01 X364.025 Y60.727 
G01 X362.819 Y61.821 
G01 X361.645 Y62.953 
G01 X360.506 Y64.122 
G01 X359.399 Y65.330 
G01 X358.355 Y66.547 
G01 X357.351 Y67.805 
G01 X356.389 Y69.100 
G01 X355.467 Y70.434 
G01 X354.718 Y71.608 
G01 X354.010 Y72.815 
G01 X353.345 Y74.053 
G01 X352.723 Y75.320 
G01 X352.144 Y76.617 
G01 X351.610 Y77.941 
G01 X351.120 Y79.293 
G01 X350.676 Y80.664 
G01 X350.342 Y81.803 
G01 X350.032 Y82.947 
G01 X349.745 Y84.103 
G01 X349.481 Y85.265 
G01 X348.866 Y88.194 
G01 X348.219 Y91.449 
G01 X345.145 Y91.755 
G01 X343.564 Y91.945 
G01 X341.798 Y92.191 
G01 X340.045 Y92.469 
G01 X338.303 Y92.778 
G01 X336.573 Y93.119 
G01 X334.856 Y93.492 
G01 X333.152 Y93.896 
G01 X331.460 Y94.332 
G01 X329.783 Y94.799 
G01 X327.626 Y95.464 
G01 X325.505 Y96.199 
G01 X323.420 Y97.006 
G01 X321.372 Y97.884 
G01 X319.574 Y98.733 
G01 X317.814 Y99.647 
G01 X316.094 Y100.624 
G01 X314.411 Y101.666 
G01 X313.428 Y102.322 
G01 X312.463 Y103.011 
G01 X311.520 Y103.729 
G01 X310.600 Y104.476 
G01 X309.704 Y105.251 
G01 X308.831 Y106.053 
G01 X307.983 Y106.883 
G01 X307.157 Y107.743 
G01 X306.254 Y108.750 
G01 X305.385 Y109.795 
G01 X304.555 Y110.873 
G01 X303.762 Y111.984 
G01 X303.008 Y113.128 
G01 X302.293 Y114.304 
G01 X301.617 Y115.510 
G01 X300.984 Y116.741 
G01 X300.519 Y117.716 
G01 X300.078 Y118.700 
G01 X299.660 Y119.698 
G01 X299.264 Y120.709 
G01 X298.891 Y121.734 
G01 X298.539 Y122.771 
G01 X298.211 Y123.822 
G01 X297.910 Y124.868 
G01 X297.731 Y124.658 
G01 X297.625 Y124.439 
G01 X297.597 Y124.286 
G01 X297.972 Y122.934 
G01 X298.295 Y121.890 
G01 X298.639 Y120.860 
G01 X299.006 Y119.844 
G01 X299.395 Y118.842 
G01 X299.806 Y117.855 
G01 X300.238 Y116.883 
G01 X300.692 Y115.926 
G01 X301.120 Y115.077 
G01 X301.567 Y114.244 
G01 X302.031 Y113.425 
G01 X302.514 Y112.622 
G01 X303.014 Y111.834 
G01 X303.532 Y111.062 
G01 X304.066 Y110.306 
G01 X304.618 Y109.566 
G01 X305.188 Y108.843 
G01 X305.773 Y108.136 
G01 X306.376 Y107.445 
G01 X306.995 Y106.772 
G01 X307.631 Y106.115 
G01 X308.282 Y105.476 
G01 X308.950 Y104.854 
G01 X310.247 Y103.732 
G01 X311.504 Y102.735 
G01 X312.801 Y101.790 
G01 X314.138 Y100.898 
G01 X315.615 Y99.995 
G01 X317.230 Y99.086 
G01 X318.881 Y98.231 
G01 X320.567 Y97.432 
G01 X321.706 Y96.932 
G02 X322.897 Y95.386 I-0.788 J-1.838
G01 X323.153 Y93.754  
G01 X323.360 Y92.606 
G01 X323.588 Y91.469 
G01 X323.837 Y90.342 
G01 X324.107 Y89.227 
G01 X324.397 Y88.122 
G01 X324.709 Y87.029 
G01 X325.040 Y85.950 
G01 X325.325 Y85.091 
G01 X325.629 Y84.247 
G01 X325.952 Y83.416 
G01 X326.295 Y82.598 
G01 X326.657 Y81.795 
G01 X327.038 Y81.005 
G01 X327.438 Y80.230 
G01 X327.857 Y79.468 
G00 Z31.080
G00 X399.351 Y106.370  F4000.0
G01 Z5.500 F1200.0 M3
G03 X397.937 Y105.408 I-0.535 J-0.732
G03 X399.650 Y105.258 I0.883 J0.231
G03 X399.702 Y105.854 I-0.808 J0.371
G03 X399.351 Y106.370 I-0.901 J-0.236
G01 X400.767 Y108.307  F2000.0
G03 X395.616 Y104.800 I-1.952 J-2.670
G03 X401.831 Y104.258 I3.205 J0.838
G03 X402.024 Y106.461 I-2.990 J1.371
G03 X400.767 Y108.307 I-3.223 J-0.843
G01 X402.183 Y110.245  
G03 X393.294 Y104.193 I-3.368 J-4.608
G03 X404.013 Y103.257 I5.527 J1.445
G03 X404.346 Y107.068 I-5.171 J2.372
G03 X402.183 Y110.245 I-5.545 J-1.450
G00 Z31.080
G00 X424.391 Y109.454  F4000.0
G01 Z5.500 F1200.0 M3
G03 X424.763 Y109.877 I-0.730 J1.017
G03 X424.969 Y111.581 I-2.068 J1.116
G01 X424.836 Y111.886  F2000.0
G01 X424.581 Y112.230 
G01 X424.007 Y112.906 
G02 X422.711 Y115.724 I4.446 J3.752
G01 X422.631 Y116.617  
G01 X422.678 Y117.903 
G01 X422.653 Y118.093 
G01 X422.893 Y118.374 
G01 X422.653 Y118.093 
G01 X422.019 Y118.281 
G02 X420.746 Y118.802 I2.060 J6.849
G02 X418.367 Y121.174 I2.657 J5.044
G02 X417.819 Y122.713 I4.951 J2.628
G01 X417.608 Y124.158  
G01 X417.513 Y125.234 
G01 X417.840 Y125.398 
G01 X417.513 Y125.234 
G01 X417.094 Y125.532 
G01 X416.179 Y126.070 
G01 X414.757 Y126.957 
G02 X413.085 Y128.524 I4.199 J6.156
G02 X411.901 Y130.824 I5.448 J4.259
G01 X411.542 Y132.203  
G01 X411.759 Y132.317 
G01 X411.542 Y132.203 
G03 X410.246 Y132.571 I-1.340 J-2.249
G03 X408.606 Y132.081 I-0.047 J-2.831
G03 X408.099 Y131.583 I1.121 J-1.648
G03 X407.877 Y131.090 I1.156 J-0.816
G03 X407.922 Y130.840 I0.309 J-0.073
G01 X407.987 Y130.760  
G01 X408.264 Y130.517 
G01 X409.347 Y129.745 
G02 X410.919 Y128.567 I-11.527 J-17.025
G02 X413.512 Y125.859 I-10.300 J-12.461
G02 X415.097 Y123.413 I-15.985 J-12.092
G01 X416.080 Y121.533  
G01 X416.849 Y120.126 
G01 X417.371 Y119.373 
G01 X418.139 Y118.523 
G01 X418.864 Y117.841 
G01 X419.943 Y116.794 
G02 X421.022 Y115.488 I-8.379 J-8.023
G02 X422.389 Y112.447 I-7.010 J-4.978
G02 X422.663 Y110.646 I-11.650 J-2.694
G01 X422.723 Y110.286  
G01 X422.825 Y110.078 
G03 X423.918 Y109.355 I1.635 J1.282
G01 X424.157 Y109.340  
G01 X424.292 Y109.389 
G01 X424.391 Y109.454 
G01 X425.791 Y107.505  
G03 X426.875 Y108.737 I-2.130 J2.966
G03 X427.293 Y112.183 I-4.180 J2.256
G03 X426.857 Y113.181 I-3.346 J-0.866
G01 X426.405 Y113.790  
G01 X425.841 Y114.454 
G02 X425.080 Y116.109 I2.612 J2.204
G01 X425.031 Y116.659  
G01 X425.077 Y117.843 
G01 X425.039 Y118.407 
G03 X424.647 Y119.459 I-2.834 J-0.458
G03 X423.742 Y120.253 I-1.754 J-1.084
G01 X423.462 Y120.357  
G01 X422.710 Y120.580 
G02 X421.864 Y120.926 I1.369 J4.551
G02 X420.487 Y122.299 I1.538 J2.921
G02 X420.174 Y123.179 I2.831 J1.503
G01 X419.997 Y124.387  
G01 X419.895 Y125.550 
G01 X419.824 Y125.951 
G03 X419.585 Y126.493 I-1.984 J-0.553
G03 X419.195 Y126.953 I-1.789 J-1.123
G03 X418.343 Y127.582 I-3.978 J-4.500
G01 X417.365 Y128.157  
G01 X416.109 Y128.940 
G02 X414.976 Y130.002 I2.847 J4.173
G02 X414.203 Y131.504 I3.557 J2.781
G01 X413.827 Y132.938  
G01 X413.629 Y133.397 
G03 X412.783 Y134.257 I-2.084 J-1.204
G03 X410.286 Y134.971 I-2.581 J-4.303
G03 X407.256 Y134.066 I-0.087 J-5.231
G03 X406.138 Y132.968 I2.471 J-3.632
G03 X405.540 Y131.638 I3.116 J-2.201
G03 X405.931 Y129.501 I2.646 J-0.621
G01 X406.269 Y129.085  
G01 X406.824 Y128.597 
G01 X408.001 Y127.757 
G02 X409.390 Y126.717 I-10.182 J-15.038
G02 X411.598 Y124.411 I-8.771 J-10.611
G02 X412.993 Y122.258 I-14.071 J-10.644
G01 X413.931 Y120.464  
G01 X414.789 Y118.895 
G03 X415.495 Y117.876 I7.881 J4.710
G03 X416.459 Y116.809 I9.252 J7.388
G01 X417.257 Y116.058  
G01 X418.210 Y115.134 
G02 X419.065 Y114.099 I-6.646 J-6.363
G02 X420.051 Y111.906 I-5.053 J-3.589
G02 X420.270 Y110.466 I-9.312 J-2.153
G01 X420.399 Y109.683  
G03 X420.937 Y108.597 I2.873 J0.745
G03 X423.293 Y107.038 I3.523 J2.763
G03 X424.496 Y106.964 I0.781 J2.891
G03 X425.562 Y107.353 I-0.388 J2.718
G01 X425.791 Y107.505  
G00 Z31.080
G00 X346.433 Y148.340  F4000.0
G01 Z5.500 F1200.0 M3
G03 X345.020 Y147.378 I-0.535 J-0.732
G03 X346.732 Y147.229 I0.883 J0.231
G03 X346.784 Y147.824 I-0.808 J0.371
G03 X346.433 Y148.340 I-0.901 J-0.236
G01 X347.849 Y150.278  F2000.0
G03 X342.698 Y146.771 I-1.952 J-2.670
G03 X348.914 Y146.228 I3.205 J0.838
G03 X349.106 Y148.432 I-2.990 J1.371
G03 X347.849 Y150.278 I-3.223 J-0.843
G01 X349.265 Y152.216  
G03 X340.376 Y146.164 I-3.368 J-4.608
G03 X351.095 Y145.228 I5.527 J1.445
G03 X351.428 Y149.039 I-5.171 J2.372
G03 X349.265 Y152.216 I-5.544 J-1.450
G00 Z31.080
G00 X344.179 Y173.178  F4000.0
G01 Z5.500 F1200.0 M3
G03 X344.206 Y172.898 I0.429 J-0.100
G03 X344.963 Y172.003 I1.941 J0.873
G01 X345.216 Y171.882  F2000.0
G01 X345.447 Y171.847 
G01 X346.133 Y171.892 
G02 X347.459 Y171.974 I1.232 J-9.128
G02 X349.633 Y171.680 I-0.090 J-8.853
G02 X351.668 Y170.858 I-2.249 J-8.498
G01 X352.911 Y170.082  
G01 X354.453 Y169.026 
G01 X355.347 Y168.497 
G03 X356.495 Y168.030 I3.229 J6.296
G01 X358.067 Y167.583  
G01 X360.050 Y167.004 
G01 X361.683 Y166.413 
G02 X364.372 Y165.028 I-5.948 J-14.846
G01 X365.498 Y164.235  
G01 X366.589 Y163.321 
G01 X367.737 Y162.247 
G01 X368.403 Y161.682 
G01 X368.639 Y161.570 
G01 X368.838 Y161.593 
G03 X369.505 Y162.246 I-0.792 J1.475
G03 X369.820 Y164.107 I-2.426 J1.368
G03 X369.513 Y164.969 I-2.763 J-0.497
G03 X369.135 Y165.445 I-1.603 J-0.887
G01 X369.232 Y165.610  
G01 X369.135 Y165.445 
G01 X369.020 Y165.466 
G01 X368.591 Y165.473 
G02 X366.674 Y165.679 I-0.175 J7.415
G02 X363.817 Y167.107 I1.669 J6.908
G02 X362.755 Y168.113 I6.861 J8.308
G01 X361.662 Y169.312  
G01 X361.265 Y169.708 
G01 X361.096 Y169.849 
G01 X361.212 Y170.215 
G01 X361.096 Y169.849 
G01 X360.219 Y169.750 
G02 X358.825 Y169.626 I-1.743 J11.713
G02 X356.820 Y169.902 I-0.180 J6.107
G02 X353.614 Y172.425 I1.714 J5.478
G01 X353.133 Y173.308  
G01 X353.076 Y173.410 
G01 X353.294 Y173.730 
G01 X353.076 Y173.410 
G01 X352.572 Y173.328 
G01 X351.916 Y173.164 
G02 X349.493 Y173.051 I-1.476 J5.594
G02 X348.191 Y173.425 I0.962 J5.795
G02 X347.135 Y173.961 I3.100 J7.420
G01 X346.664 Y174.231  
G01 X346.488 Y174.306 
G01 X346.094 Y174.363 
G03 X344.813 Y173.947 I0.077 J-2.419
G03 X344.302 Y173.449 I1.141 J-1.683
G01 X344.179 Y173.178  
G01 X341.855 Y173.718  
G03 X342.031 Y171.919 I2.752 J-0.640
G03 X343.635 Y170.021 I4.116 J1.852
G03 X344.512 Y169.603 I1.866 J2.787
G03 X345.437 Y169.461 I0.937 J3.036
G01 X346.452 Y169.527  
G01 X347.435 Y169.588 
G02 X349.023 Y169.374 I-0.066 J-6.467
G02 X350.505 Y168.775 I-1.639 J-6.192
G01 X351.551 Y168.123  
G01 X353.117 Y167.050 
G01 X354.258 Y166.375 
G03 X355.794 Y165.750 I4.318 J8.419
G01 X357.463 Y165.275  
G01 X359.316 Y164.733 
G01 X360.796 Y164.199 
G02 X363.084 Y163.020 I-5.061 J-12.631
G01 X364.041 Y162.346  
G01 X364.985 Y161.555 
G01 X366.080 Y160.530 
G01 X366.983 Y159.766 
G03 X368.033 Y159.262 I1.831 J2.470
G03 X369.967 Y159.491 I0.675 J2.573
G03 X371.583 Y161.074 I-1.920 J3.577
G03 X372.168 Y164.530 I-4.504 J2.540
G03 X371.601 Y166.124 I-5.111 J-0.920
G03 X370.670 Y167.271 I-3.690 J-2.041
G03 X370.035 Y167.655 I-1.438 J-1.662
G03 X369.159 Y167.847 I-1.042 J-2.656
G01 X368.534 Y167.858  
G02 X367.234 Y167.997 I-0.119 J5.030
G02 X365.336 Y168.946 I1.109 J4.589
G01 X364.510 Y169.729  
G01 X363.435 Y170.909 
G01 X362.852 Y171.489 
G01 X362.368 Y171.877 
G03 X361.817 Y172.156 I-1.171 J-1.629
G03 X361.282 Y172.239 I-0.529 J-1.626
G01 X360.647 Y172.207  
G01 X359.868 Y172.110 
G01 X358.755 Y172.011 
G02 X357.533 Y172.179 I-0.110 J3.722
G02 X355.659 Y173.653 I1.002 J3.201
G01 X355.273 Y174.362  
G03 X354.865 Y175.007 I-3.216 J-1.584
G03 X354.140 Y175.569 I-1.510 J-1.198
G03 X353.015 Y175.795 I-1.065 J-2.388
G01 X352.629 Y175.763  
G01 X352.025 Y175.650 
G01 X351.308 Y175.471 
G02 X349.884 Y175.404 I-0.867 J3.288
G02 X349.110 Y175.627 I0.571 J3.441
G01 X348.368 Y176.003  
G01 X347.801 Y176.328 
G01 X347.228 Y176.574 
G03 X346.017 Y176.747 I-1.098 J-3.363
G03 X343.474 Y175.921 I0.154 J-4.804
G03 X342.364 Y174.840 I2.480 J-3.658
G03 X341.855 Y173.718 I2.556 J-1.834
G00 Z31.080
G00 X583.058 Y83.832  F4000.0
G01 Z5.500 F1200.0 M3
G01 X583.827 Y83.302  F2000.0
G01 X584.433 Y82.433 
G01 X584.944 Y81.784 
G01 X585.675 Y80.967 
G01 X586.411 Y80.262 
G01 X587.195 Y79.619 
G01 X588.029 Y79.035 
G01 X588.259 Y78.891 
G01 X588.882 Y78.104 
G01 X588.259 Y78.891 
G01 X587.807 Y80.534 
G01 X587.472 Y81.880 
G01 X587.281 Y82.722 
G01 X587.591 Y83.056 
G01 X587.281 Y82.722 
G01 X585.522 Y83.001 
G01 X583.827 Y83.302 
G01 X583.058 Y83.832 
G01 X581.187 Y83.021  
G01 X581.690 Y82.185  
G01 X582.229 Y81.382 
G01 X582.800 Y80.619 
G01 X583.403 Y79.892 
G01 X583.950 Y79.298 
G01 X584.523 Y78.735 
G01 X585.121 Y78.205 
G01 X585.745 Y77.707 
G01 X586.394 Y77.240 
G01 X587.069 Y76.804 
G01 X587.772 Y76.400 
G01 X588.497 Y76.030 
G01 X589.511 Y75.578 
G01 X590.558 Y75.179 
G01 X591.643 Y74.830 
G01 X592.235 Y74.666 
G01 X592.858 Y74.127 
G01 X592.235 Y74.666 
G01 X591.952 Y75.366 
G01 X591.375 Y76.956 
G01 X590.862 Y78.542 
G01 X590.479 Y79.849 
G01 X590.130 Y81.137 
G01 X589.807 Y82.436 
G01 X589.514 Y83.728 
G01 X589.275 Y84.865 
G01 X589.589 Y85.201 
G01 X589.275 Y84.865 
G01 X587.806 Y85.069 
G01 X585.920 Y85.368 
G01 X584.044 Y85.701 
G01 X582.180 Y86.068 
G01 X580.329 Y86.470 
G01 X579.478 Y86.672 
G01 X578.885 Y87.199 
G01 X579.478 Y86.672 
G01 X579.965 Y85.470 
G01 X580.548 Y84.221 
G01 X581.187 Y83.021 
G01 X579.100 Y81.837  
G01 X579.665 Y80.897  
G01 X580.271 Y79.995 
G01 X580.915 Y79.133 
G01 X581.596 Y78.312 
G01 X582.226 Y77.628 
G01 X582.886 Y76.980 
G01 X583.575 Y76.369 
G01 X584.294 Y75.794 
G01 X585.043 Y75.256 
G01 X585.820 Y74.755 
G01 X586.628 Y74.290 
G01 X587.462 Y73.865 
G01 X588.595 Y73.360 
G01 X589.763 Y72.914 
G01 X590.970 Y72.526 
G01 X592.221 Y72.196 
G01 X593.838 Y71.851 
G01 X595.494 Y71.572 
G01 X596.358 Y71.456 
G01 X597.030 Y71.000 
G01 X596.358 Y71.456 
G01 X596.142 Y71.859 
G01 X595.442 Y73.285 
G01 X594.793 Y74.741 
G01 X594.194 Y76.224 
G01 X593.646 Y77.735 
G01 X593.156 Y79.249 
G01 X592.789 Y80.501 
G01 X592.453 Y81.741 
G01 X592.142 Y82.991 
G01 X591.859 Y84.240 
G01 X591.272 Y87.034 
G01 X591.586 Y87.375 
G01 X591.272 Y87.034 
G01 X590.013 Y87.185 
G01 X588.159 Y87.443 
G01 X586.317 Y87.735 
G01 X584.486 Y88.060 
G01 X582.667 Y88.419 
G01 X580.860 Y88.811 
G01 X579.066 Y89.236 
G01 X577.284 Y89.696 
G01 X575.914 Y90.077 
G01 X575.389 Y90.618 
G01 X575.914 Y90.077 
G01 X576.379 Y88.390 
G01 X576.680 Y87.410 
G01 X577.191 Y85.931 
G01 X577.764 Y84.513 
G01 X578.400 Y83.149 
G01 X579.100 Y81.837 
G01 X577.012 Y80.653  
G01 X577.639 Y79.609  
G01 X578.312 Y78.607 
G01 X579.029 Y77.648 
G01 X579.789 Y76.732 
G01 X580.502 Y75.958 
G01 X581.249 Y75.225 
G01 X582.030 Y74.533 
G01 X582.844 Y73.882 
G01 X583.691 Y73.272 
G01 X584.572 Y72.705 
G01 X585.484 Y72.180 
G01 X586.426 Y71.700 
G01 X587.678 Y71.142 
G01 X588.967 Y70.650 
G01 X590.296 Y70.222 
G01 X591.667 Y69.861 
G01 X593.388 Y69.493 
G01 X595.146 Y69.197 
G01 X596.936 Y68.974 
G01 X598.755 Y68.824 
G01 X600.789 Y68.738 
G01 X601.513 Y68.352 
G01 X600.789 Y68.738 
G01 X600.535 Y69.106 
G01 X599.738 Y70.354 
G01 X598.984 Y71.639 
G01 X598.277 Y72.956 
G01 X597.616 Y74.303 
G01 X597.002 Y75.679 
G01 X596.435 Y77.083 
G01 X595.916 Y78.514 
G01 X595.450 Y79.956 
G01 X595.099 Y81.152 
G01 X594.776 Y82.344 
G01 X594.477 Y83.547 
G01 X594.203 Y84.753 
G01 X593.581 Y87.716 
G01 X593.283 Y89.234 
G01 X593.598 Y89.580 
G01 X593.283 Y89.234 
G01 X591.948 Y89.370 
G01 X590.322 Y89.565 
G01 X588.512 Y89.817 
G01 X586.715 Y90.102 
G01 X584.928 Y90.419 
G01 X583.154 Y90.769 
G01 X581.392 Y91.151 
G01 X579.642 Y91.566 
G01 X577.906 Y92.014 
G01 X576.185 Y92.493 
G01 X575.061 Y92.829 
G01 X573.947 Y93.182 
G01 X572.685 Y93.611 
G01 X572.201 Y94.183 
G01 X572.685 Y93.611 
G01 X573.004 Y91.964 
G01 X573.243 Y90.884 
G01 X573.501 Y89.814 
G01 X573.779 Y88.756 
G01 X574.077 Y87.710 
G01 X574.393 Y86.680 
G01 X574.660 Y85.875 
G01 X574.943 Y85.089 
G01 X575.245 Y84.315 
G01 X575.563 Y83.556 
G01 X575.899 Y82.810 
G01 X576.253 Y82.077 
G01 X576.623 Y81.359 
G01 X577.012 Y80.653 
G01 X574.924 Y79.468  
G01 X575.614 Y78.322  
G01 X576.354 Y77.219 
G01 X577.144 Y76.162 
G01 X577.982 Y75.152 
G01 X578.777 Y74.289 
G01 X579.611 Y73.470 
G01 X580.484 Y72.697 
G01 X581.394 Y71.969 
G01 X582.340 Y71.289 
G01 X583.323 Y70.655 
G01 X584.340 Y70.070 
G01 X585.391 Y69.534 
G01 X586.071 Y69.220 
G01 X586.761 Y68.924 
G01 X587.461 Y68.645 
G01 X588.172 Y68.385 
G01 X588.892 Y68.143 
G01 X589.622 Y67.919 
G01 X590.362 Y67.713 
G01 X591.112 Y67.525 
G01 X592.020 Y67.321 
G01 X592.938 Y67.136 
G01 X593.865 Y66.970 
G01 X594.798 Y66.823 
G01 X595.740 Y66.695 
G01 X596.688 Y66.587 
G01 X598.607 Y66.428 
G01 X599.683 Y66.372 
G01 X600.766 Y66.338 
G01 X601.923 Y66.322 
G01 X603.557 Y66.336 
G02 X604.862 Y65.881 I0.035 J-2.000
G01 X604.911 Y65.841  
G01 X605.231 Y65.509 
G01 X605.970 Y64.632 
G01 X607.301 Y63.175 
G01 X608.687 Y61.777 
G01 X610.126 Y60.437 
G01 X611.619 Y59.154 
G01 X613.165 Y57.932 
G01 X614.760 Y56.771 
G01 X616.402 Y55.674 
G01 X617.238 Y55.152 
G01 X618.193 Y54.585 
G01 X619.162 Y54.044 
G01 X620.146 Y53.527 
G01 X621.145 Y53.035 
G01 X622.160 Y52.568 
G01 X623.190 Y52.125 
G01 X624.235 Y51.708 
G01 X625.291 Y51.316 
G01 X626.178 Y51.015 
G01 X627.076 Y50.740 
G01 X627.986 Y50.491 
G01 X628.908 Y50.267 
G01 X629.842 Y50.068 
G01 X630.787 Y49.895 
G01 X631.743 Y49.749 
G01 X632.705 Y49.629 
G01 X633.907 Y49.519 
G01 X635.119 Y49.454 
G01 X636.345 Y49.434 
G01 X637.588 Y49.465 
G01 X637.765 Y49.547 
G01 X637.953 Y49.711 
G01 X638.054 Y49.842 
G01 X637.461 Y49.818 
G01 X636.491 Y49.814 
G01 X635.592 Y49.840 
G01 X634.704 Y49.891 
G01 X633.823 Y49.966 
G01 X632.949 Y50.065 
G01 X632.082 Y50.188 
G01 X631.223 Y50.336 
G01 X630.372 Y50.508 
G01 X629.532 Y50.704 
G01 X628.552 Y50.961 
G01 X627.585 Y51.241 
G01 X626.629 Y51.544 
G01 X625.683 Y51.870 
G01 X624.750 Y52.220 
G01 X623.828 Y52.593 
G01 X622.918 Y52.988 
G01 X622.015 Y53.409 
G01 X620.525 Y54.162 
G01 X619.063 Y54.969 
G01 X617.635 Y55.828 
G01 X616.244 Y56.737 
G01 X614.907 Y57.676 
G01 X613.604 Y58.654 
G01 X612.332 Y59.671 
G01 X611.092 Y60.727 
G01 X609.886 Y61.821 
G01 X608.712 Y62.953 
G01 X607.573 Y64.122 
G01 X606.466 Y65.330 
G01 X605.422 Y66.547 
G01 X604.418 Y67.805 
G01 X603.456 Y69.100 
G01 X602.534 Y70.434 
G01 X601.785 Y71.608 
G01 X601.077 Y72.815 
G01 X600.412 Y74.053 
G01 X599.790 Y75.320 
G01 X599.212 Y76.617 
G01 X598.677 Y77.941 
G01 X598.187 Y79.293 
G01 X597.743 Y80.664 
G01 X597.409 Y81.803 
G01 X597.099 Y82.947 
G01 X596.812 Y84.103 
G01 X596.548 Y85.265 
G01 X595.933 Y88.194 
G01 X595.286 Y91.449 
G01 X592.212 Y91.755 
G01 X590.631 Y91.945 
G01 X588.866 Y92.191 
G01 X587.112 Y92.469 
G01 X585.370 Y92.778 
G01 X583.641 Y93.119 
G01 X581.923 Y93.492 
G01 X580.219 Y93.896 
G01 X578.527 Y94.332 
G01 X576.851 Y94.799 
G01 X574.693 Y95.464 
G01 X572.572 Y96.199 
G01 X570.487 Y97.006 
G01 X568.439 Y97.884 
G01 X566.641 Y98.733 
G01 X564.881 Y99.647 
G01 X563.161 Y100.624 
G01 X561.478 Y101.666 
G01 X560.495 Y102.322 
G01 X559.530 Y103.011 
G01 X558.587 Y103.729 
G01 X557.667 Y104.476 
G01 X556.771 Y105.251 
G01 X555.898 Y106.053 
G01 X555.050 Y106.883 
G01 X554.224 Y107.743 
G01 X553.321 Y108.750 
G01 X552.452 Y109.795 
G01 X551.622 Y110.873 
G01 X550.829 Y111.984 
G01 X550.075 Y113.128 
G01 X549.360 Y114.304 
G01 X548.684 Y115.510 
G01 X548.051 Y116.741 
G01 X547.586 Y117.716 
G01 X547.146 Y118.700 
G01 X546.727 Y119.698 
G01 X546.331 Y120.709 
G01 X545.958 Y121.734 
G01 X545.607 Y122.771 
G01 X545.278 Y123.822 
G01 X544.977 Y124.868 
G01 X544.799 Y124.658 
G01 X544.692 Y124.439 
G01 X544.664 Y124.286 
G01 X545.039 Y122.934 
G01 X545.362 Y121.890 
G01 X545.706 Y120.860 
G01 X546.073 Y119.844 
G01 X546.462 Y118.842 
G01 X546.873 Y117.855 
G01 X547.305 Y116.883 
G01 X547.759 Y115.926 
G01 X548.187 Y115.077 
G01 X548.634 Y114.244 
G01 X549.099 Y113.425 
G01 X549.581 Y112.622 
G01 X550.081 Y111.834 
G01 X550.599 Y111.062 
G01 X551.134 Y110.306 
G01 X551.686 Y109.566 
G01 X552.255 Y108.843 
G01 X552.841 Y108.136 
G01 X553.443 Y107.445 
G01 X554.062 Y106.772 
G01 X554.698 Y106.115 
G01 X555.349 Y105.476 
G01 X556.017 Y104.854 
G01 X557.314 Y103.732 
G01 X558.571 Y102.735 
G01 X559.869 Y101.790 
G01 X561.205 Y100.898 
G01 X562.682 Y99.995 
G01 X564.297 Y99.086 
G01 X565.948 Y98.231 
G01 X567.634 Y97.432 
G01 X568.773 Y96.932 
G02 X569.964 Y95.386 I-0.788 J-1.838
G01 X570.220 Y93.754  
G01 X570.427 Y92.606 
G01 X570.655 Y91.469 
G01 X570.904 Y90.342 
G01 X571.174 Y89.227 
G01 X571.464 Y88.122 
G01 X571.776 Y87.029 
G01 X572.107 Y85.950 
G01 X572.392 Y85.091 
G01 X572.696 Y84.247 
G01 X573.019 Y83.416 
G01 X573.362 Y82.598 
G01 X573.724 Y81.795 
G01 X574.105 Y81.005 
G01 X574.505 Y80.230 
G01 X574.924 Y79.468 
G00 Z31.080
G00 X646.418 Y106.370  F4000.0
G01 Z5.500 F1200.0 M3
G03 X645.005 Y105.408 I-0.535 J-0.732
G03 X646.717 Y105.258 I0.883 J0.231
G03 X646.769 Y105.854 I-0.808 J0.371
G03 X646.418 Y106.370 I-0.901 J-0.236
G01 X647.834 Y108.307  F2000.0
G03 X642.683 Y104.800 I-1.952 J-2.670
G03 X648.899 Y104.258 I3.205 J0.838
G03 X649.091 Y106.461 I-2.990 J1.371
G03 X647.834 Y108.307 I-3.223 J-0.843
G01 X649.250 Y110.245  
G03 X640.361 Y104.193 I-3.368 J-4.608
G03 X651.080 Y103.257 I5.527 J1.445
G03 X651.413 Y107.068 I-5.171 J2.372
G03 X649.250 Y110.245 I-5.545 J-1.450
G00 Z31.080
G00 X671.458 Y109.454  F4000.0
G01 Z5.500 F1200.0 M3
G03 X671.830 Y109.877 I-0.730 J1.017
G03 X672.036 Y111.581 I-2.068 J1.116
G01 X671.903 Y111.886  F2000.0
G01 X671.648 Y112.230 
G01 X671.074 Y112.906 
G02 X669.778 Y115.724 I4.446 J3.752
G01 X669.698 Y116.617  
G01 X669.745 Y117.903 
G01 X669.720 Y118.093 
G01 X669.960 Y118.374 
G01 X669.720 Y118.093 
G01 X669.086 Y118.281 
G02 X667.813 Y118.802 I2.060 J6.849
G02 X665.434 Y121.174 I2.657 J5.044
G02 X664.886 Y122.713 I4.951 J2.628
G01 X664.675 Y124.158  
G01 X664.580 Y125.234 
G01 X664.907 Y125.398 
G01 X664.580 Y125.234 
G01 X664.161 Y125.532 
G01 X663.247 Y126.070 
G01 X661.824 Y126.957 
G02 X660.152 Y128.524 I4.199 J6.156
G02 X658.969 Y130.824 I5.448 J4.259
G01 X658.609 Y132.203  
G01 X658.826 Y132.317 
G01 X658.609 Y132.203 
G03 X657.313 Y132.571 I-1.340 J-2.249
G03 X655.673 Y132.081 I-0.047 J-2.831
G03 X655.166 Y131.583 I1.121 J-1.648
G03 X654.944 Y131.090 I1.156 J-0.816
G03 X654.990 Y130.840 I0.309 J-0.073
G01 X655.055 Y130.760  
G01 X655.331 Y130.517 
G01 X656.414 Y129.745 
G02 X657.986 Y128.567 I-11.527 J-17.025
G02 X660.579 Y125.859 I-10.300 J-12.461
G02 X662.164 Y123.413 I-15.985 J-12.092
G01 X663.147 Y121.533  
G01 X663.916 Y120.126 
G01 X664.438 Y119.373 
G01 X665.206 Y118.523 
G01 X665.931 Y117.841 
G01 X667.010 Y116.794 
G02 X668.089 Y115.488 I-8.379 J-8.023
G02 X669.456 Y112.447 I-7.010 J-4.978
G02 X669.730 Y110.646 I-11.650 J-2.694
G01 X669.790 Y110.286  
G01 X669.892 Y110.078 
G03 X670.986 Y109.355 I1.635 J1.282
G01 X671.225 Y109.340  
G01 X671.359 Y109.389 
G01 X671.458 Y109.454 
G01 X672.858 Y107.505  
G03 X673.942 Y108.737 I-2.130 J2.966
G03 X674.360 Y112.183 I-4.180 J2.256
G03 X673.924 Y113.181 I-3.346 J-0.866
G01 X673.472 Y113.790  
G01 X672.908 Y114.454 
G02 X672.147 Y116.109 I2.612 J2.204
G01 X672.098 Y116.659  
G01 X672.144 Y117.843 
G01 X672.106 Y118.407 
G03 X671.714 Y119.459 I-2.834 J-0.458
G03 X670.809 Y120.253 I-1.754 J-1.084
G01 X670.529 Y120.357  
G01 X669.777 Y120.580 
G02 X668.931 Y120.926 I1.369 J4.551
G02 X667.554 Y122.299 I1.538 J2.921
G02 X667.241 Y123.179 I2.831 J1.503
G01 X667.064 Y124.387  
G01 X666.962 Y125.550 
G01 X666.891 Y125.951 
G03 X666.652 Y126.493 I-1.984 J-0.553
G03 X666.262 Y126.953 I-1.789 J-1.123
G03 X665.410 Y127.582 I-3.978 J-4.500
G01 X664.432 Y128.157  
G01 X663.177 Y128.940 
G02 X662.043 Y130.002 I2.847 J4.173
G02 X661.270 Y131.504 I3.557 J2.781
G01 X660.894 Y132.938  
G01 X660.696 Y133.397 
G03 X659.850 Y134.257 I-2.084 J-1.204
G03 X657.353 Y134.971 I-2.581 J-4.303
G03 X654.323 Y134.066 I-0.087 J-5.231
G03 X653.205 Y132.968 I2.471 J-3.632
G03 X652.607 Y131.638 I3.116 J-2.201
G03 X652.998 Y129.501 I2.646 J-0.621
G01 X653.336 Y129.085  
G01 X653.891 Y128.597 
G01 X655.068 Y127.757 
G02 X656.457 Y126.717 I-10.182 J-15.038
G02 X658.665 Y124.411 I-8.771 J-10.611
G02 X660.060 Y122.258 I-14.071 J-10.644
G01 X660.998 Y120.464  
G01 X661.856 Y118.895 
G03 X662.562 Y117.876 I7.881 J4.710
G03 X663.526 Y116.809 I9.252 J7.388
G01 X664.325 Y116.058  
G01 X665.277 Y115.134 
G02 X666.132 Y114.099 I-6.646 J-6.363
G02 X667.118 Y111.906 I-5.053 J-3.589
G02 X667.337 Y110.466 I-9.312 J-2.153
G01 X667.467 Y109.683  
G03 X668.004 Y108.597 I2.873 J0.745
G03 X670.360 Y107.038 I3.523 J2.763
G03 X671.564 Y106.964 I0.781 J2.891
G03 X672.630 Y107.353 I-0.388 J2.718
G01 X672.858 Y107.505  
G00 Z31.080
G00 X593.500 Y148.340  F4000.0
G01 Z5.500 F1200.0 M3
G03 X592.087 Y147.378 I-0.535 J-0.732
G03 X593.799 Y147.229 I0.883 J0.231
G03 X593.852 Y147.824 I-0.808 J0.371
G03 X593.500 Y148.340 I-0.901 J-0.236
G01 X594.916 Y150.278  F2000.0
G03 X589.765 Y146.771 I-1.952 J-2.670
G03 X595.981 Y146.228 I3.205 J0.838
G03 X596.173 Y148.432 I-2.990 J1.371
G03 X594.916 Y150.278 I-3.223 J-0.843
G01 X596.333 Y152.216  
G03 X587.443 Y146.164 I-3.368 J-4.608
G03 X598.163 Y145.228 I5.527 J1.445
G03 X598.495 Y149.039 I-5.171 J2.372
G03 X596.333 Y152.216 I-5.544 J-1.450
G00 Z31.080
G00 X591.246 Y173.178  F4000.0
G01 Z5.500 F1200.0 M3
G03 X591.273 Y172.898 I0.429 J-0.100
G03 X592.030 Y172.003 I1.941 J0.873
G01 X592.283 Y171.882  F2000.0
G01 X592.514 Y171.847 
G01 X593.200 Y171.892 
G02 X594.526 Y171.974 I1.232 J-9.128
G02 X596.700 Y171.680 I-0.090 J-8.853
G02 X598.735 Y170.858 I-2.249 J-8.498
G01 X599.978 Y170.082  
G01 X601.520 Y169.026 
G01 X602.414 Y168.497 
G03 X603.562 Y168.030 I3.229 J6.296
G01 X605.134 Y167.583  
G01 X607.117 Y167.004 
G01 X608.750 Y166.413 
G02 X611.439 Y165.028 I-5.948 J-14.846
G01 X612.565 Y164.235  
G01 X613.656 Y163.321 
G01 X614.804 Y162.247 
G01 X615.470 Y161.682 
G01 X615.706 Y161.570 
G01 X615.905 Y161.593 
G03 X616.572 Y162.246 I-0.792 J1.475
G03 X616.887 Y164.107 I-2.426 J1.368
G03 X616.581 Y164.969 I-2.763 J-0.497
G03 X616.202 Y165.445 I-1.602 J-0.887
G01 X616.300 Y165.610  
G01 X616.202 Y165.445 
G01 X616.087 Y165.466 
G01 X615.658 Y165.473 
G02 X613.741 Y165.679 I-0.175 J7.415
G02 X610.884 Y167.107 I1.669 J6.908
G02 X609.822 Y168.113 I6.861 J8.308
G01 X608.729 Y169.312  
G01 X608.332 Y169.708 
G01 X608.163 Y169.849 
G01 X608.279 Y170.215 
G01 X608.163 Y169.849 
G01 X607.286 Y169.750 
G02 X605.892 Y169.626 I-1.743 J11.713
G02 X603.888 Y169.902 I-0.180 J6.107
G02 X600.681 Y172.425 I1.714 J5.478
G01 X600.200 Y173.308  
G01 X600.143 Y173.410 
G01 X600.361 Y173.730 
G01 X600.143 Y173.410 
G01 X599.639 Y173.328 
G01 X598.984 Y173.164 
G02 X596.560 Y173.051 I-1.476 J5.594
G02 X595.258 Y173.425 I0.962 J5.795
G02 X594.202 Y173.961 I3.100 J7.420
G01 X593.731 Y174.231  
G01 X593.555 Y174.306 
G01 X593.161 Y174.363 
G03 X591.880 Y173.947 I0.077 J-2.419
G03 X591.369 Y173.449 I1.141 J-1.683
G01 X591.246 Y173.178  
G01 X588.922 Y173.718  
G03 X589.098 Y171.919 I2.752 J-0.640
G03 X590.702 Y170.021 I4.116 J1.852
G03 X591.579 Y169.603 I1.866 J2.787
G03 X592.505 Y169.461 I0.937 J3.036
G01 X593.519 Y169.527  
G01 X594.502 Y169.588 
G02 X596.090 Y169.374 I-0.066 J-6.467
G02 X597.572 Y168.775 I-1.639 J-6.192
G01 X598.618 Y168.123  
G01 X600.184 Y167.050 
G01 X601.325 Y166.375 
G03 X602.861 Y165.750 I4.318 J8.419
G01 X604.530 Y165.275  
G01 X606.384 Y164.733 
G01 X607.863 Y164.199 
G02 X610.151 Y163.020 I-5.061 J-12.631
G01 X611.108 Y162.346  
G01 X612.052 Y161.555 
G01 X613.148 Y160.530 
G01 X614.050 Y159.766 
G03 X615.100 Y159.262 I1.831 J2.470
G03 X617.034 Y159.491 I0.675 J2.573
G03 X618.650 Y161.074 I-1.920 J3.577
G03 X619.235 Y164.530 I-4.504 J2.540
G03 X618.668 Y166.124 I-5.111 J-0.920
G03 X617.737 Y167.271 I-3.690 J-2.041
G03 X617.102 Y167.655 I-1.438 J-1.662
G03 X616.226 Y167.847 I-1.042 J-2.656
G01 X615.602 Y167.858  
G02 X614.301 Y167.997 I-0.119 J5.030
G02 X612.403 Y168.946 I1.109 J4.589
G01 X611.577 Y169.729  
G01 X610.502 Y170.909 
G01 X609.919 Y171.489 
G01 X609.435 Y171.877 
G03 X608.885 Y172.156 I-1.171 J-1.629
G03 X608.350 Y172.239 I-0.529 J-1.626
G01 X607.714 Y172.207  
G01 X606.935 Y172.110 
G01 X605.822 Y172.011 
G02 X604.600 Y172.179 I-0.110 J3.722
G02 X602.726 Y173.653 I1.002 J3.201
G01 X602.340 Y174.362  
G03 X601.932 Y175.007 I-3.216 J-1.584
G03 X601.207 Y175.569 I-1.510 J-1.198
G03 X600.082 Y175.795 I-1.065 J-2.388
G01 X599.697 Y175.763  
G01 X599.092 Y175.650 
G01 X598.375 Y175.471 
G02 X596.951 Y175.404 I-0.867 J3.288
G02 X596.177 Y175.627 I0.571 J3.441
G01 X595.435 Y176.003  
G01 X594.869 Y176.328 
G01 X594.295 Y176.574 
G03 X593.085 Y176.747 I-1.098 J-3.363
G03 X590.541 Y175.921 I0.154 J-4.804
G03 X589.431 Y174.840 I2.480 J-3.658
G03 X588.922 Y173.718 I2.556 J-1.834
G00 Z31.080
G00 Z46.320
M05
M1
( cutout [1] )
T21 M6( TOOL USE End Mill 6 mm  )
S18000 M03
( cutout [1] )
G00 X31.395 Y23.883 Z31.080 F6000.0
G01 Z21.000 F750.0 M3
G01 X30.917 Y24.565  F3000.0
G01 X30.468 Y25.266 
G01 X30.048 Y25.985 
G01 X29.660 Y26.717 
G01 X29.324 Y27.411 
G01 X29.013 Y28.109 
G01 X28.726 Y28.818 
G01 X28.463 Y29.531 
G01 X27.767 Y31.615 
G01 X27.471 Y32.503 
G01 X27.174 Y33.329 
G01 X27.100 Y33.512 
G01 X27.026 Y33.672 
G01 X26.944 Y33.829 
G01 X26.864 Y33.965 
G01 X26.764 Y34.112 
G01 X26.665 Y34.237 
G01 X26.557 Y34.353 
G01 X26.413 Y34.487 
G01 X25.995 Y34.838 
G01 X25.504 Y35.230 
G01 X24.731 Y35.853 
G01 X23.942 Y36.534 
G01 X23.297 Y37.134 
G01 X22.674 Y37.763 
G01 X22.077 Y38.416 
G01 X21.509 Y39.091 
G01 X20.954 Y39.804 
G01 X20.427 Y40.533 
G01 X19.927 Y41.281 
G01 X19.455 Y42.046 
G01 X19.011 Y42.827 
G01 X18.595 Y43.625 
G01 X18.209 Y44.437 
G01 X17.850 Y45.266 
G01 X17.548 Y46.045 
G01 X17.276 Y46.838 
G01 X17.037 Y47.640 
G01 X16.830 Y48.451 
G01 X16.655 Y49.269 
G01 X16.514 Y50.094 
G01 X16.405 Y50.924 
G01 X16.330 Y51.751 
G01 X16.257 Y53.076 
G01 X16.224 Y54.326 
G01 X16.201 Y54.872 
G01 X16.151 Y55.355 
G01 X16.130 Y55.480 
G01 X16.102 Y55.611 
G01 X16.067 Y55.741 
G01 X16.026 Y55.864 
G01 X15.993 Y55.948 
G01 X15.958 Y56.026 
G01 X15.917 Y56.101 
G01 X15.867 Y56.184 
G01 X15.653 Y56.497 
G01 X15.371 Y56.872 
G01 X15.154 Y57.166 
G01 X14.912 Y57.537 
G01 X14.693 Y57.922 
G01 X14.491 Y58.335 
G01 X14.276 Y58.865 
G01 X14.100 Y59.427 
G01 X13.972 Y60.000 
G01 X13.895 Y60.546 
G01 X13.783 Y61.931 
G01 X13.733 Y62.518 
G01 X13.671 Y63.025 
G01 X13.628 Y63.269 
G01 X13.573 Y63.484 
G01 X13.503 Y63.695 
G01 X13.414 Y63.913 
G01 X13.315 Y64.114 
G01 X13.200 Y64.321 
G01 X13.073 Y64.521 
G01 X12.916 Y64.742 
G01 X11.887 Y66.097 
G01 X11.359 Y66.818 
G01 X10.830 Y67.609 
G01 X10.443 Y68.268 
G01 X10.094 Y68.969 
G01 X9.796 Y69.694 
G01 X9.552 Y70.430 
G01 X9.370 Y71.130 
G01 X9.230 Y71.830 
G01 X9.131 Y72.537 
G01 X9.074 Y73.243 
G01 X9.039 Y74.551 
G01 X9.069 Y75.831 
G01 X9.152 Y77.268 
G01 X9.260 Y78.643 
G01 X9.307 Y79.271 
G01 X9.333 Y79.862 
G01 X9.343 Y80.455 
G01 X9.336 Y81.043 
G01 X9.318 Y81.455 
G01 X9.286 Y81.861 
G01 X9.240 Y82.266 
G01 X9.182 Y82.660 
G01 X9.078 Y83.204 
G01 X8.952 Y83.733 
G01 X8.800 Y84.255 
G01 X8.625 Y84.766 
G01 X8.264 Y85.671 
G01 X7.840 Y86.591 
G01 X6.538 Y89.249 
G01 X5.829 Y90.768 
G01 X5.160 Y92.331 
G01 X4.642 Y93.664 
G01 X4.172 Y95.019 
G01 X3.752 Y96.391 
G01 X3.387 Y97.765 
G01 X3.182 Y98.634 
G01 X2.997 Y99.495 
G01 X2.829 Y100.359 
G01 X2.678 Y101.226 
G01 X2.544 Y102.096 
G01 X2.426 Y102.968 
G01 X2.326 Y103.843 
G01 X2.244 Y104.716 
G01 X2.161 Y105.790 
G01 X2.096 Y106.863 
G01 X2.047 Y107.936 
G01 X2.015 Y109.009 
G01 X2.000 Y110.083 
G01 X2.002 Y111.157 
G01 X2.020 Y112.231 
G01 X2.056 Y113.306 
G01 X2.125 Y114.709 
G01 X2.218 Y116.111 
G01 X2.335 Y117.511 
G01 X2.476 Y118.909 
G01 X2.630 Y120.217 
G01 X2.803 Y121.522 
G01 X2.997 Y122.823 
G01 X3.211 Y124.122 
G01 X3.446 Y125.416 
G01 X3.700 Y126.708 
G01 X3.975 Y127.995 
G01 X4.272 Y129.287 
G01 X4.765 Y131.235 
G01 X5.316 Y133.177 
G01 X5.923 Y135.102 
G01 X6.587 Y137.014 
G01 X7.189 Y138.583 
G01 X7.848 Y140.133 
G01 X8.560 Y141.659 
G01 X9.322 Y143.150 
G01 X9.757 Y143.947 
G01 X10.204 Y144.726 
G01 X10.666 Y145.494 
G01 X11.144 Y146.252 
G01 X11.637 Y147.000 
G01 X12.145 Y147.738 
G01 X12.669 Y148.464 
G01 X13.207 Y149.180 
G01 X13.759 Y149.884 
G01 X14.326 Y150.577 
G01 X14.908 Y151.258 
G01 X15.504 Y151.928 
G01 X16.113 Y152.585 
G01 X16.736 Y153.229 
G01 X17.373 Y153.861 
G01 X18.022 Y154.479 
G01 X18.803 Y155.195 
G01 X19.595 Y155.895 
G01 X20.400 Y156.580 
G01 X21.216 Y157.251 
G01 X22.044 Y157.908 
G01 X22.884 Y158.549 
G01 X23.735 Y159.175 
G01 X24.601 Y159.789 
G01 X25.886 Y160.661 
G01 X27.194 Y161.504 
G01 X28.613 Y162.375 
G01 X30.051 Y163.215 
G01 X30.570 Y163.503 
G01 X30.968 Y163.735 
G01 X31.045 Y163.787 
G01 X31.123 Y163.847 
G01 X31.197 Y163.912 
G01 X31.268 Y163.982 
G01 X31.333 Y164.055 
G01 X31.395 Y164.133 
G01 X31.451 Y164.214 
G01 X31.492 Y164.283 
G01 X31.578 Y164.452 
G01 X31.641 Y164.609 
G01 X31.691 Y164.771 
G01 X31.735 Y164.983 
G01 X31.915 Y166.162 
G01 X32.104 Y167.445 
G01 X32.313 Y168.752 
G01 X32.539 Y170.058 
G01 X32.784 Y171.366 
G01 X33.008 Y172.459 
G01 X33.257 Y173.553 
G01 X33.529 Y174.642 
G01 X33.830 Y175.743 
G01 X34.171 Y176.841 
G01 X34.571 Y177.940 
G01 X35.022 Y179.018 
G01 X35.519 Y180.066 
G01 X35.840 Y180.676 
G01 X36.177 Y181.267 
G01 X36.533 Y181.845 
G01 X36.908 Y182.411 
G01 X37.302 Y182.964 
G01 X37.715 Y183.503 
G01 X38.146 Y184.029 
G01 X38.596 Y184.540 
G01 X39.102 Y185.078 
G01 X39.628 Y185.597 
G01 X40.171 Y186.098 
G01 X40.730 Y186.578 
G01 X41.366 Y187.087 
G01 X42.015 Y187.574 
G01 X42.680 Y188.039 
G01 X43.354 Y188.480 
G01 X44.273 Y189.045 
G01 X45.200 Y189.586 
G01 X46.138 Y190.105 
G01 X47.045 Y190.581 
G01 X47.475 Y190.811 
G01 X47.830 Y191.021 
G01 X48.169 Y191.250 
G01 X48.474 Y191.492 
G01 X48.736 Y191.732 
G01 X48.986 Y191.994 
G01 X49.218 Y192.273 
G01 X49.432 Y192.568 
G01 X49.643 Y192.901 
G01 X49.832 Y193.247 
G01 X50.000 Y193.606 
G01 X50.154 Y194.000 
G01 X50.440 Y194.841 
G01 X50.722 Y195.746 
G01 X51.808 Y199.313 
G01 X52.359 Y200.974 
G01 X52.971 Y202.624 
G01 X53.230 Y203.259 
G01 X53.504 Y203.882 
G01 X53.795 Y204.497 
G01 X54.104 Y205.103 
G01 X54.429 Y205.701 
G01 X54.770 Y206.289 
G01 X55.128 Y206.868 
G01 X55.512 Y207.451 
G01 X56.255 Y208.488 
G01 X57.060 Y209.499 
G01 X57.915 Y210.467 
G01 X58.807 Y211.380 
G01 X59.531 Y212.063 
G01 X60.261 Y212.714 
G01 X61.008 Y213.344 
G01 X61.773 Y213.952 
G01 X62.555 Y214.539 
G01 X63.354 Y215.103 
G01 X64.168 Y215.644 
G01 X64.993 Y216.160 
G01 X65.790 Y216.630 
G01 X66.592 Y217.081 
G01 X67.403 Y217.515 
G01 X68.189 Y217.914 
G01 X69.667 Y218.673 
G01 X71.088 Y219.457 
G01 X71.762 Y219.855 
G01 X72.424 Y220.274 
G01 X73.073 Y220.712 
G01 X73.699 Y221.161 
G01 X74.029 Y221.418 
G01 X74.337 Y221.682 
G01 X74.632 Y221.960 
G01 X74.887 Y222.225 
G01 X74.960 Y222.313 
G01 X75.000 Y222.372 
G01 X75.033 Y222.432 
G01 X75.060 Y222.495 
G01 X75.080 Y222.560 
G01 X75.095 Y222.627 
G01 X75.103 Y222.696 
G01 X75.105 Y222.766 
G01 X75.100 Y222.836 
G01 X75.089 Y222.904 
G01 X75.072 Y222.971 
G01 X75.048 Y223.035 
G01 X75.019 Y223.096 
G01 X74.984 Y223.155 
G01 X74.941 Y223.213 
G01 X74.889 Y223.269 
G01 X74.832 Y223.321 
G01 X74.775 Y223.364 
G01 X74.716 Y223.399 
G01 X74.655 Y223.428 
G01 X74.591 Y223.451 
G01 X74.524 Y223.469 
G01 X74.456 Y223.480 
G01 X74.386 Y223.484 
G01 X74.316 Y223.483 
G01 X74.247 Y223.474 
G01 X74.180 Y223.460 
G01 X74.115 Y223.439 
G01 X74.052 Y223.413 
G01 X73.992 Y223.380 
G01 X73.933 Y223.340 
G01 X73.842 Y223.264 
G01 X73.483 Y222.919 
G01 X73.021 Y222.469 
G01 X72.506 Y221.996 
G01 X71.977 Y221.537 
G01 X71.436 Y221.094 
G01 X70.871 Y220.659 
G01 X70.294 Y220.241 
G01 X69.705 Y219.840 
G01 X69.105 Y219.457 
G01 X68.493 Y219.092 
G01 X67.872 Y218.744 
G01 X67.239 Y218.415 
G01 X66.598 Y218.105 
G01 X65.997 Y217.836 
G01 X65.391 Y217.584 
G01 X64.778 Y217.349 
G01 X64.159 Y217.132 
G01 X63.535 Y216.933 
G01 X62.906 Y216.752 
G01 X62.273 Y216.588 
G01 X61.635 Y216.442 
G01 X60.993 Y216.314 
G01 X60.348 Y216.204 
G01 X59.700 Y216.112 
G01 X59.049 Y216.038 
G01 X58.396 Y215.983 
G01 X57.741 Y215.946 
G01 X57.084 Y215.927 
G01 X56.422 Y215.927 
G01 X55.603 Y215.953 
G01 X54.781 Y216.006 
G01 X53.962 Y216.086 
G01 X53.147 Y216.195 
G01 X52.336 Y216.330 
G01 X51.529 Y216.493 
G01 X50.728 Y216.683 
G01 X49.935 Y216.900 
G01 X49.195 Y217.128 
G01 X48.465 Y217.378 
G01 X47.744 Y217.650 
G01 X47.033 Y217.944 
G01 X46.332 Y218.259 
G01 X45.641 Y218.595 
G01 X44.961 Y218.952 
G01 X44.293 Y219.329 
G01 X43.636 Y219.727 
G01 X42.992 Y220.144 
G01 X42.361 Y220.582 
G01 X41.742 Y221.039 
G01 X41.138 Y221.515 
G01 X40.548 Y222.010 
G01 X39.972 Y222.524 
G01 X39.412 Y223.056 
G01 X38.879 Y223.595 
G01 X38.363 Y224.150 
G01 X37.865 Y224.722 
G01 X37.386 Y225.308 
G01 X36.925 Y225.909 
G01 X36.483 Y226.525 
G01 X36.061 Y227.155 
G01 X35.660 Y227.797 
G01 X35.305 Y228.404 
G01 X34.970 Y229.020 
G01 X34.654 Y229.644 
G01 X34.358 Y230.277 
G01 X34.080 Y230.918 
G01 X33.822 Y231.567 
G01 X33.584 Y232.222 
G01 X33.365 Y232.885 
G01 X33.167 Y233.553 
G01 X32.988 Y234.228 
G01 X32.829 Y234.908 
G01 X32.691 Y235.592 
G01 X32.573 Y236.281 
G01 X32.475 Y236.974 
G01 X32.399 Y237.671 
G01 X32.342 Y238.382 
G01 X32.295 Y239.493 
G01 X32.298 Y240.616 
G01 X32.351 Y241.737 
G01 X32.454 Y242.844 
G01 X32.555 Y243.620 
G01 X32.677 Y244.381 
G01 X32.821 Y245.137 
G01 X32.988 Y245.889 
G01 X33.177 Y246.635 
G01 X33.388 Y247.376 
G01 X33.620 Y248.111 
G01 X33.874 Y248.838 
G01 X34.120 Y249.479 
G01 X34.383 Y250.111 
G01 X34.664 Y250.736 
G01 X34.963 Y251.352 
G01 X35.279 Y251.959 
G01 X35.613 Y252.557 
G01 X35.963 Y253.145 
G01 X36.341 Y253.740 
G01 X37.055 Y254.765 
G01 X37.833 Y255.764 
G01 X38.664 Y256.718 
G01 X39.543 Y257.624 
G01 X40.471 Y258.482 
G01 X41.444 Y259.289 
G01 X42.444 Y260.031 
G01 X42.985 Y260.400 
G01 X43.523 Y260.745 
G01 X44.209 Y261.156 
G01 X44.911 Y261.547 
G01 X45.625 Y261.914 
G01 X46.350 Y262.257 
G01 X47.087 Y262.577 
G01 X47.833 Y262.872 
G01 X48.590 Y263.143 
G01 X49.353 Y263.388 
G01 X50.079 Y263.597 
G01 X50.808 Y263.782 
G01 X51.541 Y263.946 
G01 X52.278 Y264.087 
G01 X53.018 Y264.206 
G01 X53.761 Y264.303 
G01 X54.506 Y264.378 
G01 X55.252 Y264.430 
G01 X56.000 Y264.460 
G01 X56.749 Y264.467 
G01 X57.498 Y264.453 
G01 X58.246 Y264.416 
G01 X58.994 Y264.356 
G01 X59.741 Y264.274 
G01 X60.486 Y264.169 
G01 X61.229 Y264.042 
G01 X61.971 Y263.891 
G01 X62.709 Y263.717 
G01 X63.441 Y263.520 
G01 X64.165 Y263.300 
G01 X64.883 Y263.057 
G01 X65.592 Y262.791 
G01 X66.293 Y262.503 
G01 X66.985 Y262.193 
G01 X67.617 Y261.886 
G01 X68.238 Y261.561 
G01 X68.848 Y261.218 
G01 X69.447 Y260.858 
G01 X70.034 Y260.479 
G01 X70.610 Y260.084 
G01 X71.173 Y259.672 
G01 X71.723 Y259.244 
G01 X72.260 Y258.799 
G01 X72.784 Y258.338 
G01 X73.295 Y257.862 
G01 X73.791 Y257.370 
G01 X74.272 Y256.864 
G01 X74.739 Y256.342 
G01 X75.191 Y255.806 
G01 X75.626 Y255.256 
G01 X76.053 Y254.683 
G01 X76.463 Y254.098 
G01 X76.856 Y253.501 
G01 X77.230 Y252.893 
G01 X77.600 Y252.253 
G01 X77.950 Y251.604 
G01 X78.283 Y250.946 
G01 X78.583 Y250.308 
G01 X78.897 Y249.629 
G01 X78.997 Y249.438 
G01 X79.085 Y249.300 
G01 X79.218 Y249.126 
G01 X79.365 Y248.965 
G01 X79.524 Y248.817 
G01 X79.695 Y248.683 
G01 X79.876 Y248.564 
G01 X80.067 Y248.460 
G01 X80.267 Y248.372 
G01 X80.475 Y248.301 
G01 X80.688 Y248.248 
G01 X80.904 Y248.213 
G01 X81.122 Y248.197 
G01 X81.339 Y248.199 
G01 X81.556 Y248.219 
G01 X81.770 Y248.257 
G01 X81.982 Y248.313 
G01 X82.202 Y248.392 
G01 X82.680 Y248.604 
G01 X85.095 Y249.754 
G01 X87.511 Y250.869 
G01 X89.933 Y251.959 
G01 X92.364 Y253.028 
G01 X94.804 Y254.075 
G01 X97.254 Y255.100 
G01 X99.713 Y256.103 
G01 X102.181 Y257.084 
G01 X104.663 Y258.045 
G01 X107.669 Y259.163 
G01 X110.698 Y260.230 
G01 X113.746 Y261.245 
G01 X116.812 Y262.207 
G01 X119.413 Y262.972 
G01 X122.028 Y263.691 
G01 X124.656 Y264.363 
G01 X127.293 Y264.986 
G01 X128.861 Y265.331 
G01 X130.433 Y265.651 
G01 X132.008 Y265.947 
G01 X133.588 Y266.221 
G01 X135.172 Y266.471 
G01 X136.759 Y266.697 
G01 X138.350 Y266.900 
G01 X139.947 Y267.079 
G01 X141.837 Y267.259 
G01 X143.733 Y267.403 
G01 X145.631 Y267.511 
G01 X147.531 Y267.583 
G01 X149.431 Y267.619 
G01 X151.332 Y267.618 
G01 X153.234 Y267.581 
G01 X155.129 Y267.508 
G01 X156.478 Y267.435 
G01 X157.820 Y267.346 
G01 X159.160 Y267.241 
G01 X160.499 Y267.120 
G01 X161.836 Y266.982 
G01 X163.171 Y266.829 
G01 X164.505 Y266.659 
G01 X165.836 Y266.473 
G01 X167.164 Y266.271 
G01 X168.491 Y266.053 
G01 X169.814 Y265.819 
G01 X171.135 Y265.569 
G01 X172.453 Y265.303 
G01 X173.767 Y265.021 
G01 X175.079 Y264.723 
G01 X176.390 Y264.408 
G01 X177.865 Y264.033 
G01 X179.336 Y263.633 
G01 X180.800 Y263.211 
G01 X182.258 Y262.766 
G01 X183.708 Y262.298 
G01 X185.151 Y261.808 
G01 X186.586 Y261.295 
G01 X188.020 Y260.757 
G01 X189.769 Y260.060 
G01 X191.506 Y259.319 
G01 X193.224 Y258.537 
G01 X194.923 Y257.714 
G01 X196.601 Y256.849 
G01 X198.258 Y255.944 
G01 X199.893 Y254.999 
G01 X201.499 Y254.018 
G01 X202.494 Y253.384 
G01 X203.473 Y252.738 
G01 X204.442 Y252.078 
G01 X205.400 Y251.403 
G01 X206.348 Y250.715 
G01 X207.285 Y250.012 
G01 X208.212 Y249.295 
G01 X209.127 Y248.564 
G01 X210.031 Y247.819 
G01 X210.924 Y247.061 
G01 X211.806 Y246.290 
G01 X212.676 Y245.505 
G01 X213.534 Y244.706 
G01 X214.380 Y243.895 
G01 X215.214 Y243.071 
G01 X216.039 Y242.231 
G01 X217.309 Y240.890 
G01 X218.554 Y239.522 
G01 X219.771 Y238.128 
G01 X220.960 Y236.711 
G01 X222.119 Y235.270 
G01 X223.250 Y233.806 
G01 X224.350 Y232.318 
G01 X225.418 Y230.813 
G01 X226.150 Y229.743 
G01 X226.866 Y228.668 
G01 X227.567 Y227.584 
G01 X228.255 Y226.491 
G01 X228.928 Y225.389 
G01 X229.587 Y224.278 
G01 X230.231 Y223.159 
G01 X230.865 Y222.025 
G01 X232.006 Y219.892 
G01 X233.100 Y217.727 
G01 X234.142 Y215.537 
G01 X235.133 Y213.324 
G01 X236.071 Y211.088 
G01 X236.956 Y208.830 
G01 X237.788 Y206.551 
G01 X238.566 Y204.257 
G01 X239.073 Y202.652 
G01 X239.551 Y201.043 
G01 X240.000 Y199.426 
G01 X240.421 Y197.802 
G01 X240.814 Y196.170 
G01 X241.178 Y194.532 
G01 X241.513 Y192.887 
G01 X241.820 Y191.236 
G01 X242.065 Y189.773 
G01 X242.283 Y188.307 
G01 X242.475 Y186.837 
G01 X242.640 Y185.365 
G01 X242.778 Y183.890 
G01 X242.889 Y182.413 
G01 X242.974 Y180.935 
G01 X243.032 Y179.456 
G01 X243.063 Y177.976 
G01 X243.067 Y176.496 
G01 X243.045 Y175.015 
G01 X242.995 Y173.535 
G01 X242.919 Y172.055 
G01 X242.816 Y170.576 
G01 X242.687 Y169.099 
G01 X242.530 Y167.619 
G01 X242.231 Y165.286 
G01 X241.874 Y162.956 
G01 X241.460 Y160.637 
G01 X240.989 Y158.336 
G01 X240.497 Y156.141 
G01 X239.979 Y153.961 
G01 X239.434 Y151.788 
G01 X238.862 Y149.621 
G01 X237.887 Y146.117 
G01 X236.863 Y142.627 
G01 X235.790 Y139.151 
G01 X234.668 Y135.687 
G01 X234.096 Y134.011 
G01 X233.492 Y132.343 
G01 X232.859 Y130.686 
G01 X232.195 Y129.038 
G01 X231.556 Y127.538 
G01 X230.882 Y126.051 
G01 X230.175 Y124.578 
G01 X229.437 Y123.125 
G01 X228.958 Y122.225 
G01 X228.464 Y121.337 
G01 X227.956 Y120.457 
G01 X227.433 Y119.586 
G01 X226.895 Y118.725 
G01 X226.342 Y117.872 
G01 X225.774 Y117.029 
G01 X225.210 Y116.222 
G01 X224.674 Y115.448 
G01 X224.424 Y115.052 
G01 X224.205 Y114.649 
G01 X224.078 Y114.387 
G01 X223.955 Y114.105 
G01 X223.842 Y113.818 
G01 X223.741 Y113.527 
G01 X223.651 Y113.232 
G01 X223.572 Y112.934 
G01 X223.505 Y112.634 
G01 X223.449 Y112.330 
G01 X223.398 Y111.973 
G01 X223.360 Y111.615 
G01 X223.335 Y111.255 
G01 X223.324 Y110.844 
G01 X223.298 Y109.820 
G01 X223.238 Y108.745 
G01 X223.156 Y107.805 
G01 X223.043 Y106.866 
G01 X222.900 Y105.931 
G01 X222.727 Y105.005 
G01 X222.531 Y104.106 
G01 X222.311 Y103.217 
G01 X222.066 Y102.335 
G01 X221.797 Y101.461 
G01 X221.503 Y100.594 
G01 X221.185 Y99.736 
G01 X220.843 Y98.886 
G01 X220.476 Y98.043 
G01 X219.901 Y96.824 
G01 X219.285 Y95.623 
G01 X218.630 Y94.443 
G01 X217.937 Y93.285 
G01 X217.207 Y92.151 
G01 X216.439 Y91.041 
G01 X215.635 Y89.957 
G01 X214.799 Y88.903 
G01 X214.118 Y88.094 
G01 X213.421 Y87.308 
G01 X212.705 Y86.540 
G01 X211.970 Y85.790 
G01 X211.216 Y85.058 
G01 X210.444 Y84.346 
G01 X209.654 Y83.654 
G01 X208.847 Y82.982 
G01 X207.988 Y82.301 
G01 X207.113 Y81.642 
G01 X206.223 Y81.004 
G01 X205.318 Y80.388 
G01 X204.399 Y79.793 
G01 X203.465 Y79.221 
G01 X202.518 Y78.672 
G01 X201.609 Y78.173 
G01 X201.137 Y77.905 
G01 X200.990 Y77.805 
G01 X200.868 Y77.700 
G01 X200.802 Y77.634 
G01 X200.727 Y77.544 
G01 X200.659 Y77.450 
G01 X200.597 Y77.347 
G01 X200.531 Y77.220 
G01 X200.474 Y77.085 
G01 X200.427 Y76.947 
G01 X200.374 Y76.747 
G01 X199.998 Y75.124 
G01 X199.738 Y74.079 
G01 X199.451 Y73.031 
G01 X199.183 Y72.132 
G01 X198.899 Y71.241 
G01 X198.597 Y70.356 
G01 X198.278 Y69.477 
G01 X197.941 Y68.604 
G01 X197.587 Y67.739 
G01 X197.217 Y66.880 
G01 X196.825 Y66.020 
G01 X196.334 Y65.012 
G01 X195.807 Y64.014 
G01 X195.248 Y63.033 
G01 X194.657 Y62.071 
G01 X194.036 Y61.129 
G01 X193.385 Y60.208 
G01 X192.703 Y59.307 
G01 X191.994 Y58.431 
G01 X191.336 Y57.666 
G01 X190.660 Y56.923 
G01 X189.963 Y56.200 
G01 X189.246 Y55.496 
G01 X188.509 Y54.814 
G01 X187.753 Y54.152 
G01 X186.979 Y53.511 
G01 X186.184 Y52.890 
G01 X184.806 Y51.880 
G01 X183.393 Y50.914 
G01 X181.950 Y49.995 
G01 X180.479 Y49.125 
G01 X179.068 Y48.348 
G01 X177.646 Y47.617 
G01 X175.654 Y46.647 
G01 X175.435 Y46.534 
G01 X175.277 Y46.438 
G01 X175.126 Y46.333 
G01 X174.995 Y46.228 
G01 X174.803 Y46.049 
G01 X174.639 Y45.866 
G01 X174.493 Y45.670 
G01 X174.334 Y45.412 
G01 X173.828 Y44.490 
G01 X173.311 Y43.517 
G01 X172.329 Y41.586 
G01 X171.391 Y39.632 
G01 X170.663 Y38.045 
G01 X169.937 Y36.405 
G01 X169.500 Y35.453 
G01 X169.004 Y34.481 
G01 X168.454 Y33.509 
G01 X167.858 Y32.560 
G01 X167.219 Y31.640 
G01 X166.551 Y30.765 
G01 X165.819 Y29.870 
G01 X165.084 Y29.005 
G01 X164.332 Y28.153 
G01 X163.564 Y27.315 
G01 X162.277 Y25.967 
G01 X160.960 Y24.644 
G01 X159.617 Y23.350 
G01 X158.244 Y22.081 
G01 X156.834 Y20.838 
G01 X155.386 Y19.626 
G01 X154.219 Y18.706 
G01 X153.023 Y17.822 
G01 X152.302 Y17.323 
G01 X151.570 Y16.845 
G01 X150.825 Y16.388 
G01 X150.103 Y15.972 
G01 X148.999 Y15.335 
G01 X148.358 Y14.932 
G01 X147.744 Y14.498 
G01 X146.906 Y13.851 
G01 X146.053 Y13.143 
G01 X144.244 Y11.612 
G01 X142.928 Y10.551 
G01 X141.561 Y9.518 
G01 X140.906 Y9.061 
G01 X140.222 Y8.629 
G01 X139.520 Y8.229 
G01 X138.802 Y7.861 
G01 X138.205 Y7.587 
G01 X137.600 Y7.339 
G01 X136.986 Y7.117 
G01 X136.363 Y6.920 
G01 X135.733 Y6.750 
G01 X135.096 Y6.606 
G01 X134.453 Y6.489 
G01 X133.816 Y6.400 
G01 X132.999 Y6.314 
G01 X132.191 Y6.251 
G01 X131.382 Y6.209 
G01 X130.577 Y6.188 
G01 X128.900 Y6.182 
G01 X127.258 Y6.208 
G01 X126.485 Y6.220 
G01 X125.743 Y6.214 
G01 X125.001 Y6.193 
G01 X124.264 Y6.156 
G01 X123.755 Y6.118 
G01 X123.251 Y6.065 
G01 X122.750 Y5.999 
G01 X122.254 Y5.919 
G01 X121.864 Y5.844 
G01 X121.480 Y5.758 
G01 X121.099 Y5.659 
G01 X120.722 Y5.547 
G01 X120.349 Y5.424 
G01 X119.980 Y5.289 
G01 X119.615 Y5.141 
G01 X119.258 Y4.983 
G01 X117.894 Y4.323 
G01 X117.409 Y4.097 
G01 X116.823 Y3.868 
G01 X116.144 Y3.662 
G01 X115.432 Y3.515 
G01 X114.710 Y3.433 
G01 X114.016 Y3.416 
G01 X113.158 Y3.454 
G01 X112.340 Y3.528 
G01 X110.945 Y3.713 
G01 X109.605 Y3.948 
G01 X107.106 Y4.415 
G01 X106.209 Y4.558 
G01 X105.354 Y4.667 
G01 X105.138 Y4.682 
G01 X104.957 Y4.680 
G01 X104.926 Y4.677 
G01 X104.898 Y4.672 
G01 X104.869 Y4.665 
G01 X104.821 Y4.648 
G01 X104.638 Y4.572 
G01 X104.396 Y4.455 
G01 X103.201 Y3.852 
G01 X102.428 Y3.493 
G01 X101.620 Y3.169 
G01 X100.960 Y2.937 
G01 X100.302 Y2.733 
G01 X99.638 Y2.554 
G01 X98.968 Y2.400 
G01 X98.293 Y2.271 
G01 X97.613 Y2.167 
G01 X96.929 Y2.089 
G01 X96.247 Y2.036 
G01 X95.578 Y2.008 
G01 X94.915 Y2.000 
G01 X94.253 Y2.012 
G01 X93.592 Y2.045 
G01 X92.933 Y2.098 
G01 X92.277 Y2.172 
G01 X91.623 Y2.265 
G01 X90.973 Y2.379 
G01 X90.327 Y2.512 
G01 X89.684 Y2.666 
G01 X89.047 Y2.839 
G01 X88.415 Y3.032 
G01 X87.788 Y3.244 
G01 X87.168 Y3.476 
G01 X86.554 Y3.727 
G01 X85.955 Y3.994 
G01 X84.686 Y4.599 
G01 X84.573 Y4.650 
G01 X84.515 Y4.672 
G01 X84.456 Y4.690 
G01 X84.429 Y4.696 
G01 X84.208 Y4.730 
G01 X83.961 Y4.740 
G01 X82.150 Y4.688 
G01 X80.813 Y4.650 
G01 X79.423 Y4.651 
G01 X78.752 Y4.675 
G01 X78.075 Y4.725 
G01 X77.401 Y4.801 
G01 X76.724 Y4.904 
G01 X76.096 Y5.027 
G01 X75.469 Y5.180 
G01 X74.850 Y5.362 
G01 X74.239 Y5.573 
G01 X73.646 Y5.810 
G01 X73.064 Y6.074 
G01 X72.495 Y6.366 
G01 X71.945 Y6.682 
G01 X71.309 Y7.084 
G01 X70.748 Y7.472 
G01 X70.291 Y7.785 
G01 X69.896 Y8.030 
G01 X69.707 Y8.132 
G01 X69.534 Y8.208 
G01 X69.403 Y8.254 
G01 X69.271 Y8.288 
G01 X69.136 Y8.312 
G01 X69.002 Y8.325 
G01 X68.562 Y8.331 
G01 X68.055 Y8.297 
G01 X66.212 Y8.104 
G01 X64.978 Y8.010 
G01 X63.707 Y7.969 
G01 X62.643 Y7.988 
G01 X61.575 Y8.066 
G01 X60.512 Y8.204 
G01 X59.476 Y8.396 
G01 X58.805 Y8.552 
G01 X58.157 Y8.723 
G01 X57.515 Y8.914 
G01 X56.879 Y9.125 
G01 X56.250 Y9.356 
G01 X55.629 Y9.606 
G01 X55.015 Y9.876 
G01 X54.416 Y10.162 
G01 X53.669 Y10.543 
G01 X52.937 Y10.936 
G01 X52.213 Y11.346 
G01 X51.515 Y11.761 
G01 X49.839 Y12.779 
G01 X49.531 Y12.958 
G01 X49.240 Y13.114 
G01 X48.943 Y13.258 
G01 X48.642 Y13.391 
G01 X48.226 Y13.556 
G01 X47.806 Y13.703 
G01 X47.381 Y13.834 
G01 X46.928 Y13.955 
G01 X44.652 Y14.500 
G01 X43.993 Y14.666 
G01 X43.296 Y14.865 
G01 X42.747 Y15.048 
G01 X42.194 Y15.264 
G01 X41.654 Y15.509 
G01 X41.141 Y15.774 
G01 X40.353 Y16.223 
G01 X39.598 Y16.684 
G01 X38.824 Y17.183 
G01 X38.066 Y17.695 
G01 X37.320 Y18.224 
G01 X36.579 Y18.773 
G01 X35.801 Y19.382 
G01 X35.038 Y20.020 
G01 X34.295 Y20.682 
G01 X33.568 Y21.372 
G01 X32.989 Y21.963 
G01 X32.431 Y22.581 
G01 X31.899 Y23.222 
G01 X31.395 Y23.883 
G01 Z16.000 F750.0 M3
G01 X30.917 Y24.565  F3000.0
G01 X30.468 Y25.266 
G01 X30.048 Y25.985 
G01 X29.660 Y26.717 
G01 X29.324 Y27.411 
G01 X29.013 Y28.109 
G01 X28.726 Y28.818 
G01 X28.463 Y29.531 
G01 X27.767 Y31.615 
G01 X27.471 Y32.503 
G01 X27.174 Y33.329 
G01 X27.100 Y33.512 
G01 X27.026 Y33.672 
G01 X26.944 Y33.829 
G01 X26.864 Y33.965 
G01 X26.764 Y34.112 
G01 X26.665 Y34.237 
G01 X26.557 Y34.353 
G01 X26.413 Y34.487 
G01 X25.995 Y34.838 
G01 X25.504 Y35.230 
G01 X24.731 Y35.853 
G01 X23.942 Y36.534 
G01 X23.297 Y37.134 
G01 X22.674 Y37.763 
G01 X22.077 Y38.416 
G01 X21.509 Y39.091 
G01 X20.954 Y39.804 
G01 X20.427 Y40.533 
G01 X19.927 Y41.281 
G01 X19.455 Y42.046 
G01 X19.011 Y42.827 
G01 X18.595 Y43.625 
G01 X18.209 Y44.437 
G01 X17.850 Y45.266 
G01 X17.548 Y46.045 
G01 X17.276 Y46.838 
G01 X17.037 Y47.640 
G01 X16.830 Y48.451 
G01 X16.655 Y49.269 
G01 X16.514 Y50.094 
G01 X16.405 Y50.924 
G01 X16.330 Y51.751 
G01 X16.257 Y53.076 
G01 X16.224 Y54.326 
G01 X16.201 Y54.872 
G01 X16.151 Y55.355 
G01 X16.130 Y55.480 
G01 X16.102 Y55.611 
G01 X16.067 Y55.741 
G01 X16.026 Y55.864 
G01 X15.993 Y55.948 
G01 X15.958 Y56.026 
G01 X15.917 Y56.101 
G01 X15.867 Y56.184 
G01 X15.653 Y56.497 
G01 X15.371 Y56.872 
G01 X15.154 Y57.166 
G01 X14.912 Y57.537 
G01 X14.693 Y57.922 
G01 X14.491 Y58.335 
G01 X14.276 Y58.865 
G01 X14.100 Y59.427 
G01 X13.972 Y60.000 
G01 X13.895 Y60.546 
G01 X13.783 Y61.931 
G01 X13.733 Y62.518 
G01 X13.671 Y63.025 
G01 X13.628 Y63.269 
G01 X13.573 Y63.484 
G01 X13.503 Y63.695 
G01 X13.414 Y63.913 
G01 X13.315 Y64.114 
G01 X13.200 Y64.321 
G01 X13.073 Y64.521 
G01 X12.916 Y64.742 
G01 X11.887 Y66.097 
G01 X11.359 Y66.818 
G01 X10.830 Y67.609 
G01 X10.443 Y68.268 
G01 X10.094 Y68.969 
G01 X9.796 Y69.694 
G01 X9.552 Y70.430 
G01 X9.370 Y71.130 
G01 X9.230 Y71.830 
G01 X9.131 Y72.537 
G01 X9.074 Y73.243 
G01 X9.039 Y74.551 
G01 X9.069 Y75.831 
G01 X9.152 Y77.268 
G01 X9.260 Y78.643 
G01 X9.307 Y79.271 
G01 X9.333 Y79.862 
G01 X9.343 Y80.455 
G01 X9.336 Y81.043 
G01 X9.318 Y81.455 
G01 X9.286 Y81.861 
G01 X9.240 Y82.266 
G01 X9.182 Y82.660 
G01 X9.078 Y83.204 
G01 X8.952 Y83.733 
G01 X8.800 Y84.255 
G01 X8.625 Y84.766 
G01 X8.264 Y85.671 
G01 X7.840 Y86.591 
G01 X6.538 Y89.249 
G01 X5.829 Y90.768 
G01 X5.160 Y92.331 
G01 X4.642 Y93.664 
G01 X4.172 Y95.019 
G01 X3.752 Y96.391 
G01 X3.387 Y97.765 
G01 X3.182 Y98.634 
G01 X2.997 Y99.495 
G01 X2.829 Y100.359 
G01 X2.678 Y101.226 
G01 X2.544 Y102.096 
G01 X2.426 Y102.968 
G01 X2.326 Y103.843 
G01 X2.244 Y104.716 
G01 X2.161 Y105.790 
G01 X2.096 Y106.863 
G01 X2.047 Y107.936 
G01 X2.015 Y109.009 
G01 X2.000 Y110.083 
G01 X2.002 Y111.157 
G01 X2.020 Y112.231 
G01 X2.056 Y113.306 
G01 X2.125 Y114.709 
G01 X2.218 Y116.111 
G01 X2.335 Y117.511 
G01 X2.476 Y118.909 
G01 X2.630 Y120.217 
G01 X2.803 Y121.522 
G01 X2.997 Y122.823 
G01 X3.211 Y124.122 
G01 X3.446 Y125.416 
G01 X3.700 Y126.708 
G01 X3.975 Y127.995 
G01 X4.272 Y129.287 
G01 X4.765 Y131.235 
G01 X5.316 Y133.177 
G01 X5.923 Y135.102 
G01 X6.587 Y137.014 
G01 X7.189 Y138.583 
G01 X7.848 Y140.133 
G01 X8.560 Y141.659 
G01 X9.322 Y143.150 
G01 X9.757 Y143.947 
G01 X10.204 Y144.726 
G01 X10.666 Y145.494 
G01 X11.144 Y146.252 
G01 X11.637 Y147.000 
G01 X12.145 Y147.738 
G01 X12.669 Y148.464 
G01 X13.207 Y149.180 
G01 X13.759 Y149.884 
G01 X14.326 Y150.577 
G01 X14.908 Y151.258 
G01 X15.504 Y151.928 
G01 X16.113 Y152.585 
G01 X16.736 Y153.229 
G01 X17.373 Y153.861 
G01 X18.022 Y154.479 
G01 X18.803 Y155.195 
G01 X19.595 Y155.895 
G01 X20.400 Y156.580 
G01 X21.216 Y157.251 
G01 X22.044 Y157.908 
G01 X22.884 Y158.549 
G01 X23.735 Y159.175 
G01 X24.601 Y159.789 
G01 X25.886 Y160.661 
G01 X27.194 Y161.504 
G01 X28.613 Y162.375 
G01 X30.051 Y163.215 
G01 X30.570 Y163.503 
G01 X30.968 Y163.735 
G01 X31.045 Y163.787 
G01 X31.123 Y163.847 
G01 X31.197 Y163.912 
G01 X31.268 Y163.982 
G01 X31.333 Y164.055 
G01 X31.395 Y164.133 
G01 X31.451 Y164.214 
G01 X31.492 Y164.283 
G01 X31.578 Y164.452 
G01 X31.641 Y164.609 
G01 X31.691 Y164.771 
G01 X31.735 Y164.983 
G01 X31.915 Y166.162 
G01 X32.104 Y167.445 
G01 X32.313 Y168.752 
G01 X32.539 Y170.058 
G01 X32.784 Y171.366 
G01 X33.008 Y172.459 
G01 X33.257 Y173.553 
G01 X33.529 Y174.642 
G01 X33.830 Y175.743 
G01 X34.171 Y176.841 
G01 X34.571 Y177.940 
G01 X35.022 Y179.018 
G01 X35.519 Y180.066 
G01 X35.840 Y180.676 
G01 X36.177 Y181.267 
G01 X36.533 Y181.845 
G01 X36.908 Y182.411 
G01 X37.302 Y182.964 
G01 X37.715 Y183.503 
G01 X38.146 Y184.029 
G01 X38.596 Y184.540 
G01 X39.102 Y185.078 
G01 X39.628 Y185.597 
G01 X40.171 Y186.098 
G01 X40.730 Y186.578 
G01 X41.366 Y187.087 
G01 X42.015 Y187.574 
G01 X42.680 Y188.039 
G01 X43.354 Y188.480 
G01 X44.273 Y189.045 
G01 X45.200 Y189.586 
G01 X46.138 Y190.105 
G01 X47.045 Y190.581 
G01 X47.475 Y190.811 
G01 X47.830 Y191.021 
G01 X48.169 Y191.250 
G01 X48.474 Y191.492 
G01 X48.736 Y191.732 
G01 X48.986 Y191.994 
G01 X49.218 Y192.273 
G01 X49.432 Y192.568 
G01 X49.643 Y192.901 
G01 X49.832 Y193.247 
G01 X50.000 Y193.606 
G01 X50.154 Y194.000 
G01 X50.440 Y194.841 
G01 X50.722 Y195.746 
G01 X51.808 Y199.313 
G01 X52.359 Y200.974 
G01 X52.971 Y202.624 
G01 X53.230 Y203.259 
G01 X53.504 Y203.882 
G01 X53.795 Y204.497 
G01 X54.104 Y205.103 
G01 X54.429 Y205.701 
G01 X54.770 Y206.289 
G01 X55.128 Y206.868 
G01 X55.512 Y207.451 
G01 X56.255 Y208.488 
G01 X57.060 Y209.499 
G01 X57.915 Y210.467 
G01 X58.807 Y211.380 
G01 X59.531 Y212.063 
G01 X60.261 Y212.714 
G01 X61.008 Y213.344 
G01 X61.773 Y213.952 
G01 X62.555 Y214.539 
G01 X63.354 Y215.103 
G01 X64.168 Y215.644 
G01 X64.993 Y216.160 
G01 X65.790 Y216.630 
G01 X66.592 Y217.081 
G01 X67.403 Y217.515 
G01 X68.189 Y217.914 
G01 X69.667 Y218.673 
G01 X71.088 Y219.457 
G01 X71.762 Y219.855 
G01 X72.424 Y220.274 
G01 X73.073 Y220.712 
G01 X73.699 Y221.161 
G01 X74.029 Y221.418 
G01 X74.337 Y221.682 
G01 X74.632 Y221.960 
G01 X74.887 Y222.225 
G01 X74.960 Y222.313 
G01 X75.000 Y222.372 
G01 X75.033 Y222.432 
G01 X75.060 Y222.495 
G01 X75.080 Y222.560 
G01 X75.095 Y222.627 
G01 X75.103 Y222.696 
G01 X75.105 Y222.766 
G01 X75.100 Y222.836 
G01 X75.089 Y222.904 
G01 X75.072 Y222.971 
G01 X75.048 Y223.035 
G01 X75.019 Y223.096 
G01 X74.984 Y223.155 
G01 X74.941 Y223.213 
G01 X74.889 Y223.269 
G01 X74.832 Y223.321 
G01 X74.775 Y223.364 
G01 X74.716 Y223.399 
G01 X74.655 Y223.428 
G01 X74.591 Y223.451 
G01 X74.524 Y223.469 
G01 X74.456 Y223.480 
G01 X74.386 Y223.484 
G01 X74.316 Y223.483 
G01 X74.247 Y223.474 
G01 X74.180 Y223.460 
G01 X74.115 Y223.439 
G01 X74.052 Y223.413 
G01 X73.992 Y223.380 
G01 X73.933 Y223.340 
G01 X73.842 Y223.264 
G01 X73.483 Y222.919 
G01 X73.021 Y222.469 
G01 X72.506 Y221.996 
G01 X71.977 Y221.537 
G01 X71.436 Y221.094 
G01 X70.871 Y220.659 
G01 X70.294 Y220.241 
G01 X69.705 Y219.840 
G01 X69.105 Y219.457 
G01 X68.493 Y219.092 
G01 X67.872 Y218.744 
G01 X67.239 Y218.415 
G01 X66.598 Y218.105 
G01 X65.997 Y217.836 
G01 X65.391 Y217.584 
G01 X64.778 Y217.349 
G01 X64.159 Y217.132 
G01 X63.535 Y216.933 
G01 X62.906 Y216.752 
G01 X62.273 Y216.588 
G01 X61.635 Y216.442 
G01 X60.993 Y216.314 
G01 X60.348 Y216.204 
G01 X59.700 Y216.112 
G01 X59.049 Y216.038 
G01 X58.396 Y215.983 
G01 X57.741 Y215.946 
G01 X57.084 Y215.927 
G01 X56.422 Y215.927 
G01 X55.603 Y215.953 
G01 X54.781 Y216.006 
G01 X53.962 Y216.086 
G01 X53.147 Y216.195 
G01 X52.336 Y216.330 
G01 X51.529 Y216.493 
G01 X50.728 Y216.683 
G01 X49.935 Y216.900 
G01 X49.195 Y217.128 
G01 X48.465 Y217.378 
G01 X47.744 Y217.650 
G01 X47.033 Y217.944 
G01 X46.332 Y218.259 
G01 X45.641 Y218.595 
G01 X44.961 Y218.952 
G01 X44.293 Y219.329 
G01 X43.636 Y219.727 
G01 X42.992 Y220.144 
G01 X42.361 Y220.582 
G01 X41.742 Y221.039 
G01 X41.138 Y221.515 
G01 X40.548 Y222.010 
G01 X39.972 Y222.524 
G01 X39.412 Y223.056 
G01 X38.879 Y223.595 
G01 X38.363 Y224.150 
G01 X37.865 Y224.722 
G01 X37.386 Y225.308 
G01 X36.925 Y225.909 
G01 X36.483 Y226.525 
G01 X36.061 Y227.155 
G01 X35.660 Y227.797 
G01 X35.305 Y228.404 
G01 X34.970 Y229.020 
G01 X34.654 Y229.644 
G01 X34.358 Y230.277 
G01 X34.080 Y230.918 
G01 X33.822 Y231.567 
G01 X33.584 Y232.222 
G01 X33.365 Y232.885 
G01 X33.167 Y233.553 
G01 X32.988 Y234.228 
G01 X32.829 Y234.908 
G01 X32.691 Y235.592 
G01 X32.573 Y236.281 
G01 X32.475 Y236.974 
G01 X32.399 Y237.671 
G01 X32.342 Y238.382 
G01 X32.295 Y239.493 
G01 X32.298 Y240.616 
G01 X32.351 Y241.737 
G01 X32.454 Y242.844 
G01 X32.555 Y243.620 
G01 X32.677 Y244.381 
G01 X32.821 Y245.137 
G01 X32.988 Y245.889 
G01 X33.177 Y246.635 
G01 X33.388 Y247.376 
G01 X33.620 Y248.111 
G01 X33.874 Y248.838 
G01 X34.120 Y249.479 
G01 X34.383 Y250.111 
G01 X34.664 Y250.736 
G01 X34.963 Y251.352 
G01 X35.279 Y251.959 
G01 X35.613 Y252.557 
G01 X35.963 Y253.145 
G01 X36.341 Y253.740 
G01 X37.055 Y254.765 
G01 X37.833 Y255.764 
G01 X38.664 Y256.718 
G01 X39.543 Y257.624 
G01 X40.471 Y258.482 
G01 X41.444 Y259.289 
G01 X42.444 Y260.031 
G01 X42.985 Y260.400 
G01 X43.523 Y260.745 
G01 X44.209 Y261.156 
G01 X44.911 Y261.547 
G01 X45.625 Y261.914 
G01 X46.350 Y262.257 
G01 X47.087 Y262.577 
G01 X47.833 Y262.872 
G01 X48.590 Y263.143 
G01 X49.353 Y263.388 
G01 X50.079 Y263.597 
G01 X50.808 Y263.782 
G01 X51.541 Y263.946 
G01 X52.278 Y264.087 
G01 X53.018 Y264.206 
G01 X53.761 Y264.303 
G01 X54.506 Y264.378 
G01 X55.252 Y264.430 
G01 X56.000 Y264.460 
G01 X56.749 Y264.467 
G01 X57.498 Y264.453 
G01 X58.246 Y264.416 
G01 X58.994 Y264.356 
G01 X59.741 Y264.274 
G01 X60.486 Y264.169 
G01 X61.229 Y264.042 
G01 X61.971 Y263.891 
G01 X62.709 Y263.717 
G01 X63.441 Y263.520 
G01 X64.165 Y263.300 
G01 X64.883 Y263.057 
G01 X65.592 Y262.791 
G01 X66.293 Y262.503 
G01 X66.985 Y262.193 
G01 X67.617 Y261.886 
G01 X68.238 Y261.561 
G01 X68.848 Y261.218 
G01 X69.447 Y260.858 
G01 X70.034 Y260.479 
G01 X70.610 Y260.084 
G01 X71.173 Y259.672 
G01 X71.723 Y259.244 
G01 X72.260 Y258.799 
G01 X72.784 Y258.338 
G01 X73.295 Y257.862 
G01 X73.791 Y257.370 
G01 X74.272 Y256.864 
G01 X74.739 Y256.342 
G01 X75.191 Y255.806 
G01 X75.626 Y255.256 
G01 X76.053 Y254.683 
G01 X76.463 Y254.098 
G01 X76.856 Y253.501 
G01 X77.230 Y252.893 
G01 X77.600 Y252.253 
G01 X77.950 Y251.604 
G01 X78.283 Y250.946 
G01 X78.583 Y250.308 
G01 X78.897 Y249.629 
G01 X78.997 Y249.438 
G01 X79.085 Y249.300 
G01 X79.218 Y249.126 
G01 X79.365 Y248.965 
G01 X79.524 Y248.817 
G01 X79.695 Y248.683 
G01 X79.876 Y248.564 
G01 X80.067 Y248.460 
G01 X80.267 Y248.372 
G01 X80.475 Y248.301 
G01 X80.688 Y248.248 
G01 X80.904 Y248.213 
G01 X81.122 Y248.197 
G01 X81.339 Y248.199 
G01 X81.556 Y248.219 
G01 X81.770 Y248.257 
G01 X81.982 Y248.313 
G01 X82.202 Y248.392 
G01 X82.680 Y248.604 
G01 X85.095 Y249.754 
G01 X87.511 Y250.869 
G01 X89.933 Y251.959 
G01 X92.364 Y253.028 
G01 X94.804 Y254.075 
G01 X97.254 Y255.100 
G01 X99.713 Y256.103 
G01 X102.181 Y257.084 
G01 X104.663 Y258.045 
G01 X107.669 Y259.163 
G01 X110.698 Y260.230 
G01 X113.746 Y261.245 
G01 X116.812 Y262.207 
G01 X119.413 Y262.972 
G01 X122.028 Y263.691 
G01 X124.656 Y264.363 
G01 X127.293 Y264.986 
G01 X128.861 Y265.331 
G01 X130.433 Y265.651 
G01 X132.008 Y265.947 
G01 X133.588 Y266.221 
G01 X135.172 Y266.471 
G01 X136.759 Y266.697 
G01 X138.350 Y266.900 
G01 X139.947 Y267.079 
G01 X141.837 Y267.259 
G01 X143.733 Y267.403 
G01 X145.631 Y267.511 
G01 X147.531 Y267.583 
G01 X149.431 Y267.619 
G01 X151.332 Y267.618 
G01 X153.234 Y267.581 
G01 X155.129 Y267.508 
G01 X156.478 Y267.435 
G01 X157.820 Y267.346 
G01 X159.160 Y267.241 
G01 X160.499 Y267.120 
G01 X161.836 Y266.982 
G01 X163.171 Y266.829 
G01 X164.505 Y266.659 
G01 X165.836 Y266.473 
G01 X167.164 Y266.271 
G01 X168.491 Y266.053 
G01 X169.814 Y265.819 
G01 X171.135 Y265.569 
G01 X172.453 Y265.303 
G01 X173.767 Y265.021 
G01 X175.079 Y264.723 
G01 X176.390 Y264.408 
G01 X177.865 Y264.033 
G01 X179.336 Y263.633 
G01 X180.800 Y263.211 
G01 X182.258 Y262.766 
G01 X183.708 Y262.298 
G01 X185.151 Y261.808 
G01 X186.586 Y261.295 
G01 X188.020 Y260.757 
G01 X189.769 Y260.060 
G01 X191.506 Y259.319 
G01 X193.224 Y258.537 
G01 X194.923 Y257.714 
G01 X196.601 Y256.849 
G01 X198.258 Y255.944 
G01 X199.893 Y254.999 
G01 X201.499 Y254.018 
G01 X202.494 Y253.384 
G01 X203.473 Y252.738 
G01 X204.442 Y252.078 
G01 X205.400 Y251.403 
G01 X206.348 Y250.715 
G01 X207.285 Y250.012 
G01 X208.212 Y249.295 
G01 X209.127 Y248.564 
G01 X210.031 Y247.819 
G01 X210.924 Y247.061 
G01 X211.806 Y246.290 
G01 X212.676 Y245.505 
G01 X213.534 Y244.706 
G01 X214.380 Y243.895 
G01 X215.214 Y243.071 
G01 X216.039 Y242.231 
G01 X217.309 Y240.890 
G01 X218.554 Y239.522 
G01 X219.771 Y238.128 
G01 X220.960 Y236.711 
G01 X222.119 Y235.270 
G01 X223.250 Y233.806 
G01 X224.350 Y232.318 
G01 X225.418 Y230.813 
G01 X226.150 Y229.743 
G01 X226.866 Y228.668 
G01 X227.567 Y227.584 
G01 X228.255 Y226.491 
G01 X228.928 Y225.389 
G01 X229.587 Y224.278 
G01 X230.231 Y223.159 
G01 X230.865 Y222.025 
G01 X232.006 Y219.892 
G01 X233.100 Y217.727 
G01 X234.142 Y215.537 
G01 X235.133 Y213.324 
G01 X236.071 Y211.088 
G01 X236.956 Y208.830 
G01 X237.788 Y206.551 
G01 X238.566 Y204.257 
G01 X239.073 Y202.652 
G01 X239.551 Y201.043 
G01 X240.000 Y199.426 
G01 X240.421 Y197.802 
G01 X240.814 Y196.170 
G01 X241.178 Y194.532 
G01 X241.513 Y192.887 
G01 X241.820 Y191.236 
G01 X242.065 Y189.773 
G01 X242.283 Y188.307 
G01 X242.475 Y186.837 
G01 X242.640 Y185.365 
G01 X242.778 Y183.890 
G01 X242.889 Y182.413 
G01 X242.974 Y180.935 
G01 X243.032 Y179.456 
G01 X243.063 Y177.976 
G01 X243.067 Y176.496 
G01 X243.045 Y175.015 
G01 X242.995 Y173.535 
G01 X242.919 Y172.055 
G01 X242.816 Y170.576 
G01 X242.687 Y169.099 
G01 X242.530 Y167.619 
G01 X242.231 Y165.286 
G01 X241.874 Y162.956 
G01 X241.460 Y160.637 
G01 X240.989 Y158.336 
G01 X240.497 Y156.141 
G01 X239.979 Y153.961 
G01 X239.434 Y151.788 
G01 X238.862 Y149.621 
G01 X237.887 Y146.117 
G01 X236.863 Y142.627 
G01 X235.790 Y139.151 
G01 X234.668 Y135.687 
G01 X234.096 Y134.011 
G01 X233.492 Y132.343 
G01 X232.859 Y130.686 
G01 X232.195 Y129.038 
G01 X231.556 Y127.538 
G01 X230.882 Y126.051 
G01 X230.175 Y124.578 
G01 X229.437 Y123.125 
G01 X228.958 Y122.225 
G01 X228.464 Y121.337 
G01 X227.956 Y120.457 
G01 X227.433 Y119.586 
G01 X226.895 Y118.725 
G01 X226.342 Y117.872 
G01 X225.774 Y117.029 
G01 X225.210 Y116.222 
G01 X224.674 Y115.448 
G01 X224.424 Y115.052 
G01 X224.205 Y114.649 
G01 X224.078 Y114.387 
G01 X223.955 Y114.105 
G01 X223.842 Y113.818 
G01 X223.741 Y113.527 
G01 X223.651 Y113.232 
G01 X223.572 Y112.934 
G01 X223.505 Y112.634 
G01 X223.449 Y112.330 
G01 X223.398 Y111.973 
G01 X223.360 Y111.615 
G01 X223.335 Y111.255 
G01 X223.324 Y110.844 
G01 X223.298 Y109.820 
G01 X223.238 Y108.745 
G01 X223.156 Y107.805 
G01 X223.043 Y106.866 
G01 X222.900 Y105.931 
G01 X222.727 Y105.005 
G01 X222.531 Y104.106 
G01 X222.311 Y103.217 
G01 X222.066 Y102.335 
G01 X221.797 Y101.461 
G01 X221.503 Y100.594 
G01 X221.185 Y99.736 
G01 X220.843 Y98.886 
G01 X220.476 Y98.043 
G01 X219.901 Y96.824 
G01 X219.285 Y95.623 
G01 X218.630 Y94.443 
G01 X217.937 Y93.285 
G01 X217.207 Y92.151 
G01 X216.439 Y91.041 
G01 X215.635 Y89.957 
G01 X214.799 Y88.903 
G01 X214.118 Y88.094 
G01 X213.421 Y87.308 
G01 X212.705 Y86.540 
G01 X211.970 Y85.790 
G01 X211.216 Y85.058 
G01 X210.444 Y84.346 
G01 X209.654 Y83.654 
G01 X208.847 Y82.982 
G01 X207.988 Y82.301 
G01 X207.113 Y81.642 
G01 X206.223 Y81.004 
G01 X205.318 Y80.388 
G01 X204.399 Y79.793 
G01 X203.465 Y79.221 
G01 X202.518 Y78.672 
G01 X201.609 Y78.173 
G01 X201.137 Y77.905 
G01 X200.990 Y77.805 
G01 X200.868 Y77.700 
G01 X200.802 Y77.634 
G01 X200.727 Y77.544 
G01 X200.659 Y77.450 
G01 X200.597 Y77.347 
G01 X200.531 Y77.220 
G01 X200.474 Y77.085 
G01 X200.427 Y76.947 
G01 X200.374 Y76.747 
G01 X199.998 Y75.124 
G01 X199.738 Y74.079 
G01 X199.451 Y73.031 
G01 X199.183 Y72.132 
G01 X198.899 Y71.241 
G01 X198.597 Y70.356 
G01 X198.278 Y69.477 
G01 X197.941 Y68.604 
G01 X197.587 Y67.739 
G01 X197.217 Y66.880 
G01 X196.825 Y66.020 
G01 X196.334 Y65.012 
G01 X195.807 Y64.014 
G01 X195.248 Y63.033 
G01 X194.657 Y62.071 
G01 X194.036 Y61.129 
G01 X193.385 Y60.208 
G01 X192.703 Y59.307 
G01 X191.994 Y58.431 
G01 X191.336 Y57.666 
G01 X190.660 Y56.923 
G01 X189.963 Y56.200 
G01 X189.246 Y55.496 
G01 X188.509 Y54.814 
G01 X187.753 Y54.152 
G01 X186.979 Y53.511 
G01 X186.184 Y52.890 
G01 X184.806 Y51.880 
G01 X183.393 Y50.914 
G01 X181.950 Y49.995 
G01 X180.479 Y49.125 
G01 X179.068 Y48.348 
G01 X177.646 Y47.617 
G01 X175.654 Y46.647 
G01 X175.435 Y46.534 
G01 X175.277 Y46.438 
G01 X175.126 Y46.333 
G01 X174.995 Y46.228 
G01 X174.803 Y46.049 
G01 X174.639 Y45.866 
G01 X174.493 Y45.670 
G01 X174.334 Y45.412 
G01 X173.828 Y44.490 
G01 X173.311 Y43.517 
G01 X172.329 Y41.586 
G01 X171.391 Y39.632 
G01 X170.663 Y38.045 
G01 X169.937 Y36.405 
G01 X169.500 Y35.453 
G01 X169.004 Y34.481 
G01 X168.454 Y33.509 
G01 X167.858 Y32.560 
G01 X167.219 Y31.640 
G01 X166.551 Y30.765 
G01 X165.819 Y29.870 
G01 X165.084 Y29.005 
G01 X164.332 Y28.153 
G01 X163.564 Y27.315 
G01 X162.277 Y25.967 
G01 X160.960 Y24.644 
G01 X159.617 Y23.350 
G01 X158.244 Y22.081 
G01 X156.834 Y20.838 
G01 X155.386 Y19.626 
G01 X154.219 Y18.706 
G01 X153.023 Y17.822 
G01 X152.302 Y17.323 
G01 X151.570 Y16.845 
G01 X150.825 Y16.388 
G01 X150.103 Y15.972 
G01 X148.999 Y15.335 
G01 X148.358 Y14.932 
G01 X147.744 Y14.498 
G01 X146.906 Y13.851 
G01 X146.053 Y13.143 
G01 X144.244 Y11.612 
G01 X142.928 Y10.551 
G01 X141.561 Y9.518 
G01 X140.906 Y9.061 
G01 X140.222 Y8.629 
G01 X139.520 Y8.229 
G01 X138.802 Y7.861 
G01 X138.205 Y7.587 
G01 X137.600 Y7.339 
G01 X136.986 Y7.117 
G01 X136.363 Y6.920 
G01 X135.733 Y6.750 
G01 X135.096 Y6.606 
G01 X134.453 Y6.489 
G01 X133.816 Y6.400 
G01 X132.999 Y6.314 
G01 X132.191 Y6.251 
G01 X131.382 Y6.209 
G01 X130.577 Y6.188 
G01 X128.900 Y6.182 
G01 X127.258 Y6.208 
G01 X126.485 Y6.220 
G01 X125.743 Y6.214 
G01 X125.001 Y6.193 
G01 X124.264 Y6.156 
G01 X123.755 Y6.118 
G01 X123.251 Y6.065 
G01 X122.750 Y5.999 
G01 X122.254 Y5.919 
G01 X121.864 Y5.844 
G01 X121.480 Y5.758 
G01 X121.099 Y5.659 
G01 X120.722 Y5.547 
G01 X120.349 Y5.424 
G01 X119.980 Y5.289 
G01 X119.615 Y5.141 
G01 X119.258 Y4.983 
G01 X117.894 Y4.323 
G01 X117.409 Y4.097 
G01 X116.823 Y3.868 
G01 X116.144 Y3.662 
G01 X115.432 Y3.515 
G01 X114.710 Y3.433 
G01 X114.016 Y3.416 
G01 X113.158 Y3.454 
G01 X112.340 Y3.528 
G01 X110.945 Y3.713 
G01 X109.605 Y3.948 
G01 X107.106 Y4.415 
G01 X106.209 Y4.558 
G01 X105.354 Y4.667 
G01 X105.138 Y4.682 
G01 X104.957 Y4.680 
G01 X104.926 Y4.677 
G01 X104.898 Y4.672 
G01 X104.869 Y4.665 
G01 X104.821 Y4.648 
G01 X104.638 Y4.572 
G01 X104.396 Y4.455 
G01 X103.201 Y3.852 
G01 X102.428 Y3.493 
G01 X101.620 Y3.169 
G01 X100.960 Y2.937 
G01 X100.302 Y2.733 
G01 X99.638 Y2.554 
G01 X98.968 Y2.400 
G01 X98.293 Y2.271 
G01 X97.613 Y2.167 
G01 X96.929 Y2.089 
G01 X96.247 Y2.036 
G01 X95.578 Y2.008 
G01 X94.915 Y2.000 
G01 X94.253 Y2.012 
G01 X93.592 Y2.045 
G01 X92.933 Y2.098 
G01 X92.277 Y2.172 
G01 X91.623 Y2.265 
G01 X90.973 Y2.379 
G01 X90.327 Y2.512 
G01 X89.684 Y2.666 
G01 X89.047 Y2.839 
G01 X88.415 Y3.032 
G01 X87.788 Y3.244 
G01 X87.168 Y3.476 
G01 X86.554 Y3.727 
G01 X85.955 Y3.994 
G01 X84.686 Y4.599 
G01 X84.573 Y4.650 
G01 X84.515 Y4.672 
G01 X84.456 Y4.690 
G01 X84.429 Y4.696 
G01 X84.208 Y4.730 
G01 X83.961 Y4.740 
G01 X82.150 Y4.688 
G01 X80.813 Y4.650 
G01 X79.423 Y4.651 
G01 X78.752 Y4.675 
G01 X78.075 Y4.725 
G01 X77.401 Y4.801 
G01 X76.724 Y4.904 
G01 X76.096 Y5.027 
G01 X75.469 Y5.180 
G01 X74.850 Y5.362 
G01 X74.239 Y5.573 
G01 X73.646 Y5.810 
G01 X73.064 Y6.074 
G01 X72.495 Y6.366 
G01 X71.945 Y6.682 
G01 X71.309 Y7.084 
G01 X70.748 Y7.472 
G01 X70.291 Y7.785 
G01 X69.896 Y8.030 
G01 X69.707 Y8.132 
G01 X69.534 Y8.208 
G01 X69.403 Y8.254 
G01 X69.271 Y8.288 
G01 X69.136 Y8.312 
G01 X69.002 Y8.325 
G01 X68.562 Y8.331 
G01 X68.055 Y8.297 
G01 X66.212 Y8.104 
G01 X64.978 Y8.010 
G01 X63.707 Y7.969 
G01 X62.643 Y7.988 
G01 X61.575 Y8.066 
G01 X60.512 Y8.204 
G01 X59.476 Y8.396 
G01 X58.805 Y8.552 
G01 X58.157 Y8.723 
G01 X57.515 Y8.914 
G01 X56.879 Y9.125 
G01 X56.250 Y9.356 
G01 X55.629 Y9.606 
G01 X55.015 Y9.876 
G01 X54.416 Y10.162 
G01 X53.669 Y10.543 
G01 X52.937 Y10.936 
G01 X52.213 Y11.346 
G01 X51.515 Y11.761 
G01 X49.839 Y12.779 
G01 X49.531 Y12.958 
G01 X49.240 Y13.114 
G01 X48.943 Y13.258 
G01 X48.642 Y13.391 
G01 X48.226 Y13.556 
G01 X47.806 Y13.703 
G01 X47.381 Y13.834 
G01 X46.928 Y13.955 
G01 X44.652 Y14.500 
G01 X43.993 Y14.666 
G01 X43.296 Y14.865 
G01 X42.747 Y15.048 
G01 X42.194 Y15.264 
G01 X41.654 Y15.509 
G01 X41.141 Y15.774 
G01 X40.353 Y16.223 
G01 X39.598 Y16.684 
G01 X38.824 Y17.183 
G01 X38.066 Y17.695 
G01 X37.320 Y18.224 
G01 X36.579 Y18.773 
G01 X35.801 Y19.382 
G01 X35.038 Y20.020 
G01 X34.295 Y20.682 
G01 X33.568 Y21.372 
G01 X32.989 Y21.963 
G01 X32.431 Y22.581 
G01 X31.899 Y23.222 
G01 X31.395 Y23.883 
G01 Z11.000 F750.0 M3
G01 X30.917 Y24.565  F3000.0
G01 X30.468 Y25.266 
G01 X30.048 Y25.985 
G01 X29.660 Y26.717 
G01 X29.324 Y27.411 
G01 X29.013 Y28.109 
G01 X28.726 Y28.818 
G01 X28.463 Y29.531 
G01 X27.767 Y31.615 
G01 X27.471 Y32.503 
G01 X27.174 Y33.329 
G01 X27.100 Y33.512 
G01 X27.026 Y33.672 
G01 X26.944 Y33.829 
G01 X26.864 Y33.965 
G01 X26.764 Y34.112 
G01 X26.665 Y34.237 
G01 X26.557 Y34.353 
G01 X26.413 Y34.487 
G01 X25.995 Y34.838 
G01 X25.504 Y35.230 
G01 X24.731 Y35.853 
G01 X23.942 Y36.534 
G01 X23.297 Y37.134 
G01 X22.674 Y37.763 
G01 X22.077 Y38.416 
G01 X21.509 Y39.091 
G01 X20.954 Y39.804 
G01 X20.427 Y40.533 
G01 X19.927 Y41.281 
G01 X19.455 Y42.046 
G01 X19.011 Y42.827 
G01 X18.595 Y43.625 
G01 X18.209 Y44.437 
G01 X17.850 Y45.266 
G01 X17.548 Y46.045 
G01 X17.276 Y46.838 
G01 X17.037 Y47.640 
G01 X16.830 Y48.451 
G01 X16.655 Y49.269 
G01 X16.514 Y50.094 
G01 X16.405 Y50.924 
G01 X16.330 Y51.751 
G01 X16.257 Y53.076 
G01 X16.224 Y54.326 
G01 X16.201 Y54.872 
G01 X16.151 Y55.355 
G01 X16.130 Y55.480 
G01 X16.102 Y55.611 
G01 X16.067 Y55.741 
G01 X16.026 Y55.864 
G01 X15.993 Y55.948 
G01 X15.958 Y56.026 
G01 X15.917 Y56.101 
G01 X15.867 Y56.184 
G01 X15.653 Y56.497 
G01 X15.371 Y56.872 
G01 X15.154 Y57.166 
G01 X14.912 Y57.537 
G01 X14.693 Y57.922 
G01 X14.491 Y58.335 
G01 X14.276 Y58.865 
G01 X14.100 Y59.427 
G01 X13.972 Y60.000 
G01 X13.895 Y60.546 
G01 X13.783 Y61.931 
G01 X13.733 Y62.518 
G01 X13.671 Y63.025 
G01 X13.628 Y63.269 
G01 X13.573 Y63.484 
G01 X13.503 Y63.695 
G01 X13.414 Y63.913 
G01 X13.315 Y64.114 
G01 X13.200 Y64.321 
G01 X13.073 Y64.521 
G01 X12.916 Y64.742 
G01 X11.887 Y66.097 
G01 X11.359 Y66.818 
G01 X10.830 Y67.609 
G01 X10.443 Y68.268 
G01 X10.094 Y68.969 
G01 X9.796 Y69.694 
G01 X9.552 Y70.430 
G01 X9.370 Y71.130 
G01 X9.230 Y71.830 
G01 X9.131 Y72.537 
G01 X9.074 Y73.243 
G01 X9.039 Y74.551 
G01 X9.069 Y75.831 
G01 X9.152 Y77.268 
G01 X9.260 Y78.643 
G01 X9.307 Y79.271 
G01 X9.333 Y79.862 
G01 X9.343 Y80.455 
G01 X9.336 Y81.043 
G01 X9.318 Y81.455 
G01 X9.286 Y81.861 
G01 X9.240 Y82.266 
G01 X9.182 Y82.660 
G01 X9.078 Y83.204 
G01 X8.952 Y83.733 
G01 X8.800 Y84.255 
G01 X8.625 Y84.766 
G01 X8.264 Y85.671 
G01 X7.840 Y86.591 
G01 X6.538 Y89.249 
G01 X5.829 Y90.768 
G01 X5.160 Y92.331 
G01 X4.642 Y93.664 
G01 X4.172 Y95.019 
G01 X3.752 Y96.391 
G01 X3.387 Y97.765 
G01 X3.182 Y98.634 
G01 X2.997 Y99.495 
G01 X2.829 Y100.359 
G01 X2.678 Y101.226 
G01 X2.544 Y102.096 
G01 X2.426 Y102.968 
G01 X2.326 Y103.843 
G01 X2.244 Y104.716 
G01 X2.161 Y105.790 
G01 X2.096 Y106.863 
G01 X2.047 Y107.936 
G01 X2.015 Y109.009 
G01 X2.000 Y110.083 
G01 X2.002 Y111.157 
G01 X2.020 Y112.231 
G01 X2.056 Y113.306 
G01 X2.125 Y114.709 
G01 X2.218 Y116.111 
G01 X2.335 Y117.511 
G01 X2.476 Y118.909 
G01 X2.630 Y120.217 
G01 X2.803 Y121.522 
G01 X2.997 Y122.823 
G01 X3.211 Y124.122 
G01 X3.446 Y125.416 
G01 X3.700 Y126.708 
G01 X3.975 Y127.995 
G01 X4.272 Y129.287 
G01 X4.765 Y131.235 
G01 X5.316 Y133.177 
G01 X5.923 Y135.102 
G01 X6.587 Y137.014 
G01 X7.189 Y138.583 
G01 X7.848 Y140.133 
G01 X8.560 Y141.659 
G01 X9.322 Y143.150 
G01 X9.757 Y143.947 
G01 X10.204 Y144.726 
G01 X10.666 Y145.494 
G01 X11.144 Y146.252 
G01 X11.637 Y147.000 
G01 X12.145 Y147.738 
G01 X12.669 Y148.464 
G01 X13.207 Y149.180 
G01 X13.759 Y149.884 
G01 X14.326 Y150.577 
G01 X14.908 Y151.258 
G01 X15.504 Y151.928 
G01 X16.113 Y152.585 
G01 X16.736 Y153.229 
G01 X17.373 Y153.861 
G01 X18.022 Y154.479 
G01 X18.803 Y155.195 
G01 X19.595 Y155.895 
G01 X20.400 Y156.580 
G01 X21.216 Y157.251 
G01 X22.044 Y157.908 
G01 X22.884 Y158.549 
G01 X23.735 Y159.175 
G01 X24.601 Y159.789 
G01 X25.886 Y160.661 
G01 X27.194 Y161.504 
G01 X28.613 Y162.375 
G01 X30.051 Y163.215 
G01 X30.570 Y163.503 
G01 X30.968 Y163.735 
G01 X31.045 Y163.787 
G01 X31.123 Y163.847 
G01 X31.197 Y163.912 
G01 X31.268 Y163.982 
G01 X31.333 Y164.055 
G01 X31.395 Y164.133 
G01 X31.451 Y164.214 
G01 X31.492 Y164.283 
G01 X31.578 Y164.452 
G01 X31.641 Y164.609 
G01 X31.691 Y164.771 
G01 X31.735 Y164.983 
G01 X31.915 Y166.162 
G01 X32.104 Y167.445 
G01 X32.313 Y168.752 
G01 X32.539 Y170.058 
G01 X32.784 Y171.366 
G01 X33.008 Y172.459 
G01 X33.257 Y173.553 
G01 X33.529 Y174.642 
G01 X33.830 Y175.743 
G01 X34.171 Y176.841 
G01 X34.571 Y177.940 
G01 X35.022 Y179.018 
G01 X35.519 Y180.066 
G01 X35.840 Y180.676 
G01 X36.177 Y181.267 
G01 X36.533 Y181.845 
G01 X36.908 Y182.411 
G01 X37.302 Y182.964 
G01 X37.715 Y183.503 
G01 X38.146 Y184.029 
G01 X38.596 Y184.540 
G01 X39.102 Y185.078 
G01 X39.628 Y185.597 
G01 X40.171 Y186.098 
G01 X40.730 Y186.578 
G01 X41.366 Y187.087 
G01 X42.015 Y187.574 
G01 X42.680 Y188.039 
G01 X43.354 Y188.480 
G01 X44.273 Y189.045 
G01 X45.200 Y189.586 
G01 X46.138 Y190.105 
G01 X47.045 Y190.581 
G01 X47.475 Y190.811 
G01 X47.830 Y191.021 
G01 X48.169 Y191.250 
G01 X48.474 Y191.492 
G01 X48.736 Y191.732 
G01 X48.986 Y191.994 
G01 X49.218 Y192.273 
G01 X49.432 Y192.568 
G01 X49.643 Y192.901 
G01 X49.832 Y193.247 
G01 X50.000 Y193.606 
G01 X50.154 Y194.000 
G01 X50.440 Y194.841 
G01 X50.722 Y195.746 
G01 X51.808 Y199.313 
G01 X52.359 Y200.974 
G01 X52.971 Y202.624 
G01 X53.230 Y203.259 
G01 X53.504 Y203.882 
G01 X53.795 Y204.497 
G01 X54.104 Y205.103 
G01 X54.429 Y205.701 
G01 X54.770 Y206.289 
G01 X55.128 Y206.868 
G01 X55.512 Y207.451 
G01 X56.255 Y208.488 
G01 X57.060 Y209.499 
G01 X57.915 Y210.467 
G01 X58.807 Y211.380 
G01 X59.531 Y212.063 
G01 X60.261 Y212.714 
G01 X61.008 Y213.344 
G01 X61.773 Y213.952 
G01 X62.555 Y214.539 
G01 X63.354 Y215.103 
G01 X64.168 Y215.644 
G01 X64.993 Y216.160 
G01 X65.790 Y216.630 
G01 X66.592 Y217.081 
G01 X67.403 Y217.515 
G01 X68.189 Y217.914 
G01 X69.667 Y218.673 
G01 X71.088 Y219.457 
G01 X71.762 Y219.855 
G01 X72.424 Y220.274 
G01 X73.073 Y220.712 
G01 X73.699 Y221.161 
G01 X74.029 Y221.418 
G01 X74.337 Y221.682 
G01 X74.632 Y221.960 
G01 X74.887 Y222.225 
G01 X74.960 Y222.313 
G01 X75.000 Y222.372 
G01 X75.033 Y222.432 
G01 X75.060 Y222.495 
G01 X75.080 Y222.560 
G01 X75.095 Y222.627 
G01 X75.103 Y222.696 
G01 X75.105 Y222.766 
G01 X75.100 Y222.836 
G01 X75.089 Y222.904 
G01 X75.072 Y222.971 
G01 X75.048 Y223.035 
G01 X75.019 Y223.096 
G01 X74.984 Y223.155 
G01 X74.941 Y223.213 
G01 X74.889 Y223.269 
G01 X74.832 Y223.321 
G01 X74.775 Y223.364 
G01 X74.716 Y223.399 
G01 X74.655 Y223.428 
G01 X74.591 Y223.451 
G01 X74.524 Y223.469 
G01 X74.456 Y223.480 
G01 X74.386 Y223.484 
G01 X74.316 Y223.483 
G01 X74.247 Y223.474 
G01 X74.180 Y223.460 
G01 X74.115 Y223.439 
G01 X74.052 Y223.413 
G01 X73.992 Y223.380 
G01 X73.933 Y223.340 
G01 X73.842 Y223.264 
G01 X73.483 Y222.919 
G01 X73.021 Y222.469 
G01 X72.506 Y221.996 
G01 X71.977 Y221.537 
G01 X71.436 Y221.094 
G01 X70.871 Y220.659 
G01 X70.294 Y220.241 
G01 X69.705 Y219.840 
G01 X69.105 Y219.457 
G01 X68.493 Y219.092 
G01 X67.872 Y218.744 
G01 X67.239 Y218.415 
G01 X66.598 Y218.105 
G01 X65.997 Y217.836 
G01 X65.391 Y217.584 
G01 X64.778 Y217.349 
G01 X64.159 Y217.132 
G01 X63.535 Y216.933 
G01 X62.906 Y216.752 
G01 X62.273 Y216.588 
G01 X61.635 Y216.442 
G01 X60.993 Y216.314 
G01 X60.348 Y216.204 
G01 X59.700 Y216.112 
G01 X59.049 Y216.038 
G01 X58.396 Y215.983 
G01 X57.741 Y215.946 
G01 X57.084 Y215.927 
G01 X56.422 Y215.927 
G01 X55.603 Y215.953 
G01 X54.781 Y216.006 
G01 X53.962 Y216.086 
G01 X53.147 Y216.195 
G01 X52.336 Y216.330 
G01 X51.529 Y216.493 
G01 X50.728 Y216.683 
G01 X49.935 Y216.900 
G01 X49.195 Y217.128 
G01 X48.465 Y217.378 
G01 X47.744 Y217.650 
G01 X47.033 Y217.944 
G01 X46.332 Y218.259 
G01 X45.641 Y218.595 
G01 X44.961 Y218.952 
G01 X44.293 Y219.329 
G01 X43.636 Y219.727 
G01 X42.992 Y220.144 
G01 X42.361 Y220.582 
G01 X41.742 Y221.039 
G01 X41.138 Y221.515 
G01 X40.548 Y222.010 
G01 X39.972 Y222.524 
G01 X39.412 Y223.056 
G01 X38.879 Y223.595 
G01 X38.363 Y224.150 
G01 X37.865 Y224.722 
G01 X37.386 Y225.308 
G01 X36.925 Y225.909 
G01 X36.483 Y226.525 
G01 X36.061 Y227.155 
G01 X35.660 Y227.797 
G01 X35.305 Y228.404 
G01 X34.970 Y229.020 
G01 X34.654 Y229.644 
G01 X34.358 Y230.277 
G01 X34.080 Y230.918 
G01 X33.822 Y231.567 
