%
( trays x3 640x300noRound ) ( File created: Saturday November 23 2024 - 12:31 PM)
( for LinuxCNC )
( Material Size) ( X= 640.000, Y= 300.000, Z= 30.000)
G90 (Incremental distance mode)
G17 G21 (Active Plane: XY)(Metric Mode)
G40 G49 G80(Tool Diameter, Length compensation & canned cycles OFF)
G64 P0.05 Q0.05(Path Blending)
T22 M06 (TOOL USE Radiused End Mill Tip 2 - 16 mm Rough)
G90 (absolute distance mode)
G54 (Coordinate System)
S18000M3
G00 Z20.320
G4 P6
( bowl )
G00 X125.251 Y51.452 Z5.080 F6000.0
G01 Z0.000 F1200.0 M3
G01 Z-0.074 
G01 Z-0.151 
G01 Z-0.174 
G01 Z-0.253 
G01 Z-0.326 
G01 Z-0.416 
G01 Z-0.523 
G01 Z-0.646 
G01 Z-0.724 
G01 Z-0.794 
G01 Z-0.923 
G01 Z-1.034 
G01 Z-1.131 
G01 Z-1.216 
G01 Z-1.282 
G01 Z-1.364 
G01 Z-1.491 
G01 Z-1.552 
G01 Z-1.652 
G01 Z-1.770 
G01 Z-1.864 
G01 Z-1.972 
G01 Z-2.097 
G01 Z-2.222 
G01 Z-2.331 
G01 Z-2.424 
G01 Z-2.536 
G01 Z-2.619 
G01 Z-2.687 
G01 Z-2.782 
G01 Z-2.817 
G01 Z-2.860 
G01 Z-2.930 
G01 Z-3.017 
G01 Z-3.032 
G01 Z-3.092 
G01 Z-3.157 
G01 Z-3.186 
G01 Z-3.276 
G01 Z-3.367 
G01 Z-3.464 
G01 Z-3.565 
G01 Z-3.664 
G01 Z-3.771 
G01 Z-3.894 
G01 Z-4.032 
G01 Z-4.106 
G01 Z-4.167 
G01 Z-4.227 
G01 Z-4.301 
G01 Z-4.439 
G01 Z-4.562 
G01 Z-4.669 
G01 Z-4.769 
G01 Z-4.870 
G01 Z-4.966 
G01 Z-5.057 
G01 Z-5.148 
G01 Z-5.176 
G01 Z-5.241 
G01 Z-5.301 
G01 Z-5.316 
G01 Z-5.404 
G01 Z-5.474 
G01 Z-5.516 
G01 Z-5.551 
G01 Z-5.646 
G01 Z-5.715 
G01 Z-5.797 
G01 Z-5.909 
G01 Z-6.002 
G01 Z-6.111 
G01 Z-6.236 
G01 Z-6.362 
G01 Z-6.470 
G01 Z-6.564 
G01 Z-6.682 
G01 Z-6.782 
G01 Z-6.842 
G01 Z-6.969 
G01 Z-7.052 
G01 Z-7.117 
G01 Z-7.202 
G01 Z-7.299 
G01 Z-7.411 
G01 Z-7.539 
G01 Z-7.610 
G01 Z-7.687 
G01 Z-7.810 
G01 Z-7.917 
G01 Z-8.007 
G01 Z-8.080 
G01 Z-8.160 
G01 Z-8.182 
G01 Z-8.260 
G01 Z-8.333 
G01 X126.131 Y51.358  F3000.0
G01 X127.057 Y51.395 
G01 X127.330 Y51.405 
G01 X128.153 Y50.924 
G01 X128.933 Y50.522 
G01 X129.911 Y50.072 
G01 X131.098 Y49.589 
G01 X132.494 Y49.094 
G01 X133.380 Y48.815 
G01 X134.197 Y48.581 
G01 X135.690 Y48.211 
G01 X137.005 Y47.952 
G01 X138.156 Y47.780 
G01 X139.164 Y47.673 
G01 X139.952 Y47.620 
G01 X140.941 Y47.586 
G01 X142.466 Y47.583 
G01 X143.193 Y47.603 
G01 X144.388 Y47.677 
G01 X145.794 Y47.844 
G01 X146.906 Y48.033 
G01 X148.176 Y48.304 
G01 X149.631 Y48.683 
G01 X151.065 Y49.122 
G01 X152.300 Y49.556 
G01 X153.340 Y49.970 
G01 X154.562 Y50.524 
G01 X155.437 Y50.985 
G01 X156.143 Y51.407 
G01 X157.281 Y51.358 
G01 X157.701 Y51.389 
G01 X158.206 Y51.458 
G01 X157.372 Y51.359 
G01 X156.319 Y51.397 
G01 X156.143 Y51.407 
G01 X155.578 Y51.860 
G01 X154.944 Y52.315 
G01 X154.656 Y52.496 
G01 X153.695 Y53.006 
G01 X152.704 Y53.449 
G01 X151.619 Y53.859 
G01 X150.461 Y54.221 
G01 X149.304 Y54.512 
G01 X148.042 Y54.748 
G01 X146.576 Y54.938 
G01 X144.926 Y55.068 
G01 X144.038 Y55.108 
G01 X142.515 Y55.144 
G01 X141.155 Y55.149 
G01 X139.961 Y55.130 
G01 X138.061 Y55.044 
G01 X136.783 Y54.937 
G01 X135.597 Y54.784 
G01 X134.422 Y54.567 
G01 X133.252 Y54.284 
G01 X132.105 Y53.940 
G01 X131.002 Y53.541 
G01 X129.897 Y53.067 
G01 X129.220 Y52.726 
G01 X128.448 Y52.270 
G01 X127.825 Y51.832 
G01 X127.316 Y51.414 
G01 X126.282 Y51.357 
G01 X125.727 Y51.393 
G01 X125.251 Y51.452 
G01 X120.019 Y48.363  
G01 X120.406 Y47.755  
G01 X120.916 Y47.075 
G01 X121.374 Y46.568 
G01 X121.962 Y46.039 
G01 X122.748 Y45.449 
G01 X123.698 Y44.839 
G01 X124.570 Y44.341 
G01 X125.642 Y43.788 
G01 X126.925 Y43.197 
G01 X128.430 Y42.584 
G01 X129.268 Y42.276 
G01 X130.156 Y41.972 
G01 X131.220 Y41.637 
G01 X132.219 Y41.351 
G01 X133.169 Y41.104 
G01 X134.070 Y40.893 
G01 X135.732 Y40.566 
G01 X137.214 Y40.344 
G01 X138.526 Y40.205 
G01 X139.609 Y40.132 
G01 X140.779 Y40.092 
G01 X142.591 Y40.088 
G01 X143.505 Y40.113 
G01 X145.058 Y40.211 
G01 X146.243 Y40.340 
G01 X147.582 Y40.539 
G01 X149.084 Y40.826 
G01 X150.759 Y41.222 
G01 X151.675 Y41.472 
G01 X153.409 Y42.002 
G01 X154.932 Y42.538 
G01 X156.249 Y43.061 
G01 X157.369 Y43.559 
G01 X158.219 Y43.973 
G01 X159.083 Y44.436 
G01 X160.159 Y45.077 
G01 X160.851 Y45.547 
G01 X161.628 Y46.158 
G01 X162.163 Y46.653 
G01 X162.620 Y47.162 
G01 X162.859 Y47.469 
G01 X163.334 Y48.191 
G01 X163.853 Y49.126 
G01 X164.447 Y50.364 
G01 X165.099 Y51.909 
G01 X165.454 Y52.821 
G01 X167.099 Y53.167 
G01 X165.454 Y52.821 
G01 X163.553 Y54.744 
G01 X162.165 Y56.074 
G01 X161.145 Y56.993 
G01 X160.149 Y57.801 
G01 X159.583 Y58.221 
G01 X158.662 Y58.834 
G01 X157.590 Y59.436 
G01 X156.965 Y59.751 
G01 X156.274 Y60.073 
G01 X155.558 Y60.380 
G01 X154.820 Y60.671 
G01 X154.063 Y60.945 
G01 X153.288 Y61.200 
G01 X152.500 Y61.434 
G01 X151.726 Y61.641 
G01 X150.909 Y61.834 
G01 X150.080 Y62.002 
G01 X149.210 Y62.152 
G01 X148.299 Y62.283 
G01 X147.349 Y62.393 
G01 X146.364 Y62.483 
G01 X145.346 Y62.551 
G01 X144.297 Y62.599 
G01 X142.619 Y62.639 
G01 X141.107 Y62.645 
G01 X139.763 Y62.623 
G01 X138.585 Y62.580 
G01 X136.718 Y62.459 
G01 X135.489 Y62.335 
G01 X133.909 Y62.101 
G01 X132.335 Y61.780 
G01 X130.777 Y61.374 
G01 X129.253 Y60.886 
G01 X127.780 Y60.324 
G01 X126.708 Y59.850 
G01 X125.661 Y59.322 
G01 X124.773 Y58.813 
G01 X124.021 Y58.327 
G01 X123.173 Y57.710 
G01 X122.535 Y57.189 
G01 X121.517 Y56.281 
G01 X120.278 Y55.091 
G01 X118.006 Y52.803 
G01 X116.361 Y53.147 
G01 X118.006 Y52.803 
G01 X118.578 Y51.349 
G01 X119.228 Y49.868 
G01 X119.784 Y48.772 
G01 X120.019 Y48.363 
G01 X113.575 Y44.532  
G01 X114.218 Y43.525  
G01 X114.837 Y42.676 
G01 X115.424 Y41.964 
G01 X116.170 Y41.173 
G01 X116.733 Y40.648 
G01 X117.569 Y39.956 
G01 X118.500 Y39.274 
G01 X119.341 Y38.721 
G01 X120.385 Y38.094 
G01 X121.641 Y37.411 
G01 X123.116 Y36.690 
G01 X123.939 Y36.322 
G01 X124.821 Y35.951 
G01 X125.761 Y35.580 
G01 X126.762 Y35.212 
G01 X127.818 Y34.851 
G01 X129.060 Y34.460 
G01 X130.241 Y34.121 
G01 X131.371 Y33.827 
G01 X132.451 Y33.574 
G01 X133.480 Y33.359 
G01 X134.460 Y33.179 
G01 X135.390 Y33.030 
G01 X137.103 Y32.812 
G01 X138.626 Y32.681 
G01 X139.267 Y32.644 
G01 X140.617 Y32.599 
G01 X142.717 Y32.594 
G01 X143.816 Y32.624 
G01 X145.117 Y32.697 
G01 X146.440 Y32.816 
G01 X147.991 Y33.015 
G01 X149.717 Y33.308 
G01 X150.648 Y33.496 
G01 X151.624 Y33.715 
G01 X152.645 Y33.968 
G01 X153.720 Y34.260 
G01 X154.762 Y34.568 
G01 X155.752 Y34.883 
G01 X157.564 Y35.520 
G01 X159.157 Y36.153 
G01 X160.541 Y36.767 
G01 X161.667 Y37.318 
G01 X162.729 Y37.886 
G01 X163.551 Y38.362 
G01 X164.743 Y39.122 
G01 X165.702 Y39.814 
G01 X166.509 Y40.469 
G01 X167.182 Y41.078 
G01 X167.918 Y41.830 
G01 X168.389 Y42.375 
G01 X168.962 Y43.116 
G01 X169.371 Y43.712 
G01 X169.750 Y44.314 
G01 X170.131 Y44.973 
G01 X170.514 Y45.688 
G01 X170.899 Y46.461 
G01 X171.284 Y47.292 
G01 X171.670 Y48.180 
G01 X172.447 Y50.121 
G01 X172.827 Y51.140 
G01 X174.070 Y54.675 
G01 X175.693 Y55.030 
G01 X174.070 Y54.675 
G01 X171.279 Y57.585 
G01 X168.808 Y60.088 
G01 X167.265 Y61.567 
G01 X166.039 Y62.670 
G01 X165.637 Y63.010 
G01 X164.721 Y63.742 
G01 X163.939 Y64.321 
G01 X163.235 Y64.806 
G01 X162.116 Y65.501 
G01 X161.083 Y66.069 
G01 X160.234 Y66.497 
G01 X159.334 Y66.916 
G01 X158.411 Y67.312 
G01 X157.468 Y67.684 
G01 X156.507 Y68.031 
G01 X155.529 Y68.353 
G01 X154.539 Y68.648 
G01 X153.555 Y68.911 
G01 X152.514 Y69.156 
G01 X151.462 Y69.370 
G01 X150.378 Y69.556 
G01 X149.264 Y69.716 
G01 X148.123 Y69.849 
G01 X146.956 Y69.955 
G01 X145.766 Y70.035 
G01 X144.555 Y70.089 
G01 X142.723 Y70.134 
G01 X141.059 Y70.140 
G01 X139.565 Y70.115 
G01 X138.239 Y70.067 
G01 X137.081 Y70.002 
G01 X135.256 Y69.850 
G01 X133.931 Y69.691 
G01 X132.612 Y69.483 
G01 X131.295 Y69.227 
G01 X129.985 Y68.923 
G01 X128.687 Y68.572 
G01 X127.406 Y68.175 
G01 X126.146 Y67.733 
G01 X124.912 Y67.249 
G01 X123.519 Y66.634 
G01 X122.786 Y66.276 
G01 X122.101 Y65.919 
G01 X120.868 Y65.211 
G01 X119.801 Y64.522 
G01 X118.879 Y63.862 
G01 X117.702 Y62.919 
G01 X116.418 Y61.775 
G01 X115.007 Y60.420 
G01 X112.850 Y58.253 
G01 X109.390 Y54.672 
G01 X107.766 Y55.028 
G01 X109.390 Y54.672 
G01 X110.045 Y52.765 
G01 X110.587 Y51.244 
G01 X111.123 Y49.808 
G01 X111.655 Y48.476 
G01 X112.213 Y47.183 
G01 X112.716 Y46.119 
G01 X113.230 Y45.136 
G01 X113.575 Y44.532 
G01 X100.811 Y56.537  
G01 X102.971 Y50.289  
G01 X103.546 Y48.674 
G01 X104.132 Y47.108 
G01 X104.732 Y45.602 
G01 X105.368 Y44.128 
G01 X106.003 Y42.785 
G01 X106.675 Y41.499 
G01 X107.132 Y40.702 
G01 X107.581 Y39.974 
G01 X108.029 Y39.295 
G01 X108.476 Y38.663 
G01 X108.918 Y38.076 
G01 X109.782 Y37.029 
G01 X110.605 Y36.138 
G01 X110.966 Y35.777 
G01 X111.744 Y35.053 
G01 X112.418 Y34.477 
G01 X112.990 Y34.021 
G01 X114.252 Y33.099 
G01 X115.346 Y32.379 
G01 X116.660 Y31.589 
G01 X118.201 Y30.751 
G01 X119.059 Y30.320 
G01 X119.976 Y29.884 
G01 X120.954 Y29.446 
G01 X121.992 Y29.009 
G01 X123.093 Y28.575 
G01 X124.256 Y28.147 
G01 X125.480 Y27.729 
G01 X126.900 Y27.282 
G01 X128.262 Y26.891 
G01 X129.573 Y26.550 
G01 X130.831 Y26.256 
G01 X132.036 Y26.004 
G01 X133.188 Y25.792 
G01 X134.285 Y25.616 
G01 X135.328 Y25.472 
G01 X137.249 Y25.269 
G01 X138.924 Y25.157 
G01 X140.455 Y25.105 
G01 X142.842 Y25.100 
G01 X144.127 Y25.135 
G01 X145.628 Y25.219 
G01 X147.247 Y25.365 
G01 X149.089 Y25.601 
G01 X150.082 Y25.758 
G01 X151.123 Y25.945 
G01 X152.211 Y26.165 
G01 X153.347 Y26.420 
G01 X154.530 Y26.714 
G01 X155.764 Y27.049 
G01 X156.959 Y27.402 
G01 X158.096 Y27.763 
G01 X159.175 Y28.131 
G01 X160.195 Y28.502 
G01 X162.065 Y29.245 
G01 X163.713 Y29.976 
G01 X165.115 Y30.663 
G01 X166.374 Y31.336 
G01 X167.402 Y31.931 
G01 X168.234 Y32.446 
G01 X168.959 Y32.924 
G01 X169.634 Y33.398 
G01 X170.263 Y33.866 
G01 X171.390 Y34.781 
G01 X172.356 Y35.655 
G01 X173.174 Y36.475 
G01 X173.503 Y36.831 
G01 X174.159 Y37.588 
G01 X174.670 Y38.231 
G01 X175.064 Y38.763 
G01 X175.633 Y39.592 
G01 X176.166 Y40.437 
G01 X176.679 Y41.324 
G01 X177.175 Y42.250 
G01 X177.656 Y43.216 
G01 X178.121 Y44.221 
G01 X178.574 Y45.262 
G01 X179.016 Y46.339 
G01 X179.869 Y48.573 
G01 X180.720 Y50.964 
G01 X182.643 Y56.528 
G01 X178.412 Y60.981 
G01 X176.657 Y62.805 
G01 X174.910 Y64.590 
G01 X173.213 Y66.259 
G01 X171.516 Y67.834 
G01 X170.397 Y68.801 
G01 X169.292 Y69.683 
G01 X168.295 Y70.422 
G01 X167.381 Y71.051 
G01 X166.552 Y71.581 
G01 X165.845 Y72.004 
G01 X164.576 Y72.702 
G01 X163.504 Y73.242 
G01 X162.395 Y73.758 
G01 X161.265 Y74.243 
G01 X160.116 Y74.696 
G01 X158.950 Y75.117 
G01 X157.770 Y75.505 
G01 X156.577 Y75.861 
G01 X155.384 Y76.180 
G01 X154.119 Y76.478 
G01 X152.843 Y76.737 
G01 X151.546 Y76.960 
G01 X150.229 Y77.149 
G01 X148.896 Y77.304 
G01 X147.547 Y77.427 
G01 X146.186 Y77.519 
G01 X144.814 Y77.580 
G01 X142.828 Y77.628 
G01 X141.012 Y77.635 
G01 X139.367 Y77.608 
G01 X137.893 Y77.554 
G01 X136.590 Y77.482 
G01 X134.493 Y77.306 
G01 X132.903 Y77.115 
G01 X131.314 Y76.866 
G01 X129.731 Y76.558 
G01 X128.158 Y76.192 
G01 X126.598 Y75.770 
G01 X125.057 Y75.292 
G01 X123.538 Y74.760 
G01 X122.045 Y74.174 
G01 X121.328 Y73.869 
G01 X120.330 Y73.417 
G01 X119.408 Y72.968 
G01 X118.541 Y72.515 
G01 X117.727 Y72.061 
G01 X116.963 Y71.609 
G01 X116.249 Y71.160 
G01 X114.959 Y70.282 
G01 X113.869 Y69.465 
G01 X112.868 Y68.648 
G01 X112.030 Y67.917 
G01 X110.598 Y66.588 
G01 X109.737 Y65.749 
G01 X107.503 Y63.505 
G01 X104.700 Y60.615 
G01 X100.811 Y56.537 
G00 Z5.080
G00 X125.251 Y51.452  F6000.0
G01 Z-8.333 F1200.0 M3
G01 Z-8.407 
G01 Z-8.484 
G01 Z-8.507 
G01 Z-8.587 
G01 Z-8.660 
G01 Z-8.749 
G01 Z-8.856 
G01 Z-8.980 
G01 Z-9.057 
G01 Z-9.128 
G01 Z-9.256 
G01 Z-9.368 
G01 Z-9.465 
G01 Z-9.549 
G01 Z-9.615 
G01 Z-9.697 
G01 Z-9.824 
G01 Z-9.885 
G01 Z-9.985 
G01 Z-10.103 
G01 Z-10.197 
G01 Z-10.305 
G01 Z-10.430 
G01 Z-10.555 
G01 Z-10.664 
G01 Z-10.758 
G01 Z-10.870 
G01 Z-10.952 
G01 Z-11.021 
G01 Z-11.115 
G01 Z-11.150 
G01 Z-11.193 
G01 Z-11.263 
G01 Z-11.351 
G01 Z-11.365 
G01 Z-11.426 
G01 Z-11.491 
G01 Z-11.519 
G01 Z-11.610 
G01 Z-11.700 
G01 Z-11.797 
G01 Z-11.898 
G01 Z-11.997 
G01 Z-12.104 
G01 Z-12.228 
G01 Z-12.365 
G01 Z-12.440 
G01 Z-12.500 
G01 Z-12.560 
G01 Z-12.635 
G01 Z-12.772 
G01 Z-12.896 
G01 Z-13.003 
G01 Z-13.102 
G01 Z-13.203 
G01 Z-13.300 
G01 Z-13.390 
G01 Z-13.481 
G01 Z-13.509 
G01 Z-13.574 
G01 Z-13.635 
G01 Z-13.649 
G01 Z-13.737 
G01 Z-13.807 
G01 Z-13.850 
G01 Z-13.885 
G01 Z-13.979 
G01 Z-14.048 
G01 Z-14.130 
G01 Z-14.242 
G01 Z-14.336 
G01 Z-14.445 
G01 Z-14.570 
G01 Z-14.695 
G01 Z-14.803 
G01 Z-14.897 
G01 Z-15.015 
G01 Z-15.115 
G01 Z-15.176 
G01 Z-15.303 
G01 Z-15.385 
G01 Z-15.451 
G01 Z-15.535 
G01 Z-15.632 
G01 Z-15.744 
G01 Z-15.872 
G01 Z-15.943 
G01 Z-16.020 
G01 Z-16.144 
G01 Z-16.251 
G01 Z-16.340 
G01 Z-16.413 
G01 Z-16.493 
G01 Z-16.516 
G01 Z-16.593 
G01 Z-16.667 
G01 X126.131 Y51.358  F3000.0
G01 X127.057 Y51.395 
G01 X127.330 Y51.405 
G01 X128.153 Y50.924 
G01 X128.933 Y50.522 
G01 X129.911 Y50.072 
G01 X131.098 Y49.589 
G01 X132.494 Y49.094 
G01 X133.380 Y48.815 
G01 X134.197 Y48.581 
G01 X135.690 Y48.211 
G01 X137.005 Y47.952 
G01 X138.156 Y47.780 
G01 X139.164 Y47.673 
G01 X139.952 Y47.620 
G01 X140.941 Y47.586 
G01 X142.466 Y47.583 
G01 X143.193 Y47.603 
G01 X144.388 Y47.677 
G01 X145.794 Y47.844 
G01 X146.906 Y48.033 
G01 X148.176 Y48.304 
G01 X149.631 Y48.683 
G01 X151.065 Y49.122 
G01 X152.300 Y49.556 
G01 X153.340 Y49.970 
G01 X154.562 Y50.524 
G01 X155.437 Y50.985 
G01 X156.143 Y51.407 
G01 X157.281 Y51.358 
G01 X157.701 Y51.389 
G01 X158.206 Y51.458 
G01 X157.372 Y51.359 
G01 X156.319 Y51.397 
G01 X156.143 Y51.407 
G01 X155.578 Y51.860 
G01 X154.944 Y52.315 
G01 X154.656 Y52.496 
G01 X153.695 Y53.006 
G01 X152.704 Y53.449 
G01 X151.619 Y53.859 
G01 X150.461 Y54.221 
G01 X149.304 Y54.512 
G01 X148.042 Y54.748 
G01 X146.576 Y54.938 
G01 X144.926 Y55.068 
G01 X144.038 Y55.108 
G01 X142.515 Y55.144 
G01 X141.155 Y55.149 
G01 X139.961 Y55.130 
G01 X138.061 Y55.044 
G01 X136.783 Y54.937 
G01 X135.597 Y54.784 
G01 X134.422 Y54.567 
G01 X133.252 Y54.284 
G01 X132.105 Y53.940 
G01 X131.002 Y53.541 
G01 X129.897 Y53.067 
G01 X129.220 Y52.726 
G01 X128.448 Y52.270 
G01 X127.825 Y51.832 
G01 X127.316 Y51.414 
G01 X126.282 Y51.357 
G01 X125.727 Y51.393 
G01 X125.251 Y51.452 
G01 X120.019 Y48.363  
G01 X120.406 Y47.755  
G01 X120.916 Y47.075 
G01 X121.374 Y46.568 
G01 X121.962 Y46.039 
G01 X122.748 Y45.449 
G01 X123.698 Y44.839 
G01 X124.570 Y44.341 
G01 X125.642 Y43.788 
G01 X126.925 Y43.197 
G01 X128.430 Y42.584 
G01 X129.268 Y42.276 
G01 X130.156 Y41.972 
G01 X131.220 Y41.637 
G01 X132.219 Y41.351 
G01 X133.169 Y41.104 
G01 X134.070 Y40.893 
G01 X135.732 Y40.566 
G01 X137.214 Y40.344 
G01 X138.526 Y40.205 
G01 X139.609 Y40.132 
G01 X140.779 Y40.092 
G01 X142.591 Y40.088 
G01 X143.505 Y40.113 
G01 X145.058 Y40.211 
G01 X146.243 Y40.340 
G01 X147.582 Y40.539 
G01 X149.084 Y40.826 
G01 X150.759 Y41.222 
G01 X151.675 Y41.472 
G01 X153.409 Y42.002 
G01 X154.932 Y42.538 
G01 X156.249 Y43.061 
G01 X157.369 Y43.559 
G01 X158.219 Y43.973 
G01 X159.083 Y44.436 
G01 X160.159 Y45.077 
G01 X160.851 Y45.547 
G01 X161.628 Y46.158 
G01 X162.163 Y46.653 
G01 X162.620 Y47.162 
G01 X162.859 Y47.469 
G01 X163.334 Y48.191 
G01 X163.853 Y49.126 
G01 X164.447 Y50.364 
G01 X165.099 Y51.909 
G01 X165.454 Y52.821 
G01 X167.099 Y53.167 
G01 X165.454 Y52.821 
G01 X163.553 Y54.744 
G01 X162.165 Y56.074 
G01 X161.145 Y56.993 
G01 X160.149 Y57.801 
G01 X159.583 Y58.221 
G01 X158.662 Y58.834 
G01 X157.590 Y59.436 
G01 X156.965 Y59.751 
G01 X156.274 Y60.073 
G01 X155.558 Y60.380 
G01 X154.820 Y60.671 
G01 X154.063 Y60.945 
G01 X153.288 Y61.200 
G01 X152.500 Y61.434 
G01 X151.726 Y61.641 
G01 X150.909 Y61.834 
G01 X150.080 Y62.002 
G01 X149.210 Y62.152 
G01 X148.299 Y62.283 
G01 X147.349 Y62.393 
G01 X146.364 Y62.483 
G01 X145.346 Y62.551 
G01 X144.297 Y62.599 
G01 X142.619 Y62.639 
G01 X141.107 Y62.645 
G01 X139.763 Y62.623 
G01 X138.585 Y62.580 
G01 X136.718 Y62.459 
G01 X135.489 Y62.335 
G01 X133.909 Y62.101 
G01 X132.335 Y61.780 
G01 X130.777 Y61.374 
G01 X129.253 Y60.886 
G01 X127.780 Y60.324 
G01 X126.708 Y59.850 
G01 X125.661 Y59.322 
G01 X124.773 Y58.813 
G01 X124.021 Y58.327 
G01 X123.173 Y57.710 
G01 X122.535 Y57.189 
G01 X121.517 Y56.281 
G01 X120.278 Y55.091 
G01 X118.006 Y52.803 
G01 X116.361 Y53.147 
G01 X118.006 Y52.803 
G01 X118.578 Y51.349 
G01 X119.228 Y49.868 
G01 X119.784 Y48.772 
G01 X120.019 Y48.363 
G01 X113.575 Y44.532  
G01 X114.218 Y43.525  
G01 X114.837 Y42.676 
G01 X115.424 Y41.964 
G01 X116.170 Y41.173 
G01 X116.733 Y40.648 
G01 X117.569 Y39.956 
G01 X118.500 Y39.274 
G01 X119.341 Y38.721 
G01 X120.385 Y38.094 
G01 X121.641 Y37.411 
G01 X123.116 Y36.690 
G01 X123.939 Y36.322 
G01 X124.821 Y35.951 
G01 X125.761 Y35.580 
G01 X126.762 Y35.212 
G01 X127.818 Y34.851 
G01 X129.060 Y34.460 
G01 X130.241 Y34.121 
G01 X131.371 Y33.827 
G01 X132.451 Y33.574 
G01 X133.480 Y33.359 
G01 X134.460 Y33.179 
G01 X135.390 Y33.030 
G01 X137.103 Y32.812 
G01 X138.626 Y32.681 
G01 X139.267 Y32.644 
G01 X140.617 Y32.599 
G01 X142.717 Y32.594 
G01 X143.816 Y32.624 
G01 X145.117 Y32.697 
G01 X146.440 Y32.816 
G01 X147.991 Y33.015 
G01 X149.717 Y33.308 
G01 X150.648 Y33.496 
G01 X151.624 Y33.715 
G01 X152.645 Y33.968 
G01 X153.720 Y34.260 
G01 X154.762 Y34.568 
G01 X155.752 Y34.883 
G01 X157.564 Y35.520 
G01 X159.157 Y36.153 
G01 X160.541 Y36.767 
G01 X161.667 Y37.318 
G01 X162.729 Y37.886 
G01 X163.551 Y38.362 
G01 X164.743 Y39.122 
G01 X165.702 Y39.814 
G01 X166.509 Y40.469 
G01 X167.182 Y41.078 
G01 X167.918 Y41.830 
G01 X168.389 Y42.375 
G01 X168.962 Y43.116 
G01 X169.371 Y43.712 
G01 X169.750 Y44.314 
G01 X170.131 Y44.973 
G01 X170.514 Y45.688 
G01 X170.899 Y46.461 
G01 X171.284 Y47.292 
G01 X171.670 Y48.180 
G01 X172.447 Y50.121 
G01 X172.827 Y51.140 
G01 X174.070 Y54.675 
G01 X175.693 Y55.030 
G01 X174.070 Y54.675 
G01 X171.279 Y57.585 
G01 X168.808 Y60.088 
G01 X167.265 Y61.567 
G01 X166.039 Y62.670 
G01 X165.637 Y63.010 
G01 X164.721 Y63.742 
G01 X163.939 Y64.321 
G01 X163.235 Y64.806 
G01 X162.116 Y65.501 
G01 X161.083 Y66.069 
G01 X160.234 Y66.497 
G01 X159.334 Y66.916 
G01 X158.411 Y67.312 
G01 X157.468 Y67.684 
G01 X156.507 Y68.031 
G01 X155.529 Y68.353 
G01 X154.539 Y68.648 
G01 X153.555 Y68.911 
G01 X152.514 Y69.156 
G01 X151.462 Y69.370 
G01 X150.378 Y69.556 
G01 X149.264 Y69.716 
G01 X148.123 Y69.849 
G01 X146.956 Y69.955 
G01 X145.766 Y70.035 
G01 X144.555 Y70.089 
G01 X142.723 Y70.134 
G01 X141.059 Y70.140 
G01 X139.565 Y70.115 
G01 X138.239 Y70.067 
G01 X137.081 Y70.002 
G01 X135.256 Y69.850 
G01 X133.931 Y69.691 
G01 X132.612 Y69.483 
G01 X131.295 Y69.227 
G01 X129.985 Y68.923 
G01 X128.687 Y68.572 
G01 X127.406 Y68.175 
G01 X126.146 Y67.733 
G01 X124.912 Y67.249 
G01 X123.519 Y66.634 
G01 X122.786 Y66.276 
G01 X122.101 Y65.919 
G01 X120.868 Y65.211 
G01 X119.801 Y64.522 
G01 X118.879 Y63.862 
G01 X117.702 Y62.919 
G01 X116.418 Y61.775 
G01 X115.007 Y60.420 
G01 X112.850 Y58.253 
G01 X109.390 Y54.672 
G01 X107.766 Y55.028 
G01 X109.390 Y54.672 
G01 X110.045 Y52.765 
G01 X110.587 Y51.244 
G01 X111.123 Y49.808 
G01 X111.655 Y48.476 
G01 X112.213 Y47.183 
G01 X112.716 Y46.119 
G01 X113.230 Y45.136 
G01 X113.575 Y44.532 
G01 X100.811 Y56.537  
G01 X102.971 Y50.289  
G01 X103.546 Y48.674 
G01 X104.132 Y47.108 
G01 X104.732 Y45.602 
G01 X105.368 Y44.128 
G01 X106.003 Y42.785 
G01 X106.675 Y41.499 
G01 X107.132 Y40.702 
G01 X107.581 Y39.974 
G01 X108.029 Y39.295 
G01 X108.476 Y38.663 
G01 X108.918 Y38.076 
G01 X109.782 Y37.029 
G01 X110.605 Y36.138 
G01 X110.966 Y35.777 
G01 X111.744 Y35.053 
G01 X112.418 Y34.477 
G01 X112.990 Y34.021 
G01 X114.252 Y33.099 
G01 X115.346 Y32.379 
G01 X116.660 Y31.589 
G01 X118.201 Y30.751 
G01 X119.059 Y30.320 
G01 X119.976 Y29.884 
G01 X120.954 Y29.446 
G01 X121.992 Y29.009 
G01 X123.093 Y28.575 
G01 X124.256 Y28.147 
G01 X125.480 Y27.729 
G01 X126.900 Y27.282 
G01 X128.262 Y26.891 
G01 X129.573 Y26.550 
G01 X130.831 Y26.256 
G01 X132.036 Y26.004 
G01 X133.188 Y25.792 
G01 X134.285 Y25.616 
G01 X135.328 Y25.472 
G01 X137.249 Y25.269 
G01 X138.924 Y25.157 
G01 X140.455 Y25.105 
G01 X142.842 Y25.100 
G01 X144.127 Y25.135 
G01 X145.628 Y25.219 
G01 X147.247 Y25.365 
G01 X149.089 Y25.601 
G01 X150.082 Y25.758 
G01 X151.123 Y25.945 
G01 X152.211 Y26.165 
G01 X153.347 Y26.420 
G01 X154.530 Y26.714 
G01 X155.764 Y27.049 
G01 X156.959 Y27.402 
G01 X158.096 Y27.763 
G01 X159.175 Y28.131 
G01 X160.195 Y28.502 
G01 X162.065 Y29.245 
G01 X163.713 Y29.976 
G01 X165.115 Y30.663 
G01 X166.374 Y31.336 
G01 X167.402 Y31.931 
G01 X168.234 Y32.446 
G01 X168.959 Y32.924 
G01 X169.634 Y33.398 
G01 X170.263 Y33.866 
G01 X171.390 Y34.781 
G01 X172.356 Y35.655 
G01 X173.174 Y36.475 
G01 X173.503 Y36.831 
G01 X174.159 Y37.588 
G01 X174.670 Y38.231 
G01 X175.064 Y38.763 
G01 X175.633 Y39.592 
G01 X176.166 Y40.437 
G01 X176.679 Y41.324 
G01 X177.175 Y42.250 
G01 X177.656 Y43.216 
G01 X178.121 Y44.221 
G01 X178.574 Y45.262 
G01 X179.016 Y46.339 
G01 X179.869 Y48.573 
G01 X180.720 Y50.964 
G01 X182.643 Y56.528 
G01 X178.412 Y60.981 
G01 X176.657 Y62.805 
G01 X174.910 Y64.590 
G01 X173.213 Y66.259 
G01 X171.516 Y67.834 
G01 X170.397 Y68.801 
G01 X169.292 Y69.683 
G01 X168.295 Y70.422 
G01 X167.381 Y71.051 
G01 X166.552 Y71.581 
G01 X165.845 Y72.004 
G01 X164.576 Y72.702 
G01 X163.504 Y73.242 
G01 X162.395 Y73.758 
G01 X161.265 Y74.243 
G01 X160.116 Y74.696 
G01 X158.950 Y75.117 
G01 X157.770 Y75.505 
G01 X156.577 Y75.861 
G01 X155.384 Y76.180 
G01 X154.119 Y76.478 
G01 X152.843 Y76.737 
G01 X151.546 Y76.960 
G01 X150.229 Y77.149 
G01 X148.896 Y77.304 
G01 X147.547 Y77.427 
G01 X146.186 Y77.519 
G01 X144.814 Y77.580 
G01 X142.828 Y77.628 
G01 X141.012 Y77.635 
G01 X139.367 Y77.608 
G01 X137.893 Y77.554 
G01 X136.590 Y77.482 
G01 X134.493 Y77.306 
G01 X132.903 Y77.115 
G01 X131.314 Y76.866 
G01 X129.731 Y76.558 
G01 X128.158 Y76.192 
G01 X126.598 Y75.770 
G01 X125.057 Y75.292 
G01 X123.538 Y74.760 
G01 X122.045 Y74.174 
G01 X121.328 Y73.869 
G01 X120.330 Y73.417 
G01 X119.408 Y72.968 
G01 X118.541 Y72.515 
G01 X117.727 Y72.061 
G01 X116.963 Y71.609 
G01 X116.249 Y71.160 
G01 X114.959 Y70.282 
G01 X113.869 Y69.465 
G01 X112.868 Y68.648 
G01 X112.030 Y67.917 
G01 X110.598 Y66.588 
G01 X109.737 Y65.749 
G01 X107.503 Y63.505 
G01 X104.700 Y60.615 
G01 X100.811 Y56.537 
G00 Z5.080
G00 X125.251 Y51.452  F6000.0
G01 Z-16.667 F1200.0 M3
G01 Z-16.740 
G01 Z-16.818 
G01 Z-16.840 
G01 Z-16.920 
G01 Z-16.993 
G01 Z-17.083 
G01 Z-17.190 
G01 Z-17.313 
G01 Z-17.390 
G01 Z-17.461 
G01 Z-17.589 
G01 Z-17.701 
G01 Z-17.798 
G01 Z-17.883 
G01 Z-17.948 
G01 Z-18.031 
G01 Z-18.158 
G01 Z-18.218 
G01 Z-18.318 
G01 Z-18.436 
G01 Z-18.530 
G01 Z-18.638 
G01 Z-18.764 
G01 Z-18.889 
G01 Z-18.998 
G01 Z-19.091 
G01 Z-19.203 
G01 Z-19.285 
G01 Z-19.354 
G01 Z-19.449 
G01 Z-19.484 
G01 Z-19.526 
G01 Z-19.596 
G01 Z-19.684 
G01 Z-19.699 
G01 Z-19.759 
G01 Z-19.824 
G01 Z-19.852 
G01 Z-19.943 
G01 Z-20.034 
G01 Z-20.130 
G01 Z-20.231 
G01 Z-20.331 
G01 Z-20.438 
G01 Z-20.561 
G01 Z-20.699 
G01 Z-20.773 
G01 Z-20.833 
G01 Z-20.894 
G01 Z-20.968 
G01 Z-21.106 
G01 Z-21.229 
G01 Z-21.336 
G01 Z-21.435 
G01 Z-21.536 
G01 Z-21.633 
G01 Z-21.724 
G01 Z-21.814 
G01 Z-21.843 
G01 Z-21.908 
G01 Z-21.968 
G01 Z-21.983 
G01 Z-22.070 
G01 Z-22.140 
G01 Z-22.183 
G01 Z-22.218 
G01 Z-22.313 
G01 Z-22.381 
G01 Z-22.464 
G01 Z-22.576 
G01 Z-22.669 
G01 Z-22.778 
G01 Z-22.903 
G01 Z-23.028 
G01 Z-23.136 
G01 Z-23.230 
G01 Z-23.348 
G01 Z-23.448 
G01 Z-23.509 
G01 Z-23.636 
G01 Z-23.718 
G01 Z-23.784 
G01 Z-23.869 
G01 Z-23.966 
G01 Z-24.077 
G01 Z-24.206 
G01 Z-24.276 
G01 Z-24.354 
G01 Z-24.477 
G01 Z-24.584 
G01 Z-24.674 
G01 Z-24.747 
G01 Z-24.826 
G01 Z-24.849 
G01 Z-24.926 
G01 Z-25.000 
G01 X126.131 Y51.358  F3000.0
G01 X127.057 Y51.395 
G01 X127.330 Y51.405 
G01 X128.153 Y50.924 
G01 X128.933 Y50.522 
G01 X129.911 Y50.072 
G01 X131.098 Y49.589 
G01 X132.494 Y49.094 
G01 X133.380 Y48.815 
G01 X134.197 Y48.581 
G01 X135.690 Y48.211 
G01 X137.005 Y47.952 
G01 X138.156 Y47.780 
G01 X139.164 Y47.673 
G01 X139.952 Y47.620 
G01 X140.941 Y47.586 
G01 X142.466 Y47.583 
G01 X143.193 Y47.603 
G01 X144.388 Y47.677 
G01 X145.794 Y47.844 
G01 X146.906 Y48.033 
G01 X148.176 Y48.304 
G01 X149.631 Y48.683 
G01 X151.065 Y49.122 
G01 X152.300 Y49.556 
G01 X153.340 Y49.970 
G01 X154.562 Y50.524 
G01 X155.437 Y50.985 
G01 X156.143 Y51.407 
G01 X157.281 Y51.358 
G01 X157.701 Y51.389 
G01 X158.206 Y51.458 
G01 X157.372 Y51.359 
G01 X156.319 Y51.397 
G01 X156.143 Y51.407 
G01 X155.578 Y51.860 
G01 X154.944 Y52.315 
G01 X154.656 Y52.496 
G01 X153.695 Y53.006 
G01 X152.704 Y53.449 
G01 X151.619 Y53.859 
G01 X150.461 Y54.221 
G01 X149.304 Y54.512 
G01 X148.042 Y54.748 
G01 X146.576 Y54.938 
G01 X144.926 Y55.068 
G01 X144.038 Y55.108 
G01 X142.515 Y55.144 
G01 X141.155 Y55.149 
G01 X139.961 Y55.130 
G01 X138.061 Y55.044 
G01 X136.783 Y54.937 
G01 X135.597 Y54.784 
G01 X134.422 Y54.567 
G01 X133.252 Y54.284 
G01 X132.105 Y53.940 
G01 X131.002 Y53.541 
G01 X129.897 Y53.067 
G01 X129.220 Y52.726 
G01 X128.448 Y52.270 
G01 X127.825 Y51.832 
G01 X127.316 Y51.414 
G01 X126.282 Y51.357 
G01 X125.727 Y51.393 
G01 X125.251 Y51.452 
G01 X120.019 Y48.363  
G01 X120.406 Y47.755  
G01 X120.916 Y47.075 
G01 X121.374 Y46.568 
G01 X121.962 Y46.039 
G01 X122.748 Y45.449 
G01 X123.698 Y44.839 
G01 X124.570 Y44.341 
G01 X125.642 Y43.788 
G01 X126.925 Y43.197 
G01 X128.430 Y42.584 
G01 X129.268 Y42.276 
G01 X130.156 Y41.972 
G01 X131.220 Y41.637 
G01 X132.219 Y41.351 
G01 X133.169 Y41.104 
G01 X134.070 Y40.893 
G01 X135.732 Y40.566 
G01 X137.214 Y40.344 
G01 X138.526 Y40.205 
G01 X139.609 Y40.132 
G01 X140.779 Y40.092 
G01 X142.591 Y40.088 
G01 X143.505 Y40.113 
G01 X145.058 Y40.211 
G01 X146.243 Y40.340 
G01 X147.582 Y40.539 
G01 X149.084 Y40.826 
G01 X150.759 Y41.222 
G01 X151.675 Y41.472 
G01 X153.409 Y42.002 
G01 X154.932 Y42.538 
G01 X156.249 Y43.061 
G01 X157.369 Y43.559 
G01 X158.219 Y43.973 
G01 X159.083 Y44.436 
G01 X160.159 Y45.077 
G01 X160.851 Y45.547 
G01 X161.628 Y46.158 
G01 X162.163 Y46.653 
G01 X162.620 Y47.162 
G01 X162.859 Y47.469 
G01 X163.334 Y48.191 
G01 X163.853 Y49.126 
G01 X164.447 Y50.364 
G01 X165.099 Y51.909 
G01 X165.454 Y52.821 
G01 X167.099 Y53.167 
G01 X165.454 Y52.821 
G01 X163.553 Y54.744 
G01 X162.165 Y56.074 
G01 X161.145 Y56.993 
G01 X160.149 Y57.801 
G01 X159.583 Y58.221 
G01 X158.662 Y58.834 
G01 X157.590 Y59.436 
G01 X156.965 Y59.751 
G01 X156.274 Y60.073 
G01 X155.558 Y60.380 
G01 X154.820 Y60.671 
G01 X154.063 Y60.945 
G01 X153.288 Y61.200 
G01 X152.500 Y61.434 
G01 X151.726 Y61.641 
G01 X150.909 Y61.834 
G01 X150.080 Y62.002 
G01 X149.210 Y62.152 
G01 X148.299 Y62.283 
G01 X147.349 Y62.393 
G01 X146.364 Y62.483 
G01 X145.346 Y62.551 
G01 X144.297 Y62.599 
G01 X142.619 Y62.639 
G01 X141.107 Y62.645 
G01 X139.763 Y62.623 
G01 X138.585 Y62.580 
G01 X136.718 Y62.459 
G01 X135.489 Y62.335 
G01 X133.909 Y62.101 
G01 X132.335 Y61.780 
G01 X130.777 Y61.374 
G01 X129.253 Y60.886 
G01 X127.780 Y60.324 
G01 X126.708 Y59.850 
G01 X125.661 Y59.322 
G01 X124.773 Y58.813 
G01 X124.021 Y58.327 
G01 X123.173 Y57.710 
G01 X122.535 Y57.189 
G01 X121.517 Y56.281 
G01 X120.278 Y55.091 
G01 X118.006 Y52.803 
G01 X116.361 Y53.147 
G01 X118.006 Y52.803 
G01 X118.578 Y51.349 
G01 X119.228 Y49.868 
G01 X119.784 Y48.772 
G01 X120.019 Y48.363 
G01 X113.575 Y44.532  
G01 X114.218 Y43.525  
G01 X114.837 Y42.676 
G01 X115.424 Y41.964 
G01 X116.170 Y41.173 
G01 X116.733 Y40.648 
G01 X117.569 Y39.956 
G01 X118.500 Y39.274 
G01 X119.341 Y38.721 
G01 X120.385 Y38.094 
G01 X121.641 Y37.411 
G01 X123.116 Y36.690 
G01 X123.939 Y36.322 
G01 X124.821 Y35.951 
G01 X125.761 Y35.580 
G01 X126.762 Y35.212 
G01 X127.818 Y34.851 
G01 X129.060 Y34.460 
G01 X130.241 Y34.121 
G01 X131.371 Y33.827 
G01 X132.451 Y33.574 
G01 X133.480 Y33.359 
G01 X134.460 Y33.179 
G01 X135.390 Y33.030 
G01 X137.103 Y32.812 
G01 X138.626 Y32.681 
G01 X139.267 Y32.644 
G01 X140.617 Y32.599 
G01 X142.717 Y32.594 
G01 X143.816 Y32.624 
G01 X145.117 Y32.697 
G01 X146.440 Y32.816 
G01 X147.991 Y33.015 
G01 X149.717 Y33.308 
G01 X150.648 Y33.496 
G01 X151.624 Y33.715 
G01 X152.645 Y33.968 
G01 X153.720 Y34.260 
G01 X154.762 Y34.568 
G01 X155.752 Y34.883 
G01 X157.564 Y35.520 
G01 X159.157 Y36.153 
G01 X160.541 Y36.767 
G01 X161.667 Y37.318 
G01 X162.729 Y37.886 
G01 X163.551 Y38.362 
G01 X164.743 Y39.122 
G01 X165.702 Y39.814 
G01 X166.509 Y40.469 
G01 X167.182 Y41.078 
G01 X167.918 Y41.830 
G01 X168.389 Y42.375 
G01 X168.962 Y43.116 
G01 X169.371 Y43.712 
G01 X169.750 Y44.314 
G01 X170.131 Y44.973 
G01 X170.514 Y45.688 
G01 X170.899 Y46.461 
G01 X171.284 Y47.292 
G01 X171.670 Y48.180 
G01 X172.447 Y50.121 
G01 X172.827 Y51.140 
G01 X174.070 Y54.675 
G01 X175.693 Y55.030 
G01 X174.070 Y54.675 
G01 X171.279 Y57.585 
G01 X168.808 Y60.088 
G01 X167.265 Y61.567 
G01 X166.039 Y62.670 
G01 X165.637 Y63.010 
G01 X164.721 Y63.742 
G01 X163.939 Y64.321 
G01 X163.235 Y64.806 
G01 X162.116 Y65.501 
G01 X161.083 Y66.069 
G01 X160.234 Y66.497 
G01 X159.334 Y66.916 
G01 X158.411 Y67.312 
G01 X157.468 Y67.684 
G01 X156.507 Y68.031 
G01 X155.529 Y68.353 
G01 X154.539 Y68.648 
G01 X153.555 Y68.911 
G01 X152.514 Y69.156 
G01 X151.462 Y69.370 
G01 X150.378 Y69.556 
G01 X149.264 Y69.716 
G01 X148.123 Y69.849 
G01 X146.956 Y69.955 
G01 X145.766 Y70.035 
G01 X144.555 Y70.089 
G01 X142.723 Y70.134 
G01 X141.059 Y70.140 
G01 X139.565 Y70.115 
G01 X138.239 Y70.067 
G01 X137.081 Y70.002 
G01 X135.256 Y69.850 
G01 X133.931 Y69.691 
G01 X132.612 Y69.483 
G01 X131.295 Y69.227 
G01 X129.985 Y68.923 
G01 X128.687 Y68.572 
G01 X127.406 Y68.175 
G01 X126.146 Y67.733 
G01 X124.912 Y67.249 
G01 X123.519 Y66.634 
G01 X122.786 Y66.276 
G01 X122.101 Y65.919 
G01 X120.868 Y65.211 
G01 X119.801 Y64.522 
G01 X118.879 Y63.862 
G01 X117.702 Y62.919 
G01 X116.418 Y61.775 
G01 X115.007 Y60.420 
G01 X112.850 Y58.253 
G01 X109.390 Y54.672 
G01 X107.766 Y55.028 
G01 X109.390 Y54.672 
G01 X110.045 Y52.765 
G01 X110.587 Y51.244 
G01 X111.123 Y49.808 
G01 X111.655 Y48.476 
G01 X112.213 Y47.183 
G01 X112.716 Y46.119 
G01 X113.230 Y45.136 
G01 X113.575 Y44.532 
G01 X100.811 Y56.537  
G01 X102.971 Y50.289  
G01 X103.546 Y48.674 
G01 X104.132 Y47.108 
G01 X104.732 Y45.602 
G01 X105.368 Y44.128 
G01 X106.003 Y42.785 
G01 X106.675 Y41.499 
G01 X107.132 Y40.702 
G01 X107.581 Y39.974 
G01 X108.029 Y39.295 
G01 X108.476 Y38.663 
G01 X108.918 Y38.076 
G01 X109.782 Y37.029 
G01 X110.605 Y36.138 
G01 X110.966 Y35.777 
G01 X111.744 Y35.053 
G01 X112.418 Y34.477 
G01 X112.990 Y34.021 
G01 X114.252 Y33.099 
G01 X115.346 Y32.379 
G01 X116.660 Y31.589 
G01 X118.201 Y30.751 
G01 X119.059 Y30.320 
G01 X119.976 Y29.884 
G01 X120.954 Y29.446 
G01 X121.992 Y29.009 
G01 X123.093 Y28.575 
G01 X124.256 Y28.147 
G01 X125.480 Y27.729 
G01 X126.900 Y27.282 
G01 X128.262 Y26.891 
G01 X129.573 Y26.550 
G01 X130.831 Y26.256 
G01 X132.036 Y26.004 
G01 X133.188 Y25.792 
G01 X134.285 Y25.616 
G01 X135.328 Y25.472 
G01 X137.249 Y25.269 
G01 X138.924 Y25.157 
G01 X140.455 Y25.105 
G01 X142.842 Y25.100 
G01 X144.127 Y25.135 
G01 X145.628 Y25.219 
G01 X147.247 Y25.365 
G01 X149.089 Y25.601 
G01 X150.082 Y25.758 
G01 X151.123 Y25.945 
G01 X152.211 Y26.165 
G01 X153.347 Y26.420 
G01 X154.530 Y26.714 
G01 X155.764 Y27.049 
G01 X156.959 Y27.402 
G01 X158.096 Y27.763 
G01 X159.175 Y28.131 
G01 X160.195 Y28.502 
G01 X162.065 Y29.245 
G01 X163.713 Y29.976 
G01 X165.115 Y30.663 
G01 X166.374 Y31.336 
G01 X167.402 Y31.931 
G01 X168.234 Y32.446 
G01 X168.959 Y32.924 
G01 X169.634 Y33.398 
G01 X170.263 Y33.866 
G01 X171.390 Y34.781 
G01 X172.356 Y35.655 
G01 X173.174 Y36.475 
G01 X173.503 Y36.831 
G01 X174.159 Y37.588 
G01 X174.670 Y38.231 
G01 X175.064 Y38.763 
G01 X175.633 Y39.592 
G01 X176.166 Y40.437 
G01 X176.679 Y41.324 
G01 X177.175 Y42.250 
G01 X177.656 Y43.216 
G01 X178.121 Y44.221 
G01 X178.574 Y45.262 
G01 X179.016 Y46.339 
G01 X179.869 Y48.573 
G01 X180.720 Y50.964 
G01 X182.643 Y56.528 
G01 X178.412 Y60.981 
G01 X176.657 Y62.805 
G01 X174.910 Y64.590 
G01 X173.213 Y66.259 
G01 X171.516 Y67.834 
G01 X170.397 Y68.801 
G01 X169.292 Y69.683 
G01 X168.295 Y70.422 
G01 X167.381 Y71.051 
G01 X166.552 Y71.581 
G01 X165.845 Y72.004 
G01 X164.576 Y72.702 
G01 X163.504 Y73.242 
G01 X162.395 Y73.758 
G01 X161.265 Y74.243 
G01 X160.116 Y74.696 
G01 X158.950 Y75.117 
G01 X157.770 Y75.505 
G01 X156.577 Y75.861 
G01 X155.384 Y76.180 
G01 X154.119 Y76.478 
G01 X152.843 Y76.737 
G01 X151.546 Y76.960 
G01 X150.229 Y77.149 
G01 X148.896 Y77.304 
G01 X147.547 Y77.427 
G01 X146.186 Y77.519 
G01 X144.814 Y77.580 
G01 X142.828 Y77.628 
G01 X141.012 Y77.635 
G01 X139.367 Y77.608 
G01 X137.893 Y77.554 
G01 X136.590 Y77.482 
G01 X134.493 Y77.306 
G01 X132.903 Y77.115 
G01 X131.314 Y76.866 
G01 X129.731 Y76.558 
G01 X128.158 Y76.192 
G01 X126.598 Y75.770 
G01 X125.057 Y75.292 
G01 X123.538 Y74.760 
G01 X122.045 Y74.174 
G01 X121.328 Y73.869 
G01 X120.330 Y73.417 
G01 X119.408 Y72.968 
G01 X118.541 Y72.515 
G01 X117.727 Y72.061 
G01 X116.963 Y71.609 
G01 X116.249 Y71.160 
G01 X114.959 Y70.282 
G01 X113.869 Y69.465 
G01 X112.868 Y68.648 
G01 X112.030 Y67.917 
G01 X110.598 Y66.588 
G01 X109.737 Y65.749 
G01 X107.503 Y63.505 
G01 X104.700 Y60.615 
G01 X100.811 Y56.537 
G00 Z5.080
G00 X97.668 Y123.289  F6000.0
G01 Z0.000 F1200.0 M3
G01 Z-0.214 
G01 Z-0.252 
G01 Z-0.500 
G01 Z-0.697 
G01 Z-0.926 
G01 Z-1.095 
G01 Z-1.309 
G01 Z-1.454 
G01 Z-1.598 
G01 Z-1.752 
G01 Z-1.918 
G01 Z-2.093 
G01 Z-2.280 
G01 Z-2.476 
G01 Z-2.683 
G01 Z-2.901 
G01 Z-3.134 
G01 Z-3.403 
G01 Z-3.661 
G01 Z-3.899 
G01 Z-4.117 
G01 Z-4.167 
G01 Z-4.216 
G01 Z-4.434 
G01 Z-4.673 
G01 Z-4.930 
G01 Z-5.199 
G01 Z-5.432 
G01 Z-5.650 
G01 Z-5.857 
G01 Z-6.054 
G01 Z-6.240 
G01 Z-6.416 
G01 Z-6.581 
G01 Z-6.735 
G01 Z-6.879 
G01 Z-7.024 
G01 Z-7.238 
G01 Z-7.407 
G01 Z-7.637 
G01 Z-7.834 
G01 Z-8.081 
G01 Z-8.119 
G01 Z-8.333 
G01 X99.214 Y125.342  F3000.0
G01 X99.492 Y125.701 
G01 X102.229 Y126.855 
G01 X104.440 Y127.695 
G01 X107.041 Y128.596 
G01 X108.974 Y129.206 
G01 X111.446 Y129.899 
G01 X113.135 Y130.327 
G01 X114.815 Y130.720 
G01 X116.628 Y131.110 
G01 X118.574 Y131.492 
G01 X120.651 Y131.859 
G01 X122.859 Y132.207 
G01 X125.197 Y132.531 
G01 X127.664 Y132.827 
G01 X130.260 Y133.088 
G01 X133.050 Y133.317 
G01 X136.274 Y133.508 
G01 X139.362 Y133.612 
G01 X142.223 Y133.637 
G01 X144.841 Y133.599 
G01 X147.192 Y133.514 
G01 X149.334 Y133.394 
G01 X152.264 Y133.170 
G01 X155.325 Y132.881 
G01 X158.413 Y132.521 
G01 X160.202 Y132.277 
G01 X161.918 Y132.018 
G01 X163.674 Y131.725 
G01 X165.470 Y131.394 
G01 X167.306 Y131.021 
G01 X169.179 Y130.603 
G01 X171.090 Y130.135 
G01 X173.036 Y129.613 
G01 X175.016 Y129.032 
G01 X177.027 Y128.388 
G01 X179.068 Y127.677 
G01 X181.088 Y126.911 
G01 X182.840 Y126.194 
G01 X183.974 Y125.699 
G01 X185.331 Y123.918 
G01 X185.787 Y123.293 
G01 X184.521 Y124.997 
G01 X183.974 Y125.699 
G01 X183.792 Y126.687 
G01 X182.940 Y130.688 
G01 X182.684 Y131.974 
G01 X182.377 Y132.996 
G01 X182.067 Y133.839 
G01 X181.784 Y134.481 
G01 X181.460 Y135.087 
G01 X181.128 Y135.565 
G01 X180.650 Y136.138 
G01 X180.171 Y136.639 
G01 X179.526 Y137.240 
G01 X178.573 Y138.025 
G01 X177.981 Y138.474 
G01 X177.344 Y138.928 
G01 X176.663 Y139.386 
G01 X175.939 Y139.846 
G01 X175.172 Y140.307 
G01 X174.363 Y140.766 
G01 X173.514 Y141.222 
G01 X172.626 Y141.673 
G01 X171.702 Y142.118 
G01 X170.742 Y142.555 
G01 X169.750 Y142.982 
G01 X168.727 Y143.399 
G01 X167.676 Y143.803 
G01 X166.599 Y144.196 
G01 X164.405 Y144.937 
G01 X163.230 Y145.280 
G01 X162.158 Y145.532 
G01 X160.957 Y145.758 
G01 X159.397 Y145.983 
G01 X157.977 Y146.154 
G01 X156.143 Y146.344 
G01 X153.893 Y146.538 
G01 X151.139 Y146.727 
G01 X146.880 Y146.948 
G01 X143.735 Y147.054 
G01 X141.623 Y147.081 
G01 X138.904 Y147.029 
G01 X135.882 Y146.920 
G01 X132.906 Y146.766 
G01 X129.867 Y146.563 
G01 X128.084 Y146.422 
G01 X126.398 Y146.267 
G01 X124.879 Y146.099 
G01 X122.902 Y145.828 
G01 X121.344 Y145.544 
G01 X120.188 Y145.271 
G01 X118.917 Y144.892 
G01 X116.995 Y144.253 
G01 X115.095 Y143.546 
G01 X113.225 Y142.774 
G01 X111.436 Y141.960 
G01 X109.774 Y141.126 
G01 X108.241 Y140.277 
G01 X106.859 Y139.429 
G01 X105.642 Y138.601 
G01 X104.605 Y137.812 
G01 X103.752 Y137.084 
G01 X103.084 Y136.440 
G01 X102.511 Y135.809 
G01 X102.188 Y135.371 
G01 X101.866 Y134.834 
G01 X101.605 Y134.316 
G01 X101.311 Y133.625 
G01 X101.020 Y132.813 
G01 X100.765 Y131.956 
G01 X100.317 Y129.755 
G01 X99.761 Y127.116 
G01 X99.492 Y125.701 
G01 X97.952 Y123.677 
G01 X97.668 Y123.289 
G01 X100.388 Y117.859  
G01 X102.738 Y118.937  
G01 X105.007 Y119.883 
G01 X107.012 Y120.645 
G01 X109.382 Y121.466 
G01 X111.117 Y122.014 
G01 X113.380 Y122.648 
G01 X114.911 Y123.036 
G01 X116.459 Y123.398 
G01 X118.139 Y123.760 
G01 X119.949 Y124.114 
G01 X121.890 Y124.457 
G01 X123.959 Y124.784 
G01 X126.158 Y125.089 
G01 X128.486 Y125.368 
G01 X130.942 Y125.615 
G01 X133.579 Y125.831 
G01 X136.623 Y126.012 
G01 X139.522 Y126.109 
G01 X142.202 Y126.133 
G01 X144.649 Y126.097 
G01 X146.847 Y126.017 
G01 X148.839 Y125.906 
G01 X151.625 Y125.693 
G01 X154.538 Y125.418 
G01 X157.472 Y125.076 
G01 X159.135 Y124.849 
G01 X160.740 Y124.607 
G01 X162.376 Y124.334 
G01 X164.043 Y124.026 
G01 X165.741 Y123.681 
G01 X167.469 Y123.296 
G01 X169.225 Y122.866 
G01 X171.008 Y122.387 
G01 X172.816 Y121.857 
G01 X174.648 Y121.271 
G01 X176.502 Y120.625 
G01 X178.336 Y119.929 
G01 X179.919 Y119.281 
G01 X181.438 Y118.619 
G01 X182.922 Y117.932 
G01 X184.370 Y117.223 
G01 X185.783 Y116.495 
G01 X187.162 Y115.748 
G01 X188.509 Y114.986 
G01 X189.822 Y114.210 
G01 X190.841 Y113.582 
G01 X191.407 Y111.531 
G01 X190.841 Y113.582 
G01 X191.395 Y114.814 
G01 X191.727 Y115.649 
G01 X191.998 Y116.421 
G01 X192.119 Y117.119 
G01 X192.185 Y117.938 
G01 X192.209 Y119.011 
G01 X192.169 Y120.338 
G01 X192.105 Y121.340 
G01 X192.006 Y122.436 
G01 X191.874 Y123.609 
G01 X191.697 Y124.934 
G01 X191.514 Y126.132 
G01 X191.153 Y128.144 
G01 X190.293 Y132.190 
G01 X190.052 Y133.452 
G01 X189.718 Y134.671 
G01 X189.496 Y135.371 
G01 X189.264 Y136.032 
G01 X189.026 Y136.651 
G01 X188.783 Y137.225 
G01 X188.539 Y137.752 
G01 X188.022 Y138.734 
G01 X187.507 Y139.548 
G01 X186.836 Y140.446 
G01 X186.224 Y141.162 
G01 X185.450 Y141.973 
G01 X184.483 Y142.875 
G01 X183.914 Y143.360 
G01 X183.188 Y143.944 
G01 X182.424 Y144.521 
G01 X181.619 Y145.096 
G01 X180.772 Y145.666 
G01 X179.884 Y146.230 
G01 X178.957 Y146.787 
G01 X177.991 Y147.335 
G01 X176.989 Y147.874 
G01 X175.952 Y148.401 
G01 X174.882 Y148.915 
G01 X173.780 Y149.417 
G01 X172.649 Y149.904 
G01 X171.491 Y150.375 
G01 X170.309 Y150.831 
G01 X169.104 Y151.269 
G01 X166.705 Y152.080 
G01 X165.708 Y152.382 
G01 X164.456 Y152.708 
G01 X163.699 Y152.876 
G01 X162.177 Y153.163 
G01 X160.359 Y153.425 
G01 X158.813 Y153.612 
G01 X156.851 Y153.814 
G01 X154.472 Y154.019 
G01 X151.606 Y154.217 
G01 X147.182 Y154.446 
G01 X143.923 Y154.556 
G01 X141.566 Y154.585 
G01 X138.681 Y154.530 
G01 X135.553 Y154.417 
G01 X132.462 Y154.257 
G01 X129.321 Y154.048 
G01 X127.443 Y153.899 
G01 X125.643 Y153.733 
G01 X123.976 Y153.549 
G01 X121.721 Y153.239 
G01 X120.409 Y153.010 
G01 X119.245 Y152.767 
G01 X118.227 Y152.514 
G01 X116.674 Y152.053 
G01 X115.585 Y151.702 
G01 X114.501 Y151.331 
G01 X113.424 Y150.941 
G01 X112.354 Y150.532 
G01 X111.292 Y150.104 
G01 X110.240 Y149.659 
G01 X109.203 Y149.198 
G01 X108.201 Y148.731 
G01 X107.225 Y148.253 
G01 X106.274 Y147.765 
G01 X105.353 Y147.267 
G01 X104.462 Y146.761 
G01 X103.605 Y146.248 
G01 X102.784 Y145.732 
G01 X102.001 Y145.212 
G01 X101.258 Y144.691 
G01 X100.556 Y144.172 
G01 X99.896 Y143.656 
G01 X99.280 Y143.145 
G01 X98.708 Y142.642 
G01 X98.181 Y142.148 
G01 X97.697 Y141.666 
G01 X97.237 Y141.175 
G01 X96.701 Y140.560 
G01 X96.139 Y139.819 
G01 X95.724 Y139.193 
G01 X95.276 Y138.425 
G01 X94.802 Y137.486 
G01 X94.559 Y136.943 
G01 X94.315 Y136.344 
G01 X93.947 Y135.329 
G01 X93.540 Y133.989 
G01 X93.441 Y133.617 
G01 X93.291 Y132.816 
G01 X92.406 Y128.606 
G01 X92.169 Y127.386 
G01 X91.939 Y126.073 
G01 X91.623 Y123.915 
G01 X91.408 Y121.941 
G01 X91.321 Y120.831 
G01 X91.254 Y119.363 
G01 X91.261 Y118.186 
G01 X91.319 Y117.306 
G01 X91.406 Y116.692 
G01 X91.556 Y116.158 
G01 X91.809 Y115.447 
G01 X92.210 Y114.474 
G01 X92.620 Y113.586 
G01 X92.063 Y111.541 
G01 X92.620 Y113.586 
G01 X93.313 Y114.018 
G01 X94.774 Y114.887 
G01 X96.203 Y115.698 
G01 X97.598 Y116.452 
G01 X98.953 Y117.152 
G01 X100.388 Y117.859 
G01 X103.610 Y111.081  
G01 X105.747 Y112.061  
G01 X107.785 Y112.911 
G01 X109.584 Y113.595 
G01 X111.724 Y114.336 
G01 X113.260 Y114.821 
G01 X115.314 Y115.397 
G01 X116.687 Y115.745 
G01 X118.103 Y116.076 
G01 X119.649 Y116.409 
G01 X121.324 Y116.737 
G01 X123.128 Y117.056 
G01 X125.060 Y117.361 
G01 X127.120 Y117.646 
G01 X129.308 Y117.908 
G01 X131.624 Y118.142 
G01 X134.108 Y118.345 
G01 X136.972 Y118.515 
G01 X139.681 Y118.606 
G01 X142.180 Y118.629 
G01 X144.458 Y118.595 
G01 X146.501 Y118.521 
G01 X148.344 Y118.418 
G01 X150.986 Y118.216 
G01 X153.750 Y117.955 
G01 X156.531 Y117.631 
G01 X158.069 Y117.421 
G01 X159.562 Y117.196 
G01 X161.078 Y116.943 
G01 X162.617 Y116.659 
G01 X164.177 Y116.342 
G01 X165.759 Y115.989 
G01 X167.360 Y115.597 
G01 X168.980 Y115.162 
G01 X170.617 Y114.682 
G01 X172.269 Y114.153 
G01 X173.935 Y113.572 
G01 X175.585 Y112.947 
G01 X176.998 Y112.369 
G01 X178.361 Y111.774 
G01 X179.695 Y111.156 
G01 X181.001 Y110.517 
G01 X182.278 Y109.859 
G01 X183.528 Y109.183 
G01 X184.750 Y108.491 
G01 X185.946 Y107.784 
G01 X187.116 Y107.064 
G01 X188.260 Y106.332 
G01 X189.379 Y105.590 
G01 X190.544 Y104.792 
G01 X192.589 Y103.320 
G01 X193.317 Y102.764 
G01 X193.684 Y100.685 
G01 X193.317 Y102.764 
G01 X194.150 Y104.104 
G01 X195.024 Y105.554 
G01 X195.830 Y106.946 
G01 X196.564 Y108.278 
G01 X197.529 Y110.171 
G01 X198.072 Y111.346 
G01 X198.538 Y112.456 
G01 X199.107 Y113.998 
G01 X199.273 Y114.575 
G01 X199.440 Y115.356 
G01 X199.574 Y116.260 
G01 X199.679 Y117.550 
G01 X199.713 Y119.034 
G01 X199.665 Y120.712 
G01 X199.587 Y121.918 
G01 X199.472 Y123.193 
G01 X199.322 Y124.525 
G01 X199.126 Y125.997 
G01 X198.921 Y127.334 
G01 X198.515 Y129.601 
G01 X198.078 Y131.706 
G01 X197.646 Y133.691 
G01 X197.379 Y135.089 
G01 X197.172 Y135.898 
G01 X196.903 Y136.836 
G01 X196.615 Y137.746 
G01 X196.308 Y138.622 
G01 X195.984 Y139.462 
G01 X195.645 Y140.264 
G01 X195.294 Y141.024 
G01 X194.915 Y141.772 
G01 X194.407 Y142.682 
G01 X193.955 Y143.406 
G01 X193.386 Y144.231 
G01 X192.676 Y145.159 
G01 X191.799 Y146.187 
G01 X191.290 Y146.736 
G01 X190.729 Y147.307 
G01 X190.114 Y147.898 
G01 X189.440 Y148.509 
G01 X188.701 Y149.140 
G01 X187.803 Y149.862 
G01 X186.868 Y150.569 
G01 X185.893 Y151.265 
G01 X184.880 Y151.947 
G01 X183.829 Y152.614 
G01 X182.742 Y153.267 
G01 X181.620 Y153.904 
G01 X180.465 Y154.525 
G01 X179.278 Y155.128 
G01 X178.062 Y155.713 
G01 X176.818 Y156.279 
G01 X175.549 Y156.825 
G01 X174.256 Y157.352 
G01 X172.942 Y157.858 
G01 X171.609 Y158.343 
G01 X169.004 Y159.224 
G01 X167.753 Y159.603 
G01 X166.177 Y160.012 
G01 X165.239 Y160.221 
G01 X163.396 Y160.567 
G01 X161.321 Y160.867 
G01 X159.648 Y161.069 
G01 X157.560 Y161.285 
G01 X155.052 Y161.501 
G01 X152.073 Y161.706 
G01 X149.607 Y161.844 
G01 X147.485 Y161.944 
G01 X144.110 Y162.058 
G01 X141.510 Y162.089 
G01 X138.458 Y162.031 
G01 X135.223 Y161.914 
G01 X132.018 Y161.748 
G01 X128.776 Y161.532 
G01 X126.802 Y161.376 
G01 X124.887 Y161.199 
G01 X123.074 Y160.999 
G01 X121.285 Y160.763 
G01 X119.757 Y160.519 
G01 X118.274 Y160.236 
G01 X116.907 Y159.924 
G01 X115.628 Y159.578 
G01 X114.431 Y159.215 
G01 X113.216 Y158.822 
G01 X112.008 Y158.409 
G01 X110.806 Y157.974 
G01 X109.613 Y157.517 
G01 X108.429 Y157.041 
G01 X107.254 Y156.544 
G01 X106.095 Y156.029 
G01 X104.966 Y155.503 
G01 X103.859 Y154.961 
G01 X102.775 Y154.403 
G01 X101.715 Y153.831 
G01 X100.683 Y153.244 
G01 X99.680 Y152.645 
G01 X98.710 Y152.034 
G01 X97.774 Y151.412 
G01 X96.873 Y150.782 
G01 X96.011 Y150.144 
G01 X95.188 Y149.500 
G01 X94.405 Y148.851 
G01 X93.665 Y148.199 
G01 X92.966 Y147.545 
G01 X92.310 Y146.891 
G01 X91.682 Y146.222 
G01 X90.886 Y145.303 
G01 X90.307 Y144.560 
G01 X89.684 Y143.673 
G01 X89.025 Y142.616 
G01 X88.686 Y142.016 
G01 X88.343 Y141.364 
G01 X88.000 Y140.657 
G01 X87.658 Y139.891 
G01 X87.320 Y139.062 
G01 X86.824 Y137.692 
G01 X86.318 Y136.027 
G01 X86.109 Y135.231 
G01 X85.930 Y134.276 
G01 X85.051 Y130.095 
G01 X84.790 Y128.749 
G01 X84.533 Y127.285 
G01 X84.178 Y124.859 
G01 X83.934 Y122.617 
G01 X83.832 Y121.315 
G01 X83.751 Y119.507 
G01 X83.762 Y117.920 
G01 X83.851 Y116.560 
G01 X83.992 Y115.508 
G01 X84.154 Y114.750 
G01 X84.414 Y113.854 
G01 X84.803 Y112.758 
G01 X85.331 Y111.476 
G01 X85.917 Y110.209 
G01 X86.434 Y109.185 
G01 X87.619 Y106.996 
G01 X88.706 Y105.117 
G01 X90.140 Y102.770 
G01 X89.772 Y100.685 
G01 X90.140 Y102.770 
G01 X91.321 Y103.654 
G01 X93.052 Y104.892 
G01 X94.469 Y105.858 
G01 X95.855 Y106.761 
G01 X97.214 Y107.607 
G01 X98.543 Y108.398 
G01 X99.842 Y109.134 
G01 X101.105 Y109.818 
G01 X102.332 Y110.452 
G01 X103.610 Y111.081 
G01 X106.832 Y104.303  
G01 X108.756 Y105.186  
G01 X110.564 Y105.939 
G01 X112.155 Y106.544 
G01 X114.065 Y107.206 
G01 X115.403 Y107.629 
G01 X117.248 Y108.146 
G01 X118.463 Y108.454 
G01 X119.748 Y108.754 
G01 X121.160 Y109.058 
G01 X122.699 Y109.360 
G01 X124.366 Y109.654 
G01 X126.160 Y109.938 
G01 X128.081 Y110.204 
G01 X130.130 Y110.449 
G01 X132.306 Y110.668 
G01 X134.637 Y110.859 
G01 X137.321 Y111.019 
G01 X139.841 Y111.104 
G01 X142.158 Y111.124 
G01 X144.267 Y111.093 
G01 X146.156 Y111.024 
G01 X147.849 Y110.930 
G01 X150.347 Y110.739 
G01 X152.962 Y110.492 
G01 X155.590 Y110.186 
G01 X157.002 Y109.993 
G01 X158.383 Y109.785 
G01 X159.780 Y109.551 
G01 X161.190 Y109.291 
G01 X162.613 Y109.002 
G01 X164.048 Y108.682 
G01 X165.495 Y108.328 
G01 X166.951 Y107.937 
G01 X168.417 Y107.507 
G01 X169.890 Y107.036 
G01 X171.369 Y106.520 
G01 X172.833 Y105.965 
G01 X174.077 Y105.456 
G01 X175.284 Y104.929 
G01 X176.469 Y104.381 
G01 X177.632 Y103.812 
G01 X178.773 Y103.223 
G01 X179.893 Y102.617 
G01 X180.992 Y101.995 
G01 X182.070 Y101.358 
G01 X183.128 Y100.707 
G01 X184.166 Y100.044 
G01 X186.229 Y98.652 
G01 X188.120 Y97.291 
G01 X189.987 Y95.866 
G01 X192.028 Y94.224 
G01 X193.878 Y92.660 
G01 X194.943 Y91.716 
G01 X195.174 Y89.577 
G01 X194.943 Y91.716 
G01 X196.397 Y93.798 
G01 X197.483 Y95.400 
G01 X198.540 Y97.003 
G01 X199.574 Y98.616 
G01 X200.549 Y100.184 
G01 X201.485 Y101.737 
G01 X202.365 Y103.257 
G01 X203.184 Y104.743 
G01 X203.964 Y106.250 
G01 X204.623 Y107.621 
G01 X205.234 Y109.005 
G01 X205.776 Y110.368 
G01 X206.253 Y111.707 
G01 X206.548 Y112.730 
G01 X206.692 Y113.345 
G01 X206.830 Y114.044 
G01 X207.029 Y115.402 
G01 X207.137 Y116.560 
G01 X207.200 Y117.780 
G01 X207.218 Y119.058 
G01 X207.211 Y119.659 
G01 X207.160 Y121.086 
G01 X207.069 Y122.495 
G01 X206.938 Y123.951 
G01 X206.770 Y125.441 
G01 X206.555 Y127.060 
G01 X206.329 Y128.536 
G01 X206.098 Y129.878 
G01 X205.876 Y131.058 
G01 X205.418 Y133.266 
G01 X204.999 Y135.193 
G01 X204.700 Y136.749 
G01 X204.415 Y137.860 
G01 X204.089 Y139.002 
G01 X203.734 Y140.121 
G01 X203.352 Y141.212 
G01 X202.943 Y142.274 
G01 X202.508 Y143.302 
G01 X202.048 Y144.295 
G01 X201.554 Y145.271 
G01 X200.855 Y146.522 
G01 X200.233 Y147.518 
G01 X199.461 Y148.637 
G01 X199.012 Y149.241 
G01 X198.516 Y149.872 
G01 X197.971 Y150.529 
G01 X197.373 Y151.211 
G01 X196.720 Y151.916 
G01 X196.009 Y152.640 
G01 X195.236 Y153.384 
G01 X194.397 Y154.144 
G01 X193.488 Y154.920 
G01 X192.418 Y155.780 
G01 X191.311 Y156.617 
G01 X190.168 Y157.433 
G01 X188.988 Y158.227 
G01 X187.774 Y158.998 
G01 X186.527 Y159.748 
G01 X185.248 Y160.474 
G01 X183.940 Y161.176 
G01 X182.604 Y161.855 
G01 X181.242 Y162.510 
G01 X179.856 Y163.141 
G01 X178.448 Y163.747 
G01 X177.020 Y164.328 
G01 X175.575 Y164.885 
G01 X174.114 Y165.417 
G01 X171.304 Y166.367 
G01 X169.799 Y166.823 
G01 X168.902 Y167.067 
G01 X167.898 Y167.317 
G01 X166.780 Y167.566 
G01 X165.502 Y167.817 
G01 X163.668 Y168.119 
G01 X162.283 Y168.310 
G01 X160.484 Y168.527 
G01 X158.268 Y168.756 
G01 X155.632 Y168.983 
G01 X152.540 Y169.196 
G01 X149.993 Y169.338 
G01 X147.787 Y169.442 
G01 X144.298 Y169.560 
G01 X141.453 Y169.593 
G01 X138.235 Y169.532 
G01 X134.894 Y169.411 
G01 X131.574 Y169.239 
G01 X128.230 Y169.016 
G01 X126.161 Y168.853 
G01 X124.131 Y168.665 
G01 X122.171 Y168.449 
G01 X120.229 Y168.192 
G01 X118.466 Y167.911 
G01 X116.739 Y167.581 
G01 X115.096 Y167.207 
G01 X113.519 Y166.780 
G01 X112.188 Y166.376 
G01 X110.848 Y165.943 
G01 X109.514 Y165.487 
G01 X108.189 Y165.007 
G01 X106.872 Y164.503 
G01 X105.565 Y163.977 
G01 X104.269 Y163.428 
G01 X102.986 Y162.859 
G01 X101.731 Y162.274 
G01 X100.494 Y161.668 
G01 X99.275 Y161.042 
G01 X98.078 Y160.395 
G01 X96.903 Y159.727 
G01 X95.755 Y159.041 
G01 X94.636 Y158.336 
G01 X93.546 Y157.613 
G01 X92.489 Y156.873 
G01 X91.466 Y156.116 
G01 X90.479 Y155.344 
G01 X89.531 Y154.557 
G01 X88.621 Y153.756 
G01 X87.752 Y152.943 
G01 X86.924 Y152.117 
G01 X86.127 Y151.269 
G01 X85.072 Y150.047 
G01 X84.280 Y149.031 
G01 X83.432 Y147.824 
G01 X82.992 Y147.142 
G01 X82.546 Y146.404 
G01 X82.096 Y145.607 
G01 X81.645 Y144.749 
G01 X81.197 Y143.827 
G01 X80.756 Y142.839 
G01 X80.324 Y141.780 
G01 X79.702 Y140.055 
G01 X79.095 Y138.065 
G01 X78.764 Y136.778 
G01 X78.569 Y135.735 
G01 X77.696 Y131.585 
G01 X77.410 Y130.112 
G01 X77.127 Y128.497 
G01 X76.852 Y126.692 
G01 X76.620 Y124.858 
G01 X76.460 Y123.293 
G01 X76.343 Y121.799 
G01 X76.266 Y120.293 
G01 X76.241 Y118.969 
G01 X76.262 Y117.654 
G01 X76.331 Y116.408 
G01 X76.448 Y115.237 
G01 X76.604 Y114.189 
G01 X76.731 Y113.539 
G01 X76.878 Y112.910 
G01 X77.058 Y112.247 
G01 X77.271 Y111.550 
G01 X77.518 Y110.824 
G01 X77.797 Y110.069 
G01 X78.451 Y108.478 
G01 X78.807 Y107.684 
G01 X79.183 Y106.898 
G01 X79.774 Y105.726 
G01 X80.607 Y104.166 
G01 X81.634 Y102.343 
G01 X82.937 Y100.150 
G01 X84.506 Y97.640 
G01 X85.507 Y96.102 
G01 X86.532 Y94.572 
G01 X88.515 Y91.716 
G01 X88.288 Y89.576 
G01 X88.515 Y91.716 
G01 X89.676 Y92.743 
G01 X91.145 Y93.993 
G01 X92.647 Y95.220 
G01 X94.182 Y96.422 
G01 X95.752 Y97.598 
G01 X97.348 Y98.738 
G01 X98.633 Y99.614 
G01 X99.887 Y100.432 
G01 X101.114 Y101.196 
G01 X102.313 Y101.909 
G01 X103.480 Y102.571 
G01 X104.613 Y103.184 
G01 X105.711 Y103.751 
G01 X106.832 Y104.303 
G01 X87.245 Y80.765  
G01 X87.583 Y80.334  
G01 X89.351 Y82.155 
G01 X90.671 Y83.471 
G01 X91.963 Y84.702 
G01 X93.265 Y85.899 
G01 X94.595 Y87.076 
G01 X95.951 Y88.230 
G01 X97.334 Y89.360 
G01 X98.744 Y90.464 
G01 X100.182 Y91.541 
G01 X101.645 Y92.585 
G01 X102.796 Y93.371 
G01 X103.919 Y94.103 
G01 X105.015 Y94.785 
G01 X106.082 Y95.419 
G01 X107.118 Y96.007 
G01 X108.121 Y96.550 
G01 X109.090 Y97.051 
G01 X110.054 Y97.525 
G01 X111.766 Y98.310 
G01 X113.342 Y98.968 
G01 X114.727 Y99.494 
G01 X116.407 Y100.077 
G01 X117.546 Y100.436 
G01 X119.182 Y100.895 
G01 X120.239 Y101.163 
G01 X121.392 Y101.432 
G01 X122.670 Y101.707 
G01 X124.074 Y101.982 
G01 X125.604 Y102.253 
G01 X127.260 Y102.514 
G01 X129.043 Y102.762 
G01 X130.952 Y102.990 
G01 X132.988 Y103.195 
G01 X135.166 Y103.373 
G01 X137.670 Y103.522 
G01 X140.000 Y103.601 
G01 X142.137 Y103.620 
G01 X144.075 Y103.591 
G01 X145.810 Y103.528 
G01 X147.354 Y103.442 
G01 X149.708 Y103.262 
G01 X152.175 Y103.029 
G01 X154.648 Y102.740 
G01 X157.205 Y102.373 
G01 X158.481 Y102.160 
G01 X159.763 Y101.924 
G01 X161.048 Y101.663 
G01 X162.338 Y101.375 
G01 X163.630 Y101.059 
G01 X164.923 Y100.712 
G01 X166.217 Y100.332 
G01 X167.511 Y99.918 
G01 X168.803 Y99.468 
G01 X170.082 Y98.983 
G01 X171.156 Y98.543 
G01 X172.207 Y98.085 
G01 X173.243 Y97.605 
G01 X174.263 Y97.106 
G01 X175.269 Y96.588 
G01 X176.259 Y96.052 
G01 X177.234 Y95.500 
G01 X179.140 Y94.350 
G01 X180.988 Y93.147 
G01 X181.914 Y92.512 
G01 X183.651 Y91.261 
G01 X185.358 Y89.959 
G01 X187.253 Y88.435 
G01 X188.966 Y86.987 
G01 X190.503 Y85.624 
G01 X191.869 Y84.358 
G01 X193.068 Y83.201 
G01 X194.113 Y82.156 
G01 X195.881 Y80.336 
G01 X197.815 Y82.898 
G01 X200.241 Y86.216 
G01 X201.424 Y87.881 
G01 X202.585 Y89.552 
G01 X203.721 Y91.229 
G01 X204.832 Y92.913 
G01 X205.919 Y94.610 
G01 X206.949 Y96.265 
G01 X207.946 Y97.920 
G01 X208.900 Y99.567 
G01 X209.803 Y101.209 
G01 X210.664 Y102.871 
G01 X211.437 Y104.476 
G01 X212.153 Y106.100 
G01 X212.800 Y107.727 
G01 X213.199 Y108.819 
G01 X213.611 Y110.107 
G01 X213.822 Y110.885 
G01 X214.028 Y111.758 
G01 X214.220 Y112.733 
G01 X214.396 Y113.848 
G01 X214.561 Y115.278 
G01 X214.668 Y116.774 
G01 X214.718 Y118.305 
G01 X214.713 Y119.836 
G01 X214.656 Y121.459 
G01 X214.552 Y123.073 
G01 X214.404 Y124.708 
G01 X214.218 Y126.357 
G01 X213.983 Y128.123 
G01 X213.736 Y129.738 
G01 X213.484 Y131.206 
G01 X213.238 Y132.515 
G01 X212.758 Y134.827 
G01 X212.351 Y136.694 
G01 X212.001 Y138.488 
G01 X211.659 Y139.822 
G01 X211.275 Y141.168 
G01 X210.853 Y142.496 
G01 X210.396 Y143.802 
G01 X209.901 Y145.085 
G01 X209.370 Y146.341 
G01 X208.803 Y147.566 
G01 X208.194 Y148.771 
G01 X207.622 Y149.813 
G01 X206.928 Y150.977 
G01 X206.048 Y152.319 
G01 X205.536 Y153.043 
G01 X204.973 Y153.799 
G01 X204.356 Y154.585 
G01 X203.682 Y155.398 
G01 X202.948 Y156.236 
G01 X202.151 Y157.095 
G01 X201.288 Y157.974 
G01 X200.357 Y158.870 
G01 X199.354 Y159.779 
G01 X198.275 Y160.700 
G01 X197.033 Y161.698 
G01 X195.755 Y162.665 
G01 X194.442 Y163.601 
G01 X193.096 Y164.507 
G01 X191.719 Y165.383 
G01 X190.312 Y166.228 
G01 X188.877 Y167.043 
G01 X187.415 Y167.827 
G01 X185.930 Y168.582 
G01 X184.422 Y169.307 
G01 X182.894 Y170.002 
G01 X181.348 Y170.668 
G01 X179.785 Y171.305 
G01 X178.208 Y171.912 
G01 X176.619 Y172.491 
G01 X173.603 Y173.510 
G01 X171.844 Y174.043 
G01 X170.792 Y174.330 
G01 X169.619 Y174.621 
G01 X168.321 Y174.911 
G01 X166.872 Y175.195 
G01 X165.835 Y175.377 
G01 X164.754 Y175.544 
G01 X163.246 Y175.752 
G01 X161.320 Y175.984 
G01 X158.976 Y176.227 
G01 X156.211 Y176.465 
G01 X153.007 Y176.685 
G01 X150.378 Y176.832 
G01 X148.090 Y176.940 
G01 X144.485 Y177.062 
G01 X142.262 Y177.098 
G01 X139.708 Y177.072 
G01 X138.012 Y177.033 
G01 X134.565 Y176.908 
G01 X131.130 Y176.730 
G01 X127.684 Y176.500 
G01 X125.520 Y176.329 
G01 X123.375 Y176.131 
G01 X121.268 Y175.899 
G01 X119.173 Y175.622 
G01 X117.176 Y175.304 
G01 X115.204 Y174.927 
G01 X113.285 Y174.489 
G01 X112.346 Y174.246 
G01 X111.411 Y173.982 
G01 X109.946 Y173.537 
G01 X108.479 Y173.064 
G01 X107.021 Y172.565 
G01 X105.572 Y172.040 
G01 X104.131 Y171.489 
G01 X102.702 Y170.914 
G01 X101.283 Y170.313 
G01 X99.878 Y169.689 
G01 X98.497 Y169.045 
G01 X97.129 Y168.376 
G01 X95.776 Y167.680 
G01 X94.440 Y166.958 
G01 X93.124 Y166.211 
G01 X91.831 Y165.437 
G01 X90.561 Y164.638 
G01 X89.318 Y163.813 
G01 X88.104 Y162.963 
G01 X86.921 Y162.088 
G01 X85.771 Y161.188 
G01 X84.656 Y160.263 
G01 X83.577 Y159.314 
G01 X82.537 Y158.340 
G01 X81.537 Y157.342 
G01 X80.573 Y156.315 
G01 X79.705 Y155.329 
G01 X78.766 Y154.176 
G01 X78.254 Y153.503 
G01 X77.724 Y152.771 
G01 X77.180 Y151.976 
G01 X76.627 Y151.117 
G01 X76.067 Y150.191 
G01 X75.506 Y149.198 
G01 X74.947 Y148.134 
G01 X74.395 Y146.997 
G01 X73.854 Y145.787 
G01 X73.329 Y144.499 
G01 X72.812 Y143.100 
G01 X72.349 Y141.703 
G01 X71.872 Y140.103 
G01 X71.579 Y139.002 
G01 X71.399 Y138.215 
G01 X71.208 Y137.194 
G01 X70.341 Y133.074 
G01 X70.030 Y131.474 
G01 X69.721 Y129.709 
G01 X69.423 Y127.753 
G01 X69.162 Y125.688 
G01 X68.986 Y123.969 
G01 X68.853 Y122.282 
G01 X68.767 Y120.587 
G01 X68.737 Y118.985 
G01 X68.762 Y117.388 
G01 X68.849 Y115.830 
G01 X69.001 Y114.314 
G01 X69.216 Y112.869 
G01 X69.393 Y111.962 
G01 X69.602 Y111.070 
G01 X69.848 Y110.164 
G01 X70.129 Y109.247 
G01 X70.444 Y108.318 
G01 X70.790 Y107.380 
G01 X71.167 Y106.435 
G01 X71.996 Y104.533 
G01 X72.448 Y103.587 
G01 X73.115 Y102.268 
G01 X74.016 Y100.578 
G01 X75.138 Y98.587 
G01 X76.528 Y96.246 
G01 X78.191 Y93.586 
G01 X79.245 Y91.967 
G01 X80.322 Y90.359 
G01 X81.423 Y88.756 
G01 X83.692 Y85.561 
G01 X84.849 Y83.977 
G01 X87.245 Y80.765 
G00 Z5.080
G00 X115.255 Y137.028  F6000.0
G01 Z0.000 F1200.0 M3
G01 Z-0.187 
G01 Z-0.340 
G01 Z-0.537 
G01 Z-0.643 
G01 Z-0.780 
G01 Z-1.010 
G01 Z-1.284 
G01 Z-1.530 
G01 Z-1.800 
G01 Z-2.070 
G01 Z-2.253 
G01 Z-2.466 
G01 Z-2.750 
G01 Z-2.983 
G01 Z-3.204 
G01 Z-3.468 
G01 Z-3.712 
G01 Z-3.861 
G01 Z-3.982 
G01 Z-4.167 
G01 Z-4.352 
G01 Z-4.472 
G01 Z-4.621 
G01 Z-4.866 
G01 Z-5.129 
G01 Z-5.351 
G01 Z-5.583 
G01 Z-5.867 
G01 Z-6.080 
G01 Z-6.264 
G01 Z-6.533 
G01 Z-6.803 
G01 Z-7.049 
G01 Z-7.324 
G01 Z-7.553 
G01 Z-7.690 
G01 Z-7.796 
G01 Z-7.993 
G01 Z-8.147 
G01 Z-8.333 
G01 X117.396 Y137.680  F3000.0
G01 X119.178 Y138.165 
G01 X121.473 Y138.720 
G01 X122.717 Y138.969 
G01 X124.346 Y139.223 
G01 X127.078 Y139.551 
G01 X130.356 Y139.850 
G01 X133.304 Y140.061 
G01 X136.537 Y140.230 
G01 X139.774 Y140.332 
G01 X141.971 Y140.358 
G01 X144.525 Y140.314 
G01 X147.932 Y140.187 
G01 X150.721 Y140.024 
G01 X153.373 Y139.826 
G01 X156.520 Y139.528 
G01 X159.435 Y139.178 
G01 X161.200 Y138.891 
G01 X162.609 Y138.584 
G01 X165.145 Y137.938 
G01 X167.040 Y137.396 
G01 X168.185 Y137.041 
G01 X166.270 Y137.624 
G01 X164.420 Y138.132 
G01 X162.130 Y138.696 
G01 X160.781 Y138.967 
G01 X159.435 Y139.178 
G01 X156.520 Y139.528 
G01 X153.373 Y139.826 
G01 X150.236 Y140.056 
G01 X147.069 Y140.227 
G01 X143.567 Y140.337 
G01 X141.675 Y140.357 
G01 X138.666 Y140.304 
G01 X135.387 Y140.177 
G01 X132.081 Y139.978 
G01 X128.660 Y139.704 
G01 X126.508 Y139.487 
G01 X123.918 Y139.162 
G01 X122.144 Y138.864 
G01 X119.982 Y138.369 
G01 X117.816 Y137.797 
G01 X115.661 Y137.158 
G01 X115.255 Y137.028 
G00 Z5.080
G00 X97.668 Y123.289  F6000.0
G01 Z-8.333 F1200.0 M3
G01 Z-8.547 
G01 Z-8.585 
G01 Z-8.833 
G01 Z-9.030 
G01 Z-9.259 
G01 Z-9.428 
G01 Z-9.642 
G01 Z-9.787 
G01 Z-9.931 
G01 Z-10.086 
G01 Z-10.251 
G01 Z-10.427 
G01 Z-10.613 
G01 Z-10.810 
G01 Z-11.017 
G01 Z-11.234 
G01 Z-11.468 
G01 Z-11.737 
G01 Z-11.994 
G01 Z-12.233 
G01 Z-12.451 
G01 Z-12.500 
G01 Z-12.549 
G01 Z-12.767 
G01 Z-13.006 
G01 Z-13.263 
G01 Z-13.532 
G01 Z-13.766 
G01 Z-13.983 
G01 Z-14.190 
G01 Z-14.387 
G01 Z-14.573 
G01 Z-14.749 
G01 Z-14.914 
G01 Z-15.069 
G01 Z-15.213 
G01 Z-15.358 
G01 Z-15.572 
G01 Z-15.741 
G01 Z-15.970 
G01 Z-16.167 
G01 Z-16.415 
G01 Z-16.453 
G01 Z-16.667 
G01 X99.214 Y125.342  F3000.0
G01 X99.492 Y125.701 
G01 X102.229 Y126.855 
G01 X104.440 Y127.695 
G01 X107.041 Y128.596 
G01 X108.974 Y129.206 
G01 X111.446 Y129.899 
G01 X113.135 Y130.327 
G01 X114.815 Y130.720 
G01 X116.628 Y131.110 
G01 X118.574 Y131.492 
G01 X120.651 Y131.859 
G01 X122.859 Y132.207 
G01 X125.197 Y132.531 
G01 X127.664 Y132.827 
G01 X130.260 Y133.088 
G01 X133.050 Y133.317 
G01 X136.274 Y133.508 
G01 X139.362 Y133.612 
G01 X142.223 Y133.637 
G01 X144.841 Y133.599 
G01 X147.192 Y133.514 
G01 X149.334 Y133.394 
G01 X152.264 Y133.170 
G01 X155.325 Y132.881 
G01 X158.413 Y132.521 
G01 X160.202 Y132.277 
G01 X161.918 Y132.018 
G01 X163.674 Y131.725 
G01 X165.470 Y131.394 
G01 X167.306 Y131.021 
G01 X169.179 Y130.603 
G01 X171.090 Y130.135 
G01 X173.036 Y129.613 
G01 X175.016 Y129.032 
G01 X177.027 Y128.388 
G01 X179.068 Y127.677 
G01 X181.088 Y126.911 
G01 X182.840 Y126.194 
G01 X183.974 Y125.699 
G01 X185.331 Y123.918 
G01 X185.787 Y123.293 
G01 X184.521 Y124.997 
G01 X183.974 Y125.699 
G01 X183.792 Y126.687 
G01 X182.940 Y130.688 
G01 X182.684 Y131.974 
G01 X182.377 Y132.996 
G01 X182.067 Y133.839 
G01 X181.784 Y134.481 
G01 X181.460 Y135.087 
G01 X181.128 Y135.565 
G01 X180.650 Y136.138 
G01 X180.171 Y136.639 
G01 X179.526 Y137.240 
G01 X178.573 Y138.025 
G01 X177.981 Y138.474 
G01 X177.344 Y138.928 
G01 X176.663 Y139.386 
G01 X175.939 Y139.846 
G01 X175.172 Y140.307 
G01 X174.363 Y140.766 
G01 X173.514 Y141.222 
G01 X172.626 Y141.673 
G01 X171.702 Y142.118 
G01 X170.742 Y142.555 
G01 X169.750 Y142.982 
G01 X168.727 Y143.399 
G01 X167.676 Y143.803 
G01 X166.599 Y144.196 
G01 X164.405 Y144.937 
G01 X163.230 Y145.280 
G01 X162.158 Y145.532 
G01 X160.957 Y145.758 
G01 X159.397 Y145.983 
G01 X157.977 Y146.154 
G01 X156.143 Y146.344 
G01 X153.893 Y146.538 
G01 X151.139 Y146.727 
G01 X146.880 Y146.948 
G01 X143.735 Y147.054 
G01 X141.623 Y147.081 
G01 X138.904 Y147.029 
G01 X135.882 Y146.920 
G01 X132.906 Y146.766 
G01 X129.867 Y146.563 
G01 X128.084 Y146.422 
G01 X126.398 Y146.267 
G01 X124.879 Y146.099 
G01 X122.902 Y145.828 
G01 X121.344 Y145.544 
G01 X120.188 Y145.271 
G01 X118.917 Y144.892 
G01 X116.995 Y144.253 
G01 X115.095 Y143.546 
G01 X113.225 Y142.774 
G01 X111.436 Y141.960 
G01 X109.774 Y141.126 
G01 X108.241 Y140.277 
G01 X106.859 Y139.429 
G01 X105.642 Y138.601 
G01 X104.605 Y137.812 
G01 X103.752 Y137.084 
G01 X103.084 Y136.440 
G01 X102.511 Y135.809 
G01 X102.188 Y135.371 
G01 X101.866 Y134.834 
G01 X101.605 Y134.316 
G01 X101.311 Y133.625 
G01 X101.020 Y132.813 
G01 X100.765 Y131.956 
G01 X100.317 Y129.755 
G01 X99.761 Y127.116 
G01 X99.492 Y125.701 
G01 X97.952 Y123.677 
G01 X97.668 Y123.289 
G01 X100.388 Y117.859  
G01 X102.738 Y118.937  
G01 X105.007 Y119.883 
G01 X107.012 Y120.645 
G01 X109.382 Y121.466 
G01 X111.117 Y122.014 
G01 X113.380 Y122.648 
G01 X114.911 Y123.036 
G01 X116.459 Y123.398 
G01 X118.139 Y123.760 
G01 X119.949 Y124.114 
G01 X121.890 Y124.457 
G01 X123.959 Y124.784 
G01 X126.158 Y125.089 
G01 X128.486 Y125.368 
G01 X130.942 Y125.615 
G01 X133.579 Y125.831 
G01 X136.623 Y126.012 
G01 X139.522 Y126.109 
G01 X142.202 Y126.133 
G01 X144.649 Y126.097 
G01 X146.847 Y126.017 
G01 X148.839 Y125.906 
G01 X151.625 Y125.693 
G01 X154.538 Y125.418 
G01 X157.472 Y125.076 
G01 X159.135 Y124.849 
G01 X160.740 Y124.607 
G01 X162.376 Y124.334 
G01 X164.043 Y124.026 
G01 X165.741 Y123.681 
G01 X167.469 Y123.296 
G01 X169.225 Y122.866 
G01 X171.008 Y122.387 
G01 X172.816 Y121.857 
G01 X174.648 Y121.271 
G01 X176.502 Y120.625 
G01 X178.336 Y119.929 
G01 X179.919 Y119.281 
G01 X181.438 Y118.619 
G01 X182.922 Y117.932 
G01 X184.370 Y117.223 
G01 X185.783 Y116.495 
G01 X187.162 Y115.748 
G01 X188.509 Y114.986 
G01 X189.822 Y114.210 
G01 X190.841 Y113.582 
G01 X191.407 Y111.531 
G01 X190.841 Y113.582 
G01 X191.395 Y114.814 
G01 X191.727 Y115.649 
G01 X191.998 Y116.421 
G01 X192.119 Y117.119 
G01 X192.185 Y117.938 
G01 X192.209 Y119.011 
G01 X192.169 Y120.338 
G01 X192.105 Y121.340 
G01 X192.006 Y122.436 
G01 X191.874 Y123.609 
G01 X191.697 Y124.934 
G01 X191.514 Y126.132 
G01 X191.153 Y128.144 
G01 X190.293 Y132.190 
G01 X190.052 Y133.452 
G01 X189.718 Y134.671 
G01 X189.496 Y135.371 
G01 X189.264 Y136.032 
G01 X189.026 Y136.651 
G01 X188.783 Y137.225 
G01 X188.539 Y137.752 
G01 X188.022 Y138.734 
G01 X187.507 Y139.548 
G01 X186.836 Y140.446 
G01 X186.224 Y141.162 
G01 X185.450 Y141.973 
G01 X184.483 Y142.875 
G01 X183.914 Y143.360 
G01 X183.188 Y143.944 
G01 X182.424 Y144.521 
G01 X181.619 Y145.096 
G01 X180.772 Y145.666 
G01 X179.884 Y146.230 
G01 X178.957 Y146.787 
G01 X177.991 Y147.335 
G01 X176.989 Y147.874 
G01 X175.952 Y148.401 
G01 X174.882 Y148.915 
G01 X173.780 Y149.417 
G01 X172.649 Y149.904 
G01 X171.491 Y150.375 
G01 X170.309 Y150.831 
G01 X169.104 Y151.269 
G01 X166.705 Y152.080 
G01 X165.708 Y152.382 
G01 X164.456 Y152.708 
G01 X163.699 Y152.876 
G01 X162.177 Y153.163 
G01 X160.359 Y153.425 
G01 X158.813 Y153.612 
G01 X156.851 Y153.814 
G01 X154.472 Y154.019 
G01 X151.606 Y154.217 
G01 X147.182 Y154.446 
G01 X143.923 Y154.556 
G01 X141.566 Y154.585 
G01 X138.681 Y154.530 
G01 X135.553 Y154.417 
G01 X132.462 Y154.257 
G01 X129.321 Y154.048 
G01 X127.443 Y153.899 
G01 X125.643 Y153.733 
G01 X123.976 Y153.549 
G01 X121.721 Y153.239 
G01 X120.409 Y153.010 
G01 X119.245 Y152.767 
G01 X118.227 Y152.514 
G01 X116.674 Y152.053 
G01 X115.585 Y151.702 
G01 X114.501 Y151.331 
G01 X113.424 Y150.941 
G01 X112.354 Y150.532 
G01 X111.292 Y150.104 
G01 X110.240 Y149.659 
G01 X109.203 Y149.198 
G01 X108.201 Y148.731 
G01 X107.225 Y148.253 
G01 X106.274 Y147.765 
G01 X105.353 Y147.267 
G01 X104.462 Y146.761 
G01 X103.605 Y146.248 
G01 X102.784 Y145.732 
G01 X102.001 Y145.212 
G01 X101.258 Y144.691 
G01 X100.556 Y144.172 
G01 X99.896 Y143.656 
G01 X99.280 Y143.145 
G01 X98.708 Y142.642 
G01 X98.181 Y142.148 
G01 X97.697 Y141.666 
G01 X97.237 Y141.175 
G01 X96.701 Y140.560 
G01 X96.139 Y139.819 
G01 X95.724 Y139.193 
G01 X95.276 Y138.425 
G01 X94.802 Y137.486 
G01 X94.559 Y136.943 
G01 X94.315 Y136.344 
G01 X93.947 Y135.329 
G01 X93.540 Y133.989 
G01 X93.441 Y133.617 
G01 X93.291 Y132.816 
G01 X92.406 Y128.606 
G01 X92.169 Y127.386 
G01 X91.939 Y126.073 
G01 X91.623 Y123.915 
G01 X91.408 Y121.941 
G01 X91.321 Y120.831 
G01 X91.254 Y119.363 
G01 X91.261 Y118.186 
G01 X91.319 Y117.306 
G01 X91.406 Y116.692 
G01 X91.556 Y116.158 
G01 X91.809 Y115.447 
G01 X92.210 Y114.474 
G01 X92.620 Y113.586 
G01 X92.063 Y111.541 
G01 X92.620 Y113.586 
G01 X93.313 Y114.018 
G01 X94.774 Y114.887 
G01 X96.203 Y115.698 
G01 X97.598 Y116.452 
G01 X98.953 Y117.152 
G01 X100.388 Y117.859 
G01 X103.610 Y111.081  
G01 X105.747 Y112.061  
G01 X107.785 Y112.911 
G01 X109.584 Y113.595 
G01 X111.724 Y114.336 
G01 X113.260 Y114.821 
G01 X115.314 Y115.397 
G01 X116.687 Y115.745 
G01 X118.103 Y116.076 
G01 X119.649 Y116.409 
G01 X121.324 Y116.737 
G01 X123.128 Y117.056 
G01 X125.060 Y117.361 
G01 X127.120 Y117.646 
G01 X129.308 Y117.908 
G01 X131.624 Y118.142 
G01 X134.108 Y118.345 
G01 X136.972 Y118.515 
G01 X139.681 Y118.606 
G01 X142.180 Y118.629 
G01 X144.458 Y118.595 
G01 X146.501 Y118.521 
G01 X148.344 Y118.418 
G01 X150.986 Y118.216 
G01 X153.750 Y117.955 
G01 X156.531 Y117.631 
G01 X158.069 Y117.421 
G01 X159.562 Y117.196 
G01 X161.078 Y116.943 
G01 X162.617 Y116.659 
G01 X164.177 Y116.342 
G01 X165.759 Y115.989 
G01 X167.360 Y115.597 
G01 X168.980 Y115.162 
G01 X170.617 Y114.682 
G01 X172.269 Y114.153 
G01 X173.935 Y113.572 
G01 X175.585 Y112.947 
G01 X176.998 Y112.369 
G01 X178.361 Y111.774 
G01 X179.695 Y111.156 
G01 X181.001 Y110.517 
G01 X182.278 Y109.859 
G01 X183.528 Y109.183 
G01 X184.750 Y108.491 
G01 X185.946 Y107.784 
G01 X187.116 Y107.064 
G01 X188.260 Y106.332 
G01 X189.379 Y105.590 
G01 X190.544 Y104.792 
G01 X192.589 Y103.320 
G01 X193.317 Y102.764 
G01 X193.684 Y100.685 
G01 X193.317 Y102.764 
G01 X194.150 Y104.104 
G01 X195.024 Y105.554 
G01 X195.830 Y106.946 
G01 X196.564 Y108.278 
G01 X197.529 Y110.171 
G01 X198.072 Y111.346 
G01 X198.538 Y112.456 
G01 X199.107 Y113.998 
G01 X199.273 Y114.575 
G01 X199.440 Y115.356 
G01 X199.574 Y116.260 
G01 X199.679 Y117.550 
G01 X199.713 Y119.034 
G01 X199.665 Y120.712 
G01 X199.587 Y121.918 
G01 X199.472 Y123.193 
G01 X199.322 Y124.525 
G01 X199.126 Y125.997 
G01 X198.921 Y127.334 
G01 X198.515 Y129.601 
G01 X198.078 Y131.706 
G01 X197.646 Y133.691 
G01 X197.379 Y135.089 
G01 X197.172 Y135.898 
G01 X196.903 Y136.836 
G01 X196.615 Y137.746 
G01 X196.308 Y138.622 
G01 X195.984 Y139.462 
G01 X195.645 Y140.264 
G01 X195.294 Y141.024 
G01 X194.915 Y141.772 
G01 X194.407 Y142.682 
G01 X193.955 Y143.406 
G01 X193.386 Y144.231 
G01 X192.676 Y145.159 
G01 X191.799 Y146.187 
G01 X191.290 Y146.736 
G01 X190.729 Y147.307 
G01 X190.114 Y147.898 
G01 X189.440 Y148.509 
G01 X188.701 Y149.140 
G01 X187.803 Y149.862 
G01 X186.868 Y150.569 
G01 X185.893 Y151.265 
G01 X184.880 Y151.947 
G01 X183.829 Y152.614 
G01 X182.742 Y153.267 
G01 X181.620 Y153.904 
G01 X180.465 Y154.525 
G01 X179.278 Y155.128 
G01 X178.062 Y155.713 
G01 X176.818 Y156.279 
G01 X175.549 Y156.825 
G01 X174.256 Y157.352 
G01 X172.942 Y157.858 
G01 X171.609 Y158.343 
G01 X169.004 Y159.224 
G01 X167.753 Y159.603 
G01 X166.177 Y160.012 
G01 X165.239 Y160.221 
G01 X163.396 Y160.567 
G01 X161.321 Y160.867 
G01 X159.648 Y161.069 
G01 X157.560 Y161.285 
G01 X155.052 Y161.501 
G01 X152.073 Y161.706 
G01 X149.607 Y161.844 
G01 X147.485 Y161.944 
G01 X144.110 Y162.058 
G01 X141.510 Y162.089 
G01 X138.458 Y162.031 
G01 X135.223 Y161.914 
G01 X132.018 Y161.748 
G01 X128.776 Y161.532 
G01 X126.802 Y161.376 
G01 X124.887 Y161.199 
G01 X123.074 Y160.999 
G01 X121.285 Y160.763 
G01 X119.757 Y160.519 
G01 X118.274 Y160.236 
G01 X116.907 Y159.924 
G01 X115.628 Y159.578 
G01 X114.431 Y159.215 
G01 X113.216 Y158.822 
G01 X112.008 Y158.409 
G01 X110.806 Y157.974 
G01 X109.613 Y157.517 
G01 X108.429 Y157.041 
G01 X107.254 Y156.544 
G01 X106.095 Y156.029 
G01 X104.966 Y155.503 
G01 X103.859 Y154.961 
G01 X102.775 Y154.403 
G01 X101.715 Y153.831 
G01 X100.683 Y153.244 
G01 X99.680 Y152.645 
G01 X98.710 Y152.034 
G01 X97.774 Y151.412 
G01 X96.873 Y150.782 
G01 X96.011 Y150.144 
G01 X95.188 Y149.500 
G01 X94.405 Y148.851 
G01 X93.665 Y148.199 
G01 X92.966 Y147.545 
G01 X92.310 Y146.891 
G01 X91.682 Y146.222 
G01 X90.886 Y145.303 
G01 X90.307 Y144.560 
G01 X89.684 Y143.673 
G01 X89.025 Y142.616 
G01 X88.686 Y142.016 
G01 X88.343 Y141.364 
G01 X88.000 Y140.657 
G01 X87.658 Y139.891 
G01 X87.320 Y139.062 
G01 X86.824 Y137.692 
G01 X86.318 Y136.027 
G01 X86.109 Y135.231 
G01 X85.930 Y134.276 
G01 X85.051 Y130.095 
G01 X84.790 Y128.749 
G01 X84.533 Y127.285 
G01 X84.178 Y124.859 
G01 X83.934 Y122.617 
G01 X83.832 Y121.315 
G01 X83.751 Y119.507 
G01 X83.762 Y117.920 
G01 X83.851 Y116.560 
G01 X83.992 Y115.508 
G01 X84.154 Y114.750 
G01 X84.414 Y113.854 
G01 X84.803 Y112.758 
G01 X85.331 Y111.476 
G01 X85.917 Y110.209 
G01 X86.434 Y109.185 
G01 X87.619 Y106.996 
G01 X88.706 Y105.117 
G01 X90.140 Y102.770 
G01 X89.772 Y100.685 
G01 X90.140 Y102.770 
G01 X91.321 Y103.654 
G01 X93.052 Y104.892 
G01 X94.469 Y105.858 
G01 X95.855 Y106.761 
G01 X97.214 Y107.607 
G01 X98.543 Y108.398 
G01 X99.842 Y109.134 
G01 X101.105 Y109.818 
G01 X102.332 Y110.452 
G01 X103.610 Y111.081 
G01 X106.832 Y104.303  
G01 X108.756 Y105.186  
G01 X110.564 Y105.939 
G01 X112.155 Y106.544 
G01 X114.065 Y107.206 
G01 X115.403 Y107.629 
G01 X117.248 Y108.146 
G01 X118.463 Y108.454 
G01 X119.748 Y108.754 
G01 X121.160 Y109.058 
G01 X122.699 Y109.360 
G01 X124.366 Y109.654 
G01 X126.160 Y109.938 
G01 X128.081 Y110.204 
G01 X130.130 Y110.449 
G01 X132.306 Y110.668 
G01 X134.637 Y110.859 
G01 X137.321 Y111.019 
G01 X139.841 Y111.104 
G01 X142.158 Y111.124 
G01 X144.267 Y111.093 
G01 X146.156 Y111.024 
G01 X147.849 Y110.930 
G01 X150.347 Y110.739 
G01 X152.962 Y110.492 
G01 X155.590 Y110.186 
G01 X157.002 Y109.993 
G01 X158.383 Y109.785 
G01 X159.780 Y109.551 
G01 X161.190 Y109.291 
G01 X162.613 Y109.002 
G01 X164.048 Y108.682 
G01 X165.495 Y108.328 
G01 X166.951 Y107.937 
G01 X168.417 Y107.507 
G01 X169.890 Y107.036 
G01 X171.369 Y106.520 
G01 X172.833 Y105.965 
G01 X174.077 Y105.456 
G01 X175.284 Y104.929 
G01 X176.469 Y104.381 
G01 X177.632 Y103.812 
G01 X178.773 Y103.223 
G01 X179.893 Y102.617 
G01 X180.992 Y101.995 
G01 X182.070 Y101.358 
G01 X183.128 Y100.707 
G01 X184.166 Y100.044 
G01 X186.229 Y98.652 
G01 X188.120 Y97.291 
G01 X189.987 Y95.866 
G01 X192.028 Y94.224 
G01 X193.878 Y92.660 
G01 X194.943 Y91.716 
G01 X195.174 Y89.577 
G01 X194.943 Y91.716 
G01 X196.397 Y93.798 
G01 X197.483 Y95.400 
G01 X198.540 Y97.003 
G01 X199.574 Y98.616 
G01 X200.549 Y100.184 
G01 X201.485 Y101.737 
G01 X202.365 Y103.257 
G01 X203.184 Y104.743 
G01 X203.964 Y106.250 
G01 X204.623 Y107.621 
G01 X205.234 Y109.005 
G01 X205.776 Y110.368 
G01 X206.253 Y111.707 
G01 X206.548 Y112.730 
G01 X206.692 Y113.345 
G01 X206.830 Y114.044 
G01 X207.029 Y115.402 
G01 X207.137 Y116.560 
G01 X207.200 Y117.780 
G01 X207.218 Y119.058 
G01 X207.211 Y119.659 
G01 X207.160 Y121.086 
G01 X207.069 Y122.495 
G01 X206.938 Y123.951 
G01 X206.770 Y125.441 
G01 X206.555 Y127.060 
G01 X206.329 Y128.536 
G01 X206.098 Y129.878 
G01 X205.876 Y131.058 
G01 X205.418 Y133.266 
G01 X204.999 Y135.193 
G01 X204.700 Y136.749 
G01 X204.415 Y137.860 
G01 X204.089 Y139.002 
G01 X203.734 Y140.121 
G01 X203.352 Y141.212 
G01 X202.943 Y142.274 
G01 X202.508 Y143.302 
G01 X202.048 Y144.295 
G01 X201.554 Y145.271 
G01 X200.855 Y146.522 
G01 X200.233 Y147.518 
G01 X199.461 Y148.637 
G01 X199.012 Y149.241 
G01 X198.516 Y149.872 
G01 X197.971 Y150.529 
G01 X197.373 Y151.211 
G01 X196.720 Y151.916 
G01 X196.009 Y152.640 
G01 X195.236 Y153.384 
G01 X194.397 Y154.144 
G01 X193.488 Y154.920 
G01 X192.418 Y155.780 
G01 X191.311 Y156.617 
G01 X190.168 Y157.433 
G01 X188.988 Y158.227 
G01 X187.774 Y158.998 
G01 X186.527 Y159.748 
G01 X185.248 Y160.474 
G01 X183.940 Y161.176 
G01 X182.604 Y161.855 
G01 X181.242 Y162.510 
G01 X179.856 Y163.141 
G01 X178.448 Y163.747 
G01 X177.020 Y164.328 
G01 X175.575 Y164.885 
G01 X174.114 Y165.417 
G01 X171.304 Y166.367 
G01 X169.799 Y166.823 
G01 X168.902 Y167.067 
G01 X167.898 Y167.317 
G01 X166.780 Y167.566 
G01 X165.502 Y167.817 
G01 X163.668 Y168.119 
G01 X162.283 Y168.310 
G01 X160.484 Y168.527 
G01 X158.268 Y168.756 
G01 X155.632 Y168.983 
G01 X152.540 Y169.196 
G01 X149.993 Y169.338 
G01 X147.787 Y169.442 
G01 X144.298 Y169.560 
G01 X141.453 Y169.593 
G01 X138.235 Y169.532 
G01 X134.894 Y169.411 
G01 X131.574 Y169.239 
G01 X128.230 Y169.016 
G01 X126.161 Y168.853 
G01 X124.131 Y168.665 
G01 X122.171 Y168.449 
G01 X120.229 Y168.192 
G01 X118.466 Y167.911 
G01 X116.739 Y167.581 
G01 X115.096 Y167.207 
G01 X113.519 Y166.780 
G01 X112.188 Y166.376 
G01 X110.848 Y165.943 
G01 X109.514 Y165.487 
G01 X108.189 Y165.007 
G01 X106.872 Y164.503 
G01 X105.565 Y163.977 
G01 X104.269 Y163.428 
G01 X102.986 Y162.859 
G01 X101.731 Y162.274 
G01 X100.494 Y161.668 
G01 X99.275 Y161.042 
G01 X98.078 Y160.395 
G01 X96.903 Y159.727 
G01 X95.755 Y159.041 
G01 X94.636 Y158.336 
G01 X93.546 Y157.613 
G01 X92.489 Y156.873 
G01 X91.466 Y156.116 
G01 X90.479 Y155.344 
G01 X89.531 Y154.557 
G01 X88.621 Y153.756 
G01 X87.752 Y152.943 
G01 X86.924 Y152.117 
G01 X86.127 Y151.269 
G01 X85.072 Y150.047 
G01 X84.280 Y149.031 
G01 X83.432 Y147.824 
G01 X82.992 Y147.142 
G01 X82.546 Y146.404 
G01 X82.096 Y145.607 
G01 X81.645 Y144.749 
G01 X81.197 Y143.827 
G01 X80.756 Y142.839 
G01 X80.324 Y141.780 
G01 X79.702 Y140.055 
G01 X79.095 Y138.065 
G01 X78.764 Y136.778 
G01 X78.569 Y135.735 
G01 X77.696 Y131.585 
G01 X77.410 Y130.112 
G01 X77.127 Y128.497 
G01 X76.852 Y126.692 
G01 X76.620 Y124.858 
G01 X76.460 Y123.293 
G01 X76.343 Y121.799 
G01 X76.266 Y120.293 
G01 X76.241 Y118.969 
G01 X76.262 Y117.654 
G01 X76.331 Y116.408 
G01 X76.448 Y115.237 
G01 X76.604 Y114.189 
G01 X76.731 Y113.539 
G01 X76.878 Y112.910 
G01 X77.058 Y112.247 
G01 X77.271 Y111.550 
G01 X77.518 Y110.824 
G01 X77.797 Y110.069 
G01 X78.451 Y108.478 
G01 X78.807 Y107.684 
G01 X79.183 Y106.898 
G01 X79.774 Y105.726 
G01 X80.607 Y104.166 
G01 X81.634 Y102.343 
G01 X82.937 Y100.150 
G01 X84.506 Y97.640 
G01 X85.507 Y96.102 
G01 X86.532 Y94.572 
G01 X88.515 Y91.716 
G01 X88.288 Y89.576 
G01 X88.515 Y91.716 
G01 X89.676 Y92.743 
G01 X91.145 Y93.993 
G01 X92.647 Y95.220 
G01 X94.182 Y96.422 
G01 X95.752 Y97.598 
G01 X97.348 Y98.738 
G01 X98.633 Y99.614 
G01 X99.887 Y100.432 
G01 X101.114 Y101.196 
G01 X102.313 Y101.909 
G01 X103.480 Y102.571 
G01 X104.613 Y103.184 
G01 X105.711 Y103.751 
G01 X106.832 Y104.303 
G01 X87.245 Y80.765  
G01 X87.583 Y80.334  
G01 X89.351 Y82.155 
G01 X90.671 Y83.471 
G01 X91.963 Y84.702 
G01 X93.265 Y85.899 
G01 X94.595 Y87.076 
G01 X95.951 Y88.230 
G01 X97.334 Y89.360 
G01 X98.744 Y90.464 
G01 X100.182 Y91.541 
G01 X101.645 Y92.585 
G01 X102.796 Y93.371 
G01 X103.919 Y94.103 
G01 X105.015 Y94.785 
G01 X106.082 Y95.419 
G01 X107.118 Y96.007 
G01 X108.121 Y96.550 
G01 X109.090 Y97.051 
G01 X110.054 Y97.525 
G01 X111.766 Y98.310 
G01 X113.342 Y98.968 
G01 X114.727 Y99.494 
G01 X116.407 Y100.077 
G01 X117.546 Y100.436 
G01 X119.182 Y100.895 
G01 X120.239 Y101.163 
G01 X121.392 Y101.432 
G01 X122.670 Y101.707 
G01 X124.074 Y101.982 
G01 X125.604 Y102.253 
G01 X127.260 Y102.514 
G01 X129.043 Y102.762 
G01 X130.952 Y102.990 
G01 X132.988 Y103.195 
G01 X135.166 Y103.373 
G01 X137.670 Y103.522 
G01 X140.000 Y103.601 
G01 X142.137 Y103.620 
G01 X144.075 Y103.591 
G01 X145.810 Y103.528 
G01 X147.354 Y103.442 
G01 X149.708 Y103.262 
G01 X152.175 Y103.029 
G01 X154.648 Y102.740 
G01 X157.205 Y102.373 
G01 X158.481 Y102.160 
G01 X159.763 Y101.924 
G01 X161.048 Y101.663 
G01 X162.338 Y101.375 
G01 X163.630 Y101.059 
G01 X164.923 Y100.712 
G01 X166.217 Y100.332 
G01 X167.511 Y99.918 
G01 X168.803 Y99.468 
G01 X170.082 Y98.983 
G01 X171.156 Y98.543 
G01 X172.207 Y98.085 
G01 X173.243 Y97.605 
G01 X174.263 Y97.106 
G01 X175.269 Y96.588 
G01 X176.259 Y96.052 
G01 X177.234 Y95.500 
G01 X179.140 Y94.350 
G01 X180.988 Y93.147 
G01 X181.914 Y92.512 
G01 X183.651 Y91.261 
G01 X185.358 Y89.959 
G01 X187.253 Y88.435 
G01 X188.966 Y86.987 
G01 X190.503 Y85.624 
G01 X191.869 Y84.358 
G01 X193.068 Y83.201 
G01 X194.113 Y82.156 
G01 X195.881 Y80.336 
G01 X197.815 Y82.898 
G01 X200.241 Y86.216 
G01 X201.424 Y87.881 
G01 X202.585 Y89.552 
G01 X203.721 Y91.229 
G01 X204.832 Y92.913 
G01 X205.919 Y94.610 
G01 X206.949 Y96.265 
G01 X207.946 Y97.920 
G01 X208.900 Y99.567 
G01 X209.803 Y101.209 
G01 X210.664 Y102.871 
G01 X211.437 Y104.476 
G01 X212.153 Y106.100 
G01 X212.800 Y107.727 
G01 X213.199 Y108.819 
G01 X213.611 Y110.107 
G01 X213.822 Y110.885 
G01 X214.028 Y111.758 
G01 X214.220 Y112.733 
G01 X214.396 Y113.848 
G01 X214.561 Y115.278 
G01 X214.668 Y116.774 
G01 X214.718 Y118.305 
G01 X214.713 Y119.836 
G01 X214.656 Y121.459 
G01 X214.552 Y123.073 
G01 X214.404 Y124.708 
G01 X214.218 Y126.357 
G01 X213.983 Y128.123 
G01 X213.736 Y129.738 
G01 X213.484 Y131.206 
G01 X213.238 Y132.515 
G01 X212.758 Y134.827 
G01 X212.351 Y136.694 
G01 X212.001 Y138.488 
G01 X211.659 Y139.822 
G01 X211.275 Y141.168 
G01 X210.853 Y142.496 
G01 X210.396 Y143.802 
G01 X209.901 Y145.085 
G01 X209.370 Y146.341 
G01 X208.803 Y147.566 
G01 X208.194 Y148.771 
G01 X207.622 Y149.813 
G01 X206.928 Y150.977 
G01 X206.048 Y152.319 
G01 X205.536 Y153.043 
G01 X204.973 Y153.799 
G01 X204.356 Y154.585 
G01 X203.682 Y155.398 
G01 X202.948 Y156.236 
G01 X202.151 Y157.095 
G01 X201.288 Y157.974 
G01 X200.357 Y158.870 
G01 X199.354 Y159.779 
G01 X198.275 Y160.700 
G01 X197.033 Y161.698 
G01 X195.755 Y162.665 
G01 X194.442 Y163.601 
G01 X193.096 Y164.507 
G01 X191.719 Y165.383 
G01 X190.312 Y166.228 
G01 X188.877 Y167.043 
G01 X187.415 Y167.827 
G01 X185.930 Y168.582 
G01 X184.422 Y169.307 
G01 X182.894 Y170.002 
G01 X181.348 Y170.668 
G01 X179.785 Y171.305 
G01 X178.208 Y171.912 
G01 X176.619 Y172.491 
G01 X173.603 Y173.510 
G01 X171.844 Y174.043 
G01 X170.792 Y174.330 
G01 X169.619 Y174.621 
G01 X168.321 Y174.911 
G01 X166.872 Y175.195 
G01 X165.835 Y175.377 
G01 X164.754 Y175.544 
G01 X163.246 Y175.752 
G01 X161.320 Y175.984 
G01 X158.976 Y176.227 
G01 X156.211 Y176.465 
G01 X153.007 Y176.685 
G01 X150.378 Y176.832 
G01 X148.090 Y176.940 
G01 X144.485 Y177.062 
G01 X142.262 Y177.098 
G01 X139.708 Y177.072 
G01 X138.012 Y177.033 
G01 X134.565 Y176.908 
G01 X131.130 Y176.730 
G01 X127.684 Y176.500 
G01 X125.520 Y176.329 
G01 X123.375 Y176.131 
G01 X121.268 Y175.899 
G01 X119.173 Y175.622 
G01 X117.176 Y175.304 
G01 X115.204 Y174.927 
G01 X113.285 Y174.489 
G01 X112.346 Y174.246 
G01 X111.411 Y173.982 
G01 X109.946 Y173.537 
G01 X108.479 Y173.064 
G01 X107.021 Y172.565 
G01 X105.572 Y172.040 
G01 X104.131 Y171.489 
G01 X102.702 Y170.914 
G01 X101.283 Y170.313 
G01 X99.878 Y169.689 
G01 X98.497 Y169.045 
G01 X97.129 Y168.376 
G01 X95.776 Y167.680 
G01 X94.440 Y166.958 
G01 X93.124 Y166.211 
G01 X91.831 Y165.437 
G01 X90.561 Y164.638 
G01 X89.318 Y163.813 
G01 X88.104 Y162.963 
G01 X86.921 Y162.088 
G01 X85.771 Y161.188 
G01 X84.656 Y160.263 
G01 X83.577 Y159.314 
G01 X82.537 Y158.340 
G01 X81.537 Y157.342 
G01 X80.573 Y156.315 
G01 X79.705 Y155.329 
G01 X78.766 Y154.176 
G01 X78.254 Y153.503 
G01 X77.724 Y152.771 
G01 X77.180 Y151.976 
G01 X76.627 Y151.117 
G01 X76.067 Y150.191 
G01 X75.506 Y149.198 
G01 X74.947 Y148.134 
G01 X74.395 Y146.997 
G01 X73.854 Y145.787 
G01 X73.329 Y144.499 
G01 X72.812 Y143.100 
G01 X72.349 Y141.703 
G01 X71.872 Y140.103 
G01 X71.579 Y139.002 
G01 X71.399 Y138.215 
G01 X71.208 Y137.194 
G01 X70.341 Y133.074 
G01 X70.030 Y131.474 
G01 X69.721 Y129.709 
G01 X69.423 Y127.753 
G01 X69.162 Y125.688 
G01 X68.986 Y123.969 
G01 X68.853 Y122.282 
G01 X68.767 Y120.587 
G01 X68.737 Y118.985 
G01 X68.762 Y117.388 
G01 X68.849 Y115.830 
G01 X69.001 Y114.314 
G01 X69.216 Y112.869 
G01 X69.393 Y111.962 
G01 X69.602 Y111.070 
G01 X69.848 Y110.164 
G01 X70.129 Y109.247 
G01 X70.444 Y108.318 
G01 X70.790 Y107.380 
G01 X71.167 Y106.435 
G01 X71.996 Y104.533 
G01 X72.448 Y103.587 
G01 X73.115 Y102.268 
G01 X74.016 Y100.578 
G01 X75.138 Y98.587 
G01 X76.528 Y96.246 
G01 X78.191 Y93.586 
G01 X79.245 Y91.967 
G01 X80.322 Y90.359 
G01 X81.423 Y88.756 
G01 X83.692 Y85.561 
G01 X84.849 Y83.977 
G01 X87.245 Y80.765 
G00 Z5.080
G00 X115.255 Y137.028  F6000.0
G01 Z-8.333 F1200.0 M3
G01 Z-8.520 
G01 Z-8.674 
G01 Z-8.870 
G01 Z-8.976 
G01 Z-9.114 
G01 Z-9.343 
G01 Z-9.617 
G01 Z-9.864 
G01 Z-10.133 
G01 Z-10.403 
G01 Z-10.586 
G01 Z-10.799 
G01 Z-11.083 
G01 Z-11.316 
G01 Z-11.538 
G01 Z-11.801 
G01 Z-12.046 
G01 Z-12.195 
G01 Z-12.315 
G01 Z-12.500 
G01 Z-12.685 
G01 Z-12.805 
G01 Z-12.954 
G01 Z-13.199 
G01 Z-13.462 
G01 Z-13.684 
G01 Z-13.917 
G01 Z-14.201 
G01 Z-14.414 
G01 Z-14.597 
G01 Z-14.867 
G01 Z-15.136 
G01 Z-15.383 
G01 Z-15.657 
G01 Z-15.886 
G01 Z-16.024 
G01 Z-16.130 
G01 Z-16.326 
G01 Z-16.480 
G01 Z-16.667 
G01 X117.396 Y137.680  F3000.0
G01 X119.178 Y138.165 
G01 X121.473 Y138.720 
G01 X122.717 Y138.969 
G01 X124.346 Y139.223 
G01 X127.078 Y139.551 
G01 X130.356 Y139.850 
G01 X133.304 Y140.061 
G01 X136.537 Y140.230 
G01 X139.774 Y140.332 
G01 X141.971 Y140.358 
G01 X144.525 Y140.314 
G01 X147.932 Y140.187 
G01 X150.721 Y140.024 
G01 X153.373 Y139.826 
G01 X156.520 Y139.528 
G01 X159.435 Y139.178 
G01 X161.200 Y138.891 
G01 X162.609 Y138.584 
G01 X165.145 Y137.938 
G01 X167.040 Y137.396 
G01 X168.185 Y137.041 
G01 X166.270 Y137.624 
G01 X164.420 Y138.132 
G01 X162.130 Y138.696 
G01 X160.781 Y138.967 
G01 X159.435 Y139.178 
G01 X156.520 Y139.528 
G01 X153.373 Y139.826 
G01 X150.236 Y140.056 
G01 X147.069 Y140.227 
G01 X143.567 Y140.337 
G01 X141.675 Y140.357 
G01 X138.666 Y140.304 
G01 X135.387 Y140.177 
G01 X132.081 Y139.978 
G01 X128.660 Y139.704 
G01 X126.508 Y139.487 
G01 X123.918 Y139.162 
G01 X122.144 Y138.864 
G01 X119.982 Y138.369 
G01 X117.816 Y137.797 
G01 X115.661 Y137.158 
G01 X115.255 Y137.028 
G00 Z5.080
G00 X97.668 Y123.289  F6000.0
G01 Z-16.667 F1200.0 M3
G01 Z-16.881 
G01 Z-16.919 
G01 Z-17.166 
G01 Z-17.363 
G01 Z-17.593 
G01 Z-17.762 
G01 Z-17.976 
G01 Z-18.121 
G01 Z-18.265 
G01 Z-18.419 
G01 Z-18.584 
G01 Z-18.760 
G01 Z-18.946 
G01 Z-19.143 
G01 Z-19.350 
G01 Z-19.568 
G01 Z-19.801 
G01 Z-20.070 
G01 Z-20.327 
G01 Z-20.566 
G01 Z-20.784 
G01 Z-20.833 
G01 Z-20.883 
G01 Z-21.101 
G01 Z-21.339 
G01 Z-21.597 
G01 Z-21.866 
G01 Z-22.099 
G01 Z-22.317 
G01 Z-22.524 
G01 Z-22.720 
G01 Z-22.907 
G01 Z-23.082 
G01 Z-23.248 
G01 Z-23.402 
G01 Z-23.546 
G01 Z-23.691 
G01 Z-23.905 
G01 Z-24.074 
G01 Z-24.303 
G01 Z-24.500 
G01 Z-24.748 
G01 Z-24.786 
G01 Z-25.000 
G01 X99.214 Y125.342  F3000.0
G01 X99.492 Y125.701 
G01 X102.229 Y126.855 
G01 X104.440 Y127.695 
G01 X107.041 Y128.596 
G01 X108.974 Y129.206 
G01 X111.446 Y129.899 
G01 X113.135 Y130.327 
G01 X114.815 Y130.720 
G01 X116.628 Y131.110 
G01 X118.574 Y131.492 
G01 X120.651 Y131.859 
G01 X122.859 Y132.207 
G01 X125.197 Y132.531 
G01 X127.664 Y132.827 
G01 X130.260 Y133.088 
G01 X133.050 Y133.317 
G01 X136.274 Y133.508 
G01 X139.362 Y133.612 
G01 X142.223 Y133.637 
G01 X144.841 Y133.599 
G01 X147.192 Y133.514 
G01 X149.334 Y133.394 
G01 X152.264 Y133.170 
G01 X155.325 Y132.881 
G01 X158.413 Y132.521 
G01 X160.202 Y132.277 
G01 X161.918 Y132.018 
G01 X163.674 Y131.725 
G01 X165.470 Y131.394 
G01 X167.306 Y131.021 
G01 X169.179 Y130.603 
G01 X171.090 Y130.135 
G01 X173.036 Y129.613 
G01 X175.016 Y129.032 
G01 X177.027 Y128.388 
G01 X179.068 Y127.677 
G01 X181.088 Y126.911 
G01 X182.840 Y126.194 
G01 X183.974 Y125.699 
G01 X185.331 Y123.918 
G01 X185.787 Y123.293 
G01 X184.521 Y124.997 
G01 X183.974 Y125.699 
G01 X183.792 Y126.687 
G01 X182.940 Y130.688 
G01 X182.684 Y131.974 
G01 X182.377 Y132.996 
G01 X182.067 Y133.839 
G01 X181.784 Y134.481 
G01 X181.460 Y135.087 
G01 X181.128 Y135.565 
G01 X180.650 Y136.138 
G01 X180.171 Y136.639 
G01 X179.526 Y137.240 
G01 X178.573 Y138.025 
G01 X177.981 Y138.474 
G01 X177.344 Y138.928 
G01 X176.663 Y139.386 
G01 X175.939 Y139.846 
G01 X175.172 Y140.307 
G01 X174.363 Y140.766 
G01 X173.514 Y141.222 
G01 X172.626 Y141.673 
G01 X171.702 Y142.118 
G01 X170.742 Y142.555 
G01 X169.750 Y142.982 
G01 X168.727 Y143.399 
G01 X167.676 Y143.803 
G01 X166.599 Y144.196 
G01 X164.405 Y144.937 
G01 X163.230 Y145.280 
G01 X162.158 Y145.532 
G01 X160.957 Y145.758 
G01 X159.397 Y145.983 
G01 X157.977 Y146.154 
G01 X156.143 Y146.344 
G01 X153.893 Y146.538 
G01 X151.139 Y146.727 
G01 X146.880 Y146.948 
G01 X143.735 Y147.054 
G01 X141.623 Y147.081 
G01 X138.904 Y147.029 
G01 X135.882 Y146.920 
G01 X132.906 Y146.766 
G01 X129.867 Y146.563 
G01 X128.084 Y146.422 
G01 X126.398 Y146.267 
G01 X124.879 Y146.099 
G01 X122.902 Y145.828 
G01 X121.344 Y145.544 
G01 X120.188 Y145.271 
G01 X118.917 Y144.892 
G01 X116.995 Y144.253 
G01 X115.095 Y143.546 
G01 X113.225 Y142.774 
G01 X111.436 Y141.960 
G01 X109.774 Y141.126 
G01 X108.241 Y140.277 
G01 X106.859 Y139.429 
G01 X105.642 Y138.601 
G01 X104.605 Y137.812 
G01 X103.752 Y137.084 
G01 X103.084 Y136.440 
G01 X102.511 Y135.809 
G01 X102.188 Y135.371 
G01 X101.866 Y134.834 
G01 X101.605 Y134.316 
G01 X101.311 Y133.625 
G01 X101.020 Y132.813 
G01 X100.765 Y131.956 
G01 X100.317 Y129.755 
G01 X99.761 Y127.116 
G01 X99.492 Y125.701 
G01 X97.952 Y123.677 
G01 X97.668 Y123.289 
G01 X100.388 Y117.859  
G01 X102.738 Y118.937  
G01 X105.007 Y119.883 
G01 X107.012 Y120.645 
G01 X109.382 Y121.466 
G01 X111.117 Y122.014 
G01 X113.380 Y122.648 
G01 X114.911 Y123.036 
G01 X116.459 Y123.398 
G01 X118.139 Y123.760 
G01 X119.949 Y124.114 
G01 X121.890 Y124.457 
G01 X123.959 Y124.784 
G01 X126.158 Y125.089 
G01 X128.486 Y125.368 
G01 X130.942 Y125.615 
G01 X133.579 Y125.831 
G01 X136.623 Y126.012 
G01 X139.522 Y126.109 
G01 X142.202 Y126.133 
G01 X144.649 Y126.097 
G01 X146.847 Y126.017 
G01 X148.839 Y125.906 
G01 X151.625 Y125.693 
G01 X154.538 Y125.418 
G01 X157.472 Y125.076 
G01 X159.135 Y124.849 
G01 X160.740 Y124.607 
G01 X162.376 Y124.334 
G01 X164.043 Y124.026 
G01 X165.741 Y123.681 
G01 X167.469 Y123.296 
G01 X169.225 Y122.866 
G01 X171.008 Y122.387 
G01 X172.816 Y121.857 
G01 X174.648 Y121.271 
G01 X176.502 Y120.625 
G01 X178.336 Y119.929 
G01 X179.919 Y119.281 
G01 X181.438 Y118.619 
G01 X182.922 Y117.932 
G01 X184.370 Y117.223 
G01 X185.783 Y116.495 
G01 X187.162 Y115.748 
G01 X188.509 Y114.986 
G01 X189.822 Y114.210 
G01 X190.841 Y113.582 
G01 X191.407 Y111.531 
G01 X190.841 Y113.582 
G01 X191.395 Y114.814 
G01 X191.727 Y115.649 
G01 X191.998 Y116.421 
G01 X192.119 Y117.119 
G01 X192.185 Y117.938 
G01 X192.209 Y119.011 
G01 X192.169 Y120.338 
G01 X192.105 Y121.340 
G01 X192.006 Y122.436 
G01 X191.874 Y123.609 
G01 X191.697 Y124.934 
G01 X191.514 Y126.132 
G01 X191.153 Y128.144 
G01 X190.293 Y132.190 
G01 X190.052 Y133.452 
G01 X189.718 Y134.671 
G01 X189.496 Y135.371 
G01 X189.264 Y136.032 
G01 X189.026 Y136.651 
G01 X188.783 Y137.225 
G01 X188.539 Y137.752 
G01 X188.022 Y138.734 
G01 X187.507 Y139.548 
G01 X186.836 Y140.446 
G01 X186.224 Y141.162 
G01 X185.450 Y141.973 
G01 X184.483 Y142.875 
G01 X183.914 Y143.360 
G01 X183.188 Y143.944 
G01 X182.424 Y144.521 
G01 X181.619 Y145.096 
G01 X180.772 Y145.666 
G01 X179.884 Y146.230 
G01 X178.957 Y146.787 
G01 X177.991 Y147.335 
G01 X176.989 Y147.874 
G01 X175.952 Y148.401 
G01 X174.882 Y148.915 
G01 X173.780 Y149.417 
G01 X172.649 Y149.904 
G01 X171.491 Y150.375 
G01 X170.309 Y150.831 
G01 X169.104 Y151.269 
G01 X166.705 Y152.080 
G01 X165.708 Y152.382 
G01 X164.456 Y152.708 
G01 X163.699 Y152.876 
G01 X162.177 Y153.163 
G01 X160.359 Y153.425 
G01 X158.813 Y153.612 
G01 X156.851 Y153.814 
G01 X154.472 Y154.019 
G01 X151.606 Y154.217 
G01 X147.182 Y154.446 
G01 X143.923 Y154.556 
G01 X141.566 Y154.585 
G01 X138.681 Y154.530 
G01 X135.553 Y154.417 
G01 X132.462 Y154.257 
G01 X129.321 Y154.048 
G01 X127.443 Y153.899 
G01 X125.643 Y153.733 
G01 X123.976 Y153.549 
G01 X121.721 Y153.239 
G01 X120.409 Y153.010 
G01 X119.245 Y152.767 
G01 X118.227 Y152.514 
G01 X116.674 Y152.053 
G01 X115.585 Y151.702 
G01 X114.501 Y151.331 
G01 X113.424 Y150.941 
G01 X112.354 Y150.532 
G01 X111.292 Y150.104 
G01 X110.240 Y149.659 
G01 X109.203 Y149.198 
G01 X108.201 Y148.731 
G01 X107.225 Y148.253 
G01 X106.274 Y147.765 
G01 X105.353 Y147.267 
G01 X104.462 Y146.761 
G01 X103.605 Y146.248 
G01 X102.784 Y145.732 
G01 X102.001 Y145.212 
G01 X101.258 Y144.691 
G01 X100.556 Y144.172 
G01 X99.896 Y143.656 
G01 X99.280 Y143.145 
G01 X98.708 Y142.642 
G01 X98.181 Y142.148 
G01 X97.697 Y141.666 
G01 X97.237 Y141.175 
G01 X96.701 Y140.560 
G01 X96.139 Y139.819 
G01 X95.724 Y139.193 
G01 X95.276 Y138.425 
G01 X94.802 Y137.486 
G01 X94.559 Y136.943 
G01 X94.315 Y136.344 
G01 X93.947 Y135.329 
G01 X93.540 Y133.989 
G01 X93.441 Y133.617 
G01 X93.291 Y132.816 
G01 X92.406 Y128.606 
G01 X92.169 Y127.386 
G01 X91.939 Y126.073 
G01 X91.623 Y123.915 
G01 X91.408 Y121.941 
G01 X91.321 Y120.831 
G01 X91.254 Y119.363 
G01 X91.261 Y118.186 
G01 X91.319 Y117.306 
G01 X91.406 Y116.692 
G01 X91.556 Y116.158 
G01 X91.809 Y115.447 
G01 X92.210 Y114.474 
G01 X92.620 Y113.586 
G01 X92.063 Y111.541 
G01 X92.620 Y113.586 
G01 X93.313 Y114.018 
G01 X94.774 Y114.887 
G01 X96.203 Y115.698 
G01 X97.598 Y116.452 
G01 X98.953 Y117.152 
G01 X100.388 Y117.859 
G01 X103.610 Y111.081  
G01 X105.747 Y112.061  
G01 X107.785 Y112.911 
G01 X109.584 Y113.595 
G01 X111.724 Y114.336 
G01 X113.260 Y114.821 
G01 X115.314 Y115.397 
G01 X116.687 Y115.745 
G01 X118.103 Y116.076 
G01 X119.649 Y116.409 
G01 X121.324 Y116.737 
G01 X123.128 Y117.056 
G01 X125.060 Y117.361 
G01 X127.120 Y117.646 
G01 X129.308 Y117.908 
G01 X131.624 Y118.142 
G01 X134.108 Y118.345 
G01 X136.972 Y118.515 
G01 X139.681 Y118.606 
G01 X142.180 Y118.629 
G01 X144.458 Y118.595 
G01 X146.501 Y118.521 
G01 X148.344 Y118.418 
G01 X150.986 Y118.216 
G01 X153.750 Y117.955 
G01 X156.531 Y117.631 
G01 X158.069 Y117.421 
G01 X159.562 Y117.196 
G01 X161.078 Y116.943 
G01 X162.617 Y116.659 
G01 X164.177 Y116.342 
G01 X165.759 Y115.989 
G01 X167.360 Y115.597 
G01 X168.980 Y115.162 
G01 X170.617 Y114.682 
G01 X172.269 Y114.153 
G01 X173.935 Y113.572 
G01 X175.585 Y112.947 
G01 X176.998 Y112.369 
G01 X178.361 Y111.774 
G01 X179.695 Y111.156 
G01 X181.001 Y110.517 
G01 X182.278 Y109.859 
G01 X183.528 Y109.183 
G01 X184.750 Y108.491 
G01 X185.946 Y107.784 
G01 X187.116 Y107.064 
G01 X188.260 Y106.332 
G01 X189.379 Y105.590 
G01 X190.544 Y104.792 
G01 X192.589 Y103.320 
G01 X193.317 Y102.764 
G01 X193.684 Y100.685 
G01 X193.317 Y102.764 
G01 X194.150 Y104.104 
G01 X195.024 Y105.554 
G01 X195.830 Y106.946 
G01 X196.564 Y108.278 
G01 X197.529 Y110.171 
G01 X198.072 Y111.346 
G01 X198.538 Y112.456 
G01 X199.107 Y113.998 
G01 X199.273 Y114.575 
G01 X199.440 Y115.356 
G01 X199.574 Y116.260 
G01 X199.679 Y117.550 
G01 X199.713 Y119.034 
G01 X199.665 Y120.712 
G01 X199.587 Y121.918 
G01 X199.472 Y123.193 
G01 X199.322 Y124.525 
G01 X199.126 Y125.997 
G01 X198.921 Y127.334 
G01 X198.515 Y129.601 
G01 X198.078 Y131.706 
G01 X197.646 Y133.691 
G01 X197.379 Y135.089 
G01 X197.172 Y135.898 
G01 X196.903 Y136.836 
G01 X196.615 Y137.746 
G01 X196.308 Y138.622 
G01 X195.984 Y139.462 
G01 X195.645 Y140.264 
G01 X195.294 Y141.024 
G01 X194.915 Y141.772 
G01 X194.407 Y142.682 
G01 X193.955 Y143.406 
G01 X193.386 Y144.231 
G01 X192.676 Y145.159 
G01 X191.799 Y146.187 
G01 X191.290 Y146.736 
G01 X190.729 Y147.307 
G01 X190.114 Y147.898 
G01 X189.440 Y148.509 
G01 X188.701 Y149.140 
G01 X187.803 Y149.862 
G01 X186.868 Y150.569 
G01 X185.893 Y151.265 
G01 X184.880 Y151.947 
G01 X183.829 Y152.614 
G01 X182.742 Y153.267 
G01 X181.620 Y153.904 
G01 X180.465 Y154.525 
G01 X179.278 Y155.128 
G01 X178.062 Y155.713 
G01 X176.818 Y156.279 
G01 X175.549 Y156.825 
G01 X174.256 Y157.352 
G01 X172.942 Y157.858 
G01 X171.609 Y158.343 
G01 X169.004 Y159.224 
G01 X167.753 Y159.603 
G01 X166.177 Y160.012 
G01 X165.239 Y160.221 
G01 X163.396 Y160.567 
G01 X161.321 Y160.867 
G01 X159.648 Y161.069 
G01 X157.560 Y161.285 
G01 X155.052 Y161.501 
G01 X152.073 Y161.706 
G01 X149.607 Y161.844 
G01 X147.485 Y161.944 
G01 X144.110 Y162.058 
G01 X141.510 Y162.089 
G01 X138.458 Y162.031 
G01 X135.223 Y161.914 
G01 X132.018 Y161.748 
G01 X128.776 Y161.532 
G01 X126.802 Y161.376 
G01 X124.887 Y161.199 
G01 X123.074 Y160.999 
G01 X121.285 Y160.763 
G01 X119.757 Y160.519 
G01 X118.274 Y160.236 
G01 X116.907 Y159.924 
G01 X115.628 Y159.578 
G01 X114.431 Y159.215 
G01 X113.216 Y158.822 
G01 X112.008 Y158.409 
G01 X110.806 Y157.974 
G01 X109.613 Y157.517 
G01 X108.429 Y157.041 
G01 X107.254 Y156.544 
G01 X106.095 Y156.029 
G01 X104.966 Y155.503 
G01 X103.859 Y154.961 
G01 X102.775 Y154.403 
G01 X101.715 Y153.831 
G01 X100.683 Y153.244 
G01 X99.680 Y152.645 
G01 X98.710 Y152.034 
G01 X97.774 Y151.412 
G01 X96.873 Y150.782 
G01 X96.011 Y150.144 
G01 X95.188 Y149.500 
G01 X94.405 Y148.851 
G01 X93.665 Y148.199 
G01 X92.966 Y147.545 
G01 X92.310 Y146.891 
G01 X91.682 Y146.222 
G01 X90.886 Y145.303 
G01 X90.307 Y144.560 
G01 X89.684 Y143.673 
G01 X89.025 Y142.616 
G01 X88.686 Y142.016 
G01 X88.343 Y141.364 
G01 X88.000 Y140.657 
G01 X87.658 Y139.891 
G01 X87.320 Y139.062 
G01 X86.824 Y137.692 
G01 X86.318 Y136.027 
G01 X86.109 Y135.231 
G01 X85.930 Y134.276 
G01 X85.051 Y130.095 
G01 X84.790 Y128.749 
G01 X84.533 Y127.285 
G01 X84.178 Y124.859 
G01 X83.934 Y122.617 
G01 X83.832 Y121.315 
G01 X83.751 Y119.507 
G01 X83.762 Y117.920 
G01 X83.851 Y116.560 
G01 X83.992 Y115.508 
G01 X84.154 Y114.750 
G01 X84.414 Y113.854 
G01 X84.803 Y112.758 
G01 X85.331 Y111.476 
G01 X85.917 Y110.209 
G01 X86.434 Y109.185 
G01 X87.619 Y106.996 
G01 X88.706 Y105.117 
G01 X90.140 Y102.770 
G01 X89.772 Y100.685 
G01 X90.140 Y102.770 
G01 X91.321 Y103.654 
G01 X93.052 Y104.892 
G01 X94.469 Y105.858 
G01 X95.855 Y106.761 
G01 X97.214 Y107.607 
G01 X98.543 Y108.398 
G01 X99.842 Y109.134 
G01 X101.105 Y109.818 
G01 X102.332 Y110.452 
G01 X103.610 Y111.081 
G01 X106.832 Y104.303  
G01 X108.756 Y105.186  
G01 X110.564 Y105.939 
G01 X112.155 Y106.544 
G01 X114.065 Y107.206 
G01 X115.403 Y107.629 
G01 X117.248 Y108.146 
G01 X118.463 Y108.454 
G01 X119.748 Y108.754 
G01 X121.160 Y109.058 
G01 X122.699 Y109.360 
G01 X124.366 Y109.654 
G01 X126.160 Y109.938 
G01 X128.081 Y110.204 
G01 X130.130 Y110.449 
G01 X132.306 Y110.668 
G01 X134.637 Y110.859 
G01 X137.321 Y111.019 
G01 X139.841 Y111.104 
G01 X142.158 Y111.124 
G01 X144.267 Y111.093 
G01 X146.156 Y111.024 
G01 X147.849 Y110.930 
G01 X150.347 Y110.739 
G01 X152.962 Y110.492 
G01 X155.590 Y110.186 
G01 X157.002 Y109.993 
G01 X158.383 Y109.785 
G01 X159.780 Y109.551 
G01 X161.190 Y109.291 
G01 X162.613 Y109.002 
G01 X164.048 Y108.682 
G01 X165.495 Y108.328 
G01 X166.951 Y107.937 
G01 X168.417 Y107.507 
G01 X169.890 Y107.036 
G01 X171.369 Y106.520 
G01 X172.833 Y105.965 
G01 X174.077 Y105.456 
G01 X175.284 Y104.929 
G01 X176.469 Y104.381 
G01 X177.632 Y103.812 
G01 X178.773 Y103.223 
G01 X179.893 Y102.617 
G01 X180.992 Y101.995 
G01 X182.070 Y101.358 
G01 X183.128 Y100.707 
G01 X184.166 Y100.044 
G01 X186.229 Y98.652 
G01 X188.120 Y97.291 
G01 X189.987 Y95.866 
G01 X192.028 Y94.224 
G01 X193.878 Y92.660 
G01 X194.943 Y91.716 
G01 X195.174 Y89.577 
G01 X194.943 Y91.716 
G01 X196.397 Y93.798 
G01 X197.483 Y95.400 
G01 X198.540 Y97.003 
G01 X199.574 Y98.616 
G01 X200.549 Y100.184 
G01 X201.485 Y101.737 
G01 X202.365 Y103.257 
G01 X203.184 Y104.743 
G01 X203.964 Y106.250 
G01 X204.623 Y107.621 
G01 X205.234 Y109.005 
G01 X205.776 Y110.368 
G01 X206.253 Y111.707 
G01 X206.548 Y112.730 
G01 X206.692 Y113.345 
G01 X206.830 Y114.044 
G01 X207.029 Y115.402 
G01 X207.137 Y116.560 
G01 X207.200 Y117.780 
G01 X207.218 Y119.058 
G01 X207.211 Y119.659 
G01 X207.160 Y121.086 
G01 X207.069 Y122.495 
G01 X206.938 Y123.951 
G01 X206.770 Y125.441 
G01 X206.555 Y127.060 
G01 X206.329 Y128.536 
G01 X206.098 Y129.878 
G01 X205.876 Y131.058 
G01 X205.418 Y133.266 
G01 X204.999 Y135.193 
G01 X204.700 Y136.749 
G01 X204.415 Y137.860 
G01 X204.089 Y139.002 
G01 X203.734 Y140.121 
G01 X203.352 Y141.212 
G01 X202.943 Y142.274 
G01 X202.508 Y143.302 
G01 X202.048 Y144.295 
G01 X201.554 Y145.271 
G01 X200.855 Y146.522 
G01 X200.233 Y147.518 
G01 X199.461 Y148.637 
G01 X199.012 Y149.241 
G01 X198.516 Y149.872 
G01 X197.971 Y150.529 
G01 X197.373 Y151.211 
G01 X196.720 Y151.916 
G01 X196.009 Y152.640 
G01 X195.236 Y153.384 
G01 X194.397 Y154.144 
G01 X193.488 Y154.920 
G01 X192.418 Y155.780 
G01 X191.311 Y156.617 
G01 X190.168 Y157.433 
G01 X188.988 Y158.227 
G01 X187.774 Y158.998 
G01 X186.527 Y159.748 
G01 X185.248 Y160.474 
G01 X183.940 Y161.176 
G01 X182.604 Y161.855 
G01 X181.242 Y162.510 
G01 X179.856 Y163.141 
G01 X178.448 Y163.747 
G01 X177.020 Y164.328 
G01 X175.575 Y164.885 
G01 X174.114 Y165.417 
G01 X171.304 Y166.367 
G01 X169.799 Y166.823 
G01 X168.902 Y167.067 
G01 X167.898 Y167.317 
G01 X166.780 Y167.566 
G01 X165.502 Y167.817 
G01 X163.668 Y168.119 
G01 X162.283 Y168.310 
G01 X160.484 Y168.527 
G01 X158.268 Y168.756 
G01 X155.632 Y168.983 
G01 X152.540 Y169.196 
G01 X149.993 Y169.338 
G01 X147.787 Y169.442 
G01 X144.298 Y169.560 
G01 X141.453 Y169.593 
G01 X138.235 Y169.532 
G01 X134.894 Y169.411 
G01 X131.574 Y169.239 
G01 X128.230 Y169.016 
G01 X126.161 Y168.853 
G01 X124.131 Y168.665 
G01 X122.171 Y168.449 
G01 X120.229 Y168.192 
G01 X118.466 Y167.911 
G01 X116.739 Y167.581 
G01 X115.096 Y167.207 
G01 X113.519 Y166.780 
G01 X112.188 Y166.376 
G01 X110.848 Y165.943 
G01 X109.514 Y165.487 
G01 X108.189 Y165.007 
G01 X106.872 Y164.503 
G01 X105.565 Y163.977 
G01 X104.269 Y163.428 
G01 X102.986 Y162.859 
G01 X101.731 Y162.274 
G01 X100.494 Y161.668 
G01 X99.275 Y161.042 
G01 X98.078 Y160.395 
G01 X96.903 Y159.727 
G01 X95.755 Y159.041 
G01 X94.636 Y158.336 
G01 X93.546 Y157.613 
G01 X92.489 Y156.873 
G01 X91.466 Y156.116 
G01 X90.479 Y155.344 
G01 X89.531 Y154.557 
G01 X88.621 Y153.756 
G01 X87.752 Y152.943 
G01 X86.924 Y152.117 
G01 X86.127 Y151.269 
G01 X85.072 Y150.047 
G01 X84.280 Y149.031 
G01 X83.432 Y147.824 
G01 X82.992 Y147.142 
G01 X82.546 Y146.404 
G01 X82.096 Y145.607 
G01 X81.645 Y144.749 
G01 X81.197 Y143.827 
G01 X80.756 Y142.839 
G01 X80.324 Y141.780 
G01 X79.702 Y140.055 
G01 X79.095 Y138.065 
G01 X78.764 Y136.778 
G01 X78.569 Y135.735 
G01 X77.696 Y131.585 
G01 X77.410 Y130.112 
G01 X77.127 Y128.497 
G01 X76.852 Y126.692 
G01 X76.620 Y124.858 
G01 X76.460 Y123.293 
G01 X76.343 Y121.799 
G01 X76.266 Y120.293 
G01 X76.241 Y118.969 
G01 X76.262 Y117.654 
G01 X76.331 Y116.408 
G01 X76.448 Y115.237 
G01 X76.604 Y114.189 
G01 X76.731 Y113.539 
G01 X76.878 Y112.910 
G01 X77.058 Y112.247 
G01 X77.271 Y111.550 
G01 X77.518 Y110.824 
G01 X77.797 Y110.069 
G01 X78.451 Y108.478 
G01 X78.807 Y107.684 
G01 X79.183 Y106.898 
G01 X79.774 Y105.726 
G01 X80.607 Y104.166 
G01 X81.634 Y102.343 
G01 X82.937 Y100.150 
G01 X84.506 Y97.640 
G01 X85.507 Y96.102 
G01 X86.532 Y94.572 
G01 X88.515 Y91.716 
G01 X88.288 Y89.576 
G01 X88.515 Y91.716 
G01 X89.676 Y92.743 
G01 X91.145 Y93.993 
G01 X92.647 Y95.220 
G01 X94.182 Y96.422 
G01 X95.752 Y97.598 
G01 X97.348 Y98.738 
G01 X98.633 Y99.614 
G01 X99.887 Y100.432 
G01 X101.114 Y101.196 
G01 X102.313 Y101.909 
G01 X103.480 Y102.571 
G01 X104.613 Y103.184 
G01 X105.711 Y103.751 
G01 X106.832 Y104.303 
G01 X87.245 Y80.765  
G01 X87.583 Y80.334  
G01 X89.351 Y82.155 
G01 X90.671 Y83.471 
G01 X91.963 Y84.702 
G01 X93.265 Y85.899 
G01 X94.595 Y87.076 
G01 X95.951 Y88.230 
G01 X97.334 Y89.360 
G01 X98.744 Y90.464 
G01 X100.182 Y91.541 
G01 X101.645 Y92.585 
G01 X102.796 Y93.371 
G01 X103.919 Y94.103 
G01 X105.015 Y94.785 
G01 X106.082 Y95.419 
G01 X107.118 Y96.007 
G01 X108.121 Y96.550 
G01 X109.090 Y97.051 
G01 X110.054 Y97.525 
G01 X111.766 Y98.310 
G01 X113.342 Y98.968 
G01 X114.727 Y99.494 
G01 X116.407 Y100.077 
G01 X117.546 Y100.436 
G01 X119.182 Y100.895 
G01 X120.239 Y101.163 
G01 X121.392 Y101.432 
G01 X122.670 Y101.707 
G01 X124.074 Y101.982 
G01 X125.604 Y102.253 
G01 X127.260 Y102.514 
