%
( trays x3 640x300 ) ( File created: Saturday November 23 2024 - 12:24 PM)
( for LinuxCNC )
( Material Size) ( X= 640.000, Y= 300.000, Z= 30.000)
G90 (Incremental distance mode)
G17 G21 (Active Plane: XY)(Metric Mode)
G40 G49 G80(Tool Diameter, Length compensation & canned cycles OFF)
G64 P0.05 Q0.05(Path Blending)
T6 M06 (TOOL USE End Mill 1 mm)
G90 (absolute distance mode)
G54 (Coordinate System)
S19000M3
G00 Z20.320
G4 P6
( roundover )
G00 X97.804 Y42.727 Z5.080 F36000.0
G01 Z-4.000 F1200.0 M3
G01 X98.519 Y41.071  F18000.0
G01 X98.895 Y40.256 
G01 X99.286 Y39.448 
G01 X99.693 Y38.649 
G01 X100.116 Y37.860 
G01 X100.684 Y36.869 
G01 X101.258 Y35.938 
G01 X101.837 Y35.062 
G01 X102.417 Y34.241 
G01 X102.995 Y33.474 
G01 X103.569 Y32.758 
G01 X104.136 Y32.091 
G01 X104.691 Y31.473 
G01 X105.234 Y30.902 
G01 X105.758 Y30.378 
G01 X106.752 Y29.454 
G01 X107.643 Y28.693 
G01 X108.409 Y28.082 
G01 X109.415 Y27.331 
G01 X110.001 Y26.919 
G01 X110.646 Y26.485 
G01 X111.349 Y26.032 
G01 X112.111 Y25.563 
G01 X112.933 Y25.080 
G01 X113.816 Y24.587 
G01 X114.760 Y24.087 
G01 X115.765 Y23.581 
G01 X116.834 Y23.074 
G01 X117.966 Y22.567 
G01 X119.162 Y22.063 
G01 X120.423 Y21.566 
G01 X121.749 Y21.079 
G01 X123.141 Y20.603 
G01 X124.738 Y20.100 
G01 X126.283 Y19.656 
G01 X127.774 Y19.268 
G01 X129.211 Y18.932 
G01 X130.591 Y18.644 
G01 X131.914 Y18.401 
G01 X133.179 Y18.198 
G01 X134.384 Y18.032 
G01 X135.528 Y17.899 
G01 X136.610 Y17.796 
G01 X137.629 Y17.719 
G01 X138.581 Y17.664 
G01 X140.293 Y17.606 
G01 X141.731 Y17.593 
G01 X142.968 Y17.600 
G01 X144.439 Y17.640 
G01 X146.139 Y17.735 
G01 X147.069 Y17.810 
G01 X148.055 Y17.908 
G01 X149.095 Y18.031 
G01 X150.188 Y18.181 
G01 X151.333 Y18.363 
G01 X152.529 Y18.578 
G01 X153.776 Y18.830 
G01 X155.072 Y19.121 
G01 X156.417 Y19.454 
G01 X157.810 Y19.833 
G01 X159.157 Y20.231 
G01 X160.442 Y20.639 
G01 X161.665 Y21.056 
G01 X162.828 Y21.479 
G01 X163.932 Y21.905 
G01 X164.975 Y22.332 
G01 X165.960 Y22.758 
G01 X166.887 Y23.181 
G01 X167.756 Y23.596 
G01 X168.566 Y24.003 
G01 X170.023 Y24.782 
G01 X171.257 Y25.496 
G01 X172.274 Y26.126 
G01 X173.178 Y26.722 
G01 X174.028 Y27.319 
G01 X174.827 Y27.914 
G01 X175.575 Y28.504 
G01 X176.275 Y29.089 
G01 X176.928 Y29.664 
G01 X177.534 Y30.228 
G01 X178.097 Y30.779 
G01 X178.616 Y31.314 
G01 X179.092 Y31.828 
G01 X179.932 Y32.798 
G01 X180.620 Y33.664 
G01 X181.171 Y34.407 
G01 X181.900 Y35.469 
G01 X182.586 Y36.558 
G01 X183.232 Y37.672 
G01 X183.841 Y38.810 
G01 X184.417 Y39.969 
G01 X184.963 Y41.148 
G01 X185.483 Y42.343 
G01 X185.980 Y43.552 
G01 X186.456 Y44.774 
G01 X186.915 Y46.004 
G01 X187.799 Y48.489 
G01 X188.657 Y50.983 
G01 X189.515 Y53.470 
G01 X189.877 Y54.484 
G01 X190.034 Y54.975 
G01 X190.157 Y55.463 
G01 X190.229 Y55.895 
G01 X190.277 Y56.446 
G01 X190.284 Y56.749 
G01 X190.277 Y57.076 
G01 X190.252 Y57.421 
G01 X190.208 Y57.780 
G01 X190.141 Y58.152 
G01 X190.049 Y58.533 
G01 X189.929 Y58.923 
G01 X189.778 Y59.317 
G01 X189.594 Y59.715 
G01 X189.373 Y60.114 
G01 X189.114 Y60.513 
G01 X188.815 Y60.904 
G01 X187.470 Y62.350 
G01 X183.829 Y66.169 
G01 X182.039 Y68.029 
G01 X180.235 Y69.872 
G01 X179.323 Y70.779 
G01 X178.402 Y71.675 
G01 X177.468 Y72.556 
G01 X176.521 Y73.421 
G01 X175.831 Y74.027 
G01 X175.160 Y74.595 
G01 X173.866 Y75.628 
G01 X172.654 Y76.527 
G01 X171.529 Y77.300 
G01 X170.500 Y77.959 
G01 X169.578 Y78.511 
G01 X168.071 Y79.339 
G01 X166.775 Y79.992 
G01 X165.458 Y80.605 
G01 X164.121 Y81.179 
G01 X162.766 Y81.714 
G01 X161.396 Y82.208 
G01 X160.012 Y82.663 
G01 X158.618 Y83.079 
G01 X157.214 Y83.454 
G01 X155.725 Y83.805 
G01 X154.225 Y84.109 
G01 X152.714 Y84.370 
G01 X151.195 Y84.587 
G01 X149.669 Y84.765 
G01 X148.139 Y84.904 
G01 X146.606 Y85.007 
G01 X145.073 Y85.076 
G01 X142.932 Y85.128 
G01 X140.964 Y85.135 
G01 X139.169 Y85.106 
G01 X137.548 Y85.047 
G01 X136.100 Y84.966 
G01 X134.827 Y84.870 
G01 X133.729 Y84.767 
G01 X132.807 Y84.665 
G01 X131.875 Y84.545 
G01 X130.945 Y84.407 
G01 X130.016 Y84.253 
G01 X129.090 Y84.081 
G01 X128.166 Y83.893 
G01 X127.246 Y83.688 
G01 X126.329 Y83.466 
G01 X125.416 Y83.228 
G01 X124.507 Y82.973 
G01 X123.604 Y82.702 
G01 X122.706 Y82.414 
G01 X121.813 Y82.111 
G01 X120.927 Y81.791 
G01 X120.048 Y81.456 
G01 X119.176 Y81.104 
G01 X118.313 Y80.737 
G01 X117.140 Y80.206 
G01 X116.029 Y79.664 
G01 X114.979 Y79.116 
G01 X113.988 Y78.564 
G01 X113.056 Y78.011 
G01 X112.180 Y77.461 
G01 X111.359 Y76.916 
G01 X110.591 Y76.379 
G01 X109.876 Y75.855 
G01 X109.214 Y75.346 
G01 X108.031 Y74.381 
G01 X107.036 Y73.513 
G01 X106.217 Y72.766 
G01 X105.408 Y72.003 
G01 X104.462 Y71.082 
G01 X102.153 Y68.762 
G01 X99.294 Y65.814 
G01 X95.884 Y62.239 
G01 X95.000 Y61.311 
G01 X94.595 Y60.842 
G01 X94.414 Y60.608 
G01 X94.245 Y60.367 
G01 X94.016 Y59.990 
G01 X93.768 Y59.495 
G01 X93.649 Y59.217 
G01 X93.534 Y58.910 
G01 X93.429 Y58.581 
G01 X93.337 Y58.230 
G01 X93.261 Y57.860 
G01 X93.206 Y57.471 
G01 X93.173 Y57.065 
G01 X93.167 Y56.642 
G01 X93.191 Y56.204 
G01 X93.247 Y55.752 
G01 X93.341 Y55.285 
G01 X93.476 Y54.802 
G01 X93.947 Y53.435 
G01 X94.709 Y51.252 
G01 X95.891 Y47.812 
G01 X96.500 Y46.102 
G01 X97.135 Y44.405 
G01 X97.804 Y42.727 
G00 Z5.080
G00 X89.731 Y73.132  F36000.0
G01 Z-4.000 F1200.0 M3
G01 X90.160 Y73.272  F18000.0
G01 X90.594 Y73.446 
G01 X91.033 Y73.656 
G01 X91.473 Y73.905 
G01 X91.913 Y74.196 
G01 X92.351 Y74.533 
G01 X92.618 Y74.769 
G01 X92.932 Y75.073 
G01 X93.712 Y75.875 
G01 X94.697 Y76.894 
G01 X95.907 Y78.101 
G01 X97.088 Y79.226 
G01 X98.289 Y80.329 
G01 X99.511 Y81.411 
G01 X100.754 Y82.469 
G01 X102.019 Y83.502 
G01 X103.304 Y84.509 
G01 X104.611 Y85.487 
G01 X105.938 Y86.436 
G01 X106.957 Y87.130 
G01 X107.949 Y87.777 
G01 X108.914 Y88.378 
G01 X109.849 Y88.934 
G01 X110.754 Y89.447 
G01 X111.627 Y89.920 
G01 X112.467 Y90.354 
G01 X113.275 Y90.751 
G01 X114.773 Y91.438 
G01 X116.119 Y91.999 
G01 X117.297 Y92.447 
G01 X118.293 Y92.796 
G01 X118.747 Y92.951 
G01 X119.688 Y93.248 
G01 X121.114 Y93.648 
G01 X122.014 Y93.875 
G01 X123.036 Y94.114 
G01 X124.180 Y94.361 
G01 X125.449 Y94.609 
G01 X126.842 Y94.855 
G01 X128.360 Y95.095 
G01 X130.004 Y95.323 
G01 X131.773 Y95.535 
G01 X133.670 Y95.726 
G01 X135.694 Y95.891 
G01 X138.018 Y96.030 
G01 X140.159 Y96.102 
G01 X142.115 Y96.119 
G01 X143.884 Y96.093 
G01 X145.465 Y96.036 
G01 X146.859 Y95.958 
G01 X149.070 Y95.789 
G01 X151.388 Y95.570 
G01 X153.708 Y95.299 
G01 X154.869 Y95.141 
G01 X156.028 Y94.966 
G01 X157.184 Y94.773 
G01 X158.336 Y94.561 
G01 X159.485 Y94.327 
G01 X160.628 Y94.072 
G01 X161.766 Y93.794 
G01 X162.896 Y93.490 
G01 X164.019 Y93.161 
G01 X165.133 Y92.804 
G01 X166.238 Y92.419 
G01 X167.332 Y92.005 
G01 X168.236 Y91.635 
G01 X169.132 Y91.244 
G01 X170.018 Y90.833 
G01 X170.896 Y90.404 
G01 X171.766 Y89.955 
G01 X172.626 Y89.490 
G01 X173.478 Y89.008 
G01 X174.320 Y88.510 
G01 X175.154 Y87.997 
G01 X175.979 Y87.469 
G01 X176.794 Y86.929 
G01 X177.602 Y86.375 
G01 X179.185 Y85.235 
G01 X180.732 Y84.055 
G01 X182.481 Y82.648 
G01 X184.056 Y81.316 
G01 X185.465 Y80.067 
G01 X186.715 Y78.909 
G01 X187.811 Y77.851 
G01 X188.761 Y76.901 
G01 X190.238 Y75.369 
G01 X190.528 Y75.073 
G01 X190.886 Y74.736 
G01 X191.320 Y74.374 
G01 X191.838 Y74.006 
G01 X192.121 Y73.830 
G01 X192.430 Y73.659 
G01 X192.760 Y73.496 
G01 X193.112 Y73.344 
G01 X193.488 Y73.207 
G01 X193.887 Y73.086 
G01 X194.310 Y72.984 
G01 X194.756 Y72.904 
G01 X195.275 Y72.847 
G01 X195.576 Y72.831 
G01 X195.912 Y72.828 
G01 X196.272 Y72.839 
G01 X196.655 Y72.870 
G01 X197.056 Y72.922 
G01 X197.473 Y72.998 
G01 X197.903 Y73.102 
G01 X198.342 Y73.236 
G01 X198.788 Y73.404 
G01 X199.237 Y73.608 
G01 X199.688 Y73.852 
G01 X200.136 Y74.139 
G01 X200.581 Y74.473 
G01 X201.017 Y74.855 
G01 X201.427 Y75.278 
G01 X201.811 Y75.737 
G01 X202.565 Y76.729 
G01 X203.835 Y78.424 
G01 X205.092 Y80.129 
G01 X206.335 Y81.844 
G01 X207.561 Y83.570 
G01 X208.769 Y85.308 
G01 X209.956 Y87.060 
G01 X211.121 Y88.825 
G01 X212.261 Y90.606 
G01 X213.344 Y92.347 
G01 X214.404 Y94.105 
G01 X215.432 Y95.880 
G01 X216.420 Y97.675 
G01 X217.361 Y99.494 
G01 X217.811 Y100.409 
G01 X218.246 Y101.332 
G01 X218.666 Y102.261 
G01 X219.069 Y103.196 
G01 X219.454 Y104.139 
G01 X219.821 Y105.088 
G01 X220.278 Y106.339 
G01 X220.542 Y107.126 
G01 X220.817 Y108.026 
G01 X221.093 Y109.041 
G01 X221.360 Y110.172 
G01 X221.606 Y111.422 
G01 X221.823 Y112.793 
G01 X221.935 Y113.685 
G01 X222.029 Y114.583 
G01 X222.103 Y115.484 
G01 X222.158 Y116.387 
G01 X222.196 Y117.292 
G01 X222.217 Y118.198 
G01 X222.222 Y119.106 
G01 X222.212 Y120.013 
G01 X222.147 Y121.833 
G01 X222.030 Y123.651 
G01 X221.867 Y125.465 
G01 X221.663 Y127.272 
G01 X221.408 Y129.185 
G01 X221.140 Y130.939 
G01 X220.866 Y132.534 
G01 X220.595 Y133.971 
G01 X220.094 Y136.387 
G01 X219.700 Y138.195 
G01 X219.504 Y139.225 
G01 X219.407 Y139.731 
G01 X219.298 Y140.225 
G01 X218.899 Y141.782 
G01 X218.456 Y143.332 
G01 X217.969 Y144.869 
G01 X217.436 Y146.391 
G01 X216.856 Y147.895 
G01 X216.229 Y149.377 
G01 X215.554 Y150.836 
G01 X214.829 Y152.268 
G01 X214.151 Y153.504 
G01 X213.746 Y154.200 
G01 X213.291 Y154.947 
G01 X212.785 Y155.739 
G01 X212.225 Y156.574 
G01 X211.608 Y157.447 
G01 X210.931 Y158.355 
G01 X210.193 Y159.296 
G01 X209.390 Y160.264 
G01 X208.519 Y161.258 
G01 X207.578 Y162.273 
G01 X206.565 Y163.305 
G01 X205.476 Y164.353 
G01 X204.308 Y165.411 
G01 X203.060 Y166.477 
G01 X201.645 Y167.613 
G01 X200.196 Y168.710 
G01 X198.714 Y169.766 
G01 X197.202 Y170.784 
G01 X195.662 Y171.763 
G01 X194.095 Y172.704 
G01 X192.503 Y173.608 
G01 X190.889 Y174.475 
G01 X189.254 Y175.306 
G01 X187.601 Y176.101 
G01 X185.930 Y176.861 
G01 X184.246 Y177.586 
G01 X182.548 Y178.278 
G01 X180.840 Y178.936 
G01 X179.123 Y179.561 
G01 X177.398 Y180.155 
G01 X175.901 Y180.650 
G01 X174.961 Y180.944 
G01 X173.888 Y181.260 
G01 X172.682 Y181.588 
G01 X171.340 Y181.922 
G01 X169.861 Y182.251 
G01 X168.241 Y182.570 
G01 X167.054 Y182.777 
G01 X165.840 Y182.965 
G01 X164.207 Y183.190 
G01 X162.155 Y183.438 
G01 X159.684 Y183.694 
G01 X156.791 Y183.943 
G01 X153.474 Y184.171 
G01 X150.763 Y184.323 
G01 X148.393 Y184.434 
G01 X144.673 Y184.560 
G01 X142.321 Y184.598 
G01 X141.339 Y184.597 
G01 X139.564 Y184.571 
G01 X137.789 Y184.529 
G01 X134.236 Y184.401 
G01 X130.686 Y184.217 
G01 X127.139 Y183.981 
G01 X124.880 Y183.802 
G01 X122.620 Y183.593 
G01 X120.365 Y183.345 
G01 X118.117 Y183.048 
G01 X117.000 Y182.878 
G01 X115.886 Y182.692 
G01 X114.775 Y182.490 
G01 X113.670 Y182.269 
G01 X112.569 Y182.029 
G01 X111.475 Y181.768 
G01 X110.386 Y181.486 
G01 X109.304 Y181.180 
G01 X107.704 Y180.695 
G01 X106.112 Y180.181 
G01 X104.529 Y179.639 
G01 X102.955 Y179.069 
G01 X101.392 Y178.471 
G01 X99.840 Y177.846 
G01 X98.299 Y177.194 
G01 X96.771 Y176.516 
G01 X95.264 Y175.813 
G01 X93.765 Y175.080 
G01 X92.278 Y174.315 
G01 X90.804 Y173.519 
G01 X89.347 Y172.691 
G01 X87.908 Y171.830 
G01 X86.489 Y170.937 
G01 X85.093 Y170.011 
G01 X83.722 Y169.051 
G01 X82.379 Y168.057 
G01 X81.065 Y167.029 
G01 X79.784 Y165.966 
G01 X78.536 Y164.868 
G01 X77.325 Y163.735 
G01 X76.153 Y162.565 
G01 X75.021 Y161.359 
G01 X74.007 Y160.207 
G01 X73.445 Y159.533 
G01 X72.851 Y158.788 
G01 X72.230 Y157.973 
G01 X71.589 Y157.085 
G01 X70.931 Y156.125 
G01 X70.264 Y155.089 
G01 X69.592 Y153.977 
G01 X68.919 Y152.787 
G01 X68.252 Y151.517 
G01 X67.596 Y150.166 
G01 X66.956 Y148.733 
G01 X66.337 Y147.216 
G01 X65.744 Y145.611 
G01 X65.460 Y144.779 
G01 X65.185 Y143.925 
G01 X64.653 Y142.140 
G01 X64.304 Y140.828 
G01 X64.108 Y139.997 
G01 X64.038 Y139.651 
G01 X63.851 Y138.652 
G01 X63.603 Y137.468 
G01 X62.990 Y134.563 
G01 X62.655 Y132.836 
G01 X62.319 Y130.921 
G01 X61.998 Y128.814 
G01 X61.848 Y127.690 
G01 X61.708 Y126.518 
G01 X61.516 Y124.645 
G01 X61.368 Y122.766 
G01 X61.273 Y120.881 
G01 X61.247 Y119.941 
G01 X61.236 Y119.000 
G01 X61.243 Y118.060 
G01 X61.267 Y117.122 
G01 X61.309 Y116.185 
G01 X61.371 Y115.251 
G01 X61.453 Y114.320 
G01 X61.557 Y113.393 
G01 X61.683 Y112.469 
G01 X61.831 Y111.550 
G01 X62.059 Y110.386 
G01 X62.330 Y109.231 
G01 X62.641 Y108.083 
G01 X62.990 Y106.944 
G01 X63.374 Y105.813 
G01 X63.788 Y104.693 
G01 X64.230 Y103.583 
G01 X64.696 Y102.483 
G01 X65.188 Y101.383 
G01 X65.717 Y100.278 
G01 X66.458 Y98.810 
G01 X67.429 Y96.991 
G01 X68.005 Y95.955 
G01 X68.644 Y94.834 
G01 X69.350 Y93.630 
G01 X70.122 Y92.344 
G01 X70.965 Y90.979 
G01 X71.879 Y89.535 
G01 X72.986 Y87.834 
G01 X74.115 Y86.149 
G01 X75.264 Y84.476 
G01 X76.432 Y82.814 
G01 X77.616 Y81.164 
G01 X78.814 Y79.523 
G01 X81.246 Y76.263 
G01 X81.588 Y75.810 
G01 X81.866 Y75.470 
G01 X82.226 Y75.077 
G01 X82.678 Y74.650 
G01 X82.931 Y74.438 
G01 X83.211 Y74.225 
G01 X83.515 Y74.016 
G01 X83.842 Y73.815 
G01 X84.194 Y73.624 
G01 X84.571 Y73.446 
G01 X84.974 Y73.284 
G01 X85.402 Y73.141 
G01 X85.858 Y73.019 
G01 X86.341 Y72.923 
G01 X86.825 Y72.860 
G01 X87.434 Y72.826 
G01 X87.768 Y72.827 
G01 X88.128 Y72.845 
G01 X88.507 Y72.881 
G01 X88.903 Y72.939 
G01 X89.311 Y73.022 
G01 X89.731 Y73.132 
G00 Z5.080
G00 X77.671 Y65.796  F36000.0
G01 Z-4.000 F1200.0 M3
G01 X76.574 Y67.336  F18000.0
G01 X75.443 Y68.858 
G01 X74.288 Y70.367 
G01 X71.953 Y73.372 
G01 X70.598 Y75.135 
G01 X69.256 Y76.910 
G01 X67.930 Y78.699 
G01 X66.623 Y80.503 
G01 X65.338 Y82.323 
G01 X64.079 Y84.161 
G01 X62.847 Y86.018 
G01 X61.647 Y87.895 
G01 X60.905 Y89.091 
G01 X60.043 Y90.525 
G01 X59.080 Y92.203 
G01 X58.032 Y94.130 
G01 X57.481 Y95.191 
G01 X56.916 Y96.316 
G01 X56.339 Y97.507 
G01 X55.752 Y98.764 
G01 X55.156 Y100.089 
G01 X54.555 Y101.481 
G01 X53.950 Y102.942 
G01 X53.344 Y104.473 
G01 X53.024 Y105.313 
G01 X52.663 Y106.325 
G01 X52.281 Y107.508 
G01 X51.897 Y108.861 
G01 X51.710 Y109.606 
G01 X51.529 Y110.391 
G01 X51.358 Y111.220 
G01 X51.199 Y112.093 
G01 X51.054 Y113.009 
G01 X50.924 Y113.968 
G01 X50.814 Y114.971 
G01 X50.725 Y116.015 
G01 X50.682 Y116.593 
G01 X50.620 Y117.781 
G01 X50.597 Y118.604 
G01 X50.585 Y119.575 
G01 X50.591 Y120.695 
G01 X50.621 Y121.963 
G01 X50.679 Y123.378 
G01 X50.771 Y124.938 
G01 X50.903 Y126.645 
G01 X51.080 Y128.496 
G01 X51.308 Y130.491 
G01 X51.592 Y132.629 
G01 X51.938 Y134.910 
G01 X52.351 Y137.332 
G01 X52.759 Y139.466 
G01 X53.124 Y141.232 
G01 X53.413 Y142.634 
G01 X53.516 Y143.193 
G01 X53.588 Y143.657 
G01 X53.711 Y144.819 
G01 X53.763 Y145.787 
G01 X53.767 Y146.558 
G01 X53.745 Y147.128 
G01 X53.715 Y147.494 
G01 X53.673 Y147.828 
G01 X53.556 Y148.435 
G01 X53.412 Y148.937 
G01 X53.258 Y149.342 
G01 X53.108 Y149.656 
G01 X52.981 Y149.878 
G01 X52.830 Y150.098 
G01 X52.517 Y150.525 
G01 X52.179 Y150.925 
G01 X51.811 Y151.304 
G01 X51.417 Y151.660 
G01 X51.000 Y151.993 
G01 X50.565 Y152.301 
G01 X50.113 Y152.581 
G01 X49.649 Y152.834 
G01 X49.266 Y153.017 
G01 X48.874 Y153.180 
G01 X48.472 Y153.326 
G01 X48.062 Y153.455 
G01 X47.644 Y153.568 
G01 X47.224 Y153.666 
G01 X46.353 Y153.825 
G01 X45.468 Y153.938 
G01 X44.574 Y154.015 
G01 X42.768 Y154.100 
G01 X40.874 Y154.159 
G01 X38.972 Y154.237 
G01 X38.017 Y154.292 
G01 X37.063 Y154.365 
G01 X36.109 Y154.458 
G01 X35.155 Y154.576 
G01 X34.196 Y154.723 
G01 X33.237 Y154.898 
G01 X32.278 Y155.103 
G01 X31.323 Y155.337 
G01 X30.373 Y155.600 
G01 X29.430 Y155.894 
G01 X28.496 Y156.217 
G01 X27.573 Y156.571 
G01 X26.664 Y156.956 
G01 X25.769 Y157.372 
G01 X24.891 Y157.819 
G01 X24.032 Y158.298 
G01 X23.194 Y158.808 
G01 X22.379 Y159.351 
G01 X21.589 Y159.927 
G01 X20.827 Y160.535 
G01 X20.242 Y161.043 
G01 X19.699 Y161.550 
G01 X19.197 Y162.057 
G01 X18.734 Y162.560 
G01 X18.307 Y163.058 
G01 X17.916 Y163.547 
G01 X17.559 Y164.027 
G01 X17.232 Y164.498 
G01 X16.675 Y165.384 
G01 X16.226 Y166.200 
G01 X15.873 Y166.923 
G01 X15.604 Y167.537 
G01 X15.389 Y168.076 
G01 X15.155 Y168.718 
G01 X14.906 Y169.465 
G01 X14.646 Y170.317 
G01 X14.379 Y171.275 
G01 X14.108 Y172.339 
G01 X13.838 Y173.510 
G01 X13.572 Y174.787 
G01 X13.394 Y175.729 
G01 X13.233 Y176.681 
G01 X13.096 Y177.640 
G01 X12.989 Y178.606 
G01 X12.919 Y179.576 
G01 X12.893 Y180.550 
G01 X12.918 Y181.521 
G01 X12.951 Y182.012 
G01 X13.001 Y182.500 
G01 X13.062 Y182.946 
G01 X13.139 Y183.378 
G01 X13.329 Y184.168 
G01 X13.561 Y184.883 
G01 X13.820 Y185.518 
G01 X14.094 Y186.074 
G01 X14.369 Y186.551 
G01 X14.631 Y186.949 
G01 X14.870 Y187.271 
G01 X15.161 Y187.622 
G01 X15.470 Y187.956 
G01 X15.796 Y188.273 
G01 X16.137 Y188.575 
G01 X16.491 Y188.860 
G01 X16.858 Y189.130 
G01 X17.235 Y189.385 
G01 X17.626 Y189.628 
G01 X18.419 Y190.066 
G01 X19.240 Y190.454 
G01 X20.074 Y190.794 
G01 X20.906 Y191.086 
G01 X21.191 Y191.180 
G01 X21.775 Y191.354 
G01 X22.658 Y191.584 
G01 X23.839 Y191.846 
G01 X24.547 Y191.982 
G01 X25.327 Y192.117 
G01 X26.184 Y192.247 
G01 X27.117 Y192.371 
G01 X28.126 Y192.484 
G01 X29.212 Y192.585 
G01 X30.375 Y192.669 
G01 X31.616 Y192.735 
G01 X32.500 Y192.758 
G01 X33.315 Y192.751 
G01 X34.060 Y192.721 
G01 X34.736 Y192.673 
G01 X35.860 Y192.547 
G01 X36.695 Y192.421 
G01 X37.867 Y192.215 
G01 X38.988 Y191.983 
G01 X40.057 Y191.728 
G01 X41.073 Y191.454 
G01 X42.039 Y191.162 
G01 X42.952 Y190.857 
G01 X43.815 Y190.541 
G01 X44.626 Y190.218 
G01 X45.386 Y189.890 
G01 X46.096 Y189.561 
G01 X46.755 Y189.234 
G01 X47.367 Y188.910 
G01 X48.432 Y188.294 
G01 X49.302 Y187.732 
G01 X50.121 Y187.145 
G01 X50.879 Y186.543 
G01 X51.577 Y185.932 
G01 X52.220 Y185.314 
G01 X52.808 Y184.695 
G01 X53.345 Y184.077 
G01 X53.832 Y183.466 
G01 X54.273 Y182.864 
G01 X54.670 Y182.275 
G01 X55.026 Y181.705 
G01 X55.342 Y181.156 
G01 X55.624 Y180.630 
G01 X56.083 Y179.680 
G01 X56.429 Y178.875 
G01 X56.713 Y178.148 
G01 X56.974 Y177.413 
G01 X57.437 Y175.940 
G01 X57.858 Y174.460 
G01 X58.268 Y172.988 
G01 X58.501 Y172.182 
G01 X58.757 Y171.389 
G01 X58.897 Y171.009 
G01 X59.050 Y170.635 
G01 X59.217 Y170.273 
G01 X59.401 Y169.922 
G01 X59.529 Y169.708 
G01 X59.702 Y169.454 
G01 X59.922 Y169.178 
G01 X60.193 Y168.896 
G01 X60.523 Y168.619 
G01 X60.701 Y168.496 
G01 X60.899 Y168.376 
G01 X61.112 Y168.266 
G01 X61.342 Y168.167 
G01 X61.588 Y168.081 
G01 X61.849 Y168.012 
G01 X62.270 Y167.941 
G01 X62.699 Y167.915 
G01 X63.137 Y167.930 
G01 X63.580 Y167.984 
G01 X64.021 Y168.075 
G01 X64.455 Y168.200 
G01 X64.877 Y168.356 
G01 X65.283 Y168.540 
G01 X65.611 Y168.714 
G01 X65.933 Y168.907 
G01 X66.247 Y169.117 
G01 X66.553 Y169.344 
G01 X66.850 Y169.587 
G01 X67.138 Y169.844 
G01 X67.416 Y170.114 
G01 X67.685 Y170.397 
G01 X67.942 Y170.691 
G01 X68.188 Y170.995 
G01 X68.423 Y171.309 
G01 X68.644 Y171.627 
G01 X69.054 Y172.294 
G01 X69.412 Y172.980 
G01 X69.584 Y173.360 
G01 X69.744 Y173.747 
G01 X70.027 Y174.549 
G01 X70.258 Y175.368 
G01 X70.440 Y176.205 
G01 X70.576 Y177.058 
G01 X70.668 Y177.924 
G01 X70.719 Y178.801 
G01 X70.732 Y179.687 
G01 X70.708 Y180.577 
G01 X70.650 Y181.471 
G01 X70.562 Y182.364 
G01 X70.445 Y183.255 
G01 X70.302 Y184.140 
G01 X70.137 Y185.017 
G01 X69.951 Y185.883 
G01 X69.748 Y186.735 
G01 X69.450 Y187.872 
G01 X69.125 Y189.002 
G01 X68.773 Y190.124 
G01 X68.396 Y191.240 
G01 X67.994 Y192.346 
G01 X67.569 Y193.444 
G01 X67.120 Y194.533 
G01 X66.650 Y195.612 
G01 X66.218 Y196.552 
G01 X65.761 Y197.485 
G01 X65.273 Y198.400 
G01 X64.748 Y199.291 
G01 X64.473 Y199.720 
G01 X64.186 Y200.140 
G01 X63.886 Y200.549 
G01 X63.575 Y200.944 
G01 X63.251 Y201.326 
G01 X62.913 Y201.693 
G01 X62.561 Y202.044 
G01 X62.196 Y202.376 
G01 X61.716 Y202.766 
G01 X61.212 Y203.126 
G01 X60.685 Y203.460 
G01 X60.138 Y203.768 
G01 X59.574 Y204.051 
G01 X58.997 Y204.310 
G01 X58.409 Y204.547 
G01 X57.815 Y204.762 
G01 X56.977 Y205.033 
G01 X56.129 Y205.279 
G01 X55.273 Y205.505 
G01 X54.410 Y205.713 
G01 X52.663 Y206.094 
G01 X50.906 Y206.453 
G01 X48.083 Y207.036 
G01 X45.262 Y207.652 
G01 X43.854 Y207.982 
G01 X42.449 Y208.329 
G01 X41.050 Y208.698 
G01 X39.656 Y209.091 
G01 X38.436 Y209.458 
G01 X37.222 Y209.845 
G01 X36.014 Y210.252 
G01 X34.811 Y210.679 
G01 X33.615 Y211.124 
G01 X32.426 Y211.587 
G01 X31.243 Y212.069 
G01 X30.068 Y212.569 
G01 X28.901 Y213.086 
G01 X27.741 Y213.621 
G01 X26.589 Y214.172 
G01 X25.446 Y214.740 
G01 X24.312 Y215.324 
G01 X23.187 Y215.924 
G01 X22.072 Y216.539 
G01 X20.967 Y217.170 
G01 X19.847 Y217.828 
G01 X18.777 Y218.476 
G01 X16.797 Y219.726 
G01 X15.018 Y220.915 
G01 X13.434 Y222.031 
G01 X12.043 Y223.064 
G01 X10.839 Y224.006 
G01 X9.816 Y224.846 
G01 X8.971 Y225.575 
G01 X8.276 Y226.205 
G01 X7.586 Y226.862 
G01 X6.908 Y227.545 
G01 X6.244 Y228.253 
G01 X5.601 Y228.986 
G01 X4.981 Y229.743 
G01 X4.389 Y230.522 
G01 X3.831 Y231.323 
G01 X3.311 Y232.146 
G01 X2.833 Y232.989 
G01 X2.402 Y233.852 
G01 X2.025 Y234.730 
G01 X1.856 Y235.182 
G01 X1.702 Y235.634 
G01 X1.564 Y236.091 
G01 X1.442 Y236.551 
G01 X1.337 Y237.016 
G01 X1.249 Y237.485 
G01 X1.179 Y237.957 
G01 X1.127 Y238.436 
G01 X1.091 Y239.070 
G01 X1.100 Y239.847 
G01 X1.131 Y240.290 
G01 X1.184 Y240.754 
G01 X1.263 Y241.242 
G01 X1.371 Y241.750 
G01 X1.514 Y242.273 
G01 X1.693 Y242.810 
G01 X1.913 Y243.355 
G01 X2.178 Y243.905 
G01 X2.492 Y244.457 
G01 X2.857 Y245.007 
G01 X3.278 Y245.550 
G01 X3.754 Y246.078 
G01 X4.017 Y246.341 
G01 X4.275 Y246.577 
G01 X4.609 Y246.856 
G01 X5.018 Y247.164 
G01 X5.498 Y247.485 
G01 X6.046 Y247.801 
G01 X6.655 Y248.093 
G01 X6.991 Y248.229 
G01 X7.337 Y248.352 
G01 X7.699 Y248.460 
G01 X8.074 Y248.553 
G01 X8.464 Y248.626 
G01 X8.867 Y248.680 
G01 X9.283 Y248.710 
G01 X9.711 Y248.715 
G01 X10.150 Y248.693 
G01 X10.600 Y248.641 
G01 X11.060 Y248.557 
G01 X11.528 Y248.440 
G01 X12.005 Y248.288 
G01 X12.488 Y248.098 
G01 X12.978 Y247.870 
G01 X13.476 Y247.599 
G01 X14.186 Y247.148 
G01 X14.861 Y246.649 
G01 X15.503 Y246.110 
G01 X16.115 Y245.540 
G01 X16.701 Y244.946 
G01 X17.265 Y244.334 
G01 X18.334 Y243.091 
G01 X19.612 Y241.529 
G01 X20.868 Y239.957 
G01 X22.122 Y238.392 
G01 X23.397 Y236.852 
G01 X24.308 Y235.796 
G01 X25.202 Y234.798 
G01 X26.075 Y233.855 
G01 X26.927 Y232.968 
G01 X27.756 Y232.134 
G01 X28.559 Y231.354 
G01 X29.336 Y230.624 
G01 X30.085 Y229.945 
G01 X30.804 Y229.316 
G01 X31.490 Y228.736 
G01 X32.766 Y227.711 
G01 X33.896 Y226.867 
G01 X34.868 Y226.193 
G01 X35.817 Y225.584 
G01 X36.748 Y225.031 
G01 X37.658 Y224.532 
G01 X38.545 Y224.084 
G01 X39.408 Y223.683 
G01 X40.244 Y223.328 
G01 X41.051 Y223.015 
G01 X41.828 Y222.742 
G01 X42.571 Y222.505 
G01 X43.280 Y222.303 
G01 X43.951 Y222.131 
G01 X44.580 Y221.989 
G01 X45.722 Y221.776 
G01 X46.678 Y221.643 
G01 X47.503 Y221.564 
G01 X48.277 Y221.521 
G01 X48.999 Y221.509 
G01 X49.671 Y221.525 
G01 X50.292 Y221.564 
G01 X50.861 Y221.622 
G01 X51.380 Y221.696 
G01 X51.843 Y221.780 
G01 X52.628 Y221.967 
G01 X53.204 Y222.148 
G01 X53.576 Y222.292 
G01 X53.744 Y222.367 
G01 X54.074 Y222.531 
G01 X54.367 Y222.699 
G01 X54.628 Y222.871 
G01 X54.859 Y223.045 
G01 X55.063 Y223.218 
G01 X55.236 Y223.384 
G01 X55.526 Y223.715 
G01 X55.728 Y224.002 
G01 X55.858 Y224.230 
G01 X55.968 Y224.481 
G01 X56.051 Y224.707 
G01 X56.117 Y224.937 
G01 X56.169 Y225.174 
G01 X56.204 Y225.411 
G01 X56.237 Y225.921 
G01 X56.217 Y226.440 
G01 X56.153 Y226.967 
G01 X56.048 Y227.495 
G01 X55.911 Y228.016 
G01 X55.749 Y228.522 
G01 X55.502 Y229.178 
G01 X55.228 Y229.825 
G01 X54.928 Y230.467 
G01 X54.610 Y231.101 
G01 X53.926 Y232.368 
G01 X53.217 Y233.629 
G01 X52.312 Y235.254 
G01 X51.431 Y236.897 
G01 X51.005 Y237.731 
G01 X50.593 Y238.571 
G01 X50.197 Y239.421 
G01 X49.819 Y240.280 
G01 X49.408 Y241.279 
G01 X49.023 Y242.288 
G01 X48.663 Y243.306 
G01 X48.325 Y244.331 
G01 X48.010 Y245.364 
G01 X47.715 Y246.404 
G01 X47.439 Y247.448 
G01 X47.182 Y248.498 
G01 X46.942 Y249.552 
G01 X46.717 Y250.610 
G01 X46.312 Y252.730 
G01 X45.954 Y254.855 
G01 X45.636 Y256.979 
G01 X45.350 Y259.060 
G01 X44.996 Y261.849 
G01 X44.590 Y265.348 
G01 X44.146 Y269.558 
G01 X44.008 Y270.971 
G01 X43.885 Y272.398 
G01 X43.795 Y273.837 
G01 X43.754 Y275.277 
G01 X43.758 Y276.002 
G01 X43.780 Y276.724 
G01 X43.822 Y277.444 
G01 X43.888 Y278.162 
G01 X43.979 Y278.878 
G01 X44.098 Y279.590 
G01 X44.246 Y280.299 
G01 X44.427 Y281.002 
G01 X44.666 Y281.775 
G01 X44.935 Y282.506 
G01 X45.230 Y283.193 
G01 X45.547 Y283.838 
G01 X45.881 Y284.442 
G01 X46.229 Y285.004 
G01 X46.587 Y285.526 
G01 X46.951 Y286.009 
G01 X47.318 Y286.453 
G01 X47.683 Y286.860 
G01 X48.042 Y287.229 
G01 X48.395 Y287.566 
G01 X49.049 Y288.125 
G01 X49.625 Y288.555 
G01 X50.318 Y289.003 
G01 X51.012 Y289.387 
G01 X51.702 Y289.709 
G01 X52.384 Y289.974 
G01 X53.056 Y290.187 
G01 X53.713 Y290.351 
G01 X54.353 Y290.472 
G01 X54.972 Y290.554 
G01 X55.566 Y290.601 
G01 X56.134 Y290.618 
G01 X56.670 Y290.609 
G01 X57.173 Y290.579 
G01 X57.640 Y290.531 
G01 X58.071 Y290.471 
G01 X58.788 Y290.333 
G01 X59.409 Y290.173 
G01 X59.994 Y289.987 
G01 X60.547 Y289.779 
G01 X61.067 Y289.551 
G01 X61.554 Y289.307 
G01 X62.010 Y289.050 
G01 X62.433 Y288.783 
G01 X62.826 Y288.509 
G01 X63.188 Y288.232 
G01 X63.523 Y287.951 
G01 X64.095 Y287.411 
G01 X64.556 Y286.902 
G01 X64.909 Y286.452 
G01 X65.232 Y285.972 
G01 X65.510 Y285.492 
G01 X65.744 Y285.013 
G01 X65.939 Y284.539 
G01 X66.096 Y284.072 
G01 X66.220 Y283.614 
G01 X66.313 Y283.169 
G01 X66.379 Y282.738 
G01 X66.420 Y282.323 
G01 X66.441 Y281.923 
G01 X66.433 Y281.204 
G01 X66.379 Y280.581 
G01 X66.306 Y280.078 
G01 X66.217 Y279.613 
G01 X66.110 Y279.150 
G01 X65.854 Y278.253 
G01 X65.545 Y277.371 
G01 X65.196 Y276.506 
G01 X64.818 Y275.657 
G01 X64.422 Y274.821 
G01 X63.618 Y273.182 
G01 X62.904 Y271.688 
G01 X62.565 Y270.938 
G01 X62.240 Y270.183 
G01 X61.935 Y269.423 
G01 X61.652 Y268.658 
G01 X61.397 Y267.886 
G01 X61.171 Y267.109 
G01 X60.941 Y266.162 
G01 X60.755 Y265.203 
G01 X60.607 Y264.234 
G01 X60.493 Y263.257 
G01 X60.410 Y262.273 
G01 X60.352 Y261.284 
G01 X60.316 Y260.293 
G01 X60.297 Y259.302 
G01 X60.288 Y257.912 
G01 X60.315 Y256.527 
G01 X60.352 Y255.844 
G01 X60.409 Y255.164 
G01 X60.489 Y254.490 
G01 X60.596 Y253.823 
G01 X60.732 Y253.175 
G01 X60.894 Y252.561 
G01 X61.077 Y251.980 
G01 X61.281 Y251.433 
G01 X61.501 Y250.917 
G01 X61.735 Y250.434 
G01 X61.979 Y249.984 
G01 X62.231 Y249.565 
G01 X62.488 Y249.179 
G01 X62.746 Y248.824 
G01 X63.003 Y248.501 
G01 X63.252 Y248.213 
G01 X63.733 Y247.722 
G01 X64.156 Y247.358 
G01 X64.441 Y247.150 
G01 X64.720 Y246.972 
G01 X64.988 Y246.823 
G01 X65.245 Y246.702 
G01 X65.489 Y246.605 
G01 X65.712 Y246.531 
G01 X66.134 Y246.432 
G01 X66.477 Y246.391 
G01 X66.736 Y246.385 
G01 X67.006 Y246.407 
G01 X67.291 Y246.450 
G01 X67.569 Y246.516 
G01 X67.844 Y246.604 
G01 X68.117 Y246.713 
G01 X68.387 Y246.843 
G01 X68.653 Y246.991 
G01 X68.916 Y247.157 
G01 X69.170 Y247.336 
G01 X69.675 Y247.743 
G01 X70.153 Y248.189 
G01 X70.603 Y248.664 
G01 X71.022 Y249.152 
G01 X71.502 Y249.760 
G01 X71.962 Y250.388 
G01 X72.403 Y251.033 
G01 X72.827 Y251.690 
G01 X73.645 Y253.043 
G01 X74.431 Y254.419 
G01 X75.836 Y256.930 
G01 X76.546 Y258.188 
G01 X77.272 Y259.441 
G01 X78.022 Y260.682 
G01 X78.803 Y261.906 
G01 X79.622 Y263.104 
G01 X80.050 Y263.695 
G01 X80.492 Y264.278 
G01 X81.301 Y265.277 
G01 X82.117 Y266.206 
G01 X82.937 Y267.065 
G01 X83.756 Y267.857 
G01 X84.570 Y268.584 
G01 X85.374 Y269.250 
G01 X86.165 Y269.857 
G01 X86.940 Y270.407 
G01 X87.692 Y270.904 
G01 X88.420 Y271.350 
G01 X89.119 Y271.748 
G01 X89.784 Y272.101 
G01 X90.412 Y272.411 
G01 X91.000 Y272.683 
G01 X92.030 Y273.115 
G01 X92.981 Y273.469 
G01 X93.953 Y273.785 
G01 X94.944 Y274.057 
G01 X95.949 Y274.279 
G01 X96.961 Y274.445 
G01 X97.476 Y274.505 
G01 X97.989 Y274.549 
G01 X98.503 Y274.575 
G01 X99.017 Y274.582 
G01 X99.531 Y274.571 
G01 X100.044 Y274.540 
G01 X100.509 Y274.493 
G01 X100.954 Y274.429 
G01 X101.378 Y274.351 
G01 X101.787 Y274.259 
G01 X102.529 Y274.045 
G01 X103.195 Y273.799 
G01 X103.779 Y273.536 
G01 X104.281 Y273.270 
G01 X104.702 Y273.014 
G01 X105.043 Y272.782 
G01 X105.460 Y272.465 
G01 X105.862 Y272.121 
G01 X106.247 Y271.754 
G01 X106.613 Y271.363 
G01 X106.959 Y270.953 
G01 X107.286 Y270.524 
G01 X107.591 Y270.078 
G01 X107.874 Y269.616 
G01 X108.133 Y269.141 
G01 X108.367 Y268.655 
G01 X108.576 Y268.158 
G01 X108.758 Y267.652 
G01 X108.911 Y267.140 
G01 X109.036 Y266.622 
G01 X109.129 Y266.101 
G01 X109.191 Y265.578 
G01 X109.217 Y265.078 
G01 X109.209 Y264.573 
G01 X109.167 Y264.067 
G01 X109.091 Y263.563 
G01 X108.978 Y263.065 
G01 X108.829 Y262.576 
G01 X108.641 Y262.102 
G01 X108.415 Y261.645 
G01 X108.113 Y261.156 
G01 X107.769 Y260.697 
G01 X107.389 Y260.268 
G01 X106.980 Y259.869 
G01 X106.547 Y259.499 
G01 X106.095 Y259.157 
G01 X105.629 Y258.842 
G01 X105.154 Y258.553 
G01 X104.456 Y258.173 
G01 X103.745 Y257.824 
G01 X103.025 Y257.503 
G01 X102.297 Y257.201 
G01 X100.843 Y256.640 
G01 X99.397 Y256.094 
G01 X98.094 Y255.570 
G01 X96.811 Y255.005 
G01 X96.186 Y254.704 
G01 X95.569 Y254.386 
G01 X94.963 Y254.051 
G01 X94.372 Y253.698 
G01 X93.583 Y253.179 
G01 X92.819 Y252.622 
G01 X92.079 Y252.028 
G01 X91.362 Y251.402 
G01 X90.668 Y250.746 
G01 X89.997 Y250.065 
G01 X89.349 Y249.363 
G01 X88.723 Y248.642 
G01 X88.091 Y247.873 
G01 X87.476 Y247.087 
G01 X86.878 Y246.285 
G01 X86.299 Y245.468 
G01 X85.739 Y244.637 
G01 X85.197 Y243.792 
G01 X84.676 Y242.934 
G01 X84.174 Y242.064 
G01 X83.693 Y241.183 
G01 X83.232 Y240.291 
G01 X82.793 Y239.388 
G01 X82.376 Y238.477 
G01 X81.981 Y237.557 
G01 X81.608 Y236.630 
G01 X81.259 Y235.695 
G01 X80.933 Y234.753 
G01 X80.669 Y233.935 
G01 X80.422 Y233.109 
G01 X80.191 Y232.276 
G01 X79.978 Y231.439 
G01 X79.782 Y230.596 
G01 X79.603 Y229.748 
G01 X79.443 Y228.897 
G01 X79.303 Y228.043 
G01 X79.181 Y227.187 
G01 X79.079 Y226.328 
G01 X78.997 Y225.468 
G01 X78.936 Y224.608 
G01 X78.895 Y223.748 
G01 X78.877 Y222.888 
G01 X78.880 Y222.030 
G01 X78.905 Y221.175 
G01 X78.981 Y219.963 
G01 X79.109 Y218.746 
G01 X79.194 Y218.144 
G01 X79.295 Y217.541 
G01 X79.411 Y216.943 
G01 X79.544 Y216.349 
G01 X79.694 Y215.761 
G01 X79.862 Y215.181 
G01 X80.048 Y214.608 
G01 X80.254 Y214.045 
G01 X80.480 Y213.493 
G01 X80.726 Y212.951 
G01 X80.994 Y212.423 
G01 X81.283 Y211.908 
G01 X81.615 Y211.380 
G01 X81.820 Y211.083 
G01 X82.056 Y210.765 
G01 X82.323 Y210.433 
G01 X82.621 Y210.093 
G01 X82.951 Y209.749 
G01 X83.314 Y209.406 
G01 X83.711 Y209.069 
G01 X84.144 Y208.742 
G01 X84.613 Y208.431 
G01 X85.119 Y208.139 
G01 X85.664 Y207.872 
G01 X86.249 Y207.634 
G01 X86.875 Y207.430 
G01 X87.545 Y207.264 
G01 X88.201 Y207.150 
G01 X88.868 Y207.079 
G01 X89.546 Y207.050 
G01 X90.230 Y207.061 
G01 X90.918 Y207.111 
G01 X91.608 Y207.200 
G01 X92.297 Y207.325 
G01 X92.981 Y207.486 
G01 X93.658 Y207.680 
G01 X94.326 Y207.908 
G01 X94.982 Y208.166 
G01 X95.622 Y208.455 
G01 X96.244 Y208.771 
G01 X96.846 Y209.114 
G01 X97.424 Y209.482 
G01 X97.976 Y209.873 
G01 X98.487 Y210.276 
G01 X98.956 Y210.685 
G01 X99.387 Y211.099 
G01 X99.780 Y211.516 
G01 X100.138 Y211.932 
G01 X100.463 Y212.345 
G01 X100.755 Y212.754 
G01 X101.017 Y213.155 
G01 X101.251 Y213.546 
G01 X101.456 Y213.922 
G01 X101.798 Y214.637 
G01 X102.052 Y215.270 
G01 X102.232 Y215.802 
G01 X102.416 Y216.455 
G01 X102.565 Y217.117 
G01 X102.683 Y217.788 
G01 X102.776 Y218.466 
G01 X102.845 Y219.153 
G01 X102.895 Y219.844 
G01 X102.956 Y221.252 
G01 X102.988 Y222.674 
G01 X103.025 Y224.106 
G01 X103.056 Y224.826 
G01 X103.100 Y225.547 
G01 X103.163 Y226.267 
G01 X103.249 Y226.987 
G01 X103.353 Y227.653 
G01 X103.485 Y228.318 
G01 X103.646 Y228.979 
G01 X103.835 Y229.634 
G01 X104.055 Y230.279 
G01 X104.305 Y230.914 
G01 X104.588 Y231.535 
G01 X104.902 Y232.137 
G01 X105.161 Y232.581 
G01 X105.437 Y233.013 
G01 X105.729 Y233.434 
G01 X106.037 Y233.845 
G01 X106.360 Y234.246 
G01 X106.696 Y234.635 
G01 X107.046 Y235.013 
G01 X107.407 Y235.380 
G01 X107.780 Y235.736 
G01 X108.166 Y236.082 
G01 X108.957 Y236.732 
G01 X109.783 Y237.335 
G01 X110.632 Y237.888 
G01 X111.387 Y238.329 
G01 X112.128 Y238.723 
G01 X112.855 Y239.073 
G01 X113.566 Y239.380 
G01 X114.258 Y239.647 
G01 X114.931 Y239.877 
G01 X115.581 Y240.072 
G01 X116.208 Y240.234 
G01 X116.808 Y240.366 
G01 X117.381 Y240.470 
G01 X117.924 Y240.549 
G01 X118.436 Y240.604 
G01 X118.915 Y240.638 
G01 X119.363 Y240.655 
G01 X120.132 Y240.641 
G01 X120.746 Y240.585 
G01 X121.315 Y240.496 
G01 X121.841 Y240.376 
G01 X122.325 Y240.232 
G01 X122.768 Y240.068 
G01 X123.170 Y239.888 
G01 X123.531 Y239.699 
G01 X123.859 Y239.501 
G01 X124.383 Y239.122 
G01 X124.767 Y238.779 
G01 X125.012 Y238.519 
G01 X125.124 Y238.385 
G01 X125.337 Y238.119 
G01 X125.540 Y237.833 
G01 X125.726 Y237.537 
G01 X125.899 Y237.227 
G01 X126.191 Y236.600 
G01 X126.430 Y235.944 
G01 X126.617 Y235.272 
G01 X126.757 Y234.592 
G01 X126.855 Y233.912 
G01 X126.912 Y233.246 
G01 X126.929 Y232.981 
G01 X126.944 Y232.444 
G01 X126.930 Y231.643 
G01 X126.859 Y230.591 
G01 X126.793 Y229.967 
G01 X126.703 Y229.285 
G01 X126.586 Y228.544 
G01 X126.437 Y227.743 
G01 X126.253 Y226.884 
G01 X126.031 Y225.968 
G01 X125.768 Y224.995 
G01 X125.460 Y223.966 
G01 X124.941 Y222.412 
G01 X124.366 Y220.872 
G01 X123.736 Y219.352 
G01 X123.052 Y217.855 
G01 X122.315 Y216.382 
G01 X121.526 Y214.939 
G01 X120.687 Y213.528 
G01 X120.247 Y212.832 
G01 X119.795 Y212.146 
G01 X119.099 Y211.145 
G01 X118.399 Y210.203 
G01 X117.701 Y209.321 
G01 X117.007 Y208.495 
G01 X116.319 Y207.725 
G01 X115.641 Y207.009 
G01 X114.975 Y206.345 
G01 X114.325 Y205.731 
G01 X113.694 Y205.166 
G01 X113.083 Y204.648 
G01 X112.497 Y204.176 
G01 X111.936 Y203.745 
G01 X110.913 Y203.012 
G01 X110.032 Y202.431 
G01 X109.023 Y201.817 
G01 X107.992 Y201.242 
G01 X106.944 Y200.701 
G01 X105.880 Y200.192 
G01 X104.805 Y199.711 
G01 X103.721 Y199.255 
G01 X102.631 Y198.819 
G01 X101.537 Y198.401 
G01 X99.695 Y197.726 
G01 X97.861 Y197.050 
G01 X96.955 Y196.700 
G01 X96.059 Y196.335 
G01 X95.174 Y195.950 
G01 X94.303 Y195.539 
G01 X93.760 Y195.263 
G01 X93.222 Y194.971 
G01 X92.697 Y194.661 
G01 X92.190 Y194.331 
G01 X91.707 Y193.979 
G01 X91.254 Y193.602 
G01 X90.834 Y193.199 
G01 X90.450 Y192.764 
G01 X90.247 Y192.494 
G01 X90.075 Y192.231 
G01 X89.933 Y191.976 
G01 X89.818 Y191.732 
G01 X89.727 Y191.500 
G01 X89.660 Y191.287 
G01 X89.573 Y190.883 
G01 X89.542 Y190.552 
G01 X89.545 Y190.303 
G01 X89.576 Y190.046 
G01 X89.625 Y189.811 
G01 X89.691 Y189.594 
G01 X89.770 Y189.392 
G01 X89.863 Y189.204 
G01 X89.966 Y189.030 
G01 X90.074 Y188.875 
G01 X90.326 Y188.583 
G01 X90.586 Y188.347 
G01 X90.843 Y188.159 
G01 X91.078 Y188.017 
G01 X91.271 Y187.922 
G01 X91.471 Y187.841 
G01 X91.672 Y187.774 
G01 X92.113 Y187.671 
G01 X92.568 Y187.615 
G01 X93.039 Y187.600 
G01 X93.519 Y187.622 
G01 X94.004 Y187.676 
G01 X94.488 Y187.758 
G01 X94.962 Y187.861 
G01 X95.573 Y188.019 
G01 X96.177 Y188.197 
G01 X97.391 Y188.606 
G01 X98.598 Y189.058 
G01 X99.809 Y189.524 
G01 X100.872 Y189.929 
G01 X102.142 Y190.399 
G01 X103.624 Y190.916 
G01 X105.316 Y191.461 
G01 X106.245 Y191.740 
G01 X107.227 Y192.018 
G01 X108.263 Y192.295 
G01 X109.354 Y192.568 
G01 X110.500 Y192.834 
G01 X111.702 Y193.092 
G01 X112.960 Y193.340 
G01 X114.274 Y193.574 
G01 X116.053 Y193.854 
G01 X118.168 Y194.142 
G01 X120.618 Y194.429 
G01 X123.402 Y194.706 
G01 X126.521 Y194.963 
G01 X129.973 Y195.193 
G01 X131.826 Y195.294 
G01 X133.761 Y195.385 
G01 X135.779 Y195.464 
G01 X137.878 Y195.531 
G01 X138.467 Y195.552 
G01 X139.873 Y195.584 
G01 X142.090 Y195.592 
G01 X143.505 Y195.577 
G01 X145.121 Y195.543 
G01 X148.924 Y195.419 
G01 X152.419 Y195.256 
G01 X155.607 Y195.063 
G01 X158.486 Y194.847 
G01 X161.057 Y194.618 
G01 X163.320 Y194.383 
G01 X165.275 Y194.150 
G01 X166.922 Y193.927 
G01 X169.164 Y193.575 
G01 X171.218 Y193.197 
G01 X173.084 Y192.804 
G01 X174.763 Y192.406 
G01 X176.256 Y192.015 
G01 X177.565 Y191.641 
G01 X178.690 Y191.294 
G01 X179.634 Y190.984 
G01 X181.251 Y190.416 
G01 X182.852 Y189.818 
G01 X184.445 Y189.214 
G01 X186.036 Y188.626 
G01 X187.103 Y188.255 
G01 X187.635 Y188.086 
G01 X188.169 Y187.935 
G01 X188.703 Y187.805 
G01 X189.235 Y187.703 
G01 X189.767 Y187.632 
G01 X190.299 Y187.597 
G01 X190.643 Y187.597 
G01 X190.962 Y187.618 
G01 X191.255 Y187.657 
G01 X191.524 Y187.709 
G01 X191.769 Y187.774 
G01 X191.984 Y187.845 
G01 X192.367 Y188.011 
G01 X192.657 Y188.177 
G01 X192.860 Y188.322 
G01 X193.054 Y188.495 
G01 X193.189 Y188.635 
G01 X193.345 Y188.826 
G01 X193.506 Y189.064 
G01 X193.658 Y189.346 
G01 X193.789 Y189.675 
G01 X193.837 Y189.842 
G01 X193.877 Y190.026 
G01 X193.904 Y190.219 
G01 X193.918 Y190.421 
G01 X193.916 Y190.632 
G01 X193.896 Y190.854 
G01 X193.862 Y191.058 
G01 X193.812 Y191.262 
G01 X193.748 Y191.465 
G01 X193.673 Y191.660 
G01 X193.474 Y192.064 
G01 X193.232 Y192.451 
G01 X192.950 Y192.824 
G01 X192.636 Y193.178 
G01 X192.299 Y193.509 
G01 X191.948 Y193.814 
G01 X191.422 Y194.216 
G01 X190.872 Y194.590 
G01 X190.301 Y194.939 
G01 X189.710 Y195.265 
G01 X189.103 Y195.571 
G01 X188.487 Y195.860 
G01 X187.226 Y196.403 
G01 X185.211 Y197.194 
G01 X183.173 Y197.948 
G01 X181.128 Y198.708 
G01 X180.106 Y199.104 
G01 X179.088 Y199.519 
G01 X177.982 Y200.000 
G01 X176.887 Y200.514 
G01 X175.806 Y201.063 
G01 X174.743 Y201.647 
G01 X173.700 Y202.268 
G01 X172.680 Y202.926 
G01 X171.687 Y203.623 
G01 X170.725 Y204.359 
G01 X169.898 Y205.045 
G01 X169.096 Y205.759 
G01 X168.318 Y206.502 
G01 X167.563 Y207.270 
G01 X166.833 Y208.064 
G01 X166.126 Y208.880 
G01 X165.443 Y209.718 
G01 X164.784 Y210.575 
G01 X164.149 Y211.451 
G01 X163.537 Y212.344 
G01 X162.950 Y213.252 
G01 X162.386 Y214.173 
G01 X161.845 Y215.106 
G01 X161.329 Y216.049 
G01 X160.836 Y217.002 
G01 X160.367 Y217.961 
G01 X159.895 Y218.982 
G01 X159.464 Y219.972 
G01 X159.071 Y220.932 
G01 X158.715 Y221.859 
G01 X158.393 Y222.753 
G01 X158.105 Y223.613 
G01 X157.847 Y224.437 
G01 X157.619 Y225.228 
G01 X157.246 Y226.688 
G01 X156.969 Y227.993 
G01 X156.774 Y229.132 
G01 X156.648 Y230.097 
G01 X156.571 Y230.905 
G01 X156.525 Y231.726 
G01 X156.515 Y232.554 
G01 X156.548 Y233.385 
G01 X156.632 Y234.209 
G01 X156.697 Y234.625 
G01 X156.777 Y235.034 
G01 X156.873 Y235.439 
G01 X156.987 Y235.841 
G01 X157.120 Y236.237 
G01 X157.271 Y236.625 
G01 X157.394 Y236.908 
G01 X157.559 Y237.245 
G01 X157.775 Y237.625 
G01 X158.050 Y238.034 
G01 X158.390 Y238.458 
G01 X158.800 Y238.879 
G01 X159.042 Y239.092 
G01 X159.301 Y239.295 
G01 X159.581 Y239.492 
G01 X159.885 Y239.681 
G01 X160.294 Y239.899 
G01 X160.718 Y240.086 
G01 X161.153 Y240.244 
G01 X161.597 Y240.374 
G01 X162.049 Y240.477 
G01 X162.507 Y240.555 
G01 X162.970 Y240.609 
G01 X163.435 Y240.641 
G01 X163.901 Y240.653 
G01 X164.367 Y240.646 
G01 X164.832 Y240.620 
G01 X165.298 Y240.578 
G01 X166.203 Y240.451 
G01 X167.083 Y240.273 
G01 X168.074 Y240.013 
G01 X169.052 Y239.697 
G01 X170.014 Y239.329 
G01 X170.957 Y238.910 
G01 X171.876 Y238.442 
G01 X172.768 Y237.928 
G01 X173.631 Y237.370 
G01 X174.457 Y236.770 
G01 X175.072 Y236.282 
G01 X175.786 Y235.654 
G01 X176.175 Y235.278 
G01 X176.572 Y234.866 
G01 X176.974 Y234.413 
G01 X177.377 Y233.917 
G01 X177.775 Y233.379 
G01 X178.163 Y232.797 
G01 X178.535 Y232.169 
G01 X178.886 Y231.495 
G01 X179.212 Y230.773 
G01 X179.506 Y230.003 
G01 X179.763 Y229.184 
G01 X179.979 Y228.318 
G01 X180.117 Y227.597 
G01 X180.224 Y226.876 
G01 X180.304 Y226.155 
G01 X180.363 Y225.431 
G01 X180.431 Y223.993 
G01 X180.464 Y222.558 
G01 X180.497 Y221.136 
G01 X180.563 Y219.726 
G01 X180.617 Y219.033 
G01 X180.693 Y218.344 
G01 X180.792 Y217.661 
G01 X180.920 Y216.985 
G01 X181.043 Y216.462 
G01 X181.180 Y215.965 
G01 X181.332 Y215.494 
G01 X181.494 Y215.049 
G01 X181.666 Y214.630 
G01 X181.844 Y214.240 
G01 X182.219 Y213.521 
G01 X182.597 Y212.902 
G01 X182.965 Y212.374 
G01 X183.308 Y211.937 
G01 X183.608 Y211.588 
G01 X184.127 Y211.042 
G01 X184.685 Y210.525 
G01 X185.279 Y210.036 
G01 X185.907 Y209.578 
G01 X186.565 Y209.152 
G01 X187.248 Y208.759 
G01 X187.955 Y208.403 
G01 X188.681 Y208.084 
G01 X189.422 Y207.805 
G01 X190.174 Y207.567 
G01 X190.935 Y207.371 
G01 X191.700 Y207.220 
G01 X192.466 Y207.115 
G01 X193.228 Y207.057 
G01 X193.984 Y207.048 
G01 X194.733 Y207.089 
G01 X195.243 Y207.148 
G01 X195.731 Y207.229 
G01 X196.195 Y207.329 
G01 X196.634 Y207.447 
G01 X197.049 Y207.579 
G01 X197.440 Y207.724 
G01 X197.807 Y207.879 
G01 X198.147 Y208.039 
G01 X198.769 Y208.380 
G01 X199.294 Y208.719 
G01 X199.728 Y209.042 
G01 X200.070 Y209.327 
G01 X200.388 Y209.620 
G01 X200.693 Y209.929 
G01 X200.985 Y210.253 
G01 X201.264 Y210.591 
G01 X201.531 Y210.942 
G01 X201.786 Y211.306 
G01 X202.027 Y211.680 
G01 X202.254 Y212.060 
G01 X202.678 Y212.858 
G01 X203.049 Y213.679 
G01 X203.372 Y214.518 
G01 X203.647 Y215.366 
G01 X203.885 Y216.258 
G01 X204.002 Y216.772 
G01 X204.115 Y217.335 
G01 X204.222 Y217.944 
G01 X204.319 Y218.599 
G01 X204.405 Y219.300 
G01 X204.476 Y220.044 
G01 X204.531 Y220.832 
G01 X204.566 Y221.664 
G01 X204.579 Y222.538 
G01 X204.567 Y223.454 
G01 X204.528 Y224.411 
G01 X204.460 Y225.409 
G01 X204.360 Y226.448 
G01 X204.225 Y227.526 
G01 X204.069 Y228.543 
G01 X203.886 Y229.559 
G01 X203.676 Y230.571 
G01 X203.440 Y231.579 
G01 X203.178 Y232.583 
G01 X202.891 Y233.580 
G01 X202.578 Y234.571 
G01 X202.241 Y235.555 
G01 X201.880 Y236.530 
G01 X201.495 Y237.495 
G01 X201.087 Y238.451 
G01 X200.656 Y239.395 
G01 X200.202 Y240.327 
G01 X199.727 Y241.247 
G01 X199.230 Y242.152 
G01 X198.712 Y243.043 
G01 X198.160 Y243.944 
G01 X197.587 Y244.833 
G01 X196.992 Y245.708 
G01 X196.377 Y246.567 
G01 X195.739 Y247.410 
G01 X195.080 Y248.235 
G01 X194.399 Y249.039 
G01 X193.697 Y249.821 
G01 X192.872 Y250.672 
G01 X192.081 Y251.419 
G01 X191.331 Y252.069 
G01 X190.629 Y252.629 
G01 X189.981 Y253.104 
G01 X189.398 Y253.499 
G01 X188.433 Y254.089 
G01 X187.639 Y254.520 
G01 X186.825 Y254.920 
G01 X185.994 Y255.296 
G01 X185.150 Y255.652 
G01 X183.429 Y256.330 
G01 X181.694 Y256.998 
G01 X180.402 Y257.521 
G01 X179.752 Y257.807 
G01 X179.110 Y258.114 
G01 X178.479 Y258.448 
G01 X177.864 Y258.815 
G01 X177.269 Y259.219 
G01 X176.699 Y259.666 
G01 X176.196 Y260.132 
G01 X175.769 Y260.604 
G01 X175.414 Y261.071 
G01 X175.125 Y261.522 
G01 X174.895 Y261.949 
G01 X174.718 Y262.342 
G01 X174.586 Y262.693 
G01 X174.492 Y262.993 
G01 X174.395 Y263.387 
G01 X174.323 Y263.788 
G01 X174.275 Y264.192 
G01 X174.250 Y264.599 
G01 X174.247 Y265.008 
G01 X174.265 Y265.417 
G01 X174.303 Y265.825 
G01 X174.360 Y266.231 
G01 X174.435 Y266.634 
G01 X174.527 Y267.034 
G01 X174.636 Y267.428 
G01 X174.760 Y267.817 
G01 X174.899 Y268.198 
G01 X175.054 Y268.576 
G01 X175.395 Y269.287 
G01 X175.692 Y269.811 
G01 X176.003 Y270.296 
G01 X176.327 Y270.744 
G01 X176.661 Y271.158 
G01 X177.003 Y271.538 
G01 X177.348 Y271.886 
G01 X177.695 Y272.202 
G01 X178.040 Y272.489 
G01 X178.381 Y272.746 
G01 X178.719 Y272.980 
G01 X179.349 Y273.362 
G01 X179.922 Y273.654 
G01 X180.410 Y273.864 
G01 X180.838 Y274.020 
G01 X181.271 Y274.154 
G01 X181.709 Y274.268 
G01 X182.153 Y274.363 
G01 X182.600 Y274.439 
G01 X183.051 Y274.498 
G01 X183.503 Y274.539 
G01 X183.961 Y274.564 
G01 X184.865 Y274.568 
G01 X185.770 Y274.516 
G01 X186.663 Y274.413 
G01 X187.539 Y274.266 
G01 X188.405 Y274.079 
G01 X189.264 Y273.855 
G01 X190.115 Y273.596 
G01 X190.957 Y273.304 
G01 X191.789 Y272.979 
G01 X192.610 Y272.623 
G01 X193.418 Y272.237 
G01 X194.214 Y271.822 
G01 X194.995 Y271.380 
G01 X195.760 Y270.912 
G01 X196.508 Y270.420 
G01 X197.239 Y269.903 
G01 X197.951 Y269.365 
G01 X198.642 Y268.805 
G01 X199.312 Y268.226 
G01 X199.961 Y267.627 
G01 X200.852 Y266.735 
G01 X201.703 Y265.803 
G01 X202.515 Y264.836 
G01 X203.290 Y263.840 
G01 X204.031 Y262.819 
G01 X204.740 Y261.777 
G01 X205.419 Y260.720 
G01 X206.072 Y259.649 
G01 X207.295 Y257.519 
G01 X208.482 Y255.377 
G01 X209.078 Y254.313 
G01 X209.684 Y253.260 
G01 X210.307 Y252.221 
G01 X210.954 Y251.200 
G01 X211.627 Y250.208 
G01 X211.977 Y249.728 
G01 X212.340 Y249.261 
G01 X212.718 Y248.810 
G01 X213.112 Y248.380 
G01 X213.524 Y247.973 
G01 X213.956 Y247.592 
G01 X214.262 Y247.354 
G01 X214.586 Y247.131 
G01 X214.922 Y246.929 
G01 X215.269 Y246.754 
G01 X215.623 Y246.609 
G01 X215.979 Y246.498 
G01 X216.336 Y246.424 
G01 X216.699 Y246.391 
G01 X216.965 Y246.390 
G01 X217.225 Y246.416 
G01 X217.569 Y246.483 
G01 X217.989 Y246.613 
G01 X218.213 Y246.703 
G01 X218.455 Y246.817 
G01 X218.710 Y246.956 
G01 X218.976 Y247.122 
G01 X219.251 Y247.318 
G01 X219.535 Y247.547 
G01 X219.871 Y247.853 
G01 X220.191 Y248.179 
G01 X220.495 Y248.525 
G01 X220.782 Y248.889 
G01 X221.053 Y249.270 
G01 X221.307 Y249.666 
G01 X221.545 Y250.076 
G01 X221.766 Y250.498 
G01 X221.969 Y250.931 
G01 X222.156 Y251.373 
G01 X222.325 Y251.821 
G01 X222.478 Y252.276 
G01 X222.613 Y252.734 
G01 X222.730 Y253.195 
G01 X222.831 Y253.656 
G01 X222.914 Y254.116 
G01 X222.988 Y254.645 
G01 X223.054 Y255.283 
G01 X223.108 Y256.027 
G01 X223.149 Y256.877 
G01 X223.172 Y257.831 
G01 X223.174 Y258.889 
G01 X223.154 Y260.049 
G01 X223.109 Y261.311 
G01 X223.062 Y262.144 
G01 X222.995 Y262.976 
G01 X222.907 Y263.806 
G01 X222.795 Y264.631 
G01 X222.657 Y265.451 
G01 X222.492 Y266.263 
G01 X222.298 Y267.067 
G01 X222.073 Y267.859 
G01 X221.783 Y268.735 
G01 X221.458 Y269.600 
G01 X221.104 Y270.458 
G01 X220.726 Y271.310 
G01 X219.920 Y273.012 
G01 X219.094 Y274.711 
G01 X218.715 Y275.510 
G01 X218.347 Y276.328 
G01 X218.000 Y277.164 
G01 X217.686 Y278.018 
G01 X217.420 Y278.884 
G01 X217.306 Y279.329 
G01 X217.209 Y279.775 
G01 X217.129 Y280.225 
G01 X217.068 Y280.678 
G01 X217.029 Y281.135 
G01 X217.011 Y281.597 
G01 X217.024 Y282.171 
G01 X217.074 Y282.722 
G01 X217.158 Y283.246 
G01 X217.271 Y283.744 
G01 X217.410 Y284.215 
G01 X217.571 Y284.659 
G01 X217.750 Y285.076 
G01 X217.943 Y285.466 
G01 X218.147 Y285.828 
G01 X218.359 Y286.166 
G01 X218.779 Y286.747 
G01 X219.182 Y287.224 
G01 X219.539 Y287.594 
G01 X220.031 Y288.040 
G01 X220.337 Y288.287 
G01 X220.675 Y288.540 
G01 X221.050 Y288.797 
G01 X221.460 Y289.053 
G01 X221.905 Y289.304 
G01 X222.386 Y289.546 
G01 X222.902 Y289.774 
G01 X223.452 Y289.985 
G01 X224.037 Y290.173 
G01 X224.656 Y290.334 
G01 X225.309 Y290.464 
G01 X225.994 Y290.559 
G01 X226.711 Y290.614 
G01 X227.461 Y290.624 
G01 X228.206 Y290.586 
G01 X228.950 Y290.497 
G01 X229.690 Y290.360 
G01 X230.420 Y290.175 
G01 X231.137 Y289.945 
G01 X231.837 Y289.669 
G01 X232.515 Y289.349 
G01 X233.167 Y288.988 
G01 X233.748 Y288.613 
G01 X234.413 Y288.119 
G01 X234.775 Y287.820 
G01 X235.145 Y287.490 
G01 X235.523 Y287.124 
G01 X235.906 Y286.723 
G01 X236.289 Y286.284 
G01 X236.669 Y285.808 
G01 X237.043 Y285.292 
G01 X237.406 Y284.736 
G01 X237.755 Y284.139 
G01 X238.087 Y283.499 
G01 X238.398 Y282.817 
G01 X238.684 Y282.089 
G01 X238.971 Y281.213 
G01 X239.204 Y280.319 
G01 X239.386 Y279.414 
G01 X239.523 Y278.501 
G01 X239.618 Y277.584 
G01 X239.675 Y276.665 
G01 X239.698 Y275.749 
G01 X239.691 Y274.838 
G01 X239.656 Y273.913 
G01 X239.590 Y272.823 
G01 X239.493 Y271.568 
G01 X239.366 Y270.146 
G01 X239.025 Y266.806 
G01 X238.568 Y262.799 
G01 X238.081 Y258.828 
G01 X237.810 Y256.840 
G01 X237.513 Y254.855 
G01 X237.182 Y252.876 
G01 X236.809 Y250.902 
G01 X236.387 Y248.940 
G01 X236.154 Y247.961 
G01 X235.907 Y246.985 
G01 X235.608 Y245.891 
G01 X235.298 Y244.846 
G01 X234.979 Y243.850 
G01 X234.654 Y242.903 
G01 X234.326 Y242.004 
G01 X233.994 Y241.151 
G01 X233.338 Y239.591 
G01 X232.701 Y238.214 
G01 X232.101 Y237.015 
G01 X231.095 Y235.148 
G01 X230.343 Y233.812 
G01 X229.595 Y232.485 
G01 X228.879 Y231.150 
G01 X228.544 Y230.480 
G01 X228.226 Y229.801 
G01 X227.981 Y229.233 
G01 X227.754 Y228.652 
G01 X227.556 Y228.063 
G01 X227.395 Y227.471 
G01 X227.279 Y226.876 
G01 X227.242 Y226.589 
G01 X227.219 Y226.298 
G01 X227.211 Y226.011 
G01 X227.219 Y225.727 
G01 X227.245 Y225.447 
G01 X227.288 Y225.171 
G01 X227.351 Y224.900 
G01 X227.429 Y224.648 
G01 X227.523 Y224.414 
G01 X227.628 Y224.196 
G01 X227.745 Y223.993 
G01 X227.866 Y223.811 
G01 X228.141 Y223.471 
G01 X228.423 Y223.191 
G01 X228.695 Y222.967 
G01 X229.186 Y222.641 
G01 X229.291 Y222.580 
G01 X229.538 Y222.451 
G01 X229.926 Y222.278 
G01 X230.459 Y222.083 
G01 X231.144 Y221.884 
G01 X231.537 Y221.794 
G01 X231.972 Y221.710 
G01 X232.445 Y221.637 
G01 X232.958 Y221.577 
G01 X233.509 Y221.534 
G01 X234.099 Y221.510 
G01 X235.020 Y221.513 
G01 X235.941 Y221.559 
G01 X236.863 Y221.648 
G01 X237.784 Y221.778 
G01 X238.703 Y221.947 
G01 X239.618 Y222.154 
G01 X240.527 Y222.397 
G01 X241.429 Y222.674 
G01 X242.323 Y222.985 
G01 X243.207 Y223.326 
G01 X244.079 Y223.697 
G01 X244.937 Y224.097 
G01 X245.780 Y224.522 
G01 X246.607 Y224.972 
G01 X247.415 Y225.444 
G01 X248.204 Y225.938 
G01 X249.049 Y226.505 
G01 X250.033 Y227.212 
G01 X251.148 Y228.068 
G01 X252.383 Y229.081 
G01 X253.040 Y229.646 
G01 X253.724 Y230.255 
G01 X254.434 Y230.907 
G01 X255.166 Y231.603 
G01 X255.921 Y232.344 
G01 X256.697 Y233.131 
G01 X257.492 Y233.966 
G01 X258.306 Y234.848 
G01 X259.046 Y235.677 
G01 X259.772 Y236.517 
G01 X261.200 Y238.230 
G01 X262.605 Y239.968 
G01 X264.004 Y241.716 
G01 X265.008 Y242.956 
G01 X265.524 Y243.573 
G01 X266.054 Y244.182 
G01 X266.599 Y244.778 
G01 X267.165 Y245.359 
G01 X267.754 Y245.920 
G01 X268.369 Y246.456 
G01 X268.837 Y246.827 
G01 X269.293 Y247.154 
G01 X269.733 Y247.441 
G01 X270.157 Y247.689 
G01 X270.562 Y247.901 
G01 X270.951 Y248.083 
G01 X271.642 Y248.352 
G01 X272.231 Y248.524 
G01 X272.697 Y248.622 
G01 X273.019 Y248.666 
G01 X273.178 Y248.680 
G01 X273.576 Y248.707 
G01 X274.068 Y248.707 
G01 X274.633 Y248.665 
G01 X275.256 Y248.569 
G01 X275.596 Y248.494 
G01 X275.942 Y248.401 
G01 X276.299 Y248.288 
G01 X276.665 Y248.151 
G01 X277.038 Y247.990 
G01 X277.418 Y247.804 
G01 X277.802 Y247.589 
G01 X278.192 Y247.344 
G01 X278.769 Y246.928 
G01 X279.293 Y246.487 
G01 X279.764 Y246.028 
G01 X280.186 Y245.555 
G01 X280.559 Y245.073 
G01 X280.888 Y244.586 
G01 X281.174 Y244.099 
G01 X281.421 Y243.616 
G01 X281.631 Y243.142 
G01 X281.808 Y242.681 
G01 X281.954 Y242.237 
G01 X282.073 Y241.809 
G01 X282.236 Y241.048 
G01 X282.323 Y240.417 
G01 X282.357 Y239.991 
G01 X282.371 Y239.567 
G01 X282.369 Y239.143 
G01 X282.349 Y238.714 
G01 X282.263 Y237.874 
G01 X282.117 Y237.036 
G01 X281.917 Y236.210 
G01 X281.668 Y235.400 
G01 X281.376 Y234.609 
G01 X281.044 Y233.843 
G01 X280.591 Y232.933 
G01 X280.091 Y232.050 
G01 X279.548 Y231.193 
G01 X278.966 Y230.361 
G01 X278.347 Y229.555 
G01 X277.696 Y228.772 
G01 X277.014 Y228.012 
G01 X276.306 Y227.274 
G01 X275.574 Y226.557 
G01 X274.822 Y225.861 
G01 X274.053 Y225.184 
G01 X273.270 Y224.526 
G01 X272.476 Y223.886 
G01 X271.673 Y223.262 
G01 X270.061 Y222.064 
G01 X268.354 Y220.861 
G01 X266.618 Y219.697 
G01 X264.855 Y218.575 
G01 X263.065 Y217.493 
G01 X261.250 Y216.454 
G01 X259.413 Y215.457 
G01 X257.553 Y214.503 
G01 X255.674 Y213.593 
G01 X253.862 Y212.767 
G01 X252.029 Y211.987 
G01 X250.176 Y211.250 
G01 X248.305 Y210.558 
G01 X246.419 Y209.911 
G01 X244.518 Y209.309 
G01 X242.605 Y208.752 
G01 X240.682 Y208.241 
G01 X239.410 Y207.929 
G01 X238.136 Y207.634 
G01 X235.588 Y207.083 
G01 X233.037 Y206.557 
G01 X230.494 Y206.026 
G01 X228.873 Y205.667 
G01 X228.070 Y205.475 
G01 X227.273 Y205.266 
G01 X226.486 Y205.039 
G01 X225.710 Y204.788 
G01 X224.947 Y204.510 
G01 X224.199 Y204.201 
G01 X223.460 Y203.855 
G01 X223.015 Y203.618 
G01 X222.525 Y203.323 
G01 X222.000 Y202.966 
G01 X221.449 Y202.536 
G01 X220.877 Y202.024 
G01 X220.591 Y201.739 
G01 X220.303 Y201.431 
G01 X219.761 Y200.790 
G01 X219.258 Y200.117 
G01 X218.789 Y199.415 
G01 X218.348 Y198.686 
G01 X217.934 Y197.937 
G01 X217.542 Y197.174 
G01 X216.809 Y195.610 
G01 X216.366 Y194.597 
G01 X215.943 Y193.573 
G01 X215.540 Y192.541 
G01 X215.158 Y191.500 
G01 X214.797 Y190.453 
G01 X214.458 Y189.398 
G01 X214.142 Y188.337 
G01 X213.849 Y187.272 
G01 X213.530 Y185.985 
G01 X213.252 Y184.683 
G01 X213.023 Y183.370 
G01 X212.930 Y182.714 
G01 X212.852 Y182.056 
G01 X212.791 Y181.398 
G01 X212.747 Y180.740 
G01 X212.722 Y180.083 
G01 X212.716 Y179.427 
G01 X212.731 Y178.774 
G01 X212.768 Y178.124 
G01 X212.827 Y177.477 
G01 X212.910 Y176.833 
G01 X212.999 Y176.292 
G01 X213.104 Y175.773 
G01 X213.223 Y175.277 
G01 X213.354 Y174.804 
G01 X213.498 Y174.352 
G01 X213.651 Y173.921 
G01 X213.814 Y173.511 
G01 X213.983 Y173.125 
G01 X214.347 Y172.402 
G01 X214.728 Y171.758 
G01 X215.120 Y171.188 
G01 X215.513 Y170.688 
G01 X215.898 Y170.255 
G01 X216.266 Y169.885 
G01 X216.609 Y169.577 
G01 X216.913 Y169.329 
G01 X217.396 Y168.986 
G01 X217.628 Y168.843 
G01 X218.067 Y168.598 
G01 X218.523 Y168.385 
G01 X218.995 Y168.207 
G01 X219.479 Y168.068 
G01 X219.967 Y167.971 
G01 X220.453 Y167.920 
G01 X220.939 Y167.919 
G01 X221.168 Y167.937 
G01 X221.398 Y167.970 
G01 X221.655 Y168.023 
G01 X221.895 Y168.090 
G01 X222.120 Y168.170 
G01 X222.324 Y168.257 
G01 X222.711 Y168.468 
G01 X223.037 Y168.699 
G01 X223.314 Y168.941 
G01 X223.542 Y169.180 
G01 X223.722 Y169.401 
G01 X223.855 Y169.588 
G01 X224.065 Y169.931 
G01 X224.254 Y170.290 
G01 X224.425 Y170.664 
G01 X224.580 Y171.049 
G01 X224.858 Y171.860 
G01 X225.106 Y172.688 
G01 X225.507 Y174.115 
G01 X225.909 Y175.553 
G01 X226.343 Y176.988 
G01 X226.585 Y177.706 
G01 X226.848 Y178.418 
G01 X227.121 Y179.092 
G01 X227.404 Y179.731 
G01 X227.695 Y180.336 
G01 X227.991 Y180.907 
G01 X228.291 Y181.445 
G01 X228.594 Y181.953 
G01 X229.192 Y182.865 
G01 X229.775 Y183.658 
G01 X230.326 Y184.333 
G01 X230.828 Y184.894 
G01 X231.267 Y185.349 
G01 X231.862 Y185.918 
G01 X232.483 Y186.462 
G01 X233.128 Y186.979 
G01 X233.793 Y187.471 
G01 X234.477 Y187.937 
G01 X235.179 Y188.379 
G01 X235.898 Y188.796 
G01 X236.630 Y189.190 
G01 X237.374 Y189.562 
G01 X238.130 Y189.910 
G01 X238.894 Y190.237 
G01 X239.666 Y190.542 
G01 X240.444 Y190.826 
G01 X241.225 Y191.090 
G01 X242.010 Y191.335 
G01 X242.795 Y191.559 
G01 X243.863 Y191.838 
G01 X244.944 Y192.088 
G01 X246.035 Y192.305 
G01 X247.134 Y192.485 
G01 X248.240 Y192.623 
G01 X249.351 Y192.716 
G01 X250.465 Y192.758 
G01 X251.576 Y192.746 
G01 X253.472 Y192.649 
G01 X254.421 Y192.577 
G01 X255.368 Y192.489 
G01 X256.313 Y192.384 
G01 X257.257 Y192.259 
G01 X258.197 Y192.114 
G01 X259.136 Y191.947 
G01 X260.418 Y191.678 
G01 X261.071 Y191.519 
G01 X261.723 Y191.343 
G01 X262.373 Y191.148 
G01 X263.019 Y190.932 
G01 X263.658 Y190.694 
G01 X264.287 Y190.432 
G01 X264.903 Y190.145 
G01 X265.503 Y189.830 
G01 X266.083 Y189.486 
G01 X266.642 Y189.111 
G01 X267.176 Y188.704 
G01 X267.680 Y188.263 
G01 X268.153 Y187.785 
G01 X268.588 Y187.274 
G01 X268.828 Y186.949 
G01 X269.091 Y186.551 
G01 X269.366 Y186.074 
G01 X269.639 Y185.518 
G01 X269.898 Y184.883 
G01 X270.129 Y184.173 
G01 X270.231 Y183.781 
G01 X270.321 Y183.373 
G01 X270.398 Y182.946 
G01 X270.459 Y182.496 
G01 X270.538 Y181.595 
G01 X270.565 Y180.691 
G01 X270.548 Y179.787 
G01 X270.493 Y178.886 
G01 X270.403 Y177.989 
G01 X270.287 Y177.098 
G01 X270.148 Y176.214 
G01 X269.993 Y175.338 
G01 X269.776 Y174.227 
G01 X269.558 Y173.206 
G01 X269.133 Y171.447 
G01 X268.742 Y170.050 
G01 X268.412 Y169.015 
G01 X268.167 Y168.329 
G01 X267.898 Y167.650 
G01 X267.605 Y166.979 
G01 X267.287 Y166.319 
G01 X266.943 Y165.670 
G01 X266.574 Y165.036 
G01 X266.178 Y164.419 
G01 X265.755 Y163.819 
G01 X265.162 Y163.062 
G01 X264.527 Y162.337 
G01 X263.854 Y161.644 
G01 X263.145 Y160.983 
G01 X262.405 Y160.355 
G01 X261.635 Y159.758 
G01 X260.838 Y159.194 
G01 X260.018 Y158.661 
G01 X259.176 Y158.160 
G01 X258.316 Y157.691 
G01 X257.441 Y157.254 
G01 X256.552 Y156.849 
G01 X255.654 Y156.475 
G01 X254.748 Y156.133 
G01 X253.837 Y155.823 
G01 X252.923 Y155.544 
G01 X251.831 Y155.253 
G01 X250.728 Y155.002 
G01 X249.617 Y154.789 
G01 X248.501 Y154.612 
G01 X247.380 Y154.468 
G01 X246.257 Y154.353 
G01 X245.134 Y154.267 
G01 X244.011 Y154.205 
G01 X242.452 Y154.154 
G01 X240.901 Y154.114 
G01 X239.360 Y154.050 
G01 X238.599 Y153.998 
G01 X237.840 Y153.926 
G01 X237.293 Y153.858 
G01 X236.785 Y153.776 
G01 X236.313 Y153.684 
G01 X235.882 Y153.585 
G01 X235.117 Y153.369 
G01 X234.496 Y153.148 
G01 X234.013 Y152.941 
G01 X233.664 Y152.767 
G01 X233.327 Y152.570 
G01 X232.691 Y152.160 
G01 X232.144 Y151.745 
G01 X231.674 Y151.328 
G01 X231.276 Y150.921 
G01 X230.945 Y150.531 
G01 X230.678 Y150.170 
G01 X230.469 Y149.846 
G01 X230.316 Y149.573 
G01 X230.159 Y149.234 
G01 X230.029 Y148.883 
G01 X229.923 Y148.516 
G01 X229.840 Y148.139 
G01 X229.777 Y147.752 
G01 X229.734 Y147.363 
G01 X229.695 Y146.561 
G01 X229.700 Y145.786 
G01 X229.736 Y145.008 
G01 X229.802 Y144.232 
G01 X229.898 Y143.462 
G01 X229.999 Y142.888 
G01 X230.159 Y142.105 
G01 X230.615 Y139.920 
G01 X230.959 Y138.160 
G01 X231.279 Y136.393 
G01 X231.575 Y134.622 
G01 X231.846 Y132.846 
G01 X232.089 Y131.066 
G01 X232.304 Y129.282 
G01 X232.488 Y127.495 
G01 X232.641 Y125.705 
G01 X232.754 Y124.029 
G01 X232.833 Y122.347 
G01 X232.874 Y120.661 
G01 X232.870 Y118.972 
G01 X232.815 Y117.284 
G01 X232.705 Y115.601 
G01 X232.627 Y114.758 
G01 X232.534 Y113.919 
G01 X232.423 Y113.082 
G01 X232.294 Y112.246 
G01 X232.115 Y111.252 
G01 X231.906 Y110.261 
G01 X231.668 Y109.278 
G01 X231.405 Y108.301 
G01 X231.116 Y107.331 
G01 X230.804 Y106.370 
G01 X230.470 Y105.417 
G01 X230.117 Y104.474 
G01 X229.636 Y103.253 
G01 X229.141 Y102.037 
G01 X228.630 Y100.828 
G01 X228.104 Y99.624 
G01 X227.562 Y98.428 
G01 X227.002 Y97.240 
G01 X226.425 Y96.060 
G01 X225.829 Y94.889 
G01 X225.106 Y93.526 
G01 X224.362 Y92.176 
G01 X223.596 Y90.838 
G01 X222.811 Y89.511 
G01 X222.007 Y88.195 
G01 X221.185 Y86.890 
G01 X220.347 Y85.595 
G01 X219.493 Y84.310 
G01 X218.626 Y83.035 
G01 X217.745 Y81.767 
G01 X215.950 Y79.261 
G01 X214.116 Y76.785 
G01 X212.253 Y74.338 
G01 X209.727 Y71.091 
G01 X208.472 Y69.465 
G01 X207.240 Y67.827 
G01 X206.044 Y66.168 
G01 X205.466 Y65.331 
G01 X204.900 Y64.485 
G01 X204.351 Y63.631 
G01 X203.819 Y62.767 
G01 X203.306 Y61.893 
G01 X202.814 Y61.008 
G01 X202.163 Y59.751 
G01 X201.552 Y58.473 
G01 X200.975 Y57.177 
G01 X200.427 Y55.865 
G01 X199.904 Y54.539 
G01 X199.401 Y53.204 
G01 X198.435 Y50.512 
G01 X197.172 Y46.932 
G01 X196.524 Y45.142 
G01 X195.854 Y43.357 
G01 X195.154 Y41.583 
G01 X194.415 Y39.824 
G01 X193.631 Y38.086 
G01 X193.217 Y37.223 
G01 X192.788 Y36.366 
G01 X192.138 Y35.135 
G01 X191.480 Y33.968 
G01 X190.819 Y32.866 
G01 X190.158 Y31.828 
G01 X189.500 Y30.851 
G01 X188.849 Y29.935 
G01 X188.206 Y29.077 
G01 X187.576 Y28.278 
G01 X186.962 Y27.535 
G01 X186.366 Y26.847 
G01 X185.792 Y26.212 
G01 X185.241 Y25.628 
G01 X184.231 Y24.616 
G01 X183.356 Y23.794 
G01 X182.422 Y22.967 
G01 X181.463 Y22.167 
G01 X180.480 Y21.394 
G01 X179.474 Y20.649 
G01 X178.448 Y19.930 
G01 X177.402 Y19.239 
G01 X176.337 Y18.574 
G01 X175.257 Y17.935 
G01 X174.160 Y17.322 
G01 X173.050 Y16.735 
G01 X171.927 Y16.173 
G01 X170.794 Y15.637 
G01 X169.650 Y15.125 
G01 X168.498 Y14.639 
G01 X167.339 Y14.177 
G01 X166.175 Y13.739 
G01 X164.777 Y13.246 
G01 X163.366 Y12.782 
G01 X161.945 Y12.348 
G01 X160.513 Y11.944 
G01 X159.072 Y11.569 
G01 X157.623 Y11.223 
G01 X156.166 Y10.907 
G01 X154.703 Y10.621 
G01 X153.235 Y10.364 
G01 X151.762 Y10.136 
G01 X150.285 Y9.938 
G01 X148.806 Y9.769 
G01 X147.324 Y9.630 
G01 X145.842 Y9.521 
G01 X144.360 Y9.441 
G01 X142.878 Y9.390 
G01 X141.730 Y9.376 
G01 X140.581 Y9.390 
G01 X138.678 Y9.461 
G01 X136.775 Y9.581 
G01 X134.875 Y9.749 
G01 X132.979 Y9.967 
G01 X131.089 Y10.232 
G01 X129.207 Y10.545 
G01 X127.335 Y10.905 
G01 X125.476 Y11.313 
G01 X124.017 Y11.667 
G01 X122.561 Y12.052 
G01 X121.110 Y12.469 
G01 X119.665 Y12.917 
G01 X118.228 Y13.397 
G01 X116.802 Y13.911 
G01 X115.387 Y14.458 
G01 X113.986 Y15.039 
G01 X112.601 Y15.655 
G01 X111.234 Y16.307 
G01 X109.885 Y16.995 
G01 X108.558 Y17.719 
G01 X107.254 Y18.481 
G01 X105.975 Y19.281 
G01 X104.724 Y20.119 
G01 X103.502 Y20.995 
G01 X102.843 Y21.494 
G01 X102.195 Y22.005 
G01 X101.557 Y22.530 
G01 X100.928 Y23.067 
G01 X100.309 Y23.617 
G01 X99.700 Y24.178 
G01 X99.102 Y24.752 
G01 X98.516 Y25.338 
G01 X97.941 Y25.934 
G01 X97.377 Y26.542 
G01 X96.826 Y27.160 
G01 X96.288 Y27.789 
G01 X95.762 Y28.427 
G01 X95.249 Y29.076 
G01 X94.751 Y29.734 
G01 X94.266 Y30.401 
G01 X93.727 Y31.177 
G01 X93.206 Y31.965 
G01 X92.701 Y32.764 
G01 X92.213 Y33.573 
G01 X91.741 Y34.392 
G01 X91.284 Y35.219 
G01 X90.842 Y36.055 
G01 X90.413 Y36.899 
G01 X89.596 Y38.602 
G01 X88.828 Y40.328 
G01 X88.104 Y42.070 
G01 X87.420 Y43.821 
G01 X86.615 Y46.005 
G01 X85.840 Y48.200 
G01 X85.074 Y50.394 
G01 X84.295 Y52.577 
G01 X83.483 Y54.741 
G01 X83.059 Y55.810 
G01 X82.618 Y56.872 
G01 X82.159 Y57.924 
G01 X81.679 Y58.964 
G01 X81.176 Y59.992 
G01 X80.646 Y61.007 
G01 X80.191 Y61.827 
G01 X79.718 Y62.638 
G01 X79.228 Y63.439 
G01 X78.724 Y64.230 
G01 X77.671 Y65.796 
G00 Z5.080
G00 X255.606 Y64.569  F36000.0
G01 Z-4.000 F1200.0 M3
G01 X255.630 Y62.953  F18000.0
G01 X255.670 Y62.001 
G01 X255.731 Y61.046 
G01 X255.812 Y60.092 
G01 X255.914 Y59.138 
G01 X256.035 Y58.186 
G01 X256.176 Y57.236 
G01 X256.337 Y56.288 
G01 X256.517 Y55.344 
G01 X256.717 Y54.404 
G01 X256.937 Y53.469 
G01 X257.177 Y52.539 
G01 X257.436 Y51.615 
G01 X257.714 Y50.698 
G01 X258.011 Y49.788 
G01 X258.328 Y48.886 
G01 X258.663 Y47.993 
G01 X259.075 Y46.971 
G01 X259.512 Y45.959 
G01 X259.975 Y44.956 
G01 X260.462 Y43.962 
G01 X260.973 Y42.980 
G01 X261.506 Y42.008 
G01 X262.063 Y41.048 
G01 X262.641 Y40.100 
G01 X263.240 Y39.165 
G01 X263.859 Y38.243 
G01 X264.498 Y37.334 
G01 X265.155 Y36.440 
G01 X265.831 Y35.561 
G01 X266.524 Y34.697 
G01 X267.234 Y33.850 
G01 X267.960 Y33.019 
G01 X268.758 Y32.144 
G01 X269.663 Y31.194 
G01 X270.678 Y30.179 
G01 X271.807 Y29.108 
G01 X273.052 Y27.988 
G01 X274.415 Y26.829 
G01 X275.900 Y25.639 
G01 X276.687 Y25.037 
G01 X277.507 Y24.429 
G01 X278.358 Y23.819 
G01 X279.242 Y23.206 
G01 X280.157 Y22.592 
G01 X281.106 Y21.978 
G01 X282.087 Y21.366 
G01 X283.102 Y20.756 
G01 X284.150 Y20.149 
G01 X285.233 Y19.547 
G01 X286.349 Y18.950 
G01 X287.501 Y18.360 
G01 X288.687 Y17.778 
G01 X289.909 Y17.205 
G01 X291.167 Y16.642 
G01 X292.461 Y16.090 
G01 X293.791 Y15.550 
G01 X295.158 Y15.024 
G01 X296.462 Y14.547 
G01 X297.775 Y14.093 
G01 X299.097 Y13.659 
G01 X300.428 Y13.247 
G01 X301.768 Y12.856 
G01 X303.115 Y12.486 
G01 X304.469 Y12.138 
G01 X305.830 Y11.810 
G01 X307.197 Y11.503 
G01 X308.570 Y11.217 
G01 X309.949 Y10.951 
G01 X311.332 Y10.706 
G01 X312.720 Y10.482 
G01 X314.112 Y10.278 
G01 X315.507 Y10.095 
G01 X316.905 Y9.932 
G01 X318.306 Y9.789 
G01 X319.708 Y9.666 
G01 X321.113 Y9.563 
G01 X322.518 Y9.480 
G01 X323.924 Y9.417 
G01 X325.331 Y9.374 
G01 X326.737 Y9.350 
G01 X328.142 Y9.346 
G01 X329.546 Y9.362 
G01 X330.948 Y9.397 
G01 X332.348 Y9.451 
G01 X333.745 Y9.525 
G01 X335.139 Y9.618 
G01 X336.530 Y9.730 
G01 X337.916 Y9.861 
G01 X339.298 Y10.010 
G01 X341.256 Y10.256 
G01 X343.212 Y10.540 
G01 X345.167 Y10.863 
G01 X347.117 Y11.227 
G01 X349.061 Y11.632 
G01 X350.997 Y12.078 
G01 X352.922 Y12.568 
G01 X354.835 Y13.100 
G01 X356.734 Y13.676 
G01 X358.617 Y14.298 
G01 X360.482 Y14.965 
G01 X362.327 Y15.678 
G01 X364.149 Y16.438 
G01 X365.948 Y17.245 
G01 X367.721 Y18.101 
G01 X369.467 Y19.007 
G01 X370.466 Y19.556 
G01 X371.458 Y20.125 
G01 X372.440 Y20.712 
G01 X373.412 Y21.317 
G01 X374.374 Y21.941 
G01 X375.324 Y22.583 
G01 X376.262 Y23.243 
G01 X377.188 Y23.921 
G01 X378.100 Y24.616 
G01 X378.998 Y25.328 
G01 X379.881 Y26.057 
G01 X380.749 Y26.804 
G01 X381.601 Y27.567 
G01 X382.436 Y28.346 
G01 X383.254 Y29.142 
G01 X384.053 Y29.953 
G01 X384.988 Y30.947 
G01 X385.899 Y31.966 
G01 X386.786 Y33.010 
G01 X387.648 Y34.078 
G01 X388.484 Y35.168 
G01 X389.294 Y36.280 
G01 X390.076 Y37.412 
G01 X390.830 Y38.564 
G01 X391.555 Y39.734 
G01 X392.250 Y40.921 
G01 X392.914 Y42.125 
G01 X393.546 Y43.343 
G01 X394.147 Y44.576 
G01 X394.714 Y45.822 
G01 X395.247 Y47.080 
G01 X395.746 Y48.349 
G01 X396.075 Y49.248 
G01 X396.382 Y50.136 
G01 X396.667 Y51.011 
G01 X396.929 Y51.874 
G01 X397.171 Y52.723 
G01 X397.392 Y53.557 
G01 X397.778 Y55.189 
G01 X398.091 Y56.761 
G01 X398.338 Y58.273 
G01 X398.523 Y59.722 
G01 X398.655 Y61.105 
G01 X398.737 Y62.421 
G01 X398.775 Y63.666 
G01 X398.776 Y64.837 
G01 X398.746 Y65.933 
G01 X398.689 Y66.951 
G01 X398.612 Y67.888 
G01 X398.521 Y68.742 
G01 X398.421 Y69.509 
G01 X398.308 Y70.251 
G01 X398.178 Y70.992 
G01 X398.032 Y71.730 
G01 X397.870 Y72.467 
G01 X397.693 Y73.200 
G01 X397.499 Y73.930 
G01 X397.291 Y74.656 
G01 X397.067 Y75.378 
G01 X396.828 Y76.095 
G01 X396.574 Y76.807 
G01 X396.306 Y77.513 
G01 X396.023 Y78.213 
G01 X395.726 Y78.906 
G01 X395.415 Y79.592 
G01 X395.090 Y80.270 
G01 X394.752 Y80.939 
G01 X394.106 Y82.131 
G01 X393.417 Y83.299 
G01 X392.688 Y84.445 
G01 X391.921 Y85.569 
G01 X391.117 Y86.671 
G01 X390.279 Y87.752 
G01 X389.409 Y88.811 
G01 X388.510 Y89.848 
G01 X387.583 Y90.864 
G01 X386.630 Y91.858 
G01 X385.655 Y92.831 
G01 X384.660 Y93.783 
G01 X383.645 Y94.713 
G01 X382.615 Y95.622 
G01 X381.571 Y96.511 
G01 X380.515 Y97.378 
G01 X379.101 Y98.500 
G01 X378.055 Y99.300 
G01 X377.109 Y99.990 
G01 X376.839 Y100.164 
G01 X376.675 Y100.253 
G01 X376.479 Y100.341 
G01 X376.257 Y100.420 
G01 X376.008 Y100.484 
G01 X375.731 Y100.527 
G01 X375.426 Y100.543 
G01 X375.060 Y100.520 
G01 X374.734 Y100.457 
G01 X374.442 Y100.365 
G01 X374.181 Y100.251 
G01 X373.949 Y100.125 
G01 X373.746 Y99.995 
G01 X373.407 Y99.752 
G01 X372.690 Y99.250 
G01 X371.962 Y98.761 
G01 X371.224 Y98.284 
G01 X370.478 Y97.820 
G01 X369.723 Y97.370 
G01 X368.959 Y96.932 
G01 X367.413 Y96.097 
G01 X365.839 Y95.312 
G01 X364.242 Y94.578 
G01 X362.626 Y93.894 
G01 X360.994 Y93.259 
G01 X359.522 Y92.731 
G01 X358.038 Y92.237 
G01 X356.543 Y91.775 
G01 X355.037 Y91.347 
G01 X353.522 Y90.949 
G01 X351.999 Y90.582 
G01 X350.468 Y90.244 
G01 X348.930 Y89.935 
G01 X347.387 Y89.654 
G01 X345.839 Y89.399 
G01 X344.288 Y89.170 
G01 X342.734 Y88.966 
G01 X341.178 Y88.786 
G01 X339.622 Y88.630 
G01 X338.065 Y88.495 
G01 X336.510 Y88.382 
G01 X334.714 Y88.278 
G01 X332.915 Y88.200 
G01 X331.114 Y88.151 
G01 X329.311 Y88.130 
G01 X327.507 Y88.136 
G01 X325.703 Y88.170 
G01 X323.899 Y88.233 
G01 X322.096 Y88.323 
G01 X320.294 Y88.441 
G01 X318.495 Y88.588 
G01 X316.699 Y88.763 
G01 X314.907 Y88.967 
G01 X313.119 Y89.199 
G01 X311.336 Y89.459 
G01 X309.559 Y89.748 
G01 X307.788 Y90.065 
G01 X306.422 Y90.330 
G01 X305.111 Y90.600 
G01 X302.664 Y91.147 
G01 X300.441 Y91.698 
G01 X298.441 Y92.240 
G01 X296.663 Y92.764 
G01 X295.105 Y93.259 
G01 X293.766 Y93.713 
G01 X292.645 Y94.116 
G01 X291.577 Y94.522 
G01 X290.560 Y94.933 
G01 X289.592 Y95.347 
G01 X288.673 Y95.762 
G01 X287.802 Y96.175 
G01 X286.979 Y96.586 
G01 X286.203 Y96.991 
G01 X285.472 Y97.391 
G01 X284.152 Y98.159 
G01 X283.009 Y98.878 
G01 X282.041 Y99.530 
G01 X281.239 Y100.102 
G01 X280.088 Y100.983 
G01 X279.686 Y101.292 
G01 X279.399 Y101.487 
G01 X279.229 Y101.577 
G01 X278.996 Y101.676 
G01 X278.714 Y101.767 
G01 X278.392 Y101.836 
G01 X278.030 Y101.870 
G01 X277.850 Y101.870 
G01 X277.657 Y101.857 
G01 X277.459 Y101.828 
G01 X277.255 Y101.784 
G01 X277.046 Y101.721 
G01 X276.835 Y101.638 
G01 X276.492 Y101.470 
G01 X276.139 Y101.277 
G01 X275.345 Y100.834 
G01 X274.563 Y100.375 
G01 X273.792 Y99.898 
G01 X273.031 Y99.403 
G01 X272.282 Y98.892 
G01 X271.546 Y98.363 
G01 X270.823 Y97.818 
G01 X270.114 Y97.255 
G01 X269.518 Y96.759 
G01 X268.932 Y96.250 
G01 X268.356 Y95.727 
G01 X267.791 Y95.191 
G01 X267.237 Y94.642 
G01 X266.694 Y94.082 
G01 X266.162 Y93.510 
G01 X265.643 Y92.927 
G01 X265.136 Y92.333 
G01 X264.642 Y91.729 
G01 X264.160 Y91.115 
G01 X263.692 Y90.491 
G01 X263.237 Y89.858 
G01 X262.796 Y89.217 
G01 X262.370 Y88.568 
G01 X261.957 Y87.910 
G01 X261.545 Y87.220 
G01 X261.146 Y86.521 
G01 X260.761 Y85.811 
G01 X260.390 Y85.093 
G01 X260.033 Y84.366 
G01 X259.689 Y83.631 
G01 X259.359 Y82.887 
G01 X259.043 Y82.137 
G01 X258.740 Y81.379 
G01 X258.452 Y80.615 
G01 X258.177 Y79.844 
G01 X257.917 Y79.070 
G01 X257.436 Y77.499 
G01 X257.012 Y75.912 
G01 X256.643 Y74.310 
G01 X256.331 Y72.696 
G01 X256.074 Y71.074 
G01 X255.873 Y69.447 
G01 X255.728 Y67.818 
G01 X255.639 Y66.191 
G01 X255.606 Y64.569 
G00 Z5.080
G00 X286.699 Y107.697  F36000.0
G01 Z-4.000 F1200.0 M3
G01 X287.754 Y106.953  F18000.0
G01 X288.422 Y106.515 
G01 X289.104 Y106.094 
G01 X289.797 Y105.689 
G01 X290.501 Y105.300 
G01 X291.215 Y104.927 
G01 X291.938 Y104.569 
G01 X292.669 Y104.226 
G01 X293.406 Y103.897 
G01 X294.906 Y103.276 
G01 X296.425 Y102.706 
G01 X297.960 Y102.180 
G01 X299.507 Y101.693 
G01 X300.660 Y101.353 
G01 X301.819 Y101.028 
G01 X302.983 Y100.717 
G01 X304.151 Y100.421 
G01 X305.324 Y100.140 
G01 X306.499 Y99.874 
G01 X308.863 Y99.385 
G01 X311.237 Y98.954 
G01 X313.621 Y98.579 
G01 X316.011 Y98.261 
G01 X318.407 Y97.998 
G01 X319.822 Y97.868 
G01 X321.241 Y97.757 
G01 X322.661 Y97.665 
G01 X324.084 Y97.591 
G01 X325.507 Y97.536 
G01 X326.932 Y97.500 
G01 X328.357 Y97.483 
G01 X329.782 Y97.485 
G01 X331.207 Y97.507 
G01 X332.632 Y97.548 
G01 X334.055 Y97.609 
G01 X335.477 Y97.690 
G01 X336.897 Y97.790 
G01 X338.315 Y97.911 
G01 X339.729 Y98.052 
G01 X341.142 Y98.213 
G01 X342.398 Y98.374 
G01 X343.655 Y98.552 
G01 X344.911 Y98.749 
G01 X346.164 Y98.964 
G01 X347.414 Y99.200 
G01 X348.661 Y99.455 
G01 X349.902 Y99.732 
G01 X351.138 Y100.030 
G01 X352.367 Y100.351 
G01 X353.588 Y100.695 
G01 X354.801 Y101.063 
G01 X356.005 Y101.456 
G01 X357.199 Y101.874 
G01 X358.382 Y102.318 
G01 X359.553 Y102.789 
G01 X360.710 Y103.288 
G01 X361.863 Y103.820 
G01 X362.954 Y104.360 
G01 X363.987 Y104.906 
G01 X364.961 Y105.455 
G01 X365.879 Y106.004 
G01 X366.741 Y106.550 
G01 X367.548 Y107.091 
G01 X368.301 Y107.623 
G01 X369.002 Y108.144 
G01 X369.652 Y108.650 
G01 X370.251 Y109.140 
G01 X370.800 Y109.609 
G01 X371.760 Y110.481 
G01 X372.536 Y111.241 
G01 X372.968 Y111.687 
G01 X373.438 Y112.193 
G01 X373.940 Y112.759 
G01 X374.469 Y113.386 
G01 X375.019 Y114.075 
G01 X375.586 Y114.827 
G01 X376.165 Y115.645 
G01 X376.750 Y116.528 
G01 X377.338 Y117.478 
G01 X377.922 Y118.497 
G01 X378.498 Y119.585 
G01 X379.061 Y120.745 
G01 X379.606 Y121.976 
G01 X380.128 Y123.281 
G01 X380.621 Y124.661 
G01 X381.082 Y126.118 
G01 X381.371 Y127.140 
G01 X381.636 Y128.176 
G01 X381.875 Y129.222 
G01 X382.087 Y130.276 
G01 X382.271 Y131.338 
G01 X382.424 Y132.405 
G01 X382.547 Y133.475 
G01 X382.637 Y134.548 
G01 X382.693 Y135.620 
G01 X382.713 Y136.692 
G01 X382.697 Y137.760 
G01 X382.643 Y138.824 
G01 X382.549 Y139.881 
G01 X382.415 Y140.930 
G01 X382.239 Y141.970 
G01 X382.020 Y143.001 
G01 X381.829 Y143.754 
G01 X381.568 Y144.647 
G01 X381.223 Y145.670 
G01 X381.017 Y146.222 
G01 X380.783 Y146.804 
G01 X380.522 Y147.413 
G01 X380.230 Y148.048 
G01 X379.908 Y148.707 
G01 X379.552 Y149.388 
G01 X379.161 Y150.091 
G01 X378.733 Y150.814 
G01 X378.267 Y151.556 
G01 X377.760 Y152.314 
G01 X377.144 Y153.182 
G01 X376.379 Y154.192 
G01 X375.458 Y155.334 
G01 X374.371 Y156.600 
G01 X373.765 Y157.273 
G01 X373.114 Y157.975 
G01 X372.417 Y158.702 
G01 X371.675 Y159.452 
G01 X370.885 Y160.226 
G01 X370.048 Y161.021 
G01 X369.162 Y161.836 
G01 X368.225 Y162.670 
G01 X367.242 Y163.521 
G01 X366.241 Y164.343 
G01 X365.733 Y164.732 
G01 X365.216 Y165.106 
G01 X364.689 Y165.460 
G01 X364.157 Y165.788 
G01 X363.820 Y165.962 
G01 X363.613 Y166.046 
G01 X363.368 Y166.121 
G01 X363.095 Y166.178 
G01 X362.793 Y166.207 
G01 X362.464 Y166.202 
G01 X362.103 Y166.150 
G01 X361.910 Y166.102 
G01 X361.663 Y166.017 
G01 X361.385 Y165.892 
G01 X361.092 Y165.723 
G01 X360.794 Y165.499 
G01 X360.658 Y165.375 
G01 X360.522 Y165.231 
G01 X360.393 Y165.073 
G01 X360.272 Y164.898 
G01 X360.160 Y164.706 
G01 X360.063 Y164.504 
G01 X359.942 Y164.150 
G01 X359.862 Y163.777 
G01 X359.760 Y162.939 
G01 X359.677 Y162.035 
G01 X359.617 Y161.165 
G01 X359.580 Y160.330 
G01 X359.563 Y159.529 
G01 X359.566 Y158.764 
G01 X359.585 Y158.034 
G01 X359.620 Y157.341 
G01 X359.668 Y156.686 
G01 X359.798 Y155.479 
G01 X359.960 Y154.425 
G01 X360.139 Y153.524 
G01 X360.321 Y152.777 
G01 X360.491 Y152.183 
G01 X360.677 Y151.592 
G01 X361.088 Y150.402 
G01 X361.519 Y149.208 
G01 X361.936 Y147.996 
G01 X362.176 Y147.211 
G01 X362.281 Y146.791 
G01 X362.363 Y146.362 
G01 X362.414 Y145.923 
G01 X362.423 Y145.477 
G01 X362.378 Y145.025 
G01 X362.270 Y144.575 
G01 X362.104 Y144.178 
G01 X361.886 Y143.813 
G01 X361.625 Y143.483 
G01 X361.334 Y143.185 
G01 X361.019 Y142.918 
G01 X360.689 Y142.678 
G01 X360.352 Y142.465 
G01 X360.010 Y142.276 
G01 X359.403 Y141.984 
G01 X358.781 Y141.729 
G01 X358.151 Y141.506 
G01 X357.514 Y141.308 
G01 X356.242 Y140.969 
G01 X354.976 Y140.665 
G01 X353.853 Y140.397 
G01 X353.157 Y140.219 
G01 X352.373 Y140.002 
G01 X351.504 Y139.738 
G01 X350.552 Y139.419 
G01 X349.521 Y139.038 
G01 X348.413 Y138.587 
G01 X346.915 Y137.911 
G01 X345.424 Y137.196 
G01 X343.920 Y136.483 
G01 X343.155 Y136.138 
G01 X342.381 Y135.810 
G01 X341.781 Y135.574 
G01 X341.161 Y135.352 
G01 X340.523 Y135.156 
G01 X339.871 Y134.995 
G01 X339.212 Y134.880 
G01 X338.871 Y134.843 
G01 X338.534 Y134.822 
G01 X338.195 Y134.818 
G01 X337.855 Y134.833 
G01 X337.515 Y134.869 
G01 X337.175 Y134.927 
G01 X336.826 Y135.012 
G01 X336.496 Y135.121 
G01 X336.189 Y135.250 
G01 X335.903 Y135.395 
G01 X335.638 Y135.555 
G01 X335.389 Y135.730 
G01 X334.970 Y136.088 
G01 X334.621 Y136.462 
G01 X334.342 Y136.824 
G01 X334.129 Y137.154 
G01 X333.972 Y137.436 
G01 X333.742 Y137.924 
G01 X333.551 Y138.430 
G01 X333.399 Y138.946 
G01 X333.282 Y139.471 
G01 X333.198 Y140.003 
G01 X333.145 Y140.540 
G01 X333.120 Y141.081 
G01 X333.120 Y141.624 
G01 X333.142 Y142.167 
G01 X333.186 Y142.709 
G01 X333.248 Y143.248 
G01 X333.326 Y143.787 
G01 X333.520 Y144.835 
G01 X333.751 Y145.850 
G01 X333.997 Y146.801 
G01 X334.262 Y147.745 
G01 X334.835 Y149.611 
G01 X335.452 Y151.461 
G01 X336.088 Y153.298 
G01 X337.908 Y158.481 
G01 X338.612 Y160.450 
G01 X339.031 Y161.527 
G01 X339.186 Y161.907 
G01 X339.282 Y162.169 
G01 X339.341 Y162.387 
G01 X339.381 Y162.599 
G01 X339.404 Y162.805 
G01 X339.411 Y162.995 
G01 X339.384 Y163.382 
G01 X339.313 Y163.728 
G01 X339.212 Y164.038 
G01 X339.092 Y164.307 
G01 X338.970 Y164.528 
G01 X338.860 Y164.692 
G01 X338.737 Y164.846 
G01 X338.564 Y165.029 
G01 X338.344 Y165.224 
G01 X338.078 Y165.415 
G01 X337.762 Y165.591 
G01 X337.599 Y165.663 
G01 X337.418 Y165.727 
G01 X337.226 Y165.781 
G01 X337.023 Y165.821 
G01 X336.809 Y165.847 
G01 X336.592 Y165.856 
G01 X336.043 Y165.814 
G01 X335.123 Y165.710 
G01 X333.644 Y165.555 
G01 X332.708 Y165.474 
G01 X331.645 Y165.405 
G01 X330.455 Y165.356 
G01 X329.139 Y165.338 
G01 X327.698 Y165.361 
G01 X326.134 Y165.434 
G01 X325.188 Y165.502 
G01 X324.073 Y165.601 
G01 X322.788 Y165.732 
G01 X321.331 Y165.899 
G01 X319.705 Y166.104 
G01 X317.909 Y166.350 
G01 X315.944 Y166.639 
G01 X313.810 Y166.975 
G01 X310.458 Y167.536 
G01 X308.782 Y167.835 
G01 X307.108 Y168.151 
G01 X305.438 Y168.488 
G01 X303.773 Y168.850 
G01 X302.113 Y169.241 
G01 X300.468 Y169.664 
G01 X300.053 Y169.766 
G01 X299.554 Y169.864 
G01 X298.974 Y169.940 
G01 X298.314 Y169.976 
G01 X297.965 Y169.974 
G01 X297.596 Y169.954 
G01 X297.212 Y169.916 
G01 X296.814 Y169.856 
G01 X296.403 Y169.773 
G01 X295.979 Y169.664 
G01 X295.543 Y169.526 
G01 X295.096 Y169.358 
G01 X294.567 Y169.125 
G01 X293.862 Y168.777 
G01 X292.988 Y168.304 
G01 X291.954 Y167.696 
G01 X291.047 Y167.129 
G01 X290.149 Y166.543 
G01 X289.263 Y165.938 
G01 X288.389 Y165.316 
G01 X287.527 Y164.675 
G01 X286.678 Y164.019 
G01 X285.843 Y163.346 
G01 X285.021 Y162.657 
G01 X284.313 Y162.038 
G01 X283.615 Y161.405 
G01 X282.929 Y160.755 
G01 X282.255 Y160.091 
G01 X281.596 Y159.412 
G01 X280.952 Y158.718 
G01 X280.323 Y158.009 
G01 X279.712 Y157.287 
G01 X279.119 Y156.550 
G01 X278.545 Y155.801 
G01 X277.992 Y155.037 
G01 X277.460 Y154.261 
G01 X276.950 Y153.472 
G01 X276.464 Y152.671 
G01 X276.002 Y151.857 
G01 X275.566 Y151.032 
G01 X274.996 Y149.848 
G01 X274.477 Y148.637 
G01 X274.011 Y147.402 
G01 X273.599 Y146.146 
G01 X273.241 Y144.875 
G01 X272.940 Y143.590 
G01 X272.695 Y142.293 
G01 X272.595 Y141.646 
G01 X272.509 Y140.996 
G01 X272.436 Y140.321 
G01 X272.378 Y139.646 
G01 X272.306 Y138.280 
G01 X272.292 Y136.910 
G01 X272.334 Y135.535 
G01 X272.431 Y134.158 
G01 X272.582 Y132.781 
G01 X272.786 Y131.407 
G01 X273.040 Y130.040 
G01 X273.344 Y128.681 
G01 X273.695 Y127.333 
G01 X274.094 Y125.999 
G01 X274.537 Y124.682 
G01 X275.024 Y123.385 
G01 X275.552 Y122.109 
G01 X276.122 Y120.858 
G01 X276.730 Y119.635 
G01 X277.444 Y118.321 
G01 X278.176 Y117.086 
G01 X278.921 Y115.929 
G01 X279.676 Y114.848 
G01 X280.435 Y113.839 
G01 X281.194 Y112.902 
G01 X281.948 Y112.033 
G01 X282.692 Y111.230 
G01 X283.423 Y110.493 
G01 X284.134 Y109.817 
G01 X284.822 Y109.202 
G01 X285.483 Y108.645 
G01 X286.110 Y108.143 
G01 X286.699 Y107.697 
G00 Z5.080
G00 X311.206 Y188.096  F36000.0
G01 Z-4.000 F1200.0 M3
G01 X312.224 Y187.823  F18000.0
G01 X313.250 Y187.586 
G01 X314.283 Y187.382 
G01 X315.187 Y187.227 
G01 X316.111 Y187.094 
G01 X317.356 Y186.944 
G01 X318.920 Y186.794 
G01 X320.806 Y186.659 
G01 X323.014 Y186.556 
G01 X324.237 Y186.520 
G01 X325.541 Y186.499 
G01 X328.395 Y186.499 
G01 X331.017 Y186.554 
G01 X333.408 Y186.653 
G01 X335.566 Y186.787 
G01 X337.492 Y186.946 
G01 X339.186 Y187.118 
G01 X340.646 Y187.295 
G01 X341.871 Y187.466 
G01 X343.528 Y187.733 
G01 X345.184 Y188.047 
G01 X346.006 Y188.223 
G01 X346.825 Y188.415 
G01 X347.640 Y188.622 
G01 X348.449 Y188.845 
G01 X349.251 Y189.086 
G01 X350.046 Y189.345 
G01 X350.832 Y189.623 
G01 X351.608 Y189.922 
G01 X352.374 Y190.242 
G01 X353.129 Y190.583 
G01 X353.870 Y190.948 
G01 X354.598 Y191.336 
G01 X355.467 Y191.845 
G01 X356.275 Y192.371 
G01 X357.025 Y192.909 
G01 X357.721 Y193.458 
G01 X358.364 Y194.012 
G01 X358.957 Y194.567 
G01 X359.500 Y195.121 
G01 X359.998 Y195.668 
G01 X360.451 Y196.206 
G01 X360.862 Y196.730 
G01 X361.233 Y197.237 
G01 X361.564 Y197.720 
G01 X362.127 Y198.615 
G01 X362.560 Y199.376 
G01 X362.986 Y200.187 
G01 X363.382 Y201.016 
G01 X363.749 Y201.860 
G01 X364.088 Y202.720 
G01 X364.399 Y203.592 
G01 X364.682 Y204.477 
G01 X364.937 Y205.372 
G01 X365.165 Y206.275 
G01 X365.364 Y207.186 
G01 X365.537 Y208.103 
G01 X365.683 Y209.024 
G01 X365.801 Y209.949 
G01 X365.893 Y210.874 
G01 X365.959 Y211.800 
G01 X365.999 Y212.724 
G01 X366.012 Y213.646 
G01 X366.005 Y214.350 
G01 X365.983 Y215.037 
G01 X365.896 Y216.375 
G01 X365.757 Y217.651 
G01 X365.572 Y218.867 
G01 X365.346 Y220.024 
G01 X365.085 Y221.121 
G01 X364.796 Y222.158 
G01 X364.482 Y223.134 
G01 X364.150 Y224.050 
G01 X363.806 Y224.905 
G01 X363.455 Y225.699 
G01 X363.103 Y226.431 
G01 X362.755 Y227.102 
G01 X362.418 Y227.709 
G01 X361.791 Y228.744 
G01 X361.227 Y229.590 
G01 X360.890 Y230.064 
G01 X360.511 Y230.571 
G01 X360.090 Y231.106 
G01 X359.625 Y231.666 
G01 X359.116 Y232.248 
G01 X358.559 Y232.849 
G01 X357.953 Y233.466 
G01 X357.296 Y234.097 
G01 X356.588 Y234.737 
G01 X355.825 Y235.384 
G01 X355.007 Y236.035 
G01 X354.132 Y236.686 
G01 X353.197 Y237.336 
G01 X352.201 Y237.979 
G01 X350.924 Y238.742 
G01 X349.614 Y239.459 
G01 X348.275 Y240.129 
G01 X346.907 Y240.752 
G01 X345.515 Y241.328 
G01 X344.101 Y241.858 
G01 X342.667 Y242.340 
G01 X341.216 Y242.774 
G01 X339.751 Y243.160 
G01 X338.275 Y243.499 
G01 X336.789 Y243.788 
G01 X335.297 Y244.030 
G01 X333.802 Y244.222 
G01 X332.306 Y244.366 
G01 X330.811 Y244.460 
G01 X329.320 Y244.505 
G01 X328.393 Y244.508 
G01 X327.464 Y244.490 
G01 X326.534 Y244.453 
G01 X325.604 Y244.395 
G01 X324.674 Y244.318 
G01 X323.746 Y244.220 
G01 X322.819 Y244.102 
G01 X321.896 Y243.963 
G01 X320.976 Y243.804 
G01 X320.060 Y243.624 
G01 X319.149 Y243.424 
G01 X318.244 Y243.203 
G01 X317.346 Y242.962 
G01 X316.455 Y242.699 
G01 X315.572 Y242.416 
G01 X314.697 Y242.112 
G01 X313.727 Y241.746 
G01 X312.764 Y241.352 
G01 X311.810 Y240.931 
G01 X310.866 Y240.482 
G01 X309.932 Y240.006 
G01 X309.012 Y239.505 
G01 X308.105 Y238.977 
G01 X307.214 Y238.424 
G01 X306.339 Y237.847 
G01 X305.481 Y237.245 
G01 X304.643 Y236.619 
G01 X303.825 Y235.970 
G01 X303.029 Y235.297 
G01 X302.255 Y234.603 
G01 X301.506 Y233.886 
G01 X300.782 Y233.146 
G01 X300.286 Y232.612 
G01 X299.802 Y232.063 
G01 X299.329 Y231.502 
G01 X298.870 Y230.928 
G01 X298.424 Y230.344 
G01 X297.992 Y229.748 
G01 X297.574 Y229.141 
G01 X297.172 Y228.525 
G01 X296.785 Y227.898 
G01 X296.415 Y227.263 
G01 X296.061 Y226.619 
G01 X295.725 Y225.968 
G01 X295.407 Y225.308 
G01 X295.108 Y224.642 
G01 X294.827 Y223.969 
G01 X294.567 Y223.289 
G01 X294.357 Y222.695 
G01 X294.161 Y222.095 
G01 X293.981 Y221.488 
G01 X293.814 Y220.877 
G01 X293.663 Y220.260 
G01 X293.526 Y219.640 
G01 X293.404 Y219.016 
G01 X293.297 Y218.389 
G01 X293.205 Y217.759 
G01 X293.128 Y217.128 
G01 X293.065 Y216.496 
G01 X293.018 Y215.862 
G01 X292.987 Y215.229 
G01 X292.970 Y214.596 
G01 X292.969 Y213.964 
G01 X292.982 Y213.335 
G01 X293.035 Y212.344 
G01 X293.124 Y211.353 
G01 X293.248 Y210.362 
G01 X293.408 Y209.373 
G01 X293.602 Y208.387 
G01 X293.830 Y207.407 
G01 X294.090 Y206.433 
G01 X294.383 Y205.467 
G01 X294.707 Y204.511 
G01 X295.062 Y203.566 
G01 X295.448 Y202.634 
G01 X295.862 Y201.717 
G01 X296.305 Y200.816 
G01 X296.776 Y199.932 
G01 X297.274 Y199.068 
G01 X297.798 Y198.225 
G01 X298.386 Y197.349 
G01 X298.982 Y196.531 
G01 X299.581 Y195.768 
G01 X300.182 Y195.058 
G01 X300.781 Y194.400 
G01 X301.375 Y193.792 
G01 X301.960 Y193.232 
G01 X302.535 Y192.718 
G01 X303.095 Y192.248 
G01 X303.638 Y191.820 
G01 X304.160 Y191.434 
G01 X304.657 Y191.088 
G01 X305.576 Y190.500 
G01 X306.359 Y190.050 
G01 X307.286 Y189.574 
G01 X308.236 Y189.143 
G01 X309.209 Y188.754 
G01 X310.200 Y188.405 
G01 X311.206 Y188.096 
G00 Z5.080
G00 X292.606 Y188.519  F36000.0
G01 Z-4.000 F1200.0 M3
G01 X292.590 Y188.809  F18000.0
G01 X292.538 Y189.121 
G01 X292.441 Y189.457 
G01 X292.378 Y189.618 
G01 X292.297 Y189.788 
G01 X292.200 Y189.960 
G01 X292.087 Y190.133 
G01 X291.534 Y190.860 
G01 X291.129 Y191.398 
G01 X290.653 Y192.060 
G01 X289.897 Y193.188 
G01 X289.178 Y194.349 
G01 X288.499 Y195.538 
G01 X287.860 Y196.754 
G01 X287.262 Y197.994 
G01 X286.705 Y199.256 
G01 X286.192 Y200.537 
G01 X285.722 Y201.836 
G01 X285.297 Y203.151 
G01 X284.917 Y204.478 
G01 X284.583 Y205.816 
G01 X284.297 Y207.162 
G01 X284.059 Y208.514 
G01 X283.869 Y209.871 
G01 X283.730 Y211.228 
G01 X283.641 Y212.584 
G01 X283.610 Y213.518 
G01 X283.605 Y214.454 
G01 X283.624 Y215.392 
G01 X283.668 Y216.330 
G01 X283.736 Y217.268 
G01 X283.829 Y218.204 
G01 X283.946 Y219.139 
G01 X284.088 Y220.070 
G01 X284.253 Y220.998 
G01 X284.443 Y221.920 
G01 X284.656 Y222.837 
G01 X284.893 Y223.747 
G01 X285.153 Y224.650 
G01 X285.437 Y225.543 
G01 X285.744 Y226.427 
G01 X286.074 Y227.301 
G01 X286.472 Y228.268 
G01 X286.900 Y229.225 
G01 X287.356 Y230.171 
G01 X287.840 Y231.104 
G01 X288.351 Y232.025 
G01 X288.888 Y232.932 
G01 X289.450 Y233.825 
G01 X290.036 Y234.702 
G01 X290.645 Y235.564 
G01 X291.277 Y236.409 
G01 X291.930 Y237.237 
G01 X292.603 Y238.047 
G01 X293.296 Y238.838 
G01 X294.008 Y239.610 
G01 X294.738 Y240.361 
G01 X295.485 Y241.092 
G01 X296.312 Y241.859 
G01 X297.161 Y242.606 
G01 X298.031 Y243.331 
G01 X298.920 Y244.034 
G01 X299.828 Y244.715 
G01 X300.754 Y245.374 
G01 X301.696 Y246.009 
G01 X302.654 Y246.622 
G01 X303.627 Y247.211 
G01 X304.614 Y247.776 
G01 X305.613 Y248.316 
G01 X306.625 Y248.832 
G01 X307.647 Y249.323 
G01 X308.679 Y249.789 
G01 X309.720 Y250.229 
G01 X310.769 Y250.642 
G01 X311.783 Y251.015 
G01 X312.808 Y251.364 
G01 X313.841 Y251.691 
G01 X314.882 Y251.995 
G01 X315.931 Y252.275 
G01 X316.987 Y252.533 
G01 X318.048 Y252.769 
G01 X319.114 Y252.981 
G01 X320.184 Y253.170 
G01 X321.258 Y253.337 
G01 X322.335 Y253.482 
G01 X323.414 Y253.603 
G01 X324.495 Y253.702 
G01 X325.575 Y253.778 
G01 X326.656 Y253.832 
G01 X327.736 Y253.864 
G01 X329.048 Y253.872 
G01 X330.363 Y253.847 
G01 X331.679 Y253.791 
G01 X332.995 Y253.703 
G01 X334.309 Y253.583 
G01 X335.622 Y253.432 
G01 X336.931 Y253.249 
G01 X338.236 Y253.036 
G01 X339.536 Y252.792 
G01 X340.829 Y252.518 
G01 X342.115 Y252.214 
G01 X343.393 Y251.879 
G01 X344.660 Y251.516 
G01 X345.917 Y251.123 
G01 X347.163 Y250.701 
G01 X348.395 Y250.250 
G01 X349.327 Y249.886 
G01 X350.233 Y249.512 
G01 X351.114 Y249.130 
G01 X351.970 Y248.739 
G01 X352.802 Y248.341 
G01 X353.609 Y247.936 
G01 X354.392 Y247.525 
G01 X355.154 Y247.108 
G01 X356.600 Y246.265 
G01 X357.955 Y245.410 
G01 X359.220 Y244.551 
G01 X360.396 Y243.693 
G01 X361.484 Y242.843 
G01 X362.488 Y242.008 
G01 X363.408 Y241.193 
G01 X364.248 Y240.405 
G01 X365.007 Y239.650 
G01 X365.690 Y238.935 
G01 X366.296 Y238.266 
G01 X366.830 Y237.649 
G01 X367.425 Y236.924 
G01 X368.003 Y236.182 
G01 X368.561 Y235.422 
G01 X369.100 Y234.647 
G01 X369.620 Y233.858 
G01 X370.118 Y233.054 
G01 X370.597 Y232.237 
G01 X371.054 Y231.407 
G01 X371.489 Y230.566 
G01 X371.902 Y229.714 
G01 X372.293 Y228.853 
G01 X372.661 Y227.982 
G01 X373.005 Y227.103 
G01 X373.325 Y226.216 
G01 X373.621 Y225.323 
G01 X373.892 Y224.425 
G01 X374.130 Y223.553 
G01 X374.347 Y222.673 
G01 X374.542 Y221.785 
G01 X374.717 Y220.890 
G01 X374.871 Y219.988 
G01 X375.004 Y219.080 
G01 X375.116 Y218.166 
G01 X375.207 Y217.249 
G01 X375.278 Y216.327 
G01 X375.328 Y215.403 
G01 X375.357 Y214.476 
G01 X375.365 Y213.547 
G01 X375.353 Y212.618 
G01 X375.320 Y211.688 
G01 X375.266 Y210.759 
G01 X375.192 Y209.831 
G01 X375.098 Y208.905 
G01 X374.983 Y207.982 
G01 X374.847 Y207.062 
G01 X374.691 Y206.147 
G01 X374.514 Y205.236 
G01 X374.317 Y204.330 
G01 X374.100 Y203.432 
G01 X373.862 Y202.540 
G01 X373.604 Y201.655 
G01 X373.325 Y200.780 
G01 X373.026 Y199.913 
G01 X372.707 Y199.056 
G01 X372.367 Y198.210 
G01 X372.007 Y197.376 
G01 X371.627 Y196.553 
G01 X371.226 Y195.744 
G01 X370.868 Y195.062 
G01 X370.508 Y194.414 
G01 X369.795 Y193.226 
G01 X369.097 Y192.167 
G01 X368.426 Y191.233 
G01 X367.794 Y190.420 
G01 X367.213 Y189.719 
G01 X366.266 Y188.652 
G01 X366.132 Y188.495 
G01 X365.987 Y188.300 
G01 X365.838 Y188.061 
G01 X365.700 Y187.783 
G01 X365.585 Y187.467 
G01 X365.504 Y187.108 
G01 X365.482 Y186.928 
G01 X365.473 Y186.731 
G01 X365.479 Y186.526 
G01 X365.502 Y186.304 
G01 X365.595 Y185.720 
G01 X365.672 Y185.044 
G01 X365.738 Y184.127 
G01 X365.808 Y182.325 
G01 X365.823 Y180.823 
G01 X365.801 Y179.622 
G01 X365.760 Y178.721 
G01 X365.725 Y178.286 
G01 X365.690 Y177.872 
G01 X365.678 Y177.477 
G01 X365.685 Y177.300 
G01 X365.703 Y177.124 
G01 X365.741 Y176.917 
G01 X365.789 Y176.730 
G01 X365.923 Y176.368 
G01 X366.087 Y176.060 
G01 X366.273 Y175.794 
G01 X366.470 Y175.568 
G01 X366.660 Y175.387 
G01 X367.013 Y175.118 
G01 X368.213 Y174.335 
G01 X369.832 Y173.253 
G01 X370.786 Y172.588 
G01 X371.827 Y171.836 
G01 X372.953 Y170.990 
G01 X374.159 Y170.046 
G01 X375.283 Y169.124 
G01 X376.341 Y168.211 
G01 X377.335 Y167.312 
G01 X378.266 Y166.427 
G01 X379.136 Y165.561 
G01 X379.947 Y164.715 
G01 X380.701 Y163.892 
G01 X381.400 Y163.094 
G01 X382.045 Y162.324 
G01 X382.639 Y161.586 
G01 X383.183 Y160.880 
G01 X383.680 Y160.208 
G01 X384.533 Y158.989 
G01 X385.219 Y157.942 
G01 X385.766 Y157.056 
G01 X386.292 Y156.156 
G01 X386.797 Y155.241 
G01 X387.280 Y154.313 
G01 X387.741 Y153.373 
G01 X388.179 Y152.421 
G01 X388.595 Y151.459 
G01 X388.988 Y150.486 
G01 X389.358 Y149.504 
G01 X389.703 Y148.514 
G01 X390.025 Y147.517 
G01 X390.323 Y146.513 
G01 X390.595 Y145.503 
G01 X390.843 Y144.488 
G01 X391.065 Y143.469 
G01 X391.261 Y142.447 
G01 X391.419 Y141.494 
G01 X391.555 Y140.536 
G01 X391.669 Y139.573 
G01 X391.760 Y138.607 
G01 X391.829 Y137.638 
G01 X391.875 Y136.667 
G01 X391.899 Y135.695 
G01 X391.901 Y134.723 
G01 X391.881 Y133.750 
G01 X391.838 Y132.778 
G01 X391.774 Y131.809 
G01 X391.687 Y130.841 
G01 X391.579 Y129.877 
G01 X391.449 Y128.917 
G01 X391.297 Y127.961 
G01 X391.123 Y127.011 
G01 X390.891 Y125.906 
G01 X390.629 Y124.805 
G01 X390.336 Y123.709 
G01 X390.014 Y122.621 
G01 X389.662 Y121.539 
G01 X389.282 Y120.467 
G01 X388.874 Y119.403 
G01 X388.438 Y118.351 
G01 X387.975 Y117.310 
G01 X387.486 Y116.281 
G01 X386.971 Y115.266 
G01 X386.431 Y114.265 
G01 X385.866 Y113.280 
G01 X385.276 Y112.312 
G01 X384.663 Y111.361 
G01 X384.026 Y110.427 
G01 X383.893 Y110.246 
G01 X383.742 Y110.024 
G01 X383.582 Y109.739 
G01 X383.510 Y109.579 
G01 X383.441 Y109.396 
G01 X383.385 Y109.202 
G01 X383.335 Y108.951 
G01 X383.304 Y108.654 
G01 X383.303 Y108.322 
G01 X383.344 Y107.956 
G01 X383.382 Y107.779 
G01 X383.436 Y107.592 
G01 X383.505 Y107.402 
G01 X383.592 Y107.211 
G01 X383.698 Y107.019 
G01 X383.825 Y106.826 
G01 X383.937 Y106.684 
G01 X384.057 Y106.552 
G01 X384.350 Y106.281 
G01 X385.031 Y105.746 
G01 X386.185 Y104.836 
G01 X387.329 Y103.904 
G01 X388.461 Y102.950 
G01 X389.577 Y101.975 
G01 X390.677 Y100.979 
G01 X391.758 Y99.962 
G01 X392.819 Y98.923 
G01 X393.858 Y97.862 
G01 X394.874 Y96.779 
G01 X395.864 Y95.674 
G01 X396.827 Y94.546 
G01 X397.762 Y93.396 
G01 X398.665 Y92.223 
G01 X399.536 Y91.028 
G01 X400.373 Y89.809 
G01 X401.174 Y88.567 
G01 X402.005 Y87.183 
G01 X402.790 Y85.768 
G01 X403.528 Y84.325 
G01 X404.215 Y82.857 
G01 X404.850 Y81.366 
G01 X405.433 Y79.854 
G01 X405.960 Y78.324 
G01 X406.430 Y76.780 
G01 X406.657 Y75.950 
G01 X406.890 Y75.027 
G01 X407.122 Y74.011 
G01 X407.347 Y72.905 
G01 X407.556 Y71.709 
G01 X407.745 Y70.426 
G01 X407.905 Y69.058 
G01 X408.029 Y67.606 
G01 X408.112 Y66.073 
G01 X408.145 Y64.460 
G01 X408.123 Y62.772 
G01 X408.089 Y61.896 
G01 X408.038 Y61.003 
G01 X407.970 Y60.092 
G01 X407.883 Y59.163 
G01 X407.777 Y58.215 
G01 X407.652 Y57.250 
G01 X407.506 Y56.268 
G01 X407.338 Y55.268 
G01 X407.147 Y54.251 
G01 X406.933 Y53.216 
G01 X406.530 Y51.492 
G01 X406.071 Y49.777 
G01 X405.558 Y48.073 
G01 X404.993 Y46.382 
G01 X404.376 Y44.706 
G01 X403.709 Y43.047 
G01 X402.994 Y41.407 
G01 X402.232 Y39.787 
G01 X401.423 Y38.188 
G01 X400.571 Y36.614 
G01 X399.675 Y35.065 
G01 X398.738 Y33.543 
G01 X397.761 Y32.051 
G01 X396.744 Y30.589 
G01 X395.690 Y29.159 
G01 X394.601 Y27.765 
G01 X393.783 Y26.770 
G01 X392.945 Y25.792 
G01 X392.086 Y24.831 
G01 X391.206 Y23.886 
G01 X390.308 Y22.958 
G01 X389.390 Y22.048 
G01 X388.455 Y21.156 
G01 X387.502 Y20.282 
G01 X386.533 Y19.427 
G01 X385.547 Y18.591 
G01 X384.546 Y17.773 
G01 X383.530 Y16.976 
G01 X382.500 Y16.198 
G01 X381.457 Y15.440 
G01 X380.400 Y14.703 
G01 X379.332 Y13.987 
G01 X378.171 Y13.241 
G01 X376.995 Y12.518 
G01 X375.803 Y11.816 
G01 X374.598 Y11.137 
G01 X373.379 Y10.480 
G01 X372.147 Y9.844 
G01 X370.902 Y9.230 
G01 X369.646 Y8.638 
G01 X368.378 Y8.067 
G01 X367.099 Y7.516 
G01 X365.811 Y6.987 
G01 X364.512 Y6.479 
G01 X363.205 Y5.991 
G01 X361.889 Y5.523 
G01 X360.566 Y5.076 
G01 X359.234 Y4.649 
G01 X357.897 Y4.241 
G01 X356.553 Y3.854 
G01 X355.203 Y3.485 
G01 X353.848 Y3.137 
G01 X352.489 Y2.807 
G01 X351.126 Y2.496 
G01 X349.759 Y2.204 
G01 X348.390 Y1.931 
G01 X347.018 Y1.677 
G01 X345.645 Y1.440 
G01 X344.270 Y1.222 
G01 X342.895 Y1.022 
G01 X341.520 Y0.840 
G01 X340.146 Y0.675 
G01 X338.772 Y0.528 
G01 X337.401 Y0.398 
G01 X335.997 Y0.283 
G01 X334.589 Y0.186 
G01 X333.178 Y0.107 
G01 X331.765 Y0.046 
G01 X330.349 Y0.003 
G01 X328.931 Y-0.021 
G01 X327.512 Y-0.028 
G01 X326.091 Y-0.015 
G01 X324.670 Y0.015 
G01 X323.248 Y0.064 
G01 X321.826 Y0.132 
G01 X320.405 Y0.218 
G01 X318.985 Y0.323 
G01 X317.566 Y0.447 
G01 X316.148 Y0.589 
G01 X314.733 Y0.750 
G01 X313.320 Y0.931 
G01 X311.910 Y1.130 
G01 X310.503 Y1.348 
G01 X309.100 Y1.585 
G01 X307.701 Y1.842 
G01 X306.306 Y2.118 
G01 X304.916 Y2.413 
G01 X303.531 Y2.727 
G01 X302.152 Y3.061 
G01 X300.779 Y3.415 
G01 X299.412 Y3.788 
G01 X298.053 Y4.180 
G01 X296.700 Y4.593 
G01 X295.355 Y5.025 
G01 X294.019 Y5.477 
G01 X292.690 Y5.949 
G01 X290.859 Y6.638 
G01 X289.039 Y7.369 
G01 X287.231 Y8.142 
G01 X285.439 Y8.956 
G01 X283.663 Y9.812 
G01 X281.906 Y10.710 
G01 X280.170 Y11.648 
G01 X278.456 Y12.628 
G01 X276.767 Y13.648 
G01 X275.104 Y14.708 
G01 X273.469 Y15.810 
G01 X271.865 Y16.951 
G01 X270.292 Y18.132 
G01 X268.754 Y19.354 
G01 X267.251 Y20.615 
G01 X265.787 Y21.915 
G01 X264.778 Y22.856 
G01 X263.786 Y23.820 
G01 X262.814 Y24.806 
G01 X261.861 Y25.813 
G01 X260.928 Y26.842 
G01 X260.017 Y27.890 
G01 X259.129 Y28.958 
G01 X258.263 Y30.046 
G01 X257.422 Y31.152 
G01 X256.606 Y32.276 
G01 X255.816 Y33.418 
G01 X255.053 Y34.577 
G01 X254.318 Y35.752 
G01 X253.612 Y36.943 
G01 X252.935 Y38.150 
G01 X252.289 Y39.371 
G01 X251.762 Y40.427 
G01 X251.257 Y41.497 
G01 X250.775 Y42.579 
G01 X250.316 Y43.672 
G01 X249.881 Y44.776 
G01 X249.469 Y45.889 
G01 X249.081 Y47.012 
G01 X248.717 Y48.143 
G01 X248.377 Y49.282 
G01 X248.062 Y50.427 
G01 X247.771 Y51.578 
G01 X247.505 Y52.735 
G01 X247.265 Y53.896 
G01 X247.050 Y55.060 
G01 X246.860 Y56.227 
G01 X246.697 Y57.398 
G01 X246.520 Y58.952 
G01 X246.388 Y60.516 
G01 X246.301 Y62.087 
G01 X246.257 Y63.662 
G01 X246.258 Y65.240 
G01 X246.303 Y66.819 
G01 X246.391 Y68.398 
G01 X246.523 Y69.974 
G01 X246.698 Y71.546 
G01 X246.917 Y73.112 
G01 X247.178 Y74.670 
G01 X247.482 Y76.219 
G01 X247.829 Y77.756 
G01 X248.218 Y79.280 
G01 X248.649 Y80.789 
G01 X249.122 Y82.280 
G01 X249.489 Y83.342 
G01 X249.878 Y84.396 
G01 X250.292 Y85.444 
G01 X250.728 Y86.484 
G01 X251.188 Y87.515 
G01 X251.670 Y88.537 
G01 X252.175 Y89.548 
G01 X252.702 Y90.548 
G01 X253.252 Y91.535 
G01 X253.824 Y92.510 
G01 X254.418 Y93.471 
G01 X255.034 Y94.417 
G01 X255.672 Y95.347 
G01 X256.331 Y96.260 
G01 X257.011 Y97.156 
G01 X257.712 Y98.033 
G01 X258.301 Y98.737 
G01 X258.905 Y99.428 
G01 X259.523 Y100.107 
G01 X260.156 Y100.774 
G01 X260.803 Y101.428 
G01 X261.463 Y102.070 
G01 X262.136 Y102.699 
G01 X262.821 Y103.314 
G01 X263.518 Y103.916 
G01 X264.227 Y104.504 
G01 X264.947 Y105.078 
G01 X265.677 Y105.638 
G01 X266.417 Y106.183 
G01 X267.167 Y106.713 
G01 X267.926 Y107.228 
G01 X268.694 Y107.728 
G01 X269.054 Y107.951 
G01 X269.391 Y108.168 
G01 X269.542 Y108.281 
G01 X269.720 Y108.438 
G01 X269.911 Y108.637 
G01 X270.100 Y108.878 
G01 X270.277 Y109.161 
G01 X270.431 Y109.495 
G01 X270.491 Y109.666 
G01 X270.543 Y109.857 
G01 X270.582 Y110.059 
G01 X270.608 Y110.268 
G01 X270.615 Y110.626 
G01 X270.584 Y110.944 
G01 X270.521 Y111.233 
G01 X270.436 Y111.493 
G01 X270.337 Y111.725 
G01 X270.233 Y111.927 
G01 X270.029 Y112.266 
G01 X269.284 Y113.506 
G01 X268.573 Y114.776 
G01 X267.901 Y116.069 
G01 X267.268 Y117.383 
G01 X266.676 Y118.715 
G01 X266.125 Y120.064 
G01 X265.616 Y121.428 
G01 X265.151 Y122.805 
G01 X264.839 Y123.818 
G01 X264.550 Y124.840 
G01 X264.285 Y125.870 
G01 X264.044 Y126.907 
G01 X263.827 Y127.951 
G01 X263.634 Y129.001 
G01 X263.466 Y130.055 
G01 X263.323 Y131.114 
G01 X263.205 Y132.175 
G01 X263.113 Y133.239 
G01 X263.046 Y134.304 
G01 X263.006 Y135.369 
G01 X262.993 Y136.434 
G01 X263.006 Y137.498 
G01 X263.046 Y138.559 
G01 X263.114 Y139.617 
G01 X263.198 Y140.557 
G01 X263.305 Y141.495 
G01 X263.434 Y142.431 
G01 X263.586 Y143.365 
G01 X263.759 Y144.297 
G01 X263.954 Y145.224 
G01 X264.170 Y146.148 
G01 X264.407 Y147.067 
G01 X264.664 Y147.980 
G01 X264.942 Y148.887 
G01 X265.239 Y149.787 
G01 X265.557 Y150.679 
G01 X265.894 Y151.564 
G01 X266.250 Y152.439 
G01 X266.625 Y153.305 
G01 X267.018 Y154.161 
G01 X267.425 Y154.997 
G01 X267.851 Y155.825 
G01 X268.296 Y156.645 
G01 X268.759 Y157.457 
G01 X269.240 Y158.260 
G01 X269.738 Y159.054 
G01 X270.253 Y159.839 
G01 X270.784 Y160.615 
G01 X271.332 Y161.381 
G01 X271.895 Y162.137 
G01 X272.473 Y162.883 
G01 X273.066 Y163.618 
G01 X273.673 Y164.343 
G01 X274.294 Y165.057 
G01 X274.928 Y165.760 
G01 X275.576 Y166.452 
G01 X276.236 Y167.132 
G01 X276.908 Y167.800 
G01 X277.592 Y168.455 
G01 X278.287 Y169.099 
G01 X278.993 Y169.730 
G01 X279.709 Y170.348 
G01 X280.436 Y170.952 
G01 X281.172 Y171.544 
G01 X281.917 Y172.121 
G01 X282.671 Y172.685 
G01 X283.433 Y173.235 
G01 X284.203 Y173.770 
G01 X284.981 Y174.290 
G01 X285.766 Y174.796 
G01 X286.557 Y175.286 
G01 X287.355 Y175.762 
G01 X288.635 Y176.487 
G01 X289.587 Y176.996 
G01 X290.425 Y177.420 
G01 X290.580 Y177.520 
G01 X290.773 Y177.667 
G01 X290.982 Y177.857 
G01 X291.192 Y178.090 
G01 X291.391 Y178.366 
G01 X291.570 Y178.695 
G01 X291.641 Y178.866 
G01 X291.705 Y179.056 
G01 X291.757 Y179.260 
G01 X291.793 Y179.467 
G01 X291.814 Y179.813 
G01 X291.812 Y180.324 
G01 X291.808 Y180.992 
G01 X291.828 Y181.800 
G01 X291.886 Y182.858 
G01 X291.959 Y183.828 
G01 X292.043 Y184.713 
G01 X292.135 Y185.515 
G01 X292.334 Y186.857 
G01 X292.533 Y187.845 
G01 X292.570 Y188.036 
G01 X292.597 Y188.258 
G01 X292.606 Y188.519 
G00 Z5.080
G00 X444.872 Y105.528  F36000.0
G01 Z-4.000 F1200.0 M3
G01 X445.027 Y105.776  F18000.0
G01 X445.196 Y106.010 
G01 X445.377 Y106.230 
G01 X445.402 Y106.257 
G01 X445.430 Y106.287 
G01 X445.435 Y106.292 
G01 X445.571 Y106.437 
G01 X445.752 Y106.607 
G01 X445.769 Y106.624 
G01 X445.974 Y106.793 
G01 X445.998 Y106.811 
G01 X446.219 Y106.972 
G01 X446.510 Y107.151 
G01 X446.572 Y107.182 
G01 X446.690 Y107.252 
G01 X446.866 Y107.329 
G01 X446.905 Y107.346 
G01 X446.906 Y107.346 
G01 X447.192 Y107.472 
G01 X447.716 Y107.630 
G01 X447.991 Y107.679 
G01 X448.115 Y107.701 
G01 X448.145 Y107.705 
G01 X448.255 Y107.725 
G01 X448.358 Y107.730 
G01 X448.428 Y107.738 
G01 X448.737 Y107.753 
G01 X448.771 Y107.752 
G01 X448.795 Y107.754 
G01 X448.929 Y107.748 
G01 X449.059 Y107.745 
G01 X449.392 Y107.712 
G01 X449.555 Y107.683 
G01 X449.627 Y107.671 
G01 X449.654 Y107.665 
G01 X449.733 Y107.651 
G01 X449.831 Y107.625 
G01 X449.899 Y107.609 
G01 X449.986 Y107.583 
G01 X450.081 Y107.558 
G01 X450.127 Y107.542 
G01 X450.168 Y107.530 
G01 X450.434 Y107.432 
G01 X450.696 Y107.317 
G01 X450.729 Y107.300 
G01 X450.767 Y107.283 
G01 X450.862 Y107.231 
G01 X450.952 Y107.184 
G01 X450.996 Y107.157 
G01 X451.062 Y107.121 
G01 X451.152 Y107.063 
G01 X451.202 Y107.033 
G01 X451.243 Y107.004 
G01 X451.320 Y106.953 
G01 X451.404 Y106.891 
G01 X451.444 Y106.863 
G01 X451.480 Y106.835 
G01 X451.549 Y106.783 
G01 X451.599 Y106.738 
G01 X451.679 Y106.675 
G01 X451.831 Y106.535 
G01 X451.891 Y106.482 
G01 X452.122 Y106.257 
G01 X452.541 Y105.866 
G01 X452.949 Y105.505 
G01 X453.747 Y104.852 
G01 X454.469 Y104.319 
G01 X454.581 Y104.242 
G01 X454.880 Y104.042 
G01 X454.945 Y103.999 
G01 X455.133 Y103.878 
G01 X455.329 Y103.755 
G01 X455.532 Y103.631 
G01 X455.742 Y103.506 
G01 X455.960 Y103.379 
G01 X456.184 Y103.252 
G01 X456.416 Y103.124 
G01 X456.656 Y102.995 
G01 X456.736 Y102.953 
G01 X457.415 Y102.609 
G01 X458.314 Y102.194 
G01 X458.365 Y102.172 
G01 X459.463 Y101.721 
G01 X459.491 Y101.710 
G01 X460.107 Y101.483 
G01 X460.797 Y101.249 
G01 X461.537 Y101.020 
G01 X462.328 Y100.801 
G01 X463.169 Y100.593 
G01 X464.059 Y100.402 
G01 X465.000 Y100.230 
G01 X465.989 Y100.082 
G01 X467.029 Y99.961 
G01 X468.117 Y99.870 
G01 X469.255 Y99.813 
G01 X470.441 Y99.795 
G01 X471.849 Y99.820 
G01 X472.038 Y99.826 
G01 X472.436 Y99.843 
G01 X473.236 Y99.885 
G01 X474.035 Y99.938 
G01 X474.832 Y100.001 
G01 X475.627 Y100.072 
G01 X476.420 Y100.150 
G01 X477.210 Y100.236 
G01 X477.996 Y100.329 
G01 X478.410 Y100.382 
G01 X479.557 Y100.538 
G01 X480.827 Y100.737 
G01 X480.849 Y100.741 
G01 X482.123 Y100.972 
G01 X483.397 Y101.238 
G01 X484.661 Y101.542 
G01 X485.911 Y101.888 
G01 X487.144 Y102.279 
G01 X488.357 Y102.717 
G01 X489.550 Y103.208 
G01 X490.205 Y103.506 
G01 X490.855 Y103.822 
G01 X491.498 Y104.153 
G01 X492.135 Y104.500 
G01 X492.765 Y104.860 
G01 X493.386 Y105.233 
G01 X494.616 Y106.019 
G01 X495.820 Y106.848 
G01 X497.000 Y107.714 
G01 X498.157 Y108.611 
G01 X499.292 Y109.532 
G01 X501.029 Y110.997 
G01 X501.510 Y111.408 
G01 X502.613 Y112.353 
G01 X503.725 Y113.298 
G01 X504.288 Y113.769 
G01 X504.856 Y114.238 
G01 X505.431 Y114.704 
G01 X506.013 Y115.167 
G01 X506.603 Y115.625 
G01 X507.202 Y116.079 
G01 X507.809 Y116.526 
G01 X508.424 Y116.965 
G01 X509.047 Y117.395 
G01 X509.363 Y117.607 
G01 X509.680 Y117.816 
G01 X509.998 Y118.022 
G01 X510.319 Y118.225 
G01 X510.641 Y118.425 
G01 X510.965 Y118.621 
G01 X511.290 Y118.814 
G01 X511.617 Y119.002 
G01 X511.945 Y119.187 
G01 X512.274 Y119.367 
G01 X512.604 Y119.543 
G01 X512.935 Y119.714 
G01 X513.266 Y119.880 
G01 X513.599 Y120.041 
G01 X513.931 Y120.197 
G01 X514.264 Y120.347 
G01 X514.598 Y120.492 
G01 X514.931 Y120.631 
G01 X515.264 Y120.764 
G01 X515.597 Y120.890 
G01 X515.756 Y120.948 
