%
( trays x7 1250x400noRoundreal ) ( File created: Saturday November 23 2024 - 03:24 PM)
( for LinuxCNC )
( Material Size) ( X= 1250.000, Y= 400.000, Z= 20.000)
G90 (Incremental distance mode)
G17 G21 (Active Plane: XY)(Metric Mode)
G40 G49 G80(Tool Diameter, Length compensation & canned cycles OFF)
G64 P0.05 Q0.05(Path Blending)
T22 M06 (TOOL USE Radiused End Mill Tip 2 - 16 mm Rough)
G90 (absolute distance mode)
G54 (Coordinate System)
S18000M3
G00 Z40.320
G4 P6
( bowl )
G00 X154.539 Y51.648 Z25.080 F6000.0
G01 Z20.000 F1200.0 M3
G01 Z19.792 
G01 Z19.599 
G01 Z19.410 
G01 Z19.277 
G01 Z19.110 
G01 Z18.943 
G01 Z18.776 
G01 Z18.608 
G01 Z18.440 
G01 Z18.272 
G01 Z18.103 
G01 Z17.934 
G01 Z17.765 
G01 Z17.595 
G01 Z17.428 
G01 Z17.203 
G01 Z16.979 
G01 Z16.764 
G01 Z16.546 
G01 Z16.500 
G01 Z16.454 
G01 Z16.236 
G01 Z16.021 
G01 Z15.797 
G01 Z15.572 
G01 Z15.405 
G01 Z15.235 
G01 Z15.066 
G01 Z14.897 
G01 Z14.728 
G01 Z14.560 
G01 Z14.392 
G01 Z14.224 
G01 Z14.057 
G01 Z13.890 
G01 Z13.723 
G01 Z13.590 
G01 Z13.401 
G01 Z13.208 
G01 Z13.000 
G01 X151.976 Y50.138  F3000.0
G01 X149.563 Y48.800 
G01 X147.172 Y47.553 
G01 X145.360 Y46.986 
G01 X143.076 Y46.313 
G01 X140.776 Y45.678 
G01 X138.461 Y45.080 
G01 X136.132 Y44.522 
G01 X133.788 Y44.003 
G01 X131.431 Y43.525 
G01 X129.060 Y43.088 
G01 X126.678 Y42.694 
G01 X124.283 Y42.344 
G01 X121.878 Y42.038 
G01 X119.501 Y41.781 
G01 X116.311 Y41.508 
G01 X113.103 Y41.312 
G01 X110.044 Y41.198 
G01 X106.930 Y41.153 
G01 X103.831 Y41.176 
G01 X100.749 Y41.264 
G01 X97.684 Y41.415 
G01 X94.639 Y41.625 
G01 X91.613 Y41.892 
G01 X88.608 Y42.212 
G01 X85.624 Y42.584 
G01 X84.162 Y42.791 
G01 X82.447 Y43.357 
G01 X79.640 Y44.357 
G01 X76.904 Y45.415 
G01 X79.694 Y44.337 
G01 X82.525 Y43.331 
G01 X84.162 Y42.791 
G01 X86.010 Y41.851 
G01 X87.223 Y41.267 
G01 X88.390 Y40.731 
G01 X89.536 Y40.228 
G01 X90.662 Y39.757 
G01 X92.853 Y38.904 
G01 X94.960 Y38.166 
G01 X96.980 Y37.531 
G01 X98.912 Y36.992 
G01 X100.753 Y36.541 
G01 X102.502 Y36.170 
G01 X104.156 Y35.870 
G01 X105.635 Y35.645 
G01 X107.175 Y35.455 
G01 X108.530 Y35.325 
G01 X109.783 Y35.237 
G01 X110.932 Y35.184 
G01 X111.978 Y35.159 
G01 X113.884 Y35.171 
G01 X115.843 Y35.263 
G01 X117.817 Y35.434 
G01 X119.800 Y35.683 
G01 X121.782 Y36.012 
G01 X123.755 Y36.416 
G01 X125.710 Y36.896 
G01 X127.640 Y37.448 
G01 X129.426 Y38.030 
G01 X131.352 Y38.735 
G01 X132.439 Y39.169 
G01 X133.608 Y39.664 
G01 X134.858 Y40.227 
G01 X136.187 Y40.861 
G01 X137.593 Y41.573 
G01 X139.137 Y42.402 
G01 X140.627 Y43.251 
G01 X142.245 Y44.227 
G01 X143.929 Y45.303 
G01 X145.674 Y46.484 
G01 X147.172 Y47.553 
G01 X149.614 Y48.828 
G01 X151.976 Y50.138 
G01 X154.539 Y51.648 
G01 X159.023 Y47.503  
G01 X160.973 Y49.301  
G01 X162.879 Y51.156 
G01 X164.738 Y53.065 
G01 X166.547 Y55.026 
G01 X168.305 Y57.036 
G01 X170.010 Y59.091 
G01 X170.818 Y60.105 
G01 X172.230 Y61.944 
G01 X173.589 Y63.796 
G01 X174.922 Y65.693 
G01 X176.229 Y67.632 
G01 X177.905 Y70.241 
G01 X179.474 Y71.864 
G01 X180.925 Y73.413 
G01 X182.561 Y75.221 
G01 X180.738 Y73.209 
G01 X179.077 Y71.446 
G01 X177.905 Y70.241 
G01 X176.535 Y69.358 
G01 X174.969 Y68.381 
G01 X173.392 Y67.430 
G01 X171.803 Y66.503 
G01 X170.204 Y65.600 
G01 X168.595 Y64.722 
G01 X166.977 Y63.867 
G01 X165.351 Y63.037 
G01 X163.716 Y62.229 
G01 X162.075 Y61.445 
G01 X160.426 Y60.684 
G01 X158.771 Y59.946 
G01 X157.110 Y59.230 
G01 X155.443 Y58.536 
G01 X153.758 Y57.858 
G01 X151.686 Y57.058 
G01 X149.583 Y56.285 
G01 X147.464 Y55.545 
G01 X145.329 Y54.839 
G01 X143.180 Y54.167 
G01 X141.016 Y53.529 
G01 X138.839 Y52.928 
G01 X136.649 Y52.362 
G01 X134.446 Y51.834 
G01 X132.231 Y51.344 
G01 X130.005 Y50.893 
G01 X127.768 Y50.481 
G01 X125.522 Y50.109 
G01 X123.266 Y49.779 
G01 X121.001 Y49.490 
G01 X118.756 Y49.248 
G01 X115.763 Y48.992 
G01 X112.757 Y48.809 
G01 X109.849 Y48.700 
G01 X106.903 Y48.657 
G01 X103.966 Y48.679 
G01 X101.041 Y48.763 
G01 X98.127 Y48.906 
G01 X95.227 Y49.106 
G01 X92.340 Y49.361 
G01 X89.469 Y49.667 
G01 X86.615 Y50.022 
G01 X83.777 Y50.425 
G01 X80.958 Y50.871 
G01 X78.159 Y51.360 
G01 X75.380 Y51.889 
G01 X72.614 Y52.457 
G01 X69.432 Y53.160 
G01 X66.242 Y53.920 
G01 X63.051 Y54.740 
G01 X59.898 Y55.611 
G01 X56.677 Y56.569 
G01 X56.086 Y56.755 
G01 X54.415 Y57.991 
G01 X52.618 Y59.390 
G01 X54.415 Y57.991 
G01 X56.086 Y56.755 
G01 X56.979 Y55.537 
G01 X58.189 Y53.995 
G01 X59.461 Y52.486 
G01 X60.798 Y51.006 
G01 X62.198 Y49.555 
G01 X63.658 Y48.135 
G01 X65.175 Y46.749 
G01 X66.746 Y45.398 
G01 X68.367 Y44.084 
G01 X70.036 Y42.809 
G01 X71.748 Y41.574 
G01 X73.501 Y40.382 
G01 X75.289 Y39.233 
G01 X77.110 Y38.129 
G01 X78.959 Y37.072 
G01 X80.832 Y36.063 
G01 X82.708 Y35.112 
G01 X84.030 Y34.476 
G01 X85.315 Y33.886 
G01 X86.579 Y33.331 
G01 X87.824 Y32.810 
G01 X89.048 Y32.322 
G01 X90.252 Y31.865 
G01 X91.434 Y31.440 
G01 X92.594 Y31.044 
G01 X94.849 Y30.336 
G01 X97.013 Y29.732 
G01 X99.082 Y29.226 
G01 X101.054 Y28.807 
G01 X102.925 Y28.467 
G01 X104.641 Y28.207 
G01 X106.357 Y27.995 
G01 X107.908 Y27.846 
G01 X109.345 Y27.745 
G01 X110.668 Y27.684 
G01 X111.875 Y27.655 
G01 X112.954 Y27.651 
G01 X114.082 Y27.669 
G01 X115.210 Y27.711 
G01 X116.342 Y27.775 
G01 X117.475 Y27.862 
G01 X118.611 Y27.971 
G01 X119.747 Y28.103 
G01 X120.882 Y28.258 
G01 X122.017 Y28.434 
G01 X123.149 Y28.633 
G01 X124.278 Y28.853 
G01 X125.402 Y29.095 
G01 X126.522 Y29.358 
G01 X127.636 Y29.643 
G01 X128.742 Y29.948 
G01 X129.840 Y30.273 
G01 X131.879 Y30.938 
G01 X132.927 Y31.310 
G01 X134.065 Y31.739 
G01 X135.294 Y32.229 
G01 X136.610 Y32.787 
G01 X138.013 Y33.417 
G01 X139.499 Y34.126 
G01 X141.064 Y34.919 
G01 X142.748 Y35.823 
G01 X144.421 Y36.776 
G01 X146.203 Y37.852 
G01 X148.051 Y39.032 
G01 X149.960 Y40.324 
G01 X151.927 Y41.732 
G01 X153.948 Y43.263 
G01 X156.018 Y44.920 
G01 X158.032 Y46.627 
G01 X159.023 Y47.503 
G01 X164.032 Y41.916  
G01 X166.134 Y43.853  
G01 X168.186 Y45.850 
G01 X170.185 Y47.904 
G01 X172.129 Y50.011 
G01 X174.018 Y52.170 
G01 X175.848 Y54.376 
G01 X176.728 Y55.481 
G01 X178.231 Y57.438 
G01 X179.685 Y59.419 
G01 X181.104 Y61.438 
G01 X182.489 Y63.494 
G01 X183.844 Y65.584 
G01 X185.169 Y67.707 
G01 X186.468 Y69.860 
G01 X187.742 Y72.041 
G01 X188.993 Y74.249 
G01 X190.223 Y76.481 
G01 X191.435 Y78.735 
G01 X192.630 Y81.009 
G01 X194.977 Y85.598 
G01 X197.650 Y90.992 
G01 X197.853 Y91.487 
G01 X197.952 Y91.869 
G01 X197.988 Y92.170 
G01 X197.974 Y92.509 
G01 X197.936 Y92.693 
G01 X197.825 Y92.991 
G01 X197.603 Y93.373 
G01 X197.337 Y93.691 
G01 X197.087 Y93.923 
G01 X196.737 Y94.179 
G01 X196.270 Y94.423 
G01 X195.768 Y94.598 
G01 X195.336 Y94.678 
G01 X194.908 Y94.670 
G01 X194.617 Y94.606 
G01 X194.357 Y94.498 
G01 X194.074 Y94.323 
G01 X193.785 Y94.079 
G01 X193.295 Y93.530 
G01 X192.319 Y92.353 
G01 X191.142 Y91.019 
G01 X189.753 Y89.530 
G01 X188.058 Y87.822 
G01 X187.120 Y86.921 
G01 X186.113 Y85.985 
G01 X185.036 Y85.018 
G01 X183.887 Y84.023 
G01 X182.666 Y83.001 
G01 X181.370 Y81.956 
G01 X179.998 Y80.891 
G01 X178.550 Y79.807 
G01 X177.023 Y78.709 
G01 X175.422 Y77.601 
G01 X173.974 Y76.635 
G01 X172.516 Y75.695 
G01 X171.045 Y74.778 
G01 X169.562 Y73.883 
G01 X168.068 Y73.011 
G01 X166.562 Y72.161 
G01 X165.045 Y71.333 
G01 X163.519 Y70.527 
G01 X161.983 Y69.742 
G01 X160.438 Y68.979 
G01 X158.885 Y68.238 
G01 X157.324 Y67.517 
G01 X155.756 Y66.818 
G01 X154.182 Y66.139 
G01 X152.601 Y65.481 
G01 X151.008 Y64.840 
G01 X149.041 Y64.081 
G01 X147.051 Y63.350 
G01 X145.048 Y62.650 
G01 X143.030 Y61.982 
G01 X141.000 Y61.347 
G01 X138.957 Y60.745 
G01 X136.902 Y60.178 
G01 X134.836 Y59.644 
G01 X132.760 Y59.147 
G01 X130.674 Y58.685 
G01 X128.580 Y58.260 
G01 X126.477 Y57.873 
G01 X124.366 Y57.524 
G01 X122.249 Y57.214 
G01 X120.125 Y56.943 
G01 X118.010 Y56.715 
G01 X115.215 Y56.476 
G01 X112.411 Y56.305 
G01 X109.654 Y56.202 
G01 X106.876 Y56.161 
G01 X104.102 Y56.182 
G01 X101.333 Y56.261 
G01 X98.570 Y56.397 
G01 X95.814 Y56.588 
G01 X93.068 Y56.830 
G01 X90.331 Y57.122 
G01 X87.605 Y57.461 
G01 X84.891 Y57.846 
G01 X82.191 Y58.274 
G01 X79.505 Y58.743 
G01 X76.835 Y59.250 
G01 X74.178 Y59.796 
G01 X71.111 Y60.473 
G01 X68.045 Y61.204 
G01 X64.984 Y61.991 
G01 X61.950 Y62.830 
G01 X58.888 Y63.740 
G01 X55.857 Y64.709 
G01 X52.841 Y65.745 
G01 X49.827 Y66.855 
G01 X47.371 Y67.821 
G01 X44.858 Y68.872 
G01 X42.368 Y69.988 
G01 X39.962 Y71.147 
G01 X40.882 Y68.995 
G01 X42.270 Y65.907 
G01 X43.364 Y63.611 
G01 X44.539 Y61.293 
G01 X45.678 Y59.193 
G01 X46.750 Y57.338 
G01 X47.783 Y55.654 
G01 X48.726 Y54.202 
G01 X49.582 Y52.950 
G01 X50.343 Y51.886 
G01 X51.675 Y50.126 
G01 X53.080 Y48.400 
G01 X54.552 Y46.713 
G01 X56.090 Y45.066 
G01 X57.689 Y43.461 
G01 X59.347 Y41.898 
G01 X61.061 Y40.380 
G01 X62.826 Y38.906 
G01 X64.639 Y37.479 
G01 X66.498 Y36.100 
G01 X68.398 Y34.769 
G01 X70.335 Y33.488 
G01 X72.306 Y32.258 
G01 X74.307 Y31.080 
G01 X76.334 Y29.955 
G01 X78.384 Y28.884 
G01 X80.837 Y27.685 
G01 X82.240 Y27.041 
G01 X83.623 Y26.434 
G01 X84.986 Y25.863 
G01 X86.329 Y25.328 
G01 X87.650 Y24.827 
G01 X88.951 Y24.358 
G01 X90.229 Y23.922 
G01 X91.485 Y23.516 
G01 X92.718 Y23.140 
G01 X95.114 Y22.473 
G01 X97.411 Y21.910 
G01 X99.606 Y21.443 
G01 X101.695 Y21.064 
G01 X103.647 Y20.768 
G01 X105.540 Y20.535 
G01 X107.285 Y20.368 
G01 X108.908 Y20.253 
G01 X110.405 Y20.184 
G01 X111.773 Y20.151 
G01 X113.002 Y20.147 
G01 X114.281 Y20.168 
G01 X115.560 Y20.215 
G01 X116.840 Y20.287 
G01 X118.122 Y20.385 
G01 X119.404 Y20.509 
G01 X120.685 Y20.658 
G01 X121.965 Y20.832 
G01 X123.242 Y21.031 
G01 X124.516 Y21.254 
G01 X125.786 Y21.502 
G01 X127.050 Y21.774 
G01 X128.309 Y22.070 
G01 X129.561 Y22.389 
G01 X130.805 Y22.732 
G01 X132.041 Y23.098 
G01 X133.273 Y23.489 
G01 X135.505 Y24.263 
G01 X136.778 Y24.742 
G01 X138.148 Y25.289 
G01 X139.613 Y25.909 
G01 X141.168 Y26.608 
G01 X142.810 Y27.392 
G01 X144.534 Y28.265 
G01 X146.359 Y29.245 
G01 X148.215 Y30.302 
G01 X150.161 Y31.476 
G01 X152.173 Y32.762 
G01 X154.246 Y34.164 
G01 X156.376 Y35.689 
G01 X158.559 Y37.342 
G01 X160.789 Y39.128 
G01 X161.882 Y40.041 
G01 X164.032 Y41.916 
G00 Z25.080
G00 X154.539 Y51.648  F6000.0
G01 Z13.000 F1200.0 M3
G01 Z12.792 
G01 Z12.599 
G01 Z12.410 
G01 Z12.277 
G01 Z12.110 
G01 Z11.943 
G01 Z11.776 
G01 Z11.608 
G01 Z11.440 
G01 Z11.272 
G01 Z11.103 
G01 Z10.934 
G01 Z10.765 
G01 Z10.595 
G01 Z10.428 
G01 Z10.203 
G01 Z9.979 
G01 Z9.764 
G01 Z9.546 
G01 Z9.500 
G01 Z9.454 
G01 Z9.236 
G01 Z9.021 
G01 Z8.797 
G01 Z8.572 
G01 Z8.405 
G01 Z8.235 
G01 Z8.066 
G01 Z7.897 
G01 Z7.728 
G01 Z7.560 
G01 Z7.392 
G01 Z7.224 
G01 Z7.057 
G01 Z6.890 
G01 Z6.723 
G01 Z6.590 
G01 Z6.401 
G01 Z6.208 
G01 Z6.000 
G01 X151.976 Y50.138  F3000.0
G01 X149.563 Y48.800 
G01 X147.172 Y47.553 
G01 X145.360 Y46.986 
G01 X143.076 Y46.313 
G01 X140.776 Y45.678 
G01 X138.461 Y45.080 
G01 X136.132 Y44.522 
G01 X133.788 Y44.003 
G01 X131.431 Y43.525 
G01 X129.060 Y43.088 
G01 X126.678 Y42.694 
G01 X124.283 Y42.344 
G01 X121.878 Y42.038 
G01 X119.501 Y41.781 
G01 X116.311 Y41.508 
G01 X113.103 Y41.312 
G01 X110.044 Y41.198 
G01 X106.930 Y41.153 
G01 X103.831 Y41.176 
G01 X100.749 Y41.264 
G01 X97.684 Y41.415 
G01 X94.639 Y41.625 
G01 X91.613 Y41.892 
G01 X88.608 Y42.212 
G01 X85.624 Y42.584 
G01 X84.162 Y42.791 
G01 X82.447 Y43.357 
G01 X79.640 Y44.357 
G01 X76.904 Y45.415 
G01 X79.694 Y44.337 
G01 X82.525 Y43.331 
G01 X84.162 Y42.791 
G01 X86.010 Y41.851 
G01 X87.223 Y41.267 
G01 X88.390 Y40.731 
G01 X89.536 Y40.228 
G01 X90.662 Y39.757 
G01 X92.853 Y38.904 
G01 X94.960 Y38.166 
G01 X96.980 Y37.531 
G01 X98.912 Y36.992 
G01 X100.753 Y36.541 
G01 X102.502 Y36.170 
G01 X104.156 Y35.870 
G01 X105.635 Y35.645 
G01 X107.175 Y35.455 
G01 X108.530 Y35.325 
G01 X109.783 Y35.237 
G01 X110.932 Y35.184 
G01 X111.978 Y35.159 
G01 X113.884 Y35.171 
G01 X115.843 Y35.263 
G01 X117.817 Y35.434 
G01 X119.800 Y35.683 
G01 X121.782 Y36.012 
G01 X123.755 Y36.416 
G01 X125.710 Y36.896 
G01 X127.640 Y37.448 
G01 X129.426 Y38.030 
G01 X131.352 Y38.735 
G01 X132.439 Y39.169 
G01 X133.608 Y39.664 
G01 X134.858 Y40.227 
G01 X136.187 Y40.861 
G01 X137.593 Y41.573 
G01 X139.137 Y42.402 
G01 X140.627 Y43.251 
G01 X142.245 Y44.227 
G01 X143.929 Y45.303 
G01 X145.674 Y46.484 
G01 X147.172 Y47.553 
G01 X149.614 Y48.828 
G01 X151.976 Y50.138 
G01 X154.539 Y51.648 
G01 X159.023 Y47.503  
G01 X160.973 Y49.301  
G01 X162.879 Y51.156 
G01 X164.738 Y53.065 
G01 X166.547 Y55.026 
G01 X168.305 Y57.036 
G01 X170.010 Y59.091 
G01 X170.818 Y60.105 
G01 X172.230 Y61.944 
G01 X173.589 Y63.796 
G01 X174.922 Y65.693 
G01 X176.229 Y67.632 
G01 X177.905 Y70.241 
G01 X179.474 Y71.864 
G01 X180.925 Y73.413 
G01 X182.561 Y75.221 
G01 X180.738 Y73.209 
G01 X179.077 Y71.446 
G01 X177.905 Y70.241 
G01 X176.535 Y69.358 
G01 X174.969 Y68.381 
G01 X173.392 Y67.430 
G01 X171.803 Y66.503 
G01 X170.204 Y65.600 
G01 X168.595 Y64.722 
G01 X166.977 Y63.867 
G01 X165.351 Y63.037 
G01 X163.716 Y62.229 
G01 X162.075 Y61.445 
G01 X160.426 Y60.684 
G01 X158.771 Y59.946 
G01 X157.110 Y59.230 
G01 X155.443 Y58.536 
G01 X153.758 Y57.858 
G01 X151.686 Y57.058 
G01 X149.583 Y56.285 
G01 X147.464 Y55.545 
G01 X145.329 Y54.839 
G01 X143.180 Y54.167 
G01 X141.016 Y53.529 
G01 X138.839 Y52.928 
G01 X136.649 Y52.362 
G01 X134.446 Y51.834 
G01 X132.231 Y51.344 
G01 X130.005 Y50.893 
G01 X127.768 Y50.481 
G01 X125.522 Y50.109 
G01 X123.266 Y49.779 
G01 X121.001 Y49.490 
G01 X118.756 Y49.248 
G01 X115.763 Y48.992 
G01 X112.757 Y48.809 
G01 X109.849 Y48.700 
G01 X106.903 Y48.657 
G01 X103.966 Y48.679 
G01 X101.041 Y48.763 
G01 X98.127 Y48.906 
G01 X95.227 Y49.106 
G01 X92.340 Y49.361 
G01 X89.469 Y49.667 
G01 X86.615 Y50.022 
G01 X83.777 Y50.425 
G01 X80.958 Y50.871 
G01 X78.159 Y51.360 
G01 X75.380 Y51.889 
G01 X72.614 Y52.457 
G01 X69.432 Y53.160 
G01 X66.242 Y53.920 
G01 X63.051 Y54.740 
G01 X59.898 Y55.611 
G01 X56.677 Y56.569 
G01 X56.086 Y56.755 
G01 X54.415 Y57.991 
G01 X52.618 Y59.390 
G01 X54.415 Y57.991 
G01 X56.086 Y56.755 
G01 X56.979 Y55.537 
G01 X58.189 Y53.995 
G01 X59.461 Y52.486 
G01 X60.798 Y51.006 
G01 X62.198 Y49.555 
G01 X63.658 Y48.135 
G01 X65.175 Y46.749 
G01 X66.746 Y45.398 
G01 X68.367 Y44.084 
G01 X70.036 Y42.809 
G01 X71.748 Y41.574 
G01 X73.501 Y40.382 
G01 X75.289 Y39.233 
G01 X77.110 Y38.129 
G01 X78.959 Y37.072 
G01 X80.832 Y36.063 
G01 X82.708 Y35.112 
G01 X84.030 Y34.476 
G01 X85.315 Y33.886 
G01 X86.579 Y33.331 
G01 X87.824 Y32.810 
G01 X89.048 Y32.322 
G01 X90.252 Y31.865 
G01 X91.434 Y31.440 
G01 X92.594 Y31.044 
G01 X94.849 Y30.336 
G01 X97.013 Y29.732 
G01 X99.082 Y29.226 
G01 X101.054 Y28.807 
G01 X102.925 Y28.467 
G01 X104.641 Y28.207 
G01 X106.357 Y27.995 
G01 X107.908 Y27.846 
G01 X109.345 Y27.745 
G01 X110.668 Y27.684 
G01 X111.875 Y27.655 
G01 X112.954 Y27.651 
G01 X114.082 Y27.669 
G01 X115.210 Y27.711 
G01 X116.342 Y27.775 
G01 X117.475 Y27.862 
G01 X118.611 Y27.971 
G01 X119.747 Y28.103 
G01 X120.882 Y28.258 
G01 X122.017 Y28.434 
G01 X123.149 Y28.633 
G01 X124.278 Y28.853 
G01 X125.402 Y29.095 
G01 X126.522 Y29.358 
G01 X127.636 Y29.643 
G01 X128.742 Y29.948 
G01 X129.840 Y30.273 
G01 X131.879 Y30.938 
G01 X132.927 Y31.310 
G01 X134.065 Y31.739 
G01 X135.294 Y32.229 
G01 X136.610 Y32.787 
G01 X138.013 Y33.417 
G01 X139.499 Y34.126 
G01 X141.064 Y34.919 
G01 X142.748 Y35.823 
G01 X144.421 Y36.776 
G01 X146.203 Y37.852 
G01 X148.051 Y39.032 
G01 X149.960 Y40.324 
G01 X151.927 Y41.732 
G01 X153.948 Y43.263 
G01 X156.018 Y44.920 
G01 X158.032 Y46.627 
G01 X159.023 Y47.503 
G01 X164.032 Y41.916  
G01 X166.134 Y43.853  
G01 X168.186 Y45.850 
G01 X170.185 Y47.904 
G01 X172.129 Y50.011 
G01 X174.018 Y52.170 
G01 X175.848 Y54.376 
G01 X176.728 Y55.481 
G01 X178.231 Y57.438 
G01 X179.685 Y59.419 
G01 X181.104 Y61.438 
G01 X182.489 Y63.494 
G01 X183.844 Y65.584 
G01 X185.169 Y67.707 
G01 X186.468 Y69.860 
G01 X187.742 Y72.041 
G01 X188.993 Y74.249 
G01 X190.223 Y76.481 
G01 X191.435 Y78.735 
G01 X192.630 Y81.009 
G01 X194.977 Y85.598 
G01 X197.650 Y90.992 
G01 X197.853 Y91.487 
G01 X197.952 Y91.869 
G01 X197.988 Y92.170 
G01 X197.974 Y92.509 
G01 X197.936 Y92.693 
G01 X197.825 Y92.991 
G01 X197.603 Y93.373 
G01 X197.337 Y93.691 
G01 X197.087 Y93.923 
G01 X196.737 Y94.179 
G01 X196.270 Y94.423 
G01 X195.768 Y94.598 
G01 X195.336 Y94.678 
G01 X194.908 Y94.670 
G01 X194.617 Y94.606 
G01 X194.357 Y94.498 
G01 X194.074 Y94.323 
G01 X193.785 Y94.079 
G01 X193.295 Y93.530 
G01 X192.319 Y92.353 
G01 X191.142 Y91.019 
G01 X189.753 Y89.530 
G01 X188.058 Y87.822 
G01 X187.120 Y86.921 
G01 X186.113 Y85.985 
G01 X185.036 Y85.018 
G01 X183.887 Y84.023 
G01 X182.666 Y83.001 
G01 X181.370 Y81.956 
G01 X179.998 Y80.891 
G01 X178.550 Y79.807 
G01 X177.023 Y78.709 
G01 X175.422 Y77.601 
G01 X173.974 Y76.635 
G01 X172.516 Y75.695 
G01 X171.045 Y74.778 
G01 X169.562 Y73.883 
G01 X168.068 Y73.011 
G01 X166.562 Y72.161 
G01 X165.045 Y71.333 
G01 X163.519 Y70.527 
G01 X161.983 Y69.742 
G01 X160.438 Y68.979 
G01 X158.885 Y68.238 
G01 X157.324 Y67.517 
G01 X155.756 Y66.818 
G01 X154.182 Y66.139 
G01 X152.601 Y65.481 
G01 X151.008 Y64.840 
G01 X149.041 Y64.081 
G01 X147.051 Y63.350 
G01 X145.048 Y62.650 
G01 X143.030 Y61.982 
G01 X141.000 Y61.347 
G01 X138.957 Y60.745 
G01 X136.902 Y60.178 
G01 X134.836 Y59.644 
G01 X132.760 Y59.147 
G01 X130.674 Y58.685 
G01 X128.580 Y58.260 
G01 X126.477 Y57.873 
G01 X124.366 Y57.524 
G01 X122.249 Y57.214 
G01 X120.125 Y56.943 
G01 X118.010 Y56.715 
G01 X115.215 Y56.476 
G01 X112.411 Y56.305 
G01 X109.654 Y56.202 
G01 X106.876 Y56.161 
G01 X104.102 Y56.182 
G01 X101.333 Y56.261 
G01 X98.570 Y56.397 
G01 X95.814 Y56.588 
G01 X93.068 Y56.830 
G01 X90.331 Y57.122 
G01 X87.605 Y57.461 
G01 X84.891 Y57.846 
G01 X82.191 Y58.274 
G01 X79.505 Y58.743 
G01 X76.835 Y59.250 
G01 X74.178 Y59.796 
G01 X71.111 Y60.473 
G01 X68.045 Y61.204 
G01 X64.984 Y61.991 
G01 X61.950 Y62.830 
G01 X58.888 Y63.740 
G01 X55.857 Y64.709 
G01 X52.841 Y65.745 
G01 X49.827 Y66.855 
G01 X47.371 Y67.821 
G01 X44.858 Y68.872 
G01 X42.368 Y69.988 
G01 X39.962 Y71.147 
G01 X40.882 Y68.995 
G01 X42.270 Y65.907 
G01 X43.364 Y63.611 
G01 X44.539 Y61.293 
G01 X45.678 Y59.193 
G01 X46.750 Y57.338 
G01 X47.783 Y55.654 
G01 X48.726 Y54.202 
G01 X49.582 Y52.950 
G01 X50.343 Y51.886 
G01 X51.675 Y50.126 
G01 X53.080 Y48.400 
G01 X54.552 Y46.713 
G01 X56.090 Y45.066 
G01 X57.689 Y43.461 
G01 X59.347 Y41.898 
G01 X61.061 Y40.380 
G01 X62.826 Y38.906 
G01 X64.639 Y37.479 
G01 X66.498 Y36.100 
G01 X68.398 Y34.769 
G01 X70.335 Y33.488 
G01 X72.306 Y32.258 
G01 X74.307 Y31.080 
G01 X76.334 Y29.955 
G01 X78.384 Y28.884 
G01 X80.837 Y27.685 
G01 X82.240 Y27.041 
G01 X83.623 Y26.434 
G01 X84.986 Y25.863 
G01 X86.329 Y25.328 
G01 X87.650 Y24.827 
G01 X88.951 Y24.358 
G01 X90.229 Y23.922 
G01 X91.485 Y23.516 
G01 X92.718 Y23.140 
G01 X95.114 Y22.473 
G01 X97.411 Y21.910 
G01 X99.606 Y21.443 
G01 X101.695 Y21.064 
G01 X103.647 Y20.768 
G01 X105.540 Y20.535 
G01 X107.285 Y20.368 
G01 X108.908 Y20.253 
G01 X110.405 Y20.184 
G01 X111.773 Y20.151 
G01 X113.002 Y20.147 
G01 X114.281 Y20.168 
G01 X115.560 Y20.215 
G01 X116.840 Y20.287 
G01 X118.122 Y20.385 
G01 X119.404 Y20.509 
G01 X120.685 Y20.658 
G01 X121.965 Y20.832 
G01 X123.242 Y21.031 
G01 X124.516 Y21.254 
G01 X125.786 Y21.502 
G01 X127.050 Y21.774 
G01 X128.309 Y22.070 
G01 X129.561 Y22.389 
G01 X130.805 Y22.732 
G01 X132.041 Y23.098 
G01 X133.273 Y23.489 
G01 X135.505 Y24.263 
G01 X136.778 Y24.742 
G01 X138.148 Y25.289 
G01 X139.613 Y25.909 
G01 X141.168 Y26.608 
G01 X142.810 Y27.392 
G01 X144.534 Y28.265 
G01 X146.359 Y29.245 
G01 X148.215 Y30.302 
G01 X150.161 Y31.476 
G01 X152.173 Y32.762 
G01 X154.246 Y34.164 
G01 X156.376 Y35.689 
G01 X158.559 Y37.342 
G01 X160.789 Y39.128 
G01 X161.882 Y40.041 
G01 X164.032 Y41.916 
G00 Z25.080
G00 X100.224 Y136.961  F6000.0
G01 Z20.000 F1200.0 M3
G01 Z19.867 
G01 Z19.737 
G01 Z19.567 
G01 Z19.400 
G01 Z19.339 
G01 Z19.321 
G01 Z19.214 
G01 Z19.107 
G01 Z19.093 
G01 Z18.966 
G01 Z18.836 
G01 Z18.703 
G01 Z18.567 
G01 Z18.431 
G01 Z18.298 
G01 Z18.168 
G01 Z18.041 
G01 Z18.010 
G01 Z17.866 
G01 Z17.698 
G01 Z17.548 
G01 Z17.417 
G01 Z17.350 
G01 Z17.216 
G01 Z17.087 
G01 Z16.917 
G01 Z16.750 
G01 Z16.689 
G01 Z16.671 
G01 Z16.564 
G01 Z16.500 
G01 Z16.436 
G01 Z16.329 
G01 Z16.311 
G01 Z16.250 
G01 Z16.083 
G01 Z15.913 
G01 Z15.784 
G01 Z15.650 
G01 Z15.583 
G01 Z15.452 
G01 Z15.302 
G01 Z15.134 
G01 Z14.990 
G01 Z14.959 
G01 Z14.832 
G01 Z14.702 
G01 Z14.569 
G01 Z14.433 
G01 Z14.297 
G01 Z14.164 
G01 Z14.034 
G01 Z13.907 
G01 Z13.893 
G01 Z13.786 
G01 Z13.679 
G01 Z13.661 
G01 Z13.600 
G01 Z13.433 
G01 Z13.263 
G01 Z13.133 
G01 Z13.000 
G01 X98.346 Y137.271  F3000.0
G01 X96.532 Y137.622 
G01 X94.163 Y138.155 
G01 X91.846 Y138.756 
G01 X91.016 Y138.990 
G01 X90.782 Y139.101 
G01 X90.911 Y140.623 
G01 X90.782 Y139.101 
G01 X90.583 Y139.045 
G01 X88.766 Y138.940 
G01 X86.910 Y138.881 
G01 X85.013 Y138.871 
G01 X83.072 Y138.914 
G01 X85.013 Y138.871 
G01 X86.910 Y138.881 
G01 X88.766 Y138.940 
G01 X90.583 Y139.045 
G01 X91.016 Y138.990 
G01 X92.998 Y138.447 
G01 X95.340 Y137.880 
G01 X97.431 Y137.442 
G01 X99.277 Y137.111 
G01 X100.224 Y136.961 
G01 X98.848 Y143.831  
G02 X92.243 Y146.747 I21.501 J57.648
G01 X91.452 Y147.159  
G01 X91.576 Y148.712 
G01 X91.452 Y147.159 
G01 X91.074 Y147.033 
G02 X79.166 Y144.563 I-16.718 J50.665
G02 X57.585 Y146.674 I-5.236 J57.837
G02 X50.455 Y149.306 I15.690 J53.492
G01 X49.044 Y151.554  
G01 X50.455 Y149.306 
G01 X50.457 Y148.141 
G01 X49.032 Y147.512 
G01 X50.457 Y148.141 
G01 X52.161 Y146.656 
G03 X59.307 Y141.580 I36.642 J44.016
G03 X68.412 Y137.078 I32.026 J53.305
G03 X80.502 Y133.270 I32.287 J81.426
G03 X91.013 Y131.434 I20.616 J87.002
G03 X110.368 Y131.433 I9.684 J85.137
G03 X122.567 Y133.629 I-10.768 J94.793
G03 X136.046 Y137.842 I-28.427 J114.611
G03 X152.797 Y145.691 I-43.583 J114.817
G01 X157.688 Y148.615  
G01 X159.058 Y147.794 
G01 X157.688 Y148.615 
G01 X158.022 Y156.184 
G01 X158.029 Y157.249 
G01 X158.919 Y159.189 
G01 X159.386 Y160.253 
G01 X158.471 Y158.197 
G01 X158.029 Y157.249 
G01 X154.841 Y154.743 
G02 X146.782 Y149.325 I-52.796 J69.842
G02 X138.480 Y145.134 I-34.560 J58.140
G02 X128.195 Y141.855 I-23.289 J55.280
G02 X113.107 Y140.736 I-11.388 J51.286
G02 X98.848 Y143.831 I3.599 J50.975
G01 X101.470 Y150.862  
G02 X95.671 Y153.422 I18.879 J50.617
G01 X92.085 Y155.399  
G01 X92.188 Y156.990 
G01 X92.085 Y155.399 
G01 X88.722 Y154.159 
G02 X78.490 Y152.037 I-14.367 J43.539
G02 X59.697 Y153.875 I-4.559 J50.364
G02 X49.495 Y158.193 I13.578 J46.291
G01 X44.588 Y161.325  
G01 X43.421 Y162.177 
G01 X42.206 Y164.911 
G01 X43.421 Y162.177 
G01 X43.100 Y156.460 
G01 X42.970 Y146.266 
G01 X43.013 Y145.385 
G01 X43.242 Y144.782 
G01 X43.642 Y144.269 
G01 X47.360 Y140.889 
G03 X55.443 Y135.148 I41.443 J49.784
G03 X65.646 Y130.102 I35.890 J59.737
G03 X78.772 Y125.969 I35.053 J88.402
G03 X90.165 Y123.978 I22.346 J94.303
G03 X111.215 Y123.977 I10.532 J92.593
G03 X124.373 Y126.345 I-11.615 J102.249
G03 X138.709 Y130.826 I-30.233 J121.895
G03 X156.484 Y139.155 I-46.246 J121.833
G03 X164.841 Y144.331 I-58.903 J104.430
G01 X166.193 Y143.524  
G01 X164.841 Y144.331 
G03 X165.525 Y156.079 I-132.537 J13.613
G01 X165.324 Y162.686  
G01 X164.831 Y166.920 
G01 X164.107 Y170.003 
G01 X165.081 Y171.539 
G01 X164.107 Y170.003 
G01 X162.506 Y169.784 
G01 X161.096 Y169.510 
G01 X160.550 Y170.848 
G01 X161.096 Y169.510 
G01 X160.726 Y169.253 
G01 X158.067 Y167.106 
G01 X154.629 Y164.183 
G01 X150.316 Y160.729 
G02 X142.947 Y155.776 I-48.271 J63.856
G02 X135.567 Y152.050 I-30.726 J51.689
G02 X126.568 Y149.181 I-20.376 J48.365
G02 X113.635 Y148.222 I-9.761 J43.960
G02 X101.470 Y150.862 I3.070 J43.490
G01 X104.092 Y157.893  
G02 X99.099 Y160.097 I16.256 J43.586
G01 X95.864 Y161.882  
G01 X94.138 Y162.844 
G01 X93.323 Y163.222 
G01 X92.710 Y163.396 
G01 X91.786 Y163.451 
G01 X91.505 Y164.624 
G01 X91.786 Y163.451 
G01 X90.870 Y163.047 
G01 X86.371 Y161.285 
G02 X77.813 Y159.510 I-12.015 J36.413
G02 X61.809 Y161.076 I-3.883 J42.891
G02 X53.194 Y164.722 I11.466 J39.091
G01 X48.954 Y167.429  
G01 X46.598 Y169.192 
G01 X43.546 Y171.514 
G03 X38.416 Y174.883 I-32.230 J-43.496
G01 X37.298 Y175.497  
G01 X36.157 Y177.624 
G01 X37.298 Y175.497 
G01 X36.687 Y170.691 
G03 X35.602 Y156.759 I183.617 J-21.305
G01 X35.467 Y146.158  
G01 X35.511 Y145.019 
G01 X35.641 Y143.984 
G03 X36.791 Y140.948 I9.199 J1.748
G03 X38.357 Y138.941 I8.664 J5.149
G01 X42.559 Y135.122  
G03 X51.578 Y128.715 I46.244 J55.551
G03 X62.880 Y123.126 I39.755 J66.169
G03 X77.041 Y118.667 I37.819 J95.378
G03 X89.317 Y116.522 I24.076 J101.605
G03 X112.062 Y116.520 I11.380 J100.049
G03 X126.180 Y119.062 I-12.462 J109.705
G03 X141.372 Y123.811 I-32.040 J129.178
G03 X160.170 Y132.619 I-48.909 J128.848
G03 X171.917 Y140.120 I-62.590 J110.966
G01 X173.259 Y139.326  
G01 X171.917 Y140.120 
G01 X172.253 Y143.062 
G03 X173.029 Y155.974 I-139.949 J14.883
G03 X172.807 Y163.247 I-81.938 J1.148
G01 X172.243 Y168.094  
G03 X171.236 Y172.348 I-28.646 J-4.536
G01 X170.234 Y174.945  
G01 X169.008 Y177.287 
G01 X170.199 Y178.079 
G01 X169.008 Y177.287 
G01 X168.788 Y177.575 
G01 X169.614 Y178.826 
G01 X168.788 Y177.575 
G01 X168.324 Y177.668 
G01 X166.950 Y177.746 
G03 X161.348 Y177.199 I1.957 J-48.949
G01 X159.015 Y176.727  
G01 X157.642 Y176.183 
G01 X156.168 Y175.214 
G01 X153.198 Y172.816 
G01 X149.777 Y169.907 
G01 X145.791 Y166.715 
G02 X139.113 Y162.226 I-43.746 J57.870
G02 X132.654 Y158.965 I-26.892 J45.239
G02 X124.941 Y156.506 I-17.462 J41.450
G02 X114.164 Y155.707 I-8.135 J36.634
G02 X104.092 Y157.893 I2.542 J36.005
G01 X106.715 Y164.924  
G01 X102.527 Y166.773  
G01 X99.683 Y168.342 
G01 X97.621 Y169.491 
G01 X96.149 Y170.173 
G01 X93.965 Y170.795 
G03 X90.930 Y170.911 I-1.965 J-11.584
G01 X89.070 Y170.449  
G01 X87.756 Y169.875 
G01 X84.020 Y168.411 
G02 X77.136 Y166.984 I-9.664 J29.287
G02 X63.921 Y168.276 I-3.206 J35.417
G02 X56.893 Y171.251 I9.354 J31.890
G01 X53.320 Y173.532  
G01 X51.220 Y175.103 
G01 X48.014 Y177.544 
G03 X42.172 Y181.379 I-36.698 J-49.525
G03 X37.568 Y183.619 I-17.937 J-31.019
G01 X34.812 Y184.519  
G01 X33.524 Y184.724 
G01 X33.107 Y184.721 
G01 X32.900 Y184.672 
G01 X32.452 Y184.461 
G01 X31.764 Y184.051 
G01 X31.305 Y183.668 
G01 X30.876 Y182.954 
G01 X30.780 Y182.567 
G01 X29.233 Y171.556 
G03 X28.104 Y157.058 I191.071 J-22.170
G01 X27.964 Y146.050  
G01 X28.022 Y144.548 
G01 X28.269 Y142.583 
G03 X30.340 Y137.115 I16.571 J3.149
G03 X33.073 Y133.614 I15.115 J8.982
G01 X37.758 Y129.355  
G03 X47.714 Y122.283 I51.045 J61.318
G03 X60.114 Y116.151 I43.620 J72.602
G03 X75.311 Y111.365 I40.585 J102.353
G03 X88.468 Y109.066 I25.807 J108.907
G03 X112.909 Y109.064 I12.228 J107.505
G03 X127.986 Y111.779 I-13.309 J117.161
G03 X144.035 Y116.795 I-33.846 J136.461
G03 X163.857 Y126.083 I-51.572 J135.864
G03 X177.015 Y134.546 I-66.276 J117.502
G01 X178.057 Y135.330  
G01 X178.360 Y135.613 
G01 X178.819 Y136.290 
G01 X179.078 Y137.064 
G01 X179.159 Y137.578 
G01 X179.715 Y142.269 
G03 X180.532 Y155.869 I-147.411 J15.676
G03 X180.290 Y163.808 I-89.441 J1.253
G01 X179.655 Y169.267  
G03 X178.387 Y174.622 I-36.058 J-5.709
G01 X177.061 Y178.061  
G01 X175.290 Y181.401 
G01 X175.265 Y181.441 
G01 X173.568 Y183.525 
G01 X173.158 Y183.884 
G01 X172.636 Y184.174 
G03 X169.478 Y185.082 I-5.177 J-12.058
G01 X166.650 Y185.244  
G03 X160.190 Y184.613 I2.257 J-56.447
G01 X157.199 Y184.008  
G03 X153.980 Y182.733 I3.165 J-12.693
G01 X151.610 Y181.175  
G01 X148.329 Y178.526 
G01 X144.925 Y175.631 
G01 X141.266 Y172.701 
G02 X135.279 Y168.676 I-39.221 J51.883
G02 X129.740 Y165.880 I-23.057 J38.788
G02 X123.315 Y163.832 I-14.549 J34.534
G02 X114.692 Y163.193 I-6.508 J29.309
G02 X106.715 Y164.924 I2.014 J28.519
G00 Z25.080
G00 X100.224 Y136.961  F6000.0
G01 Z13.000 F1200.0 M3
G01 Z12.867 
G01 Z12.737 
G01 Z12.567 
G01 Z12.400 
G01 Z12.339 
G01 Z12.321 
G01 Z12.214 
G01 Z12.107 
G01 Z12.093 
G01 Z11.966 
G01 Z11.836 
G01 Z11.703 
G01 Z11.567 
G01 Z11.431 
G01 Z11.298 
G01 Z11.168 
G01 Z11.041 
G01 Z11.010 
G01 Z10.866 
G01 Z10.698 
G01 Z10.548 
G01 Z10.417 
G01 Z10.350 
G01 Z10.216 
G01 Z10.087 
G01 Z9.917 
G01 Z9.750 
G01 Z9.689 
G01 Z9.671 
G01 Z9.564 
G01 Z9.500 
G01 Z9.436 
G01 Z9.329 
G01 Z9.311 
G01 Z9.250 
G01 Z9.083 
G01 Z8.913 
G01 Z8.784 
G01 Z8.650 
G01 Z8.583 
G01 Z8.452 
G01 Z8.302 
G01 Z8.134 
G01 Z7.990 
G01 Z7.959 
G01 Z7.832 
G01 Z7.702 
G01 Z7.569 
G01 Z7.433 
G01 Z7.297 
G01 Z7.164 
G01 Z7.034 
G01 Z6.907 
G01 Z6.893 
G01 Z6.786 
G01 Z6.679 
G01 Z6.661 
G01 Z6.600 
G01 Z6.433 
G01 Z6.263 
G01 Z6.133 
G01 Z6.000 
G01 X98.346 Y137.271  F3000.0
G01 X96.532 Y137.622 
G01 X94.163 Y138.155 
G01 X91.846 Y138.756 
G01 X91.016 Y138.990 
G01 X90.782 Y139.101 
G01 X90.911 Y140.623 
G01 X90.782 Y139.101 
G01 X90.583 Y139.045 
G01 X88.766 Y138.940 
G01 X86.910 Y138.881 
G01 X85.013 Y138.871 
G01 X83.072 Y138.914 
G01 X85.013 Y138.871 
G01 X86.910 Y138.881 
G01 X88.766 Y138.940 
G01 X90.583 Y139.045 
G01 X91.016 Y138.990 
G01 X92.998 Y138.447 
G01 X95.340 Y137.880 
G01 X97.431 Y137.442 
G01 X99.277 Y137.111 
G01 X100.224 Y136.961 
G01 X98.848 Y143.831  
G02 X92.243 Y146.747 I21.501 J57.648
G01 X91.452 Y147.159  
G01 X91.576 Y148.712 
G01 X91.452 Y147.159 
G01 X91.074 Y147.033 
G02 X79.166 Y144.563 I-16.718 J50.665
G02 X57.585 Y146.674 I-5.236 J57.837
G02 X50.455 Y149.306 I15.690 J53.492
G01 X49.044 Y151.554  
G01 X50.455 Y149.306 
G01 X50.457 Y148.141 
G01 X49.032 Y147.512 
G01 X50.457 Y148.141 
G01 X52.161 Y146.656 
G03 X59.307 Y141.580 I36.642 J44.016
G03 X68.412 Y137.078 I32.026 J53.305
G03 X80.502 Y133.270 I32.287 J81.426
G03 X91.013 Y131.434 I20.616 J87.002
G03 X110.368 Y131.433 I9.684 J85.137
G03 X122.567 Y133.629 I-10.768 J94.793
G03 X136.046 Y137.842 I-28.427 J114.611
G03 X152.797 Y145.691 I-43.583 J114.817
G01 X157.688 Y148.615  
G01 X159.058 Y147.794 
G01 X157.688 Y148.615 
G01 X158.022 Y156.184 
G01 X158.029 Y157.249 
G01 X158.919 Y159.189 
G01 X159.386 Y160.253 
G01 X158.471 Y158.197 
G01 X158.029 Y157.249 
G01 X154.841 Y154.743 
G02 X146.782 Y149.325 I-52.796 J69.842
G02 X138.480 Y145.134 I-34.560 J58.140
G02 X128.195 Y141.855 I-23.289 J55.280
G02 X113.107 Y140.736 I-11.388 J51.286
G02 X98.848 Y143.831 I3.599 J50.975
G01 X101.470 Y150.862  
G02 X95.671 Y153.422 I18.879 J50.617
G01 X92.085 Y155.399  
G01 X92.188 Y156.990 
G01 X92.085 Y155.399 
G01 X88.722 Y154.159 
G02 X78.490 Y152.037 I-14.367 J43.539
G02 X59.697 Y153.875 I-4.559 J50.364
G02 X49.495 Y158.193 I13.578 J46.291
G01 X44.588 Y161.325  
G01 X43.421 Y162.177 
G01 X42.206 Y164.911 
G01 X43.421 Y162.177 
G01 X43.100 Y156.460 
G01 X42.970 Y146.266 
G01 X43.013 Y145.385 
G01 X43.242 Y144.782 
G01 X43.642 Y144.269 
G01 X47.360 Y140.889 
G03 X55.443 Y135.148 I41.443 J49.784
G03 X65.646 Y130.102 I35.890 J59.737
G03 X78.772 Y125.969 I35.053 J88.402
G03 X90.165 Y123.978 I22.346 J94.303
G03 X111.215 Y123.977 I10.532 J92.593
G03 X124.373 Y126.345 I-11.615 J102.249
G03 X138.709 Y130.826 I-30.233 J121.895
G03 X156.484 Y139.155 I-46.246 J121.833
G03 X164.841 Y144.331 I-58.903 J104.430
G01 X166.193 Y143.524  
G01 X164.841 Y144.331 
G03 X165.525 Y156.079 I-132.537 J13.613
G01 X165.324 Y162.686  
G01 X164.831 Y166.920 
G01 X164.107 Y170.003 
G01 X165.081 Y171.539 
G01 X164.107 Y170.003 
G01 X162.506 Y169.784 
G01 X161.096 Y169.510 
G01 X160.550 Y170.848 
G01 X161.096 Y169.510 
G01 X160.726 Y169.253 
G01 X158.067 Y167.106 
G01 X154.629 Y164.183 
G01 X150.316 Y160.729 
G02 X142.947 Y155.776 I-48.271 J63.856
G02 X135.567 Y152.050 I-30.726 J51.689
G02 X126.568 Y149.181 I-20.376 J48.365
G02 X113.635 Y148.222 I-9.761 J43.960
G02 X101.470 Y150.862 I3.070 J43.490
G01 X104.092 Y157.893  
G02 X99.099 Y160.097 I16.256 J43.586
G01 X95.864 Y161.882  
G01 X94.138 Y162.844 
G01 X93.323 Y163.222 
G01 X92.710 Y163.396 
G01 X91.786 Y163.451 
G01 X91.505 Y164.624 
G01 X91.786 Y163.451 
G01 X90.870 Y163.047 
G01 X86.371 Y161.285 
G02 X77.813 Y159.510 I-12.015 J36.413
G02 X61.809 Y161.076 I-3.883 J42.891
G02 X53.194 Y164.722 I11.466 J39.091
G01 X48.954 Y167.429  
G01 X46.598 Y169.192 
G01 X43.546 Y171.514 
G03 X38.416 Y174.883 I-32.230 J-43.496
G01 X37.298 Y175.497  
G01 X36.157 Y177.624 
G01 X37.298 Y175.497 
G01 X36.687 Y170.691 
G03 X35.602 Y156.759 I183.617 J-21.305
G01 X35.467 Y146.158  
G01 X35.511 Y145.019 
G01 X35.641 Y143.984 
G03 X36.791 Y140.948 I9.199 J1.748
G03 X38.357 Y138.941 I8.664 J5.149
G01 X42.559 Y135.122  
G03 X51.578 Y128.715 I46.244 J55.551
G03 X62.880 Y123.126 I39.755 J66.169
G03 X77.041 Y118.667 I37.819 J95.378
G03 X89.317 Y116.522 I24.076 J101.605
G03 X112.062 Y116.520 I11.380 J100.049
G03 X126.180 Y119.062 I-12.462 J109.705
G03 X141.372 Y123.811 I-32.040 J129.178
G03 X160.170 Y132.619 I-48.909 J128.848
G03 X171.917 Y140.120 I-62.590 J110.966
G01 X173.259 Y139.326  
G01 X171.917 Y140.120 
G01 X172.253 Y143.062 
G03 X173.029 Y155.974 I-139.949 J14.883
G03 X172.807 Y163.247 I-81.938 J1.148
G01 X172.243 Y168.094  
G03 X171.236 Y172.348 I-28.646 J-4.536
G01 X170.234 Y174.945  
G01 X169.008 Y177.287 
G01 X170.199 Y178.079 
G01 X169.008 Y177.287 
G01 X168.788 Y177.575 
G01 X169.614 Y178.826 
G01 X168.788 Y177.575 
G01 X168.324 Y177.668 
G01 X166.950 Y177.746 
G03 X161.348 Y177.199 I1.957 J-48.949
G01 X159.015 Y176.727  
G01 X157.642 Y176.183 
G01 X156.168 Y175.214 
G01 X153.198 Y172.816 
G01 X149.777 Y169.907 
G01 X145.791 Y166.715 
G02 X139.113 Y162.226 I-43.746 J57.870
G02 X132.654 Y158.965 I-26.892 J45.239
G02 X124.941 Y156.506 I-17.462 J41.450
G02 X114.164 Y155.707 I-8.135 J36.634
G02 X104.092 Y157.893 I2.542 J36.005
G01 X106.715 Y164.924  
G01 X102.527 Y166.773  
G01 X99.683 Y168.342 
G01 X97.621 Y169.491 
G01 X96.149 Y170.173 
G01 X93.965 Y170.795 
G03 X90.930 Y170.911 I-1.965 J-11.584
G01 X89.070 Y170.449  
G01 X87.756 Y169.875 
G01 X84.020 Y168.411 
G02 X77.136 Y166.984 I-9.664 J29.287
G02 X63.921 Y168.276 I-3.206 J35.417
G02 X56.893 Y171.251 I9.354 J31.890
G01 X53.320 Y173.532  
G01 X51.220 Y175.103 
G01 X48.014 Y177.544 
G03 X42.172 Y181.379 I-36.698 J-49.525
G03 X37.568 Y183.619 I-17.937 J-31.019
G01 X34.812 Y184.519  
G01 X33.524 Y184.724 
G01 X33.107 Y184.721 
G01 X32.900 Y184.672 
G01 X32.452 Y184.461 
G01 X31.764 Y184.051 
G01 X31.305 Y183.668 
G01 X30.876 Y182.954 
G01 X30.780 Y182.567 
G01 X29.233 Y171.556 
G03 X28.104 Y157.058 I191.071 J-22.170
G01 X27.964 Y146.050  
G01 X28.022 Y144.548 
G01 X28.269 Y142.583 
G03 X30.340 Y137.115 I16.571 J3.149
G03 X33.073 Y133.614 I15.115 J8.982
G01 X37.758 Y129.355  
G03 X47.714 Y122.283 I51.045 J61.318
G03 X60.114 Y116.151 I43.620 J72.602
G03 X75.311 Y111.365 I40.585 J102.353
G03 X88.468 Y109.066 I25.807 J108.907
G03 X112.909 Y109.064 I12.228 J107.505
G03 X127.986 Y111.779 I-13.309 J117.161
G03 X144.035 Y116.795 I-33.846 J136.461
G03 X163.857 Y126.083 I-51.572 J135.864
G03 X177.015 Y134.546 I-66.276 J117.502
G01 X178.057 Y135.330  
G01 X178.360 Y135.613 
G01 X178.819 Y136.290 
G01 X179.078 Y137.064 
G01 X179.159 Y137.578 
G01 X179.715 Y142.269 
G03 X180.532 Y155.869 I-147.411 J15.676
G03 X180.290 Y163.808 I-89.441 J1.253
G01 X179.655 Y169.267  
G03 X178.387 Y174.622 I-36.058 J-5.709
G01 X177.061 Y178.061  
G01 X175.290 Y181.401 
G01 X175.265 Y181.441 
G01 X173.568 Y183.525 
G01 X173.158 Y183.884 
G01 X172.636 Y184.174 
G03 X169.478 Y185.082 I-5.177 J-12.058
G01 X166.650 Y185.244  
G03 X160.190 Y184.613 I2.257 J-56.447
G01 X157.199 Y184.008  
G03 X153.980 Y182.733 I3.165 J-12.693
G01 X151.610 Y181.175  
G01 X148.329 Y178.526 
G01 X144.925 Y175.631 
G01 X141.266 Y172.701 
G02 X135.279 Y168.676 I-39.221 J51.883
G02 X129.740 Y165.880 I-23.057 J38.788
G02 X123.315 Y163.832 I-14.549 J34.534
G02 X114.692 Y163.193 I-6.508 J29.309
G02 X106.715 Y164.924 I2.014 J28.519
G00 Z25.080
G00 X121.036 Y235.388  F6000.0
G01 Z20.000 F1200.0 M3
G01 Z19.812 
G01 Z19.516 
G01 Z19.416 
G01 Z19.315 
G01 Z19.009 
G01 Z18.702 
G01 Z18.600 
G01 Z18.497 
G01 Z18.225 
G01 Z17.978 
G01 Z17.866 
G01 Z17.753 
G01 Z17.452 
G01 Z17.141 
G01 Z16.829 
G01 Z16.518 
G01 Z16.500 
G01 Z16.482 
G01 Z16.171 
G01 Z15.859 
G01 Z15.548 
G01 Z15.247 
G01 Z15.134 
G01 Z15.022 
G01 Z14.775 
G01 Z14.503 
G01 Z14.400 
G01 Z14.298 
G01 Z13.991 
G01 Z13.685 
G01 Z13.584 
G01 Z13.484 
G01 Z13.188 
G01 Z13.000 
G01 X118.356 Y235.384  F3000.0
G01 X114.891 Y237.822 
G01 X115.671 Y239.023 
G01 X114.891 Y237.822 
G02 X107.559 Y242.599 I29.402 J53.135
G01 X108.170 Y243.931  
G01 X107.559 Y242.599 
G01 X103.788 Y243.532 
G01 X100.418 Y244.586 
G01 X100.202 Y246.176 
G01 X100.418 Y244.586 
G01 X96.788 Y242.276 
G02 X84.626 Y236.823 I-30.690 J52.157
G01 X83.999 Y238.123  
G01 X84.626 Y236.823 
G01 X79.786 Y233.924 
G01 X78.874 Y235.057 
G01 X79.786 Y233.924 
G01 X79.317 Y233.383 
G01 X79.172 Y233.302 
G01 X77.055 Y233.015 
G01 X79.172 Y233.302 
G01 X78.884 Y231.851 
G01 X79.172 Y233.302 
G01 X79.317 Y233.383 
G01 X85.284 Y234.180 
G02 X108.899 Y232.560 I6.741 J-74.653
G01 X112.880 Y231.522  
G01 X113.168 Y229.946 
G01 X112.880 Y231.522 
G01 X117.255 Y234.652 
G01 X118.356 Y235.384 
G01 X121.036 Y235.388 
G01 X121.463 Y228.439  
G02 X131.818 Y234.245 I39.548 J-58.392
G01 X131.906 Y234.285  
G01 X134.517 Y233.859 
G01 X131.906 Y234.285 
G01 X127.632 Y238.673 
G01 X128.522 Y239.824 
G01 X127.632 Y238.673 
G02 X118.991 Y244.132 I24.802 J48.821
G01 X119.772 Y245.335  
G01 X118.991 Y244.132 
G02 X110.775 Y249.613 I25.302 J46.825
G01 X111.391 Y250.956  
G01 X110.775 Y249.613 
G01 X105.823 Y250.755 
G02 X99.858 Y252.813 I14.853 J52.711
G01 X99.964 Y254.317  
G01 X99.858 Y252.813 
G01 X98.537 Y252.490 
G01 X97.911 Y253.813 
G01 X98.537 Y252.490 
G02 X92.982 Y248.744 I-33.155 J43.160
G02 X81.334 Y243.658 I-26.884 J45.690
G01 X80.706 Y244.962  
G01 X81.334 Y243.658 
G01 X80.498 Y243.090 
G02 X74.986 Y239.886 I-29.077 J43.681
G01 X74.068 Y241.025  
G01 X74.986 Y239.886 
G02 X67.078 Y232.062 I-39.229 J31.740
G01 X66.757 Y231.809  
G01 X64.005 Y231.546 
G01 X66.757 Y231.809 
G02 X74.834 Y227.234 I-38.506 J-77.405
G01 X77.625 Y225.385  
G01 X77.334 Y223.850 
G01 X77.625 Y225.385 
G02 X85.959 Y226.707 I13.986 J-61.273
G02 X107.210 Y225.248 I6.066 J-67.179
G02 X114.380 Y223.158 I-14.870 J-64.360
G01 X114.659 Y221.539  
G01 X114.380 Y223.158 
G01 X114.631 Y223.363 
G02 X121.463 Y228.439 I61.504 J-75.646
G01 X125.671 Y222.226  
G02 X134.924 Y227.414 I35.340 J-52.179
G02 X144.905 Y230.946 I25.321 J-55.682
G01 X148.164 Y231.718  
G01 X152.524 Y231.083 
G01 X148.164 Y231.718 
G02 X138.829 Y238.163 I26.693 J48.646
G02 X132.312 Y244.736 I36.235 J42.445
G01 X133.205 Y245.896  
G01 X132.312 Y244.736 
G02 X123.094 Y250.449 I20.121 J42.757
G01 X123.876 Y251.653  
G01 X123.094 Y250.449 
G02 X115.409 Y255.517 I21.198 J40.508
G01 X114.017 Y256.695  
G01 X114.638 Y258.055 
G01 X114.017 Y256.695 
G02 X107.858 Y257.978 I6.152 J44.973
G02 X100.426 Y260.764 I12.818 J45.489
G01 X100.539 Y262.296  
G01 X100.426 Y260.764 
G01 X95.234 Y259.452 
G01 X94.600 Y260.783 
G01 X95.234 Y259.452 
G02 X89.177 Y255.211 I-29.853 J36.198
G02 X78.033 Y250.518 I-23.079 J39.222
G01 X77.403 Y251.828  
G01 X78.033 Y250.518 
G01 X76.340 Y249.336 
G02 X70.149 Y245.886 I-24.919 J37.435
G01 X69.222 Y247.035  
G01 X70.149 Y245.886 
G02 X62.421 Y237.945 I-34.392 J25.740
G02 X57.416 Y234.513 I-27.519 J34.761
G01 X56.403 Y235.576  
G01 X57.416 Y234.513 
G01 X54.292 Y230.274 
G01 X53.411 Y229.235 
G01 X50.856 Y228.547 
G01 X53.411 Y229.235 
G01 X56.024 Y228.307 
G02 X70.791 Y220.913 I-27.774 J-73.903
G01 X76.124 Y217.246  
G01 X75.846 Y215.672 
G01 X76.124 Y217.246 
G01 X76.280 Y217.292 
G02 X86.634 Y219.233 I15.331 J-53.179
G02 X105.520 Y217.937 I5.391 J-59.706
G02 X115.785 Y214.541 I-13.181 J-57.049
G01 X116.034 Y212.865  
G01 X115.785 Y214.541 
G01 X119.365 Y217.540 
G02 X125.671 Y222.226 I56.770 J-69.824
G01 X129.879 Y216.012  
G02 X138.030 Y220.583 I31.132 J-45.966
G02 X146.787 Y223.682 I22.214 J-48.851
G02 X153.654 Y225.111 I18.209 J-70.291
G02 X165.691 Y226.238 I14.881 J-94.101
G01 X166.678 Y226.259  
G01 X167.966 Y225.546 
G01 X169.238 Y224.803 
G01 X167.966 Y225.546 
G01 X166.678 Y226.259 
G01 X165.332 Y228.260 
G01 X163.067 Y231.195 
G01 X160.607 Y233.721 
G01 X159.699 Y234.392 
G01 X159.110 Y234.709 
G01 X156.947 Y235.715 
G01 X152.214 Y238.059 
G02 X143.701 Y243.870 I22.643 J42.306
G02 X137.064 Y250.788 I31.363 J36.737
G01 X137.011 Y250.856  
G01 X137.907 Y252.030 
G01 X137.011 Y250.856 
G01 X136.568 Y251.045 
G02 X127.202 Y256.776 I15.866 J36.448
G01 X127.985 Y257.983  
G01 X127.202 Y256.776 
G02 X120.149 Y261.334 I17.091 J34.181
G01 X117.296 Y263.890  
G01 X117.927 Y265.278 
G01 X117.296 Y263.890 
G02 X109.893 Y265.201 I2.873 J37.779
G02 X101.713 Y268.524 I10.782 J38.266
G01 X101.040 Y268.895  
G01 X101.160 Y270.471 
G01 X101.040 Y268.895 
G02 X92.058 Y266.499 I-16.626 J44.275
G01 X91.893 Y266.472  
G01 X91.251 Y267.817 
G01 X91.893 Y266.472 
G01 X90.601 Y265.358 
G02 X85.371 Y261.678 I-25.220 J30.292
G02 X74.717 Y257.419 I-19.273 J32.755
G01 X74.083 Y258.740  
G01 X74.717 Y257.419 
G01 X72.181 Y255.583 
G02 X65.250 Y251.950 I-20.761 J31.188
G01 X64.306 Y253.116  
G01 X65.250 Y251.950 
G01 X65.064 Y251.675 
G02 X57.763 Y243.829 I-29.307 J19.950
G02 X53.110 Y240.691 I-22.862 J28.877
G01 X52.073 Y240.120  
G01 X51.047 Y241.195 
G01 X52.073 Y240.120 
G02 X48.505 Y235.051 I-34.710 J20.641
G02 X43.720 Y230.088 I-34.588 J28.553
G01 X41.619 Y228.286  
G01 X40.327 Y229.075 
G01 X41.619 Y228.286 
G01 X41.546 Y227.955 
G01 X40.723 Y224.681 
G01 X38.881 Y223.509 
G01 X40.723 Y224.681 
G01 X41.474 Y224.553 
G02 X53.384 Y221.283 I-11.851 J-66.496
G02 X66.747 Y214.591 I-25.134 J-66.879
G02 X73.437 Y209.870 I-48.425 J-75.709
G01 X74.715 Y208.870  
G01 X74.469 Y207.243 
G01 X74.715 Y208.870 
G01 X78.359 Y210.081 
G02 X87.309 Y211.759 I13.252 J-45.969
G02 X103.831 Y210.626 I4.716 J-52.232
G02 X113.244 Y207.459 I-11.492 J-49.737
G01 X116.889 Y205.685  
G01 X117.016 Y203.996 
G01 X116.889 Y205.685 
G01 X117.117 Y205.863 
G01 X119.824 Y208.109 
G01 X124.099 Y211.718 
G01 X129.879 Y216.012 
G01 X134.087 Y209.799  
G02 X141.136 Y213.752 I26.924 J-39.753
G02 X148.668 Y216.418 I19.108 J-42.020
G01 X154.827 Y217.699  
G02 X165.915 Y218.737 I13.709 J-86.689
G02 X172.992 Y218.435 I1.459 J-48.869
G02 X179.182 Y217.278 I-5.196 J-44.927
G01 X180.341 Y216.072  
G01 X181.072 Y215.245 
G01 X180.341 Y216.072 
G01 X179.182 Y217.278 
G01 X178.526 Y219.349 
G03 X176.135 Y224.826 I-47.987 J-17.688
G03 X171.466 Y232.582 I-56.181 J-28.543
G01 X168.803 Y236.033  
G03 X165.597 Y239.326 I-24.645 J-20.787
G01 X163.589 Y240.809  
G01 X162.323 Y241.490 
G01 X160.063 Y242.541 
G01 X155.755 Y244.675 
G02 X148.574 Y249.577 I19.102 J35.690
G02 X142.967 Y255.420 I26.491 J31.030
G01 X141.704 Y257.074  
G01 X142.593 Y258.275 
G01 X141.704 Y257.074 
G01 X139.563 Y257.926 
G02 X131.525 Y262.943 I12.871 J29.568
G01 X131.311 Y263.124  
G01 X132.089 Y264.336 
G01 X131.311 Y263.124 
G02 X124.890 Y267.151 I12.982 J27.833
G01 X121.931 Y269.873  
G01 X120.639 Y271.265 
G01 X121.286 Y272.693 
G01 X120.639 Y271.265 
G01 X118.785 Y271.316 
G02 X111.928 Y272.423 I1.384 J30.353
G02 X105.292 Y275.120 I8.747 J31.043
G01 X102.133 Y276.995  
G01 X101.682 Y277.287 
G01 X101.796 Y278.915 
G01 X101.682 Y277.287 
G01 X98.426 Y275.930 
G02 X90.845 Y273.904 I-14.012 J37.241
G01 X88.483 Y273.563  
G01 X87.820 Y274.923 
G01 X88.483 Y273.563 
G01 X85.800 Y271.125 
G02 X81.565 Y268.146 I-20.418 J24.525
G02 X72.512 Y264.615 I-15.468 J26.287
G01 X71.374 Y264.392  
G01 X70.740 Y265.734 
G01 X71.374 Y264.392 
G01 X71.271 Y264.303 
G01 X68.023 Y261.829 
G02 X61.473 Y258.546 I-16.603 J24.941
G01 X60.242 Y258.135  
G01 X59.267 Y259.334 
G01 X60.242 Y258.135 
G01 X58.861 Y255.898 
G02 X53.105 Y249.712 I-23.104 J15.728
G02 X49.400 Y247.213 I-18.204 J22.994
G01 X46.644 Y245.805  
G01 X45.595 Y246.901 
G01 X46.644 Y245.805 
G01 X46.318 Y245.184 
G02 X42.718 Y239.829 I-28.956 J15.577
G02 X38.734 Y235.695 I-28.801 J23.776
G01 X35.197 Y232.757  
G01 X34.821 Y232.465 
G01 X33.521 Y233.263 
G01 X34.821 Y232.465 
G01 X34.217 Y229.566 
G02 X32.463 Y223.489 I-47.795 J10.505
G01 X31.692 Y221.476  
G01 X31.449 Y220.740 
G01 X30.980 Y218.592 
G01 X30.852 Y217.857 
G01 X30.006 Y217.103 
G01 X29.168 Y216.329 
G01 X30.006 Y217.103 
G01 X30.852 Y217.857 
G01 X32.474 Y217.877 
G02 X40.158 Y217.165 I-0.388 J-46.001
G02 X50.745 Y214.259 I-10.535 J-59.108
G02 X62.704 Y208.270 I-22.494 J-59.854
G02 X68.835 Y203.942 I-44.382 J-69.387
G01 X72.207 Y201.271  
G01 X73.110 Y200.589 
G01 X73.355 Y200.431 
G01 X73.160 Y199.967 
G01 X73.355 Y200.431 
G01 X73.834 Y200.351 
G01 X74.098 Y198.917 
G01 X73.834 Y200.351 
G01 X74.604 Y200.688 
G02 X80.437 Y202.871 I16.995 J-36.534
G02 X87.984 Y204.286 I11.174 J-38.759
G02 X102.142 Y203.314 I4.041 J-44.758
G02 X110.171 Y200.613 I-9.803 J-42.426
G01 X114.297 Y198.558  
G01 X116.975 Y197.039 
G01 X117.146 Y196.940 
G01 X117.070 Y195.358 
G01 X117.146 Y196.940 
G01 X118.668 Y197.777 
G01 X121.755 Y199.963 
G01 X124.769 Y202.465 
G01 X128.833 Y205.896 
G01 X134.087 Y209.799 
G01 X138.295 Y203.586  
G02 X144.243 Y206.921 I22.716 J-33.540
G02 X150.550 Y209.154 I16.002 J-35.189
G01 X155.999 Y210.287  
G02 X166.139 Y211.237 I12.537 J-79.277
G02 X172.130 Y210.981 I1.235 J-41.369
G02 X183.167 Y207.957 I-4.334 J-37.473
G01 X186.655 Y206.115  
G01 X187.217 Y209.701 
G03 X186.859 Y217.394 I-25.025 J2.689
G03 X185.567 Y221.944 I-30.327 J-6.151
G03 X182.825 Y228.225 I-55.028 J-20.283
G03 X177.600 Y236.904 I-62.872 J-31.942
G01 X174.539 Y240.871  
G03 X170.587 Y244.930 I-30.381 J-25.625
G03 X167.479 Y247.226 I-14.097 J-15.833
G01 X165.536 Y248.272  
G01 X163.179 Y249.368 
G01 X159.296 Y251.291 
G02 X153.446 Y255.285 I15.561 J29.074
G02 X148.871 Y260.053 I21.618 J25.323
G01 X146.440 Y263.336  
G01 X146.359 Y263.450 
G01 X146.288 Y263.480 
G01 X142.558 Y264.806 
G02 X136.391 Y268.656 I9.876 J22.687
G01 X135.562 Y269.340  
G01 X135.269 Y269.524 
G01 X134.524 Y269.906 
G02 X129.631 Y272.968 I9.769 J21.051
G01 X127.332 Y275.082  
G01 X125.172 Y277.504 
G01 X124.704 Y278.021 
G01 X124.625 Y278.084 
G01 X122.996 Y278.730 
G01 X122.644 Y278.773 
G01 X122.084 Y278.779 
G01 X119.127 Y278.812 
G02 X113.964 Y279.646 I1.042 J22.857
G02 X108.871 Y281.715 I6.712 J23.820
G01 X106.209 Y283.296  
G01 X104.205 Y284.592 
G01 X103.571 Y284.931 
G01 X101.024 Y284.946 
G01 X99.883 Y284.685 
G01 X99.079 Y284.354 
G01 X95.784 Y282.953 
G02 X89.632 Y281.309 I-11.369 J30.217
G01 X86.780 Y280.919  
G01 X85.403 Y280.674 
G01 X84.831 Y280.489 
G01 X84.737 Y280.431 
G01 X84.042 Y279.758 
G01 X80.999 Y276.892 
G02 X77.760 Y274.613 I-15.617 J18.758
G02 X70.934 Y271.951 I-11.662 J19.820
G01 X68.334 Y271.542  
G01 X68.130 Y271.521 
G01 X66.355 Y269.972 
G01 X63.865 Y268.076 
G02 X58.956 Y265.615 I-12.445 J18.695
G01 X56.113 Y264.792  
G01 X55.061 Y264.554 
G01 X54.970 Y264.395 
G01 X54.571 Y263.558 
G02 X52.658 Y260.121 I-20.054 J8.911
G02 X48.447 Y255.596 I-16.901 J11.505
G01 X45.690 Y253.736  
G01 X42.983 Y252.390 
G01 X40.979 Y251.476 
G01 X39.710 Y248.739 
G02 X36.931 Y244.606 I-22.347 J12.022
G02 X33.748 Y241.303 I-23.014 J18.999
G01 X30.598 Y238.687  
G01 X28.005 Y236.652 
G01 X27.619 Y234.742 
G01 X26.888 Y231.177 
G02 X25.403 Y226.032 I-40.466 J8.894
G01 X24.740 Y224.300  
G01 X24.182 Y222.613 
G01 X23.594 Y219.916 
G03 X22.643 Y212.730 I77.927 J-13.971
G01 X22.468 Y208.756  
G01 X22.469 Y208.659 
G02 X26.772 Y209.901 I8.038 J-19.787
G02 X32.411 Y210.373 I5.380 J-30.290
G02 X38.841 Y209.778 I-0.325 J-38.497
G02 X48.105 Y207.234 I-9.218 J-51.721
G02 X58.661 Y201.948 I-19.854 J-52.830
G01 X64.233 Y198.015  
G01 X67.489 Y195.435 
G01 X68.786 Y194.456 
G01 X69.742 Y193.854 
G01 X71.191 Y193.245 
G03 X74.253 Y192.844 I2.820 J9.623
G03 X76.316 Y193.261 I-0.146 J6.028
G01 X77.769 Y193.884  
G02 X82.516 Y195.660 I13.830 J-29.730
G02 X88.658 Y196.812 I9.095 J-31.548
G02 X100.453 Y196.003 I3.367 J-37.285
G02 X107.098 Y193.767 I-8.113 J-35.114
G01 X110.685 Y191.981  
G01 X113.181 Y190.564 
G01 X114.911 Y189.649 
G01 X115.949 Y189.242 
G01 X116.895 Y189.113 
G01 X117.933 Y189.266 
G01 X120.174 Y190.072 
G01 X122.693 Y191.444 
G01 X126.392 Y194.063 
G01 X129.715 Y196.822 
G01 X133.567 Y200.073 
G01 X138.295 Y203.586 
G00 Z25.080
G00 X121.036 Y235.388  F6000.0
G01 Z13.000 F1200.0 M3
G01 Z12.812 
G01 Z12.516 
G01 Z12.416 
G01 Z12.315 
G01 Z12.009 
G01 Z11.702 
G01 Z11.600 
G01 Z11.497 
G01 Z11.225 
G01 Z10.978 
G01 Z10.866 
G01 Z10.753 
G01 Z10.452 
G01 Z10.141 
G01 Z9.829 
G01 Z9.518 
G01 Z9.500 
G01 Z9.482 
G01 Z9.171 
G01 Z8.859 
G01 Z8.548 
G01 Z8.247 
G01 Z8.134 
G01 Z8.022 
G01 Z7.775 
G01 Z7.503 
G01 Z7.400 
G01 Z7.298 
G01 Z6.991 
G01 Z6.685 
G01 Z6.584 
G01 Z6.484 
G01 Z6.188 
G01 Z6.000 
G01 X118.356 Y235.384  F3000.0
G01 X114.891 Y237.822 
G01 X115.671 Y239.023 
G01 X114.891 Y237.822 
G02 X107.559 Y242.599 I29.402 J53.135
G01 X108.170 Y243.931  
G01 X107.559 Y242.599 
G01 X103.788 Y243.532 
G01 X100.418 Y244.586 
G01 X100.202 Y246.176 
G01 X100.418 Y244.586 
G01 X96.788 Y242.276 
G02 X84.626 Y236.823 I-30.690 J52.157
G01 X83.999 Y238.123  
G01 X84.626 Y236.823 
G01 X79.786 Y233.924 
G01 X78.874 Y235.057 
G01 X79.786 Y233.924 
G01 X79.317 Y233.383 
G01 X79.172 Y233.302 
G01 X77.055 Y233.015 
G01 X79.172 Y233.302 
G01 X78.884 Y231.851 
G01 X79.172 Y233.302 
G01 X79.317 Y233.383 
G01 X85.284 Y234.180 
G02 X108.899 Y232.560 I6.741 J-74.653
G01 X112.880 Y231.522  
G01 X113.168 Y229.946 
G01 X112.880 Y231.522 
G01 X117.255 Y234.652 
G01 X118.356 Y235.384 
G01 X121.036 Y235.388 
G01 X121.463 Y228.439  
G02 X131.818 Y234.245 I39.548 J-58.392
G01 X131.906 Y234.285  
G01 X134.517 Y233.859 
G01 X131.906 Y234.285 
G01 X127.632 Y238.673 
G01 X128.522 Y239.824 
G01 X127.632 Y238.673 
G02 X118.991 Y244.132 I24.802 J48.821
G01 X119.772 Y245.335  
G01 X118.991 Y244.132 
G02 X110.775 Y249.613 I25.302 J46.825
G01 X111.391 Y250.956  
G01 X110.775 Y249.613 
G01 X105.823 Y250.755 
G02 X99.858 Y252.813 I14.853 J52.711
G01 X99.964 Y254.317  
G01 X99.858 Y252.813 
G01 X98.537 Y252.490 
G01 X97.911 Y253.813 
G01 X98.537 Y252.490 
G02 X92.982 Y248.744 I-33.155 J43.160
G02 X81.334 Y243.658 I-26.884 J45.690
G01 X80.706 Y244.962  
G01 X81.334 Y243.658 
G01 X80.498 Y243.090 
G02 X74.986 Y239.886 I-29.077 J43.681
G01 X74.068 Y241.025  
G01 X74.986 Y239.886 
G02 X67.078 Y232.062 I-39.229 J31.740
G01 X66.757 Y231.809  
G01 X64.005 Y231.546 
G01 X66.757 Y231.809 
G02 X74.834 Y227.234 I-38.506 J-77.405
G01 X77.625 Y225.385  
G01 X77.334 Y223.850 
G01 X77.625 Y225.385 
G02 X85.959 Y226.707 I13.986 J-61.273
G02 X107.210 Y225.248 I6.066 J-67.179
G02 X114.380 Y223.158 I-14.870 J-64.360
G01 X114.659 Y221.539  
G01 X114.380 Y223.158 
G01 X114.631 Y223.363 
G02 X121.463 Y228.439 I61.504 J-75.646
G01 X125.671 Y222.226  
G02 X134.924 Y227.414 I35.340 J-52.179
G02 X144.905 Y230.946 I25.321 J-55.682
G01 X148.164 Y231.718  
G01 X152.524 Y231.083 
G01 X148.164 Y231.718 
G02 X138.829 Y238.163 I26.693 J48.646
G02 X132.312 Y244.736 I36.235 J42.445
G01 X133.205 Y245.896  
G01 X132.312 Y244.736 
G02 X123.094 Y250.449 I20.121 J42.757
G01 X123.876 Y251.653  
G01 X123.094 Y250.449 
G02 X115.409 Y255.517 I21.198 J40.508
G01 X114.017 Y256.695  
G01 X114.638 Y258.055 
G01 X114.017 Y256.695 
G02 X107.858 Y257.978 I6.152 J44.973
G02 X100.426 Y260.764 I12.818 J45.489
G01 X100.539 Y262.296  
G01 X100.426 Y260.764 
G01 X95.234 Y259.452 
G01 X94.600 Y260.783 
G01 X95.234 Y259.452 
G02 X89.177 Y255.211 I-29.853 J36.198
G02 X78.033 Y250.518 I-23.079 J39.222
G01 X77.403 Y251.828  
G01 X78.033 Y250.518 
G01 X76.340 Y249.336 
G02 X70.149 Y245.886 I-24.919 J37.435
G01 X69.222 Y247.035  
G01 X70.149 Y245.886 
G02 X62.421 Y237.945 I-34.392 J25.740
G02 X57.416 Y234.513 I-27.519 J34.761
G01 X56.403 Y235.576  
G01 X57.416 Y234.513 
G01 X54.292 Y230.274 
G01 X53.411 Y229.235 
G01 X50.856 Y228.547 
G01 X53.411 Y229.235 
G01 X56.024 Y228.307 
G02 X70.791 Y220.913 I-27.774 J-73.903
G01 X76.124 Y217.246  
G01 X75.846 Y215.672 
G01 X76.124 Y217.246 
G01 X76.280 Y217.292 
G02 X86.634 Y219.233 I15.331 J-53.179
G02 X105.520 Y217.937 I5.391 J-59.706
G02 X115.785 Y214.541 I-13.181 J-57.049
G01 X116.034 Y212.865  
G01 X115.785 Y214.541 
G01 X119.365 Y217.540 
G02 X125.671 Y222.226 I56.770 J-69.824
G01 X129.879 Y216.012  
G02 X138.030 Y220.583 I31.132 J-45.966
G02 X146.787 Y223.682 I22.214 J-48.851
G02 X153.654 Y225.111 I18.209 J-70.291
G02 X165.691 Y226.238 I14.881 J-94.101
G01 X166.678 Y226.259  
G01 X167.966 Y225.546 
G01 X169.238 Y224.803 
G01 X167.966 Y225.546 
G01 X166.678 Y226.259 
G01 X165.332 Y228.260 
G01 X163.067 Y231.195 
G01 X160.607 Y233.721 
G01 X159.699 Y234.392 
G01 X159.110 Y234.709 
G01 X156.947 Y235.715 
G01 X152.214 Y238.059 
G02 X143.701 Y243.870 I22.643 J42.306
G02 X137.064 Y250.788 I31.363 J36.737
G01 X137.011 Y250.856  
G01 X137.907 Y252.030 
G01 X137.011 Y250.856 
G01 X136.568 Y251.045 
G02 X127.202 Y256.776 I15.866 J36.448
G01 X127.985 Y257.983  
G01 X127.202 Y256.776 
G02 X120.149 Y261.334 I17.091 J34.181
G01 X117.296 Y263.890  
G01 X117.927 Y265.278 
G01 X117.296 Y263.890 
G02 X109.893 Y265.201 I2.873 J37.779
G02 X101.713 Y268.524 I10.782 J38.266
G01 X101.040 Y268.895  
G01 X101.160 Y270.471 
G01 X101.040 Y268.895 
G02 X92.058 Y266.499 I-16.626 J44.275
G01 X91.893 Y266.472  
G01 X91.251 Y267.817 
G01 X91.893 Y266.472 
G01 X90.601 Y265.358 
G02 X85.371 Y261.678 I-25.220 J30.292
G02 X74.717 Y257.419 I-19.273 J32.755
G01 X74.083 Y258.740  
G01 X74.717 Y257.419 
G01 X72.181 Y255.583 
G02 X65.250 Y251.950 I-20.761 J31.188
G01 X64.306 Y253.116  
G01 X65.250 Y251.950 
G01 X65.064 Y251.675 
G02 X57.763 Y243.829 I-29.307 J19.950
G02 X53.110 Y240.691 I-22.862 J28.877
G01 X52.073 Y240.120  
G01 X51.047 Y241.195 
G01 X52.073 Y240.120 
G02 X48.505 Y235.051 I-34.710 J20.641
G02 X43.720 Y230.088 I-34.588 J28.553
G01 X41.619 Y228.286  
G01 X40.327 Y229.075 
G01 X41.619 Y228.286 
G01 X41.546 Y227.955 
G01 X40.723 Y224.681 
G01 X38.881 Y223.509 
G01 X40.723 Y224.681 
G01 X41.474 Y224.553 
G02 X53.384 Y221.283 I-11.851 J-66.496
G02 X66.747 Y214.591 I-25.134 J-66.879
G02 X73.437 Y209.870 I-48.425 J-75.709
G01 X74.715 Y208.870  
G01 X74.469 Y207.243 
G01 X74.715 Y208.870 
G01 X78.359 Y210.081 
G02 X87.309 Y211.759 I13.252 J-45.969
G02 X103.831 Y210.626 I4.716 J-52.232
G02 X113.244 Y207.459 I-11.492 J-49.737
G01 X116.889 Y205.685  
G01 X117.016 Y203.996 
G01 X116.889 Y205.685 
G01 X117.117 Y205.863 
G01 X119.824 Y208.109 
G01 X124.099 Y211.718 
G01 X129.879 Y216.012 
G01 X134.087 Y209.799  
G02 X141.136 Y213.752 I26.924 J-39.753
G02 X148.668 Y216.418 I19.108 J-42.020
G01 X154.827 Y217.699  
G02 X165.915 Y218.737 I13.709 J-86.689
G02 X172.992 Y218.435 I1.459 J-48.869
G02 X179.182 Y217.278 I-5.196 J-44.927
G01 X180.341 Y216.072  
G01 X181.072 Y215.245 
G01 X180.341 Y216.072 
G01 X179.182 Y217.278 
G01 X178.526 Y219.349 
G03 X176.135 Y224.826 I-47.987 J-17.688
G03 X171.466 Y232.582 I-56.181 J-28.543
G01 X168.803 Y236.033  
G03 X165.597 Y239.326 I-24.645 J-20.787
G01 X163.589 Y240.809  
G01 X162.323 Y241.490 
G01 X160.063 Y242.541 
G01 X155.755 Y244.675 
G02 X148.574 Y249.577 I19.102 J35.690
G02 X142.967 Y255.420 I26.491 J31.030
G01 X141.704 Y257.074  
G01 X142.593 Y258.275 
G01 X141.704 Y257.074 
G01 X139.563 Y257.926 
G02 X131.525 Y262.943 I12.871 J29.568
G01 X131.311 Y263.124  
G01 X132.089 Y264.336 
G01 X131.311 Y263.124 
G02 X124.890 Y267.151 I12.982 J27.833
G01 X121.931 Y269.873  
G01 X120.639 Y271.265 
G01 X121.286 Y272.693 
G01 X120.639 Y271.265 
G01 X118.785 Y271.316 
G02 X111.928 Y272.423 I1.384 J30.353
G02 X105.292 Y275.120 I8.747 J31.043
G01 X102.133 Y276.995  
G01 X101.682 Y277.287 
G01 X101.796 Y278.915 
G01 X101.682 Y277.287 
G01 X98.426 Y275.930 
G02 X90.845 Y273.904 I-14.012 J37.241
G01 X88.483 Y273.563  
G01 X87.820 Y274.923 
G01 X88.483 Y273.563 
G01 X85.800 Y271.125 
G02 X81.565 Y268.146 I-20.418 J24.525
G02 X72.512 Y264.615 I-15.468 J26.287
G01 X71.374 Y264.392  
G01 X70.740 Y265.734 
G01 X71.374 Y264.392 
G01 X71.271 Y264.303 
G01 X68.023 Y261.829 
G02 X61.473 Y258.546 I-16.603 J24.941
G01 X60.242 Y258.135  
G01 X59.267 Y259.334 
G01 X60.242 Y258.135 
G01 X58.861 Y255.898 
G02 X53.105 Y249.712 I-23.104 J15.728
G02 X49.400 Y247.213 I-18.204 J22.994
G01 X46.644 Y245.805  
G01 X45.595 Y246.901 
G01 X46.644 Y245.805 
G01 X46.318 Y245.184 
G02 X42.718 Y239.829 I-28.956 J15.577
G02 X38.734 Y235.695 I-28.801 J23.776
G01 X35.197 Y232.757  
G01 X34.821 Y232.465 
G01 X33.521 Y233.263 
G01 X34.821 Y232.465 
G01 X34.217 Y229.566 
G02 X32.463 Y223.489 I-47.795 J10.505
G01 X31.692 Y221.476  
G01 X31.449 Y220.740 
G01 X30.980 Y218.592 
G01 X30.852 Y217.857 
G01 X30.006 Y217.103 
G01 X29.168 Y216.329 
G01 X30.006 Y217.103 
G01 X30.852 Y217.857 
G01 X32.474 Y217.877 
G02 X40.158 Y217.165 I-0.388 J-46.001
G02 X50.745 Y214.259 I-10.535 J-59.108
G02 X62.704 Y208.270 I-22.494 J-59.854
G02 X68.835 Y203.942 I-44.382 J-69.387
G01 X72.207 Y201.271  
G01 X73.110 Y200.589 
G01 X73.355 Y200.431 
G01 X73.160 Y199.967 
G01 X73.355 Y200.431 
G01 X73.834 Y200.351 
G01 X74.098 Y198.917 
G01 X73.834 Y200.351 
G01 X74.604 Y200.688 
G02 X80.437 Y202.871 I16.995 J-36.534
G02 X87.984 Y204.286 I11.174 J-38.759
G02 X102.142 Y203.314 I4.041 J-44.758
G02 X110.171 Y200.613 I-9.803 J-42.426
G01 X114.297 Y198.558  
G01 X116.975 Y197.039 
G01 X117.146 Y196.940 
G01 X117.070 Y195.358 
G01 X117.146 Y196.940 
G01 X118.668 Y197.777 
G01 X121.755 Y199.963 
G01 X124.769 Y202.465 
G01 X128.833 Y205.896 
G01 X134.087 Y209.799 
G01 X138.295 Y203.586  
G02 X144.243 Y206.921 I22.716 J-33.540
G02 X150.550 Y209.154 I16.002 J-35.189
G01 X155.999 Y210.287  
G02 X166.139 Y211.237 I12.537 J-79.277
G02 X172.130 Y210.981 I1.235 J-41.369
G02 X183.167 Y207.957 I-4.334 J-37.473
G01 X186.655 Y206.115  
G01 X187.217 Y209.701 
G03 X186.859 Y217.394 I-25.025 J2.689
G03 X185.567 Y221.944 I-30.327 J-6.151
G03 X182.825 Y228.225 I-55.028 J-20.283
G03 X177.600 Y236.904 I-62.872 J-31.942
G01 X174.539 Y240.871  
G03 X170.587 Y244.930 I-30.381 J-25.625
G03 X167.479 Y247.226 I-14.097 J-15.833
G01 X165.536 Y248.272  
G01 X163.179 Y249.368 
G01 X159.296 Y251.291 
G02 X153.446 Y255.285 I15.561 J29.074
G02 X148.871 Y260.053 I21.618 J25.323
G01 X146.440 Y263.336  
G01 X146.359 Y263.450 
G01 X146.288 Y263.480 
G01 X142.558 Y264.806 
G02 X136.391 Y268.656 I9.876 J22.687
G01 X135.562 Y269.340  
G01 X135.269 Y269.524 
G01 X134.524 Y269.906 
G02 X129.631 Y272.968 I9.769 J21.051
G01 X127.332 Y275.082  
G01 X125.172 Y277.504 
G01 X124.704 Y278.021 
G01 X124.625 Y278.084 
G01 X122.996 Y278.730 
G01 X122.644 Y278.773 
G01 X122.084 Y278.779 
G01 X119.127 Y278.812 
G02 X113.964 Y279.646 I1.042 J22.857
G02 X108.871 Y281.715 I6.712 J23.820
G01 X106.209 Y283.296  
G01 X104.205 Y284.592 
G01 X103.571 Y284.931 
G01 X101.024 Y284.946 
G01 X99.883 Y284.685 
G01 X99.079 Y284.354 
G01 X95.784 Y282.953 
G02 X89.632 Y281.309 I-11.369 J30.217
G01 X86.780 Y280.919  
G01 X85.403 Y280.674 
G01 X84.831 Y280.489 
G01 X84.737 Y280.431 
G01 X84.042 Y279.758 
G01 X80.999 Y276.892 
G02 X77.760 Y274.613 I-15.617 J18.758
G02 X70.934 Y271.951 I-11.662 J19.820
G01 X68.334 Y271.542  
G01 X68.130 Y271.521 
G01 X66.355 Y269.972 
G01 X63.865 Y268.076 
G02 X58.956 Y265.615 I-12.445 J18.695
G01 X56.113 Y264.792  
G01 X55.061 Y264.554 
G01 X54.970 Y264.395 
G01 X54.571 Y263.558 
G02 X52.658 Y260.121 I-20.054 J8.911
G02 X48.447 Y255.596 I-16.901 J11.505
G01 X45.690 Y253.736  
G01 X42.983 Y252.390 
G01 X40.979 Y251.476 
G01 X39.710 Y248.739 
G02 X36.931 Y244.606 I-22.347 J12.022
G02 X33.748 Y241.303 I-23.014 J18.999
G01 X30.598 Y238.687  
G01 X28.005 Y236.652 
G01 X27.619 Y234.742 
G01 X26.888 Y231.177 
G02 X25.403 Y226.032 I-40.466 J8.894
G01 X24.740 Y224.300  
G01 X24.182 Y222.613 
G01 X23.594 Y219.916 
G03 X22.643 Y212.730 I77.927 J-13.971
G01 X22.468 Y208.756  
G01 X22.469 Y208.659 
G02 X26.772 Y209.901 I8.038 J-19.787
G02 X32.411 Y210.373 I5.380 J-30.290
G02 X38.841 Y209.778 I-0.325 J-38.497
G02 X48.105 Y207.234 I-9.218 J-51.721
G02 X58.661 Y201.948 I-19.854 J-52.830
G01 X64.233 Y198.015  
G01 X67.489 Y195.435 
G01 X68.786 Y194.456 
G01 X69.742 Y193.854 
G01 X71.191 Y193.245 
G03 X74.253 Y192.844 I2.820 J9.623
G03 X76.316 Y193.261 I-0.146 J6.028
G01 X77.769 Y193.884  
G02 X82.516 Y195.660 I13.830 J-29.730
G02 X88.658 Y196.812 I9.095 J-31.548
G02 X100.453 Y196.003 I3.367 J-37.285
G02 X107.098 Y193.767 I-8.113 J-35.114
G01 X110.685 Y191.981  
G01 X113.181 Y190.564 
G01 X114.911 Y189.649 
G01 X115.949 Y189.242 
G01 X116.895 Y189.113 
G01 X117.933 Y189.266 
G01 X120.174 Y190.072 
G01 X122.693 Y191.444 
G01 X126.392 Y194.063 
G01 X129.715 Y196.822 
G01 X133.567 Y200.073 
G01 X138.295 Y203.586 
G00 Z25.080
G00 X295.726 Y164.187  F6000.0
G01 Z20.000 F1200.0 M3
G01 Z19.812 
G01 Z19.516 
G01 Z19.416 
G01 Z19.315 
G01 Z19.009 
G01 Z18.702 
G01 Z18.600 
G01 Z18.497 
G01 Z18.225 
G01 Z17.978 
G01 Z17.866 
G01 Z17.753 
G01 Z17.452 
G01 Z17.141 
G01 Z16.829 
G01 Z16.518 
G01 Z16.500 
G01 Z16.482 
G01 Z16.171 
G01 Z15.859 
G01 Z15.548 
G01 Z15.247 
G01 Z15.134 
G01 Z15.022 
G01 Z14.775 
G01 Z14.503 
G01 Z14.400 
G01 Z14.298 
G01 Z13.991 
G01 Z13.685 
G01 Z13.584 
G01 Z13.484 
G01 Z13.188 
G01 Z13.000 
G01 X298.406 Y164.191  F3000.0
G01 X301.871 Y161.753 
G01 X301.090 Y160.552 
G01 X301.871 Y161.753 
G02 X309.203 Y156.976 I-29.402 J-53.135
G01 X308.592 Y155.644  
G01 X309.203 Y156.976 
G01 X312.974 Y156.043 
G01 X316.344 Y154.989 
G01 X316.560 Y153.399 
G01 X316.344 Y154.989 
G01 X319.974 Y157.299 
G02 X332.136 Y162.752 I30.690 J-52.157
G01 X332.762 Y161.452  
G01 X332.136 Y162.752 
G01 X336.976 Y165.651 
G01 X337.888 Y164.518 
G01 X336.976 Y165.651 
G01 X337.445 Y166.192 
G01 X337.589 Y166.273 
G01 X339.706 Y166.560 
G01 X337.589 Y166.273 
G01 X337.878 Y167.724 
G01 X337.589 Y166.273 
G01 X337.445 Y166.192 
G01 X331.477 Y165.395 
G02 X307.863 Y167.015 I-6.741 J74.653
G01 X303.882 Y168.053  
G01 X303.593 Y169.629 
G01 X303.882 Y168.053 
G01 X299.507 Y164.923 
G01 X298.406 Y164.191 
G01 X295.726 Y164.187 
G01 X295.299 Y171.136  
G02 X284.944 Y165.330 I-39.548 J58.392
G01 X284.855 Y165.290  
G01 X282.245 Y165.716 
G01 X284.855 Y165.290 
G01 X289.130 Y160.902 
G01 X288.240 Y159.751 
G01 X289.130 Y160.902 
G02 X297.770 Y155.443 I-24.802 J-48.821
G01 X296.989 Y154.240  
G01 X297.770 Y155.443 
G02 X305.986 Y149.962 I-25.302 J-46.825
G01 X305.371 Y148.619  
G01 X305.986 Y149.962 
G01 X310.939 Y148.820 
G02 X316.903 Y146.762 I-14.853 J-52.711
G01 X316.798 Y145.258  
G01 X316.903 Y146.762 
G01 X318.225 Y147.085 
G01 X318.851 Y145.762 
G01 X318.225 Y147.085 
G02 X323.780 Y150.831 I33.155 J-43.160
G02 X335.427 Y155.917 I26.884 J-45.690
G01 X336.055 Y154.613  
G01 X335.427 Y155.917 
G01 X336.264 Y156.485 
G02 X341.776 Y159.689 I29.077 J-43.681
G01 X342.693 Y158.550  
G01 X341.776 Y159.689 
G02 X349.683 Y167.513 I39.229 J-31.740
G01 X350.005 Y167.766  
G01 X352.756 Y168.029 
G01 X350.005 Y167.766 
G02 X341.927 Y172.341 I38.506 J77.405
G01 X339.136 Y174.190  
G01 X339.427 Y175.725 
G01 X339.136 Y174.190 
G02 X330.803 Y172.868 I-13.986 J61.273
G02 X309.552 Y174.326 I-6.066 J67.179
G02 X302.381 Y176.417 I14.870 J64.360
G01 X302.103 Y178.036  
G01 X302.381 Y176.417 
G01 X302.131 Y176.212 
G02 X295.299 Y171.136 I-61.504 J75.646
G01 X291.091 Y177.349  
G02 X281.838 Y172.161 I-35.340 J52.179
G02 X271.857 Y168.629 I-25.321 J55.682
G01 X268.597 Y167.857  
G01 X264.238 Y168.492 
G01 X268.597 Y167.857 
G02 X277.932 Y161.412 I-26.693 J-48.646
G02 X284.449 Y154.839 I-36.235 J-42.445
G01 X283.556 Y153.679  
G01 X284.449 Y154.839 
G02 X293.667 Y149.126 I-20.121 J-42.757
G01 X292.885 Y147.922  
G01 X293.667 Y149.126 
G02 X301.353 Y144.058 I-21.198 J-40.508
G01 X302.744 Y142.880  
G01 X302.123 Y141.520 
G01 X302.744 Y142.880 
G02 X308.904 Y141.597 I-6.152 J-44.973
G02 X316.335 Y138.811 I-12.818 J-45.489
G01 X316.222 Y137.279  
G01 X316.335 Y138.811 
G01 X321.527 Y140.123 
G01 X322.161 Y138.792 
G01 X321.527 Y140.123 
G02 X327.585 Y144.364 I29.853 J-36.198
G02 X338.728 Y149.057 I23.079 J-39.222
G01 X339.358 Y147.747  
G01 X338.728 Y149.057 
G01 X340.422 Y150.239 
G02 X346.613 Y153.689 I24.919 J-37.435
G01 X347.540 Y152.540  
G01 X346.613 Y153.689 
G02 X354.341 Y161.630 I34.392 J-25.740
G02 X359.346 Y165.062 I27.519 J-34.761
G01 X360.359 Y163.999  
G01 X359.346 Y165.062 
G01 X362.469 Y169.301 
G01 X363.350 Y170.340 
G01 X365.906 Y171.028 
G01 X363.350 Y170.340 
G01 X360.737 Y171.268 
G02 X345.971 Y178.662 I27.774 J73.903
G01 X340.638 Y182.329  
G01 X340.915 Y183.903 
G01 X340.638 Y182.329 
G01 X340.482 Y182.283 
G02 X330.128 Y180.342 I-15.331 J53.179
G02 X311.241 Y181.638 I-5.391 J59.706
G02 X300.977 Y185.034 I13.181 J57.049
G01 X300.728 Y186.710  
G01 X300.977 Y185.034 
G01 X297.397 Y182.035 
G02 X291.091 Y177.349 I-56.770 J69.824
G01 X286.883 Y183.563  
G02 X278.732 Y178.992 I-31.132 J45.966
G02 X269.975 Y175.893 I-22.214 J48.851
G02 X263.107 Y174.464 I-18.209 J70.291
G02 X251.070 Y173.337 I-14.881 J94.101
G01 X250.084 Y173.316  
G01 X248.795 Y174.029 
G01 X247.523 Y174.772 
G01 X248.795 Y174.029 
G01 X250.084 Y173.316 
G01 X251.430 Y171.315 
G01 X253.695 Y168.380 
G01 X256.155 Y165.854 
G01 X257.062 Y165.183 
G01 X257.652 Y164.866 
G01 X259.815 Y163.860 
G01 X264.547 Y161.516 
G02 X273.060 Y155.705 I-22.643 J-42.306
G02 X279.698 Y148.787 I-31.363 J-36.737
G01 X279.751 Y148.719  
G01 X278.855 Y147.545 
G01 X279.751 Y148.719 
G01 X280.194 Y148.530 
G02 X289.559 Y142.799 I-15.866 J-36.448
G01 X288.776 Y141.592  
G01 X289.559 Y142.799 
G02 X296.612 Y138.241 I-17.091 J-34.181
G01 X299.465 Y135.685  
G01 X298.835 Y134.297 
G01 X299.465 Y135.685 
G02 X306.868 Y134.374 I-2.873 J-37.779
G02 X315.049 Y131.051 I-10.782 J-38.266
G01 X315.721 Y130.680  
G01 X315.601 Y129.104 
G01 X315.721 Y130.680 
G02 X324.704 Y133.076 I16.626 J-44.275
G01 X324.869 Y133.103  
G01 X325.510 Y131.758 
G01 X324.869 Y133.103 
G01 X326.160 Y134.217 
G02 X331.391 Y137.896 I25.220 J-30.292
G02 X342.044 Y142.156 I19.273 J-32.755
G01 X342.678 Y140.835  
G01 X342.044 Y142.156 
G01 X344.580 Y143.992 
G02 X351.512 Y147.625 I20.761 J-31.188
G01 X352.455 Y146.459  
G01 X351.512 Y147.625 
G01 X351.698 Y147.900 
G02 X358.999 Y155.746 I29.307 J-19.950
G02 X363.652 Y158.884 I22.862 J-28.878
G01 X364.689 Y159.455  
G01 X365.715 Y158.380 
G01 X364.689 Y159.455 
G02 X368.256 Y164.524 I34.710 J-20.641
G02 X373.041 Y169.487 I34.588 J-28.553
G01 X375.143 Y171.289  
G01 X376.435 Y170.500 
G01 X375.143 Y171.289 
G01 X375.215 Y171.620 
G01 X376.038 Y174.894 
G01 X377.881 Y176.066 
G01 X376.038 Y174.894 
G01 X375.287 Y175.022 
G02 X363.377 Y178.292 I11.852 J66.496
G02 X350.014 Y184.984 I25.134 J66.879
G02 X343.325 Y189.705 I48.425 J75.709
G01 X342.047 Y190.705  
G01 X342.292 Y192.332 
G01 X342.047 Y190.705 
G01 X338.403 Y189.494 
G02 X329.453 Y187.816 I-13.252 J45.969
G02 X312.930 Y188.949 I-4.716 J52.232
G02 X303.517 Y192.116 I11.492 J49.737
G01 X299.873 Y193.890  
G01 X299.746 Y195.579 
G01 X299.873 Y193.890 
G01 X299.644 Y193.712 
G01 X296.938 Y191.466 
G01 X292.663 Y187.857 
G01 X286.883 Y183.563 
G01 X282.675 Y189.776  
G02 X275.625 Y185.823 I-26.924 J39.753
G02 X268.093 Y183.157 I-19.108 J42.020
G01 X261.935 Y181.876  
G02 X250.846 Y180.838 I-13.709 J86.689
G02 X243.770 Y181.140 I-1.459 J48.869
G02 X237.579 Y182.297 I5.196 J44.927
G01 X236.421 Y183.503  
G01 X235.690 Y184.330 
G01 X236.421 Y183.503 
G01 X237.579 Y182.297 
G01 X238.235 Y180.226 
G03 X240.626 Y174.749 I47.987 J17.688
G03 X245.296 Y166.993 I56.181 J28.543
G01 X247.959 Y163.542  
G03 X251.165 Y160.249 I24.645 J20.787
G01 X253.173 Y158.766  
G01 X254.439 Y158.085 
G01 X256.699 Y157.034 
G01 X261.007 Y154.900 
G02 X268.188 Y149.998 I-19.102 J-35.690
G02 X273.794 Y144.155 I-26.491 J-31.030
G01 X275.058 Y142.501  
G01 X274.168 Y141.300 
G01 X275.058 Y142.501 
G01 X277.199 Y141.649 
G02 X285.237 Y136.632 I-12.871 J-29.568
G01 X285.451 Y136.451  
G01 X284.673 Y135.239 
G01 X285.451 Y136.451 
G02 X291.871 Y132.424 I-12.982 J-27.833
G01 X294.831 Y129.702  
G01 X296.123 Y128.310 
G01 X295.476 Y126.882 
G01 X296.123 Y128.310 
G01 X297.977 Y128.259 
G02 X304.833 Y127.152 I-1.384 J-30.353
G02 X311.470 Y124.455 I-8.747 J-31.043
G01 X314.629 Y122.580  
G01 X315.080 Y122.288 
G01 X314.966 Y120.660 
G01 X315.080 Y122.288 
G01 X318.335 Y123.645 
G02 X325.916 Y125.671 I14.012 J-37.241
G01 X328.279 Y126.012  
G01 X328.942 Y124.652 
G01 X328.279 Y126.012 
G01 X330.962 Y128.450 
G02 X335.196 Y131.429 I20.418 J-24.525
G02 X344.250 Y134.960 I15.468 J-26.287
G01 X345.387 Y135.183  
G01 X346.022 Y133.841 
G01 X345.387 Y135.183 
G01 X345.491 Y135.272 
G01 X348.738 Y137.746 
G02 X355.288 Y141.029 I16.603 J-24.941
G01 X356.520 Y141.440  
G01 X357.494 Y140.241 
G01 X356.520 Y141.440 
G01 X357.901 Y143.677 
G02 X363.656 Y149.863 I23.104 J-15.728
G02 X367.361 Y152.362 I18.204 J-22.994
G01 X370.118 Y153.770  
G01 X371.167 Y152.674 
G01 X370.118 Y153.770 
G01 X370.444 Y154.391 
G02 X374.043 Y159.746 I28.956 J-15.577
G02 X378.028 Y163.880 I28.801 J-23.776
G01 X381.565 Y166.818  
G01 X381.940 Y167.110 
G01 X383.241 Y166.312 
G01 X381.940 Y167.110 
G01 X382.544 Y170.009 
G02 X384.298 Y176.086 I47.795 J-10.505
G01 X385.070 Y178.099  
G01 X385.313 Y178.835 
G01 X385.782 Y180.983 
G01 X385.909 Y181.718 
G01 X386.756 Y182.472 
G01 X387.594 Y183.246 
G01 X386.756 Y182.472 
G01 X385.909 Y181.718 
G01 X384.287 Y181.698 
G02 X376.604 Y182.410 I0.388 J46.001
G02 X366.017 Y185.316 I10.535 J59.108
G02 X354.058 Y191.305 I22.494 J59.854
G02 X347.927 Y195.633 I44.382 J69.387
G01 X344.555 Y198.304  
G01 X343.652 Y198.986 
G01 X343.407 Y199.144 
G01 X343.601 Y199.608 
G01 X343.407 Y199.144 
G01 X342.927 Y199.224 
G01 X342.663 Y200.658 
G01 X342.927 Y199.224 
G01 X342.158 Y198.887 
G02 X336.324 Y196.704 I-16.995 J36.534
G02 X328.778 Y195.289 I-11.174 J38.759
G02 X314.620 Y196.261 I-4.041 J44.758
G02 X306.590 Y198.962 I9.802 J42.426
G01 X302.464 Y201.017  
G01 X299.787 Y202.536 
G01 X299.615 Y202.635 
G01 X299.692 Y204.217 
G01 X299.615 Y202.635 
G01 X298.094 Y201.798 
G01 X295.007 Y199.612 
G01 X291.992 Y197.110 
G01 X287.929 Y193.679 
G01 X282.675 Y189.776 
G01 X278.467 Y195.989  
G02 X272.519 Y192.654 I-22.716 J33.540
G02 X266.211 Y190.421 I-16.002 J35.189
G01 X260.763 Y189.288  
G02 X250.622 Y188.338 I-12.537 J79.277
G02 X244.632 Y188.594 I-1.235 J41.369
G02 X233.594 Y191.618 I4.334 J37.473
G01 X230.107 Y193.460  
G01 X229.544 Y189.874 
G03 X229.902 Y182.181 I25.025 J-2.689
G03 X231.194 Y177.631 I30.327 J6.151
G03 X233.936 Y171.350 I55.028 J20.283
G03 X239.162 Y162.671 I62.872 J31.942
G01 X242.223 Y158.704  
G03 X246.175 Y154.645 I30.381 J25.625
G03 X249.283 Y152.349 I14.097 J15.833
G01 X251.226 Y151.303  
G01 X253.583 Y150.207 
G01 X257.466 Y148.284 
G02 X263.316 Y144.290 I-15.561 J-29.074
G02 X267.891 Y139.522 I-21.618 J-25.323
G01 X270.322 Y136.239  
G01 X270.402 Y136.125 
G01 X270.473 Y136.095 
G01 X274.204 Y134.769 
G02 X280.371 Y130.919 I-9.876 J-22.687
G01 X281.200 Y130.235  
G01 X281.493 Y130.051 
G01 X282.238 Y129.669 
G02 X287.131 Y126.607 I-9.769 J-21.051
G01 X289.429 Y124.493  
G01 X291.590 Y122.071 
G01 X292.058 Y121.554 
G01 X292.137 Y121.491 
G01 X293.765 Y120.845 
G01 X294.117 Y120.801 
G01 X294.677 Y120.796 
G01 X297.635 Y120.763 
G02 X302.798 Y119.929 I-1.042 J-22.856
G02 X307.890 Y117.860 I-6.712 J-23.820
G01 X310.553 Y116.279  
G01 X312.556 Y114.983 
G01 X313.191 Y114.644 
G01 X315.737 Y114.629 
G01 X316.879 Y114.890 
G01 X317.683 Y115.221 
G01 X320.978 Y116.622 
G02 X327.129 Y118.266 I11.369 J-30.217
G01 X329.982 Y118.656  
G01 X331.359 Y118.901 
G01 X331.930 Y119.086 
G01 X332.024 Y119.144 
G01 X332.720 Y119.817 
G01 X335.763 Y122.683 
G02 X339.002 Y124.962 I15.617 J-18.758
G02 X345.828 Y127.624 I11.662 J-19.820
G01 X348.428 Y128.033  
G01 X348.632 Y128.054 
G01 X350.407 Y129.603 
G01 X352.896 Y131.499 
G02 X357.806 Y133.960 I12.445 J-18.695
G01 X360.648 Y134.783  
G01 X361.700 Y135.021 
G01 X361.792 Y135.180 
G01 X362.191 Y136.017 
G02 X364.104 Y139.454 I20.054 J-8.911
G02 X368.314 Y143.979 I16.901 J-11.505
G01 X371.071 Y145.839  
G01 X373.779 Y147.185 
G01 X375.782 Y148.099 
G01 X377.052 Y150.836 
G02 X379.830 Y154.969 I22.347 J-12.022
G02 X383.014 Y158.272 I23.014 J-18.999
G01 X386.163 Y160.888  
G01 X388.757 Y162.923 
G01 X389.143 Y164.833 
G01 X389.873 Y168.398 
G02 X391.358 Y173.543 I40.466 J-8.894
G01 X392.022 Y175.275  
G01 X392.579 Y176.962 
G01 X393.168 Y179.659 
G03 X394.119 Y186.845 I-77.927 J13.971
G01 X394.294 Y190.819  
G01 X394.293 Y190.916 
G02 X389.990 Y189.674 I-8.038 J19.787
G02 X384.351 Y189.201 I-5.380 J30.290
G02 X377.921 Y189.797 I0.325 J38.497
G02 X368.657 Y192.341 I9.218 J51.721
G02 X358.101 Y197.627 I19.854 J52.830
G01 X352.529 Y201.560  
G01 X349.272 Y204.140 
G01 X347.975 Y205.119 
G01 X347.019 Y205.721 
G01 X345.571 Y206.330 
G03 X342.509 Y206.731 I-2.820 J-9.623
G03 X340.446 Y206.314 I0.146 J-6.028
G01 X338.993 Y205.691  
G02 X334.246 Y203.915 I-13.830 J29.730
G02 X328.103 Y202.763 I-9.095 J31.548
G02 X316.309 Y203.572 I-3.367 J37.285
G02 X309.663 Y205.808 I8.113 J35.114
G01 X306.077 Y207.594  
G01 X303.580 Y209.010 
G01 X301.850 Y209.926 
G01 X300.813 Y210.333 
G01 X299.867 Y210.462 
G01 X298.829 Y210.309 
G01 X296.588 Y209.503 
G01 X294.069 Y208.131 
G01 X290.370 Y205.512 
G01 X287.047 Y202.753 
G01 X283.195 Y199.502 
G01 X278.467 Y195.989 
G00 Z25.080
G00 X295.726 Y164.187  F6000.0
G01 Z13.000 F1200.0 M3
G01 Z12.812 
G01 Z12.516 
G01 Z12.416 
G01 Z12.315 
G01 Z12.009 
G01 Z11.702 
G01 Z11.600 
G01 Z11.497 
G01 Z11.225 
G01 Z10.978 
G01 Z10.866 
G01 Z10.753 
G01 Z10.452 
G01 Z10.141 
G01 Z9.829 
G01 Z9.518 
G01 Z9.500 
G01 Z9.482 
G01 Z9.171 
G01 Z8.859 
G01 Z8.548 
G01 Z8.247 
G01 Z8.134 
G01 Z8.022 
G01 Z7.775 
G01 Z7.503 
G01 Z7.400 
G01 Z7.298 
G01 Z6.991 
G01 Z6.685 
G01 Z6.584 
G01 Z6.484 
G01 Z6.188 
G01 Z6.000 
G01 X298.406 Y164.191  F3000.0
G01 X301.871 Y161.753 
G01 X301.090 Y160.552 
G01 X301.871 Y161.753 
G02 X309.203 Y156.976 I-29.402 J-53.135
G01 X308.592 Y155.644  
G01 X309.203 Y156.976 
G01 X312.974 Y156.043 
G01 X316.344 Y154.989 
G01 X316.560 Y153.399 
G01 X316.344 Y154.989 
G01 X319.974 Y157.299 
G02 X332.136 Y162.752 I30.690 J-52.157
G01 X332.762 Y161.452  
G01 X332.136 Y162.752 
G01 X336.976 Y165.651 
G01 X337.888 Y164.518 
G01 X336.976 Y165.651 
G01 X337.445 Y166.192 
G01 X337.589 Y166.273 
G01 X339.706 Y166.560 
G01 X337.589 Y166.273 
G01 X337.878 Y167.724 
G01 X337.589 Y166.273 
G01 X337.445 Y166.192 
G01 X331.477 Y165.395 
G02 X307.863 Y167.015 I-6.741 J74.653
G01 X303.882 Y168.053  
G01 X303.593 Y169.629 
G01 X303.882 Y168.053 
G01 X299.507 Y164.923 
G01 X298.406 Y164.191 
G01 X295.726 Y164.187 
G01 X295.299 Y171.136  
G02 X284.944 Y165.330 I-39.548 J58.392
G01 X284.855 Y165.290  
G01 X282.245 Y165.716 
G01 X284.855 Y165.290 
G01 X289.130 Y160.902 
G01 X288.240 Y159.751 
G01 X289.130 Y160.902 
G02 X297.770 Y155.443 I-24.802 J-48.821
G01 X296.989 Y154.240  
G01 X297.770 Y155.443 
G02 X305.986 Y149.962 I-25.302 J-46.825
G01 X305.371 Y148.619  
G01 X305.986 Y149.962 
G01 X310.939 Y148.820 
G02 X316.903 Y146.762 I-14.853 J-52.711
G01 X316.798 Y145.258  
G01 X316.903 Y146.762 
G01 X318.225 Y147.085 
G01 X318.851 Y145.762 
G01 X318.225 Y147.085 
G02 X323.780 Y150.831 I33.155 J-43.160
G02 X335.427 Y155.917 I26.884 J-45.690
G01 X336.055 Y154.613  
G01 X335.427 Y155.917 
G01 X336.264 Y156.485 
G02 X341.776 Y159.689 I29.077 J-43.681
G01 X342.693 Y158.550  
G01 X341.776 Y159.689 
G02 X349.683 Y167.513 I39.229 J-31.740
G01 X350.005 Y167.766  
G01 X352.756 Y168.029 
G01 X350.005 Y167.766 
G02 X341.927 Y172.341 I38.506 J77.405
G01 X339.136 Y174.190  
G01 X339.427 Y175.725 
G01 X339.136 Y174.190 
G02 X330.803 Y172.868 I-13.986 J61.273
G02 X309.552 Y174.326 I-6.066 J67.179
G02 X302.381 Y176.417 I14.870 J64.360
G01 X302.103 Y178.036  
G01 X302.381 Y176.417 
G01 X302.131 Y176.212 
G02 X295.299 Y171.136 I-61.504 J75.646
G01 X291.091 Y177.349  
G02 X281.838 Y172.161 I-35.340 J52.179
G02 X271.857 Y168.629 I-25.321 J55.682
G01 X268.597 Y167.857  
G01 X264.238 Y168.492 
G01 X268.597 Y167.857 
G02 X277.932 Y161.412 I-26.693 J-48.646
G02 X284.449 Y154.839 I-36.235 J-42.445
G01 X283.556 Y153.679  
G01 X284.449 Y154.839 
G02 X293.667 Y149.126 I-20.121 J-42.757
G01 X292.885 Y147.922  
G01 X293.667 Y149.126 
G02 X301.353 Y144.058 I-21.198 J-40.508
G01 X302.744 Y142.880  
G01 X302.123 Y141.520 
G01 X302.744 Y142.880 
G02 X308.904 Y141.597 I-6.152 J-44.973
G02 X316.335 Y138.811 I-12.818 J-45.489
G01 X316.222 Y137.279  
G01 X316.335 Y138.811 
G01 X321.527 Y140.123 
G01 X322.161 Y138.792 
G01 X321.527 Y140.123 
G02 X327.585 Y144.364 I29.853 J-36.198
G02 X338.728 Y149.057 I23.079 J-39.222
G01 X339.358 Y147.747  
G01 X338.728 Y149.057 
G01 X340.422 Y150.239 
G02 X346.613 Y153.689 I24.919 J-37.435
G01 X347.540 Y152.540  
G01 X346.613 Y153.689 
G02 X354.341 Y161.630 I34.392 J-25.740
G02 X359.346 Y165.062 I27.519 J-34.761
G01 X360.359 Y163.999  
G01 X359.346 Y165.062 
G01 X362.469 Y169.301 
G01 X363.350 Y170.340 
G01 X365.906 Y171.028 
G01 X363.350 Y170.340 
G01 X360.737 Y171.268 
G02 X345.971 Y178.662 I27.774 J73.903
G01 X340.638 Y182.329  
G01 X340.915 Y183.903 
G01 X340.638 Y182.329 
G01 X340.482 Y182.283 
G02 X330.128 Y180.342 I-15.331 J53.179
G02 X311.241 Y181.638 I-5.391 J59.706
G02 X300.977 Y185.034 I13.181 J57.049
G01 X300.728 Y186.710  
G01 X300.977 Y185.034 
G01 X297.397 Y182.035 
G02 X291.091 Y177.349 I-56.770 J69.824
G01 X286.883 Y183.563  
G02 X278.732 Y178.992 I-31.132 J45.966
G02 X269.975 Y175.893 I-22.214 J48.851
G02 X263.107 Y174.464 I-18.209 J70.291
G02 X251.070 Y173.337 I-14.881 J94.101
G01 X250.084 Y173.316  
G01 X248.795 Y174.029 
G01 X247.523 Y174.772 
G01 X248.795 Y174.029 
G01 X250.084 Y173.316 
G01 X251.430 Y171.315 
G01 X253.695 Y168.380 
G01 X256.155 Y165.854 
G01 X257.062 Y165.183 
G01 X257.652 Y164.866 
G01 X259.815 Y163.860 
G01 X264.547 Y161.516 
G02 X273.060 Y155.705 I-22.643 J-42.306
G02 X279.698 Y148.787 I-31.363 J-36.737
G01 X279.751 Y148.719  
G01 X278.855 Y147.545 
G01 X279.751 Y148.719 
G01 X280.194 Y148.530 
G02 X289.559 Y142.799 I-15.866 J-36.448
G01 X288.776 Y141.592  
G01 X289.559 Y142.799 
G02 X296.612 Y138.241 I-17.091 J-34.181
G01 X299.465 Y135.685  
G01 X298.835 Y134.297 
G01 X299.465 Y135.685 
G02 X306.868 Y134.374 I-2.873 J-37.779
G02 X315.049 Y131.051 I-10.782 J-38.266
G01 X315.721 Y130.680  
G01 X315.601 Y129.104 
G01 X315.721 Y130.680 
G02 X324.704 Y133.076 I16.626 J-44.275
G01 X324.869 Y133.103  
G01 X325.510 Y131.758 
G01 X324.869 Y133.103 
G01 X326.160 Y134.217 
G02 X331.391 Y137.896 I25.220 J-30.292
G02 X342.044 Y142.156 I19.273 J-32.755
G01 X342.678 Y140.835  
G01 X342.044 Y142.156 
G01 X344.580 Y143.992 
G02 X351.512 Y147.625 I20.761 J-31.188
G01 X352.455 Y146.459  
G01 X351.512 Y147.625 
G01 X351.698 Y147.900 
G02 X358.999 Y155.746 I29.307 J-19.950
G02 X363.652 Y158.884 I22.862 J-28.878
G01 X364.689 Y159.455  
G01 X365.715 Y158.380 
G01 X364.689 Y159.455 
G02 X368.256 Y164.524 I34.710 J-20.641
G02 X373.041 Y169.487 I34.588 J-28.553
G01 X375.143 Y171.289  
G01 X376.435 Y170.500 
G01 X375.143 Y171.289 
G01 X375.215 Y171.620 
G01 X376.038 Y174.894 
G01 X377.881 Y176.066 
G01 X376.038 Y174.894 
G01 X375.287 Y175.022 
G02 X363.377 Y178.292 I11.852 J66.496
G02 X350.014 Y184.984 I25.134 J66.879
G02 X343.325 Y189.705 I48.425 J75.709
G01 X342.047 Y190.705  
G01 X342.292 Y192.332 
G01 X342.047 Y190.705 
G01 X338.403 Y189.494 
G02 X329.453 Y187.816 I-13.252 J45.969
G02 X312.930 Y188.949 I-4.716 J52.232
G02 X303.517 Y192.116 I11.492 J49.737
G01 X299.873 Y193.890  
G01 X299.746 Y195.579 
G01 X299.873 Y193.890 
G01 X299.644 Y193.712 
G01 X296.938 Y191.466 
G01 X292.663 Y187.857 
G01 X286.883 Y183.563 
G01 X282.675 Y189.776  
G02 X275.625 Y185.823 I-26.924 J39.753
G02 X268.093 Y183.157 I-19.108 J42.020
G01 X261.935 Y181.876  
G02 X250.846 Y180.838 I-13.709 J86.689
G02 X243.770 Y181.140 I-1.459 J48.869
G02 X237.579 Y182.297 I5.196 J44.927
G01 X236.421 Y183.503  
G01 X235.690 Y184.330 
G01 X236.421 Y183.503 
G01 X237.579 Y182.297 
G01 X238.235 Y180.226 
G03 X240.626 Y174.749 I47.987 J17.688
G03 X245.296 Y166.993 I56.181 J28.543
G01 X247.959 Y163.542  
G03 X251.165 Y160.249 I24.645 J20.787
G01 X253.173 Y158.766  
G01 X254.439 Y158.085 
G01 X256.699 Y157.034 
G01 X261.007 Y154.900 
G02 X268.188 Y149.998 I-19.102 J-35.690
G02 X273.794 Y144.155 I-26.491 J-31.030
G01 X275.058 Y142.501  
G01 X274.168 Y141.300 
G01 X275.058 Y142.501 
G01 X277.199 Y141.649 
G02 X285.237 Y136.632 I-12.871 J-29.568
G01 X285.451 Y136.451  
G01 X284.673 Y135.239 
G01 X285.451 Y136.451 
G02 X291.871 Y132.424 I-12.982 J-27.833
G01 X294.831 Y129.702  
G01 X296.123 Y128.310 
G01 X295.476 Y126.882 
G01 X296.123 Y128.310 
G01 X297.977 Y128.259 
G02 X304.833 Y127.152 I-1.384 J-30.353
G02 X311.470 Y124.455 I-8.747 J-31.043
G01 X314.629 Y122.580  
G01 X315.080 Y122.288 
G01 X314.966 Y120.660 
G01 X315.080 Y122.288 
G01 X318.335 Y123.645 
G02 X325.916 Y125.671 I14.012 J-37.241
G01 X328.279 Y126.012  
G01 X328.942 Y124.652 
G01 X328.279 Y126.012 
G01 X330.962 Y128.450 
G02 X335.196 Y131.429 I20.418 J-24.525
G02 X344.250 Y134.960 I15.468 J-26.287
G01 X345.387 Y135.183  
G01 X346.022 Y133.841 
G01 X345.387 Y135.183 
G01 X345.491 Y135.272 
G01 X348.738 Y137.746 
G02 X355.288 Y141.029 I16.603 J-24.941
G01 X356.520 Y141.440  
G01 X357.494 Y140.241 
G01 X356.520 Y141.440 
G01 X357.901 Y143.677 
G02 X363.656 Y149.863 I23.104 J-15.728
G02 X367.361 Y152.362 I18.204 J-22.994
G01 X370.118 Y153.770  
G01 X371.167 Y152.674 
G01 X370.118 Y153.770 
G01 X370.444 Y154.391 
G02 X374.043 Y159.746 I28.956 J-15.577
G02 X378.028 Y163.880 I28.801 J-23.776
G01 X381.565 Y166.818  
G01 X381.940 Y167.110 
G01 X383.241 Y166.312 
G01 X381.940 Y167.110 
G01 X382.544 Y170.009 
G02 X384.298 Y176.086 I47.795 J-10.505
G01 X385.070 Y178.099  
G01 X385.313 Y178.835 
G01 X385.782 Y180.983 
G01 X385.909 Y181.718 
G01 X386.756 Y182.472 
G01 X387.594 Y183.246 
G01 X386.756 Y182.472 
G01 X385.909 Y181.718 
G01 X384.287 Y181.698 
G02 X376.604 Y182.410 I0.388 J46.001
G02 X366.017 Y185.316 I10.535 J59.108
G02 X354.058 Y191.305 I22.494 J59.854
G02 X347.927 Y195.633 I44.382 J69.387
G01 X344.555 Y198.304  
G01 X343.652 Y198.986 
G01 X343.407 Y199.144 
G01 X343.601 Y199.608 
G01 X343.407 Y199.144 
G01 X342.927 Y199.224 
G01 X342.663 Y200.658 
G01 X342.927 Y199.224 
G01 X342.158 Y198.887 
G02 X336.324 Y196.704 I-16.995 J36.534
G02 X328.778 Y195.289 I-11.174 J38.759
G02 X314.620 Y196.261 I-4.041 J44.758
G02 X306.590 Y198.962 I9.802 J42.426
G01 X302.464 Y201.017  
G01 X299.787 Y202.536 
G01 X299.615 Y202.635 
G01 X299.692 Y204.217 
G01 X299.615 Y202.635 
G01 X298.094 Y201.798 
G01 X295.007 Y199.612 
G01 X291.992 Y197.110 
G01 X287.929 Y193.679 
G01 X282.675 Y189.776 
G01 X278.467 Y195.989  
G02 X272.519 Y192.654 I-22.716 J33.540
G02 X266.211 Y190.421 I-16.002 J35.189
G01 X260.763 Y189.288  
G02 X250.622 Y188.338 I-12.537 J79.277
G02 X244.632 Y188.594 I-1.235 J41.369
G02 X233.594 Y191.618 I4.334 J37.473
G01 X230.107 Y193.460  
G01 X229.544 Y189.874 
G03 X229.902 Y182.181 I25.025 J-2.689
G03 X231.194 Y177.631 I30.327 J6.151
G03 X233.936 Y171.350 I55.028 J20.283
G03 X239.162 Y162.671 I62.872 J31.942
G01 X242.223 Y158.704  
G03 X246.175 Y154.645 I30.381 J25.625
G03 X249.283 Y152.349 I14.097 J15.833
G01 X251.226 Y151.303  
G01 X253.583 Y150.207 
G01 X257.466 Y148.284 
G02 X263.316 Y144.290 I-15.561 J-29.074
G02 X267.891 Y139.522 I-21.618 J-25.323
G01 X270.322 Y136.239  
G01 X270.402 Y136.125 
G01 X270.473 Y136.095 
G01 X274.204 Y134.769 
G02 X280.371 Y130.919 I-9.876 J-22.687
G01 X281.200 Y130.235  
G01 X281.493 Y130.051 
G01 X282.238 Y129.669 
G02 X287.131 Y126.607 I-9.769 J-21.051
G01 X289.429 Y124.493  
G01 X291.590 Y122.071 
G01 X292.058 Y121.554 
G01 X292.137 Y121.491 
G01 X293.765 Y120.845 
G01 X294.117 Y120.801 
G01 X294.677 Y120.796 
G01 X297.635 Y120.763 
G02 X302.798 Y119.929 I-1.042 J-22.856
G02 X307.890 Y117.860 I-6.712 J-23.820
G01 X310.553 Y116.279  
G01 X312.556 Y114.983 
G01 X313.191 Y114.644 
G01 X315.737 Y114.629 
G01 X316.879 Y114.890 
G01 X317.683 Y115.221 
G01 X320.978 Y116.622 
G02 X327.129 Y118.266 I11.369 J-30.217
G01 X329.982 Y118.656  
G01 X331.359 Y118.901 
G01 X331.930 Y119.086 
G01 X332.024 Y119.144 
G01 X332.720 Y119.817 
G01 X335.763 Y122.683 
G02 X339.002 Y124.962 I15.617 J-18.758
G02 X345.828 Y127.624 I11.662 J-19.820
G01 X348.428 Y128.033  
G01 X348.632 Y128.054 
G01 X350.407 Y129.603 
G01 X352.896 Y131.499 
G02 X357.806 Y133.960 I12.445 J-18.695
G01 X360.648 Y134.783  
G01 X361.700 Y135.021 
G01 X361.792 Y135.180 
G01 X362.191 Y136.017 
G02 X364.104 Y139.454 I20.054 J-8.911
G02 X368.314 Y143.979 I16.901 J-11.505
G01 X371.071 Y145.839  
G01 X373.779 Y147.185 
G01 X375.782 Y148.099 
G01 X377.052 Y150.836 
G02 X379.830 Y154.969 I22.347 J-12.022
G02 X383.014 Y158.272 I23.014 J-18.999
G01 X386.163 Y160.888  
G01 X388.757 Y162.923 
G01 X389.143 Y164.833 
G01 X389.873 Y168.398 
G02 X391.358 Y173.543 I40.466 J-8.894
G01 X392.022 Y175.275  
G01 X392.579 Y176.962 
G01 X393.168 Y179.659 
G03 X394.119 Y186.845 I-77.927 J13.971
G01 X394.294 Y190.819  
G01 X394.293 Y190.916 
G02 X389.990 Y189.674 I-8.038 J19.787
G02 X384.351 Y189.201 I-5.380 J30.290
G02 X377.921 Y189.797 I0.325 J38.497
G02 X368.657 Y192.341 I9.218 J51.721
G02 X358.101 Y197.627 I19.854 J52.830
G01 X352.529 Y201.560  
G01 X349.272 Y204.140 
G01 X347.975 Y205.119 
G01 X347.019 Y205.721 
G01 X345.571 Y206.330 
G03 X342.509 Y206.731 I-2.820 J-9.623
G03 X340.446 Y206.314 I0.146 J-6.028
G01 X338.993 Y205.691  
G02 X334.246 Y203.915 I-13.830 J29.730
G02 X328.103 Y202.763 I-9.095 J31.548
G02 X316.309 Y203.572 I-3.367 J37.285
G02 X309.663 Y205.808 I8.113 J35.114
G01 X306.077 Y207.594  
G01 X303.580 Y209.010 
G01 X301.850 Y209.926 
G01 X300.813 Y210.333 
G01 X299.867 Y210.462 
G01 X298.829 Y210.309 
G01 X296.588 Y209.503 
G01 X294.069 Y208.131 
G01 X290.370 Y205.512 
G01 X287.047 Y202.753 
G01 X283.195 Y199.502 
G01 X278.467 Y195.989 
G00 Z25.080
G00 X316.537 Y262.614  F6000.0
G01 Z20.000 F1200.0 M3
G01 Z19.867 
G01 Z19.737 
G01 Z19.567 
G01 Z19.400 
G01 Z19.339 
G01 Z19.321 
G01 Z19.214 
G01 Z19.107 
G01 Z19.093 
G01 Z18.966 
G01 Z18.836 
G01 Z18.703 
G01 Z18.567 
G01 Z18.431 
G01 Z18.298 
G01 Z18.168 
G01 Z18.041 
G01 Z18.010 
G01 Z17.866 
G01 Z17.698 
G01 Z17.548 
G01 Z17.417 
G01 Z17.350 
G01 Z17.216 
G01 Z17.087 
G01 Z16.917 
G01 Z16.750 
G01 Z16.689 
G01 Z16.671 
G01 Z16.564 
G01 Z16.500 
G01 Z16.436 
G01 Z16.329 
G01 Z16.311 
G01 Z16.250 
G01 Z16.083 
G01 Z15.913 
G01 Z15.784 
G01 Z15.650 
G01 Z15.583 
G01 Z15.452 
G01 Z15.302 
G01 Z15.134 
G01 Z14.990 
G01 Z14.959 
G01 Z14.832 
G01 Z14.702 
G01 Z14.569 
G01 Z14.433 
G01 Z14.297 
G01 Z14.164 
G01 Z14.034 
G01 Z13.907 
G01 Z13.893 
G01 Z13.786 
G01 Z13.679 
G01 Z13.661 
G01 Z13.600 
G01 Z13.433 
G01 Z13.263 
G01 Z13.133 
G01 Z13.000 
G01 X318.416 Y262.304  F3000.0
G01 X320.230 Y261.953 
G01 X322.599 Y261.420 
G01 X324.916 Y260.819 
G01 X325.746 Y260.585 
G01 X325.980 Y260.474 
G01 X325.851 Y258.952 
G01 X325.980 Y260.474 
G01 X326.178 Y260.530 
G01 X327.996 Y260.635 
G01 X329.852 Y260.694 
G01 X331.749 Y260.704 
G01 X333.690 Y260.661 
G01 X331.749 Y260.704 
G01 X329.852 Y260.694 
G01 X327.996 Y260.635 
G01 X326.178 Y260.530 
G01 X325.746 Y260.585 
G01 X323.764 Y261.128 
G01 X321.421 Y261.695 
G01 X319.331 Y262.133 
G01 X317.485 Y262.464 
G01 X316.537 Y262.614 
G01 X317.914 Y255.743  
G02 X324.518 Y252.828 I-21.501 J-57.648
G01 X325.310 Y252.416  
G01 X325.186 Y250.863 
G01 X325.310 Y252.416 
G01 X325.688 Y252.542 
G02 X337.596 Y255.012 I16.718 J-50.665
G02 X359.177 Y252.901 I5.236 J-57.837
G02 X366.306 Y250.269 I-15.690 J-53.492
G01 X367.717 Y248.021  
G01 X366.306 Y250.269 
G01 X366.305 Y251.434 
G01 X367.730 Y252.063 
G01 X366.305 Y251.434 
G01 X364.601 Y252.919 
G03 X357.454 Y257.995 I-36.642 J-44.016
G03 X348.350 Y262.497 I-32.026 J-53.305
G03 X336.260 Y266.305 I-32.287 J-81.426
G03 X325.749 Y268.141 I-20.616 J-87.002
G03 X306.393 Y268.142 I-9.684 J-85.137
G03 X294.195 Y265.946 I10.768 J-94.793
G03 X280.716 Y261.733 I28.427 J-114.611
G03 X263.964 Y253.884 I43.583 J-114.817
G01 X259.074 Y250.960  
G01 X257.704 Y251.781 
G01 X259.074 Y250.960 
G01 X258.739 Y243.391 
G01 X258.733 Y242.326 
G01 X257.843 Y240.386 
G01 X257.376 Y239.322 
G01 X258.291 Y241.378 
G01 X258.733 Y242.326 
G01 X261.920 Y244.832 
G02 X269.980 Y250.250 I52.796 J-69.842
G02 X278.281 Y254.441 I34.560 J-58.140
G02 X288.567 Y257.720 I23.289 J-55.280
G02 X303.655 Y258.839 I11.388 J-51.286
G02 X317.914 Y255.743 I-3.599 J-50.975
G01 X315.292 Y248.713  
G02 X321.090 Y246.153 I-18.879 J-50.617
G01 X324.677 Y244.176  
G01 X324.574 Y242.585 
G01 X324.677 Y244.176 
G01 X328.039 Y245.416 
G02 X338.272 Y247.538 I14.367 J-43.539
G02 X357.065 Y245.700 I4.559 J-50.364
G02 X367.266 Y241.382 I-13.578 J-46.291
G01 X372.173 Y238.250  
G01 X373.341 Y237.398 
G01 X374.556 Y234.664 
G01 X373.341 Y237.398 
G01 X373.661 Y243.115 
G01 X373.791 Y253.309 
G01 X373.748 Y254.190 
G01 X373.520 Y254.793 
G01 X373.120 Y255.306 
G01 X369.402 Y258.686 
G03 X361.319 Y264.427 I-41.443 J-49.784
G03 X351.116 Y269.473 I-35.890 J-59.737
G03 X337.990 Y273.606 I-35.053 J-88.402
G03 X326.597 Y275.597 I-22.346 J-94.303
G03 X305.546 Y275.598 I-10.532 J-92.593
G03 X292.388 Y273.230 I11.615 J-102.249
G03 X278.053 Y268.749 I30.233 J-121.895
G03 X260.278 Y260.420 I46.246 J-121.833
G03 X251.920 Y255.244 I58.903 J-104.430
G01 X250.569 Y256.051  
G01 X251.920 Y255.244 
G03 X251.236 Y243.496 I132.537 J-13.613
G01 X251.437 Y236.889  
G01 X251.930 Y232.655 
G01 X252.654 Y229.572 
G01 X251.680 Y228.036 
G01 X252.654 Y229.572 
G01 X254.256 Y229.790 
G01 X255.666 Y230.065 
G01 X256.212 Y228.727 
G01 X255.666 Y230.065 
G01 X256.036 Y230.322 
G01 X258.694 Y232.469 
G01 X262.132 Y235.392 
G01 X266.445 Y238.846 
G02 X273.814 Y243.799 I48.271 J-63.856
G02 X281.195 Y247.525 I30.726 J-51.689
G02 X290.194 Y250.394 I20.376 J-48.365
G02 X303.126 Y251.353 I9.761 J-43.960
G02 X315.292 Y248.713 I-3.070 J-43.490
G01 X312.669 Y241.682  
G02 X317.663 Y239.478 I-16.256 J-43.586
G01 X320.897 Y237.693  
G01 X322.623 Y236.731 
G01 X323.439 Y236.353 
G01 X324.052 Y236.179 
G01 X324.975 Y236.124 
G01 X325.257 Y234.951 
G01 X324.975 Y236.124 
G01 X325.892 Y236.528 
G01 X330.391 Y238.290 
G02 X338.949 Y240.065 I12.015 J-36.413
G02 X354.952 Y238.499 I3.883 J-42.891
G02 X363.567 Y234.853 I-11.466 J-39.091
G01 X367.807 Y232.146  
G01 X370.164 Y230.383 
G01 X373.215 Y228.061 
G03 X378.346 Y224.692 I32.230 J43.496
G01 X379.464 Y224.078  
G01 X380.604 Y221.951 
G01 X379.464 Y224.078 
G01 X380.075 Y228.884 
G03 X381.159 Y242.816 I-183.617 J21.305
G01 X381.295 Y253.417  
G01 X381.251 Y254.556 
G01 X381.120 Y255.591 
G03 X379.971 Y258.627 I-9.199 J-1.748
G03 X378.404 Y260.634 I-8.664 J-5.149
G01 X374.202 Y264.453  
G03 X365.183 Y270.860 I-46.244 J-55.551
G03 X353.881 Y276.449 I-39.755 J-66.169
G03 X339.720 Y280.908 I-37.819 J-95.378
G03 X327.445 Y283.053 I-24.076 J-101.605
G03 X304.699 Y283.055 I-11.380 J-100.049
G03 X290.582 Y280.513 I12.462 J-109.705
G03 X275.390 Y275.764 I32.040 J-129.178
G03 X256.591 Y266.956 I48.909 J-128.848
G03 X244.845 Y259.455 I62.590 J-110.966
G01 X243.503 Y260.249  
G01 X244.845 Y259.455 
G01 X244.508 Y256.513 
G03 X243.733 Y243.601 I139.949 J-14.883
G03 X243.954 Y236.328 I81.938 J-1.148
G01 X244.519 Y231.481  
G03 X245.526 Y227.227 I28.646 J4.536
G01 X246.527 Y224.630  
G01 X247.753 Y222.288 
G01 X246.562 Y221.496 
G01 X247.753 Y222.288 
G01 X247.973 Y222.000 
G01 X247.148 Y220.749 
G01 X247.973 Y222.000 
G01 X248.438 Y221.907 
G01 X249.812 Y221.829 
G03 X255.414 Y222.376 I-1.957 J48.949
G01 X257.747 Y222.848  
G01 X259.119 Y223.392 
G01 X260.594 Y224.361 
G01 X263.563 Y226.759 
G01 X266.985 Y229.668 
G01 X270.971 Y232.860 
G02 X277.649 Y237.349 I43.746 J-57.870
G02 X284.108 Y240.610 I26.892 J-45.239
G02 X291.820 Y243.069 I17.462 J-41.450
G02 X302.598 Y243.868 I8.135 J-36.634
G02 X312.669 Y241.682 I-2.542 J-36.005
G01 X310.047 Y234.651  
G01 X314.235 Y232.802  
G01 X317.078 Y231.233 
G01 X319.141 Y230.084 
G01 X320.612 Y229.402 
G01 X322.797 Y228.780 
G03 X325.832 Y228.664 I1.965 J11.584
G01 X327.692 Y229.126  
G01 X329.006 Y229.700 
G01 X332.742 Y231.164 
G02 X339.625 Y232.591 I9.664 J-29.287
G02 X352.840 Y231.299 I3.206 J-35.417
G02 X359.868 Y228.324 I-9.354 J-31.890
G01 X363.442 Y226.043  
G01 X365.542 Y224.472 
G01 X368.748 Y222.031 
G03 X374.589 Y218.196 I36.698 J49.525
G03 X379.194 Y215.956 I17.937 J31.019
G01 X381.949 Y215.056  
G01 X383.238 Y214.851 
G01 X383.655 Y214.854 
G01 X383.861 Y214.903 
G01 X384.310 Y215.114 
G01 X384.997 Y215.524 
G01 X385.456 Y215.907 
G01 X385.886 Y216.621 
G01 X385.982 Y217.008 
G01 X387.529 Y228.019 
G03 X388.657 Y242.517 I-191.071 J22.170
G01 X388.798 Y253.525  
G01 X388.740 Y255.027 
G01 X388.492 Y256.992 
G03 X386.422 Y262.460 I-16.571 J-3.149
G03 X383.689 Y265.961 I-15.115 J-8.982
G01 X379.003 Y270.220  
G03 X369.048 Y277.292 I-51.045 J-61.318
G03 X356.647 Y283.424 I-43.620 J-72.602
G03 X341.451 Y288.210 I-40.585 J-102.353
G03 X328.293 Y290.509 I-25.807 J-108.907
G03 X303.852 Y290.511 I-12.228 J-107.505
G03 X288.775 Y287.796 I13.309 J-117.161
G03 X272.727 Y282.780 I33.846 J-136.461
G03 X252.905 Y273.492 I51.572 J-135.864
G03 X239.746 Y265.029 I66.276 J-117.502
G01 X238.705 Y264.245  
G01 X238.401 Y263.962 
G01 X237.943 Y263.285 
G01 X237.684 Y262.511 
G01 X237.602 Y261.997 
G01 X237.046 Y257.306 
G03 X236.230 Y243.706 I147.411 J-15.676
G03 X236.471 Y235.767 I89.441 J-1.253
G01 X237.107 Y230.308  
G03 X238.375 Y224.953 I36.058 J5.709
G01 X239.701 Y221.514  
G01 X241.472 Y218.174 
G01 X241.496 Y218.134 
G01 X243.193 Y216.050 
G01 X243.604 Y215.691 
G01 X244.126 Y215.401 
G03 X247.283 Y214.493 I5.177 J12.058
G01 X250.111 Y214.331  
G03 X256.572 Y214.962 I-2.257 J56.447
G01 X259.563 Y215.567  
G03 X262.782 Y216.842 I-3.165 J12.693
G01 X265.152 Y218.400  
G01 X268.432 Y221.049 
G01 X271.837 Y223.944 
G01 X275.496 Y226.874 
G02 X281.483 Y230.899 I39.221 J-51.883
G02 X287.021 Y233.695 I23.057 J-38.788
G02 X293.447 Y235.743 I14.549 J-34.534
G02 X302.069 Y236.382 I6.508 J-29.309
G02 X310.047 Y234.651 I-2.014 J-28.519
G00 Z25.080
G00 X316.537 Y262.614  F6000.0
G01 Z13.000 F1200.0 M3
G01 Z12.867 
G01 Z12.737 
G01 Z12.567 
G01 Z12.400 
G01 Z12.339 
G01 Z12.321 
G01 Z12.214 
G01 Z12.107 
G01 Z12.093 
G01 Z11.966 
G01 Z11.836 
G01 Z11.703 
G01 Z11.567 
G01 Z11.431 
G01 Z11.298 
G01 Z11.168 
G01 Z11.041 
G01 Z11.010 
G01 Z10.866 
G01 Z10.698 
G01 Z10.548 
G01 Z10.417 
G01 Z10.350 
G01 Z10.216 
G01 Z10.087 
G01 Z9.917 
G01 Z9.750 
G01 Z9.689 
G01 Z9.671 
G01 Z9.564 
G01 Z9.500 
G01 Z9.436 
G01 Z9.329 
G01 Z9.311 
G01 Z9.250 
G01 Z9.083 
G01 Z8.913 
G01 Z8.784 
G01 Z8.650 
G01 Z8.583 
G01 Z8.452 
G01 Z8.302 
G01 Z8.134 
G01 Z7.990 
G01 Z7.959 
G01 Z7.832 
G01 Z7.702 
G01 Z7.569 
G01 Z7.433 
G01 Z7.297 
G01 Z7.164 
G01 Z7.034 
G01 Z6.907 
G01 Z6.893 
G01 Z6.786 
G01 Z6.679 
G01 Z6.661 
G01 Z6.600 
G01 Z6.433 
G01 Z6.263 
G01 Z6.133 
G01 Z6.000 
G01 X318.416 Y262.304  F3000.0
G01 X320.230 Y261.953 
G01 X322.599 Y261.420 
G01 X324.916 Y260.819 
G01 X325.746 Y260.585 
G01 X325.980 Y260.474 
G01 X325.851 Y258.952 
G01 X325.980 Y260.474 
G01 X326.178 Y260.530 
G01 X327.996 Y260.635 
G01 X329.852 Y260.694 
G01 X331.749 Y260.704 
G01 X333.690 Y260.661 
G01 X331.749 Y260.704 
G01 X329.852 Y260.694 
G01 X327.996 Y260.635 
G01 X326.178 Y260.530 
G01 X325.746 Y260.585 
G01 X323.764 Y261.128 
G01 X321.421 Y261.695 
G01 X319.331 Y262.133 
G01 X317.485 Y262.464 
G01 X316.537 Y262.614 
G01 X317.914 Y255.743  
G02 X324.518 Y252.828 I-21.501 J-57.648
G01 X325.310 Y252.416  
G01 X325.186 Y250.863 
G01 X325.310 Y252.416 
G01 X325.688 Y252.542 
G02 X337.596 Y255.012 I16.718 J-50.665
G02 X359.177 Y252.901 I5.236 J-57.837
G02 X366.306 Y250.269 I-15.690 J-53.492
G01 X367.717 Y248.021  
G01 X366.306 Y250.269 
G01 X366.305 Y251.434 
G01 X367.730 Y252.063 
G01 X366.305 Y251.434 
G01 X364.601 Y252.919 
G03 X357.454 Y257.995 I-36.642 J-44.016
G03 X348.350 Y262.497 I-32.026 J-53.305
G03 X336.260 Y266.305 I-32.287 J-81.426
G03 X325.749 Y268.141 I-20.616 J-87.002
G03 X306.393 Y268.142 I-9.684 J-85.137
G03 X294.195 Y265.946 I10.768 J-94.793
G03 X280.716 Y261.733 I28.427 J-114.611
G03 X263.964 Y253.884 I43.583 J-114.817
G01 X259.074 Y250.960  
G01 X257.704 Y251.781 
G01 X259.074 Y250.960 
G01 X258.739 Y243.391 
G01 X258.733 Y242.326 
G01 X257.843 Y240.386 
G01 X257.376 Y239.322 
G01 X258.291 Y241.378 
G01 X258.733 Y242.326 
G01 X261.920 Y244.832 
G02 X269.980 Y250.250 I52.796 J-69.842
G02 X278.281 Y254.441 I34.560 J-58.140
G02 X288.567 Y257.720 I23.289 J-55.280
G02 X303.655 Y258.839 I11.388 J-51.286
G02 X317.914 Y255.743 I-3.599 J-50.975
G01 X315.292 Y248.713  
G02 X321.090 Y246.153 I-18.879 J-50.617
G01 X324.677 Y244.176  
G01 X324.574 Y242.585 
G01 X324.677 Y244.176 
G01 X328.039 Y245.416 
G02 X338.272 Y247.538 I14.367 J-43.539
G02 X357.065 Y245.700 I4.559 J-50.364
G02 X367.266 Y241.382 I-13.578 J-46.291
G01 X372.173 Y238.250  
G01 X373.341 Y237.398 
G01 X374.556 Y234.664 
G01 X373.341 Y237.398 
G01 X373.661 Y243.115 
G01 X373.791 Y253.309 
G01 X373.748 Y254.190 
G01 X373.520 Y254.793 
G01 X373.120 Y255.306 
G01 X369.402 Y258.686 
G03 X361.319 Y264.427 I-41.443 J-49.784
G03 X351.116 Y269.473 I-35.890 J-59.737
G03 X337.990 Y273.606 I-35.053 J-88.402
G03 X326.597 Y275.597 I-22.346 J-94.303
G03 X305.546 Y275.598 I-10.532 J-92.593
G03 X292.388 Y273.230 I11.615 J-102.249
G03 X278.053 Y268.749 I30.233 J-121.895
G03 X260.278 Y260.420 I46.246 J-121.833
G03 X251.920 Y255.244 I58.903 J-104.430
G01 X250.569 Y256.051  
G01 X251.920 Y255.244 
G03 X251.236 Y243.496 I132.537 J-13.613
G01 X251.437 Y236.889  
G01 X251.930 Y232.655 
G01 X252.654 Y229.572 
G01 X251.680 Y228.036 
G01 X252.654 Y229.572 
G01 X254.256 Y229.790 
G01 X255.666 Y230.065 
G01 X256.212 Y228.727 
G01 X255.666 Y230.065 
G01 X256.036 Y230.322 
G01 X258.694 Y232.469 
G01 X262.132 Y235.392 
G01 X266.445 Y238.846 
G02 X273.814 Y243.799 I48.271 J-63.856
G02 X281.195 Y247.525 I30.726 J-51.689
G02 X290.194 Y250.394 I20.376 J-48.365
G02 X303.126 Y251.353 I9.761 J-43.960
G02 X315.292 Y248.713 I-3.070 J-43.490
G01 X312.669 Y241.682  
G02 X317.663 Y239.478 I-16.256 J-43.586
G01 X320.897 Y237.693  
G01 X322.623 Y236.731 
G01 X323.439 Y236.353 
G01 X324.052 Y236.179 
G01 X324.975 Y236.124 
G01 X325.257 Y234.951 
G01 X324.975 Y236.124 
G01 X325.892 Y236.528 
G01 X330.391 Y238.290 
G02 X338.949 Y240.065 I12.015 J-36.413
G02 X354.952 Y238.499 I3.883 J-42.891
G02 X363.567 Y234.853 I-11.466 J-39.091
G01 X367.807 Y232.146  
G01 X370.164 Y230.383 
G01 X373.215 Y228.061 
G03 X378.346 Y224.692 I32.230 J43.496
G01 X379.464 Y224.078  
G01 X380.604 Y221.951 
G01 X379.464 Y224.078 
G01 X380.075 Y228.884 
G03 X381.159 Y242.816 I-183.617 J21.305
G01 X381.295 Y253.417  
G01 X381.251 Y254.556 
G01 X381.120 Y255.591 
G03 X379.971 Y258.627 I-9.199 J-1.748
G03 X378.404 Y260.634 I-8.664 J-5.149
G01 X374.202 Y264.453  
G03 X365.183 Y270.860 I-46.244 J-55.551
G03 X353.881 Y276.449 I-39.755 J-66.169
G03 X339.720 Y280.908 I-37.819 J-95.378
G03 X327.445 Y283.053 I-24.076 J-101.605
G03 X304.699 Y283.055 I-11.380 J-100.049
G03 X290.582 Y280.513 I12.462 J-109.705
G03 X275.390 Y275.764 I32.040 J-129.178
G03 X256.591 Y266.956 I48.909 J-128.848
G03 X244.845 Y259.455 I62.590 J-110.966
G01 X243.503 Y260.249  
G01 X244.845 Y259.455 
G01 X244.508 Y256.513 
G03 X243.733 Y243.601 I139.949 J-14.883
G03 X243.954 Y236.328 I81.938 J-1.148
G01 X244.519 Y231.481  
G03 X245.526 Y227.227 I28.646 J4.536
G01 X246.527 Y224.630  
G01 X247.753 Y222.288 
G01 X246.562 Y221.496 
G01 X247.753 Y222.288 
G01 X247.973 Y222.000 
G01 X247.148 Y220.749 
G01 X247.973 Y222.000 
G01 X248.438 Y221.907 
G01 X249.812 Y221.829 
G03 X255.414 Y222.376 I-1.957 J48.949
G01 X257.747 Y222.848  
G01 X259.119 Y223.392 
G01 X260.594 Y224.361 
G01 X263.563 Y226.759 
G01 X266.985 Y229.668 
G01 X270.971 Y232.860 
G02 X277.649 Y237.349 I43.746 J-57.870
G02 X284.108 Y240.610 I26.892 J-45.239
G02 X291.820 Y243.069 I17.462 J-41.450
G02 X302.598 Y243.868 I8.135 J-36.634
G02 X312.669 Y241.682 I-2.542 J-36.005
G01 X310.047 Y234.651  
G01 X314.235 Y232.802  
G01 X317.078 Y231.233 
G01 X319.141 Y230.084 
G01 X320.612 Y229.402 
G01 X322.797 Y228.780 
G03 X325.832 Y228.664 I1.965 J11.584
G01 X327.692 Y229.126  
G01 X329.006 Y229.700 
G01 X332.742 Y231.164 
G02 X339.625 Y232.591 I9.664 J-29.287
G02 X352.840 Y231.299 I3.206 J-35.417
G02 X359.868 Y228.324 I-9.354 J-31.890
G01 X363.442 Y226.043  
G01 X365.542 Y224.472 
G01 X368.748 Y222.031 
G03 X374.589 Y218.196 I36.698 J49.525
G03 X379.194 Y215.956 I17.937 J31.019
G01 X381.949 Y215.056  
G01 X383.238 Y214.851 
