%
( vacuum260x000 6mm ball hole ) ( File created: Monday December 30 2024 - 03:34 PM)
( for LinuxCNC )
( Material Size) ( X= 260.000, Y= 1000.000, Z= 4.000)
G90 (Incremental distance mode)
G17 G21 (Active Plane: XY)(Metric Mode)
G40 G49 G80(Tool Diameter, Length compensation & canned cycles OFF)
G64 P0.05 Q0.05(Path Blending)
T5 M06 (TOOL USE Ball Nose 6 mm)
G90 (absolute distance mode)
G54 (Coordinate System)
S19000M3
G00 Z5.000
G4 P6
( Profile 2 )
G00 X-127.000 Y120.000 Z5.000 F6000.0
G01 Z-7.500 F1200.0 M3
G03 X-140.000 Y133.000 I-13.000 J0.000
G03 X-153.000 Y120.000 I0.000 J-13.000
G03 X-140.000 Y107.000 I13.000 J0.000
G03 X-127.000 Y120.000 I0.000 J13.000
G01 Z-15.000 F1200.0 M3
G03 X-140.000 Y133.000 I-13.000 J0.000
G03 X-153.000 Y120.000 I0.000 J-13.000
G03 X-140.000 Y107.000 I13.000 J0.000
G03 X-127.000 Y120.000 I0.000 J13.000
G01 Z-22.500 F1200.0 M3
G03 X-140.000 Y133.000 I-13.000 J0.000
G03 X-153.000 Y120.000 I0.000 J-13.000
G03 X-140.000 Y107.000 I13.000 J0.000
G03 X-127.000 Y120.000 I0.000 J13.000
G01 Z-30.000 F1200.0 M3
G03 X-140.000 Y133.000 I-13.000 J0.000
G03 X-153.000 Y120.000 I0.000 J-13.000
G03 X-140.000 Y107.000 I13.000 J0.000
G03 X-127.000 Y120.000 I0.000 J13.000
G01 Z-37.500 F1200.0 M3
G03 X-140.000 Y133.000 I-13.000 J0.000
G03 X-153.000 Y120.000 I0.000 J-13.000
G03 X-140.000 Y107.000 I13.000 J0.000
G03 X-127.000 Y120.000 I0.000 J13.000
G01 Z-45.000 F1200.0 M3
G03 X-140.000 Y133.000 I-13.000 J0.000
G03 X-153.000 Y120.000 I0.000 J-13.000
G03 X-140.000 Y107.000 I13.000 J0.000
G03 X-127.000 Y120.000 I0.000 J13.000
G00 Z5.000
(Begin Footer)
G00 Z5.000
M30
M05
G53 G0 Z-10
G53 G0 X1350 Y1000
(End Footer)
%
