%
( vacuum260x000 6mm ball ) ( File created: Monday December 30 2024 - 04:39 PM)
( for LinuxCNC )
( Material Size) ( X= 260.000, Y= 1000.000, Z= 4.000)
G90 (Incremental distance mode)
G17 G21 (Active Plane: XY)(Metric Mode)
G40 G49 G80(Tool Diameter, Length compensation & canned cycles OFF)
G64 P0.05 Q0.05(Path Blending)
T5 M06 (TOOL USE Ball Nose 6 mm)
G90 (absolute distance mode)
G54 (Coordinate System)
S19000M3
G00 Z5.000
G4 P6
( Profile 1 )
G00 X-140.000 Y20.000 Z5.000 F6000.0
G01 Z-5.000 F1200.0 M3
G01 X-190.000 Y20.000  F3000.0
G01 X-190.000 Y70.000 
G01 X-140.000 Y70.000 
G01 X-140.000 Y20.000 
G00 Z5.000
G00 X-190.000 Y20.000  F6000.0
G01 Z-5.000 F1200.0 M3
G01 X-240.000 Y20.000  F3000.0
G01 X-240.000 Y70.000 
G01 X-190.000 Y70.000 
G01 X-190.000 Y20.000 
G00 Z5.000
G00 X-190.000 Y70.000  F6000.0
G01 Z-5.000 F1200.0 M3
G01 X-240.000 Y70.000  F3000.0
G01 X-240.000 Y120.000 
G01 X-190.000 Y120.000 
G01 X-190.000 Y70.000 
G00 Z5.000
G01 Z-5.000 F1200.0 M3
G01 X-190.000 Y120.000  F3000.0
G01 X-140.000 Y120.000 
G01 X-140.000 Y70.000 
G01 X-190.000 Y70.000 
G00 Z5.000
G00 X-190.000 Y120.000  F6000.0
G01 Z-5.000 F1200.0 M3
G01 X-190.000 Y170.000  F3000.0
G01 X-140.000 Y170.000 
G01 X-140.000 Y120.000 
G01 X-190.000 Y120.000 
G00 Z5.000
G01 Z-5.000 F1200.0 M3
G01 X-240.000 Y120.000  F3000.0
G01 X-240.000 Y170.000 
G01 X-190.000 Y170.000 
G01 X-190.000 Y120.000 
G00 Z5.000
G00 X-190.000 Y170.000  F6000.0
G01 Z-5.000 F1200.0 M3
G01 X-240.000 Y170.000  F3000.0
G01 X-240.000 Y220.000 
G01 X-190.000 Y220.000 
G01 X-190.000 Y170.000 
G00 Z5.000
G01 Z-5.000 F1200.0 M3
G01 X-190.000 Y220.000  F3000.0
G01 X-140.000 Y220.000 
G01 X-140.000 Y170.000 
G01 X-190.000 Y170.000 
G00 Z5.000
G00 X-190.000 Y220.000  F6000.0
G01 Z-5.000 F1200.0 M3
G01 X-190.000 Y270.000  F3000.0
G01 X-140.000 Y270.000 
G01 X-140.000 Y220.000 
G01 X-190.000 Y220.000 
G00 Z5.000
G01 Z-5.000 F1200.0 M3
G01 X-240.000 Y220.000  F3000.0
G01 X-240.000 Y270.000 
G01 X-190.000 Y270.000 
G01 X-190.000 Y220.000 
G00 Z5.000
G00 X-190.000 Y270.000  F6000.0
G01 Z-5.000 F1200.0 M3
G01 X-240.000 Y270.000  F3000.0
G01 X-240.000 Y320.000 
G01 X-190.000 Y320.000 
G01 X-190.000 Y270.000 
G00 Z5.000
G01 Z-5.000 F1200.0 M3
G01 X-190.000 Y320.000  F3000.0
G01 X-140.000 Y320.000 
G01 X-140.000 Y270.000 
G01 X-190.000 Y270.000 
G00 Z5.000
G00 X-190.000 Y320.000  F6000.0
G01 Z-5.000 F1200.0 M3
G01 X-190.000 Y370.000  F3000.0
G01 X-140.000 Y370.000 
G01 X-140.000 Y320.000 
G01 X-190.000 Y320.000 
G00 Z5.000
G01 Z-5.000 F1200.0 M3
G01 X-240.000 Y320.000  F3000.0
G01 X-240.000 Y370.000 
G01 X-190.000 Y370.000 
G01 X-190.000 Y320.000 
G00 Z5.000
G00 X-190.000 Y370.000  F6000.0
G01 Z-5.000 F1200.0 M3
G01 X-240.000 Y370.000  F3000.0
G01 X-240.000 Y420.000 
G01 X-190.000 Y420.000 
G01 X-190.000 Y370.000 
G00 Z5.000
G01 Z-5.000 F1200.0 M3
G01 X-190.000 Y420.000  F3000.0
G01 X-140.000 Y420.000 
G01 X-140.000 Y370.000 
G01 X-190.000 Y370.000 
G00 Z5.000
G00 X-190.000 Y420.000  F6000.0
G01 Z-5.000 F1200.0 M3
G01 X-190.000 Y470.000  F3000.0
G01 X-140.000 Y470.000 
G01 X-140.000 Y420.000 
G01 X-190.000 Y420.000 
G00 Z5.000
G01 Z-5.000 F1200.0 M3
G01 X-240.000 Y420.000  F3000.0
G01 X-240.000 Y470.000 
G01 X-190.000 Y470.000 
G01 X-190.000 Y420.000 
G00 Z5.000
G00 X-190.000 Y470.000  F6000.0
G01 Z-5.000 F1200.0 M3
G01 X-240.000 Y470.000  F3000.0
G01 X-240.000 Y520.000 
G01 X-190.000 Y520.000 
G01 X-190.000 Y470.000 
G00 Z5.000
G01 Z-5.000 F1200.0 M3
G01 X-190.000 Y520.000  F3000.0
G01 X-140.000 Y520.000 
G01 X-140.000 Y470.000 
G01 X-190.000 Y470.000 
G00 Z5.000
G00 X-190.000 Y520.000  F6000.0
G01 Z-5.000 F1200.0 M3
G01 X-190.000 Y570.000  F3000.0
G01 X-140.000 Y570.000 
G01 X-140.000 Y520.000 
G01 X-190.000 Y520.000 
G00 Z5.000
G01 Z-5.000 F1200.0 M3
G01 X-240.000 Y520.000  F3000.0
G01 X-240.000 Y570.000 
G01 X-190.000 Y570.000 
G01 X-190.000 Y520.000 
G00 Z5.000
G00 X-190.000 Y570.000  F6000.0
G01 Z-5.000 F1200.0 M3
G01 X-240.000 Y570.000  F3000.0
G01 X-240.000 Y620.000 
G01 X-190.000 Y620.000 
G01 X-190.000 Y570.000 
G00 Z5.000
G01 Z-5.000 F1200.0 M3
G01 X-190.000 Y620.000  F3000.0
G01 X-140.000 Y620.000 
G01 X-140.000 Y570.000 
G01 X-190.000 Y570.000 
G00 Z5.000
G00 X-190.000 Y620.000  F6000.0
G01 Z-5.000 F1200.0 M3
G01 X-190.000 Y670.000  F3000.0
G01 X-140.000 Y670.000 
G01 X-140.000 Y620.000 
G01 X-190.000 Y620.000 
G00 Z5.000
G01 Z-5.000 F1200.0 M3
G01 X-240.000 Y620.000  F3000.0
G01 X-240.000 Y670.000 
G01 X-190.000 Y670.000 
G01 X-190.000 Y620.000 
G00 Z5.000
G00 X-190.000 Y670.000  F6000.0
G01 Z-5.000 F1200.0 M3
G01 X-240.000 Y670.000  F3000.0
G01 X-240.000 Y720.000 
G01 X-190.000 Y720.000 
G01 X-190.000 Y670.000 
G00 Z5.000
G01 Z-5.000 F1200.0 M3
G01 X-190.000 Y720.000  F3000.0
G01 X-140.000 Y720.000 
G01 X-140.000 Y670.000 
G01 X-190.000 Y670.000 
G00 Z5.000
G00 X-190.000 Y720.000  F6000.0
G01 Z-5.000 F1200.0 M3
G01 X-190.000 Y770.000  F3000.0
G01 X-140.000 Y770.000 
G01 X-140.000 Y720.000 
G01 X-190.000 Y720.000 
G00 Z5.000
G01 Z-5.000 F1200.0 M3
G01 X-240.000 Y720.000  F3000.0
G01 X-240.000 Y770.000 
G01 X-190.000 Y770.000 
G01 X-190.000 Y720.000 
G00 Z5.000
G00 X-190.000 Y770.000  F6000.0
G01 Z-5.000 F1200.0 M3
G01 X-240.000 Y770.000  F3000.0
G01 X-240.000 Y820.000 
G01 X-190.000 Y820.000 
G01 X-190.000 Y770.000 
G00 Z5.000
G01 Z-5.000 F1200.0 M3
G01 X-190.000 Y820.000  F3000.0
G01 X-140.000 Y820.000 
G01 X-140.000 Y770.000 
G01 X-190.000 Y770.000 
G00 Z5.000
G00 X-190.000 Y820.000  F6000.0
G01 Z-5.000 F1200.0 M3
G01 X-190.000 Y870.000  F3000.0
G01 X-140.000 Y870.000 
G01 X-140.000 Y820.000 
G01 X-190.000 Y820.000 
G00 Z5.000
G01 Z-5.000 F1200.0 M3
G01 X-240.000 Y820.000  F3000.0
G01 X-240.000 Y870.000 
G01 X-190.000 Y870.000 
G01 X-190.000 Y820.000 
G00 Z5.000
G00 X-190.000 Y870.000  F6000.0
G01 Z-5.000 F1200.0 M3
G01 X-240.000 Y870.000  F3000.0
G01 X-240.000 Y920.000 
G01 X-190.000 Y920.000 
G01 X-190.000 Y870.000 
G00 Z5.000
G01 Z-5.000 F1200.0 M3
G01 X-190.000 Y920.000  F3000.0
G01 X-140.000 Y920.000 
G01 X-140.000 Y870.000 
G01 X-190.000 Y870.000 
G00 Z5.000
G00 X-190.000 Y920.000  F6000.0
G01 Z-5.000 F1200.0 M3
G01 X-190.000 Y970.000  F3000.0
G01 X-140.000 Y970.000 
G01 X-140.000 Y920.000 
G01 X-190.000 Y920.000 
G00 Z5.000
G01 Z-5.000 F1200.0 M3
G01 X-240.000 Y920.000  F3000.0
G01 X-240.000 Y970.000 
G01 X-190.000 Y970.000 
G01 X-190.000 Y920.000 
G00 Z5.000
G00 X-140.000 Y920.000  F6000.0
G01 Z-5.000 F1200.0 M3
G01 X-140.000 Y970.000  F3000.0
G01 X-90.000 Y970.000 
G01 X-90.000 Y920.000 
G01 X-140.000 Y920.000 
G00 Z5.000
G00 X-90.000 Y920.000  F6000.0
G01 Z-5.000 F1200.0 M3
G01 X-90.000 Y970.000  F3000.0
G01 X-40.000 Y970.000 
G01 X-40.000 Y920.000 
G01 X-90.000 Y920.000 
G00 Z5.000
G01 Z-5.000 F1200.0 M3
G01 X-40.000 Y920.000  F3000.0
G01 X-40.000 Y870.000 
G01 X-90.000 Y870.000 
G01 X-90.000 Y920.000 
G00 Z5.000
G01 Z-5.000 F1200.0 M3
G01 X-90.000 Y870.000  F3000.0
G01 X-140.000 Y870.000 
G01 X-140.000 Y920.000 
G01 X-90.000 Y920.000 
G00 Z5.000
G00 X-90.000 Y870.000  F6000.0
G01 Z-5.000 F1200.0 M3
G01 X-90.000 Y820.000  F3000.0
G01 X-140.000 Y820.000 
G01 X-140.000 Y870.000 
G01 X-90.000 Y870.000 
G00 Z5.000
G00 X-90.000 Y820.000  F6000.0
G01 Z-5.000 F1200.0 M3
G01 X-90.000 Y770.000  F3000.0
G01 X-140.000 Y770.000 
G01 X-140.000 Y820.000 
G01 X-90.000 Y820.000 
G00 Z5.000
G01 Z-5.000 F1200.0 M3
G01 X-40.000 Y820.000  F3000.0
G01 X-40.000 Y770.000 
G01 X-90.000 Y770.000 
G01 X-90.000 Y820.000 
G00 Z5.000
G01 Z-5.000 F1200.0 M3
G01 X-90.000 Y870.000  F3000.0
G01 X-40.000 Y870.000 
G01 X-40.000 Y820.000 
G01 X-90.000 Y820.000 
G00 Z5.000
G00 X-90.000 Y770.000  F6000.0
G01 Z-5.000 F1200.0 M3
G01 X-40.000 Y770.000  F3000.0
G01 X-40.000 Y720.000 
G01 X-90.000 Y720.000 
G01 X-90.000 Y770.000 
G00 Z5.000
G01 Z-5.000 F1200.0 M3
G01 X-90.000 Y720.000  F3000.0
G01 X-140.000 Y720.000 
G01 X-140.000 Y770.000 
G01 X-90.000 Y770.000 
G00 Z5.000
G00 X-90.000 Y720.000  F6000.0
G01 Z-5.000 F1200.0 M3
G01 X-90.000 Y670.000  F3000.0
G01 X-140.000 Y670.000 
G01 X-140.000 Y720.000 
G01 X-90.000 Y720.000 
G00 Z5.000
G01 Z-5.000 F1200.0 M3
G01 X-40.000 Y720.000  F3000.0
G01 X-40.000 Y670.000 
G01 X-90.000 Y670.000 
G01 X-90.000 Y720.000 
G00 Z5.000
G00 X-90.000 Y670.000  F6000.0
G01 Z-5.000 F1200.0 M3
G01 X-40.000 Y670.000  F3000.0
G01 X-40.000 Y620.000 
G01 X-90.000 Y620.000 
G01 X-90.000 Y670.000 
G00 Z5.000
G01 Z-5.000 F1200.0 M3
G01 X-90.000 Y620.000  F3000.0
G01 X-140.000 Y620.000 
G01 X-140.000 Y670.000 
G01 X-90.000 Y670.000 
G00 Z5.000
G00 X-90.000 Y620.000  F6000.0
G01 Z-5.000 F1200.0 M3
G01 X-90.000 Y570.000  F3000.0
G01 X-140.000 Y570.000 
G01 X-140.000 Y620.000 
G01 X-90.000 Y620.000 
G00 Z5.000
G01 Z-5.000 F1200.0 M3
G01 X-40.000 Y620.000  F3000.0
G01 X-40.000 Y570.000 
G01 X-90.000 Y570.000 
G01 X-90.000 Y620.000 
G00 Z5.000
G00 X-90.000 Y570.000  F6000.0
G01 Z-5.000 F1200.0 M3
G01 X-40.000 Y570.000  F3000.0
G01 X-40.000 Y520.000 
G01 X-90.000 Y520.000 
G01 X-90.000 Y570.000 
G00 Z5.000
G01 Z-5.000 F1200.0 M3
G01 X-90.000 Y520.000  F3000.0
G01 X-140.000 Y520.000 
G01 X-140.000 Y570.000 
G01 X-90.000 Y570.000 
G00 Z5.000
G00 X-90.000 Y520.000  F6000.0
G01 Z-5.000 F1200.0 M3
G01 X-90.000 Y470.000  F3000.0
G01 X-140.000 Y470.000 
G01 X-140.000 Y520.000 
G01 X-90.000 Y520.000 
G00 Z5.000
G01 Z-5.000 F1200.0 M3
G01 X-40.000 Y520.000  F3000.0
G01 X-40.000 Y470.000 
G01 X-90.000 Y470.000 
G01 X-90.000 Y520.000 
G00 Z5.000
G00 X-90.000 Y470.000  F6000.0
G01 Z-5.000 F1200.0 M3
G01 X-40.000 Y470.000  F3000.0
G01 X-40.000 Y420.000 
G01 X-90.000 Y420.000 
G01 X-90.000 Y470.000 
G00 Z5.000
G01 Z-5.000 F1200.0 M3
G01 X-90.000 Y420.000  F3000.0
G01 X-140.000 Y420.000 
G01 X-140.000 Y470.000 
G01 X-90.000 Y470.000 
G00 Z5.000
G00 X-90.000 Y420.000  F6000.0
G01 Z-5.000 F1200.0 M3
G01 X-90.000 Y370.000  F3000.0
G01 X-140.000 Y370.000 
G01 X-140.000 Y420.000 
G01 X-90.000 Y420.000 
G00 Z5.000
G01 Z-5.000 F1200.0 M3
G01 X-40.000 Y420.000  F3000.0
G01 X-40.000 Y370.000 
G01 X-90.000 Y370.000 
G01 X-90.000 Y420.000 
G00 Z5.000
G00 X-90.000 Y370.000  F6000.0
G01 Z-5.000 F1200.0 M3
G01 X-40.000 Y370.000  F3000.0
G01 X-40.000 Y320.000 
G01 X-90.000 Y320.000 
G01 X-90.000 Y370.000 
G00 Z5.000
G01 Z-5.000 F1200.0 M3
G01 X-90.000 Y320.000  F3000.0
G01 X-140.000 Y320.000 
G01 X-140.000 Y370.000 
G01 X-90.000 Y370.000 
G00 Z5.000
G00 X-90.000 Y320.000  F6000.0
G01 Z-5.000 F1200.0 M3
G01 X-90.000 Y270.000  F3000.0
G01 X-140.000 Y270.000 
G01 X-140.000 Y320.000 
G01 X-90.000 Y320.000 
G00 Z5.000
G01 Z-5.000 F1200.0 M3
G01 X-40.000 Y320.000  F3000.0
G01 X-40.000 Y270.000 
G01 X-90.000 Y270.000 
G01 X-90.000 Y320.000 
G00 Z5.000
G00 X-90.000 Y270.000  F6000.0
G01 Z-5.000 F1200.0 M3
G01 X-40.000 Y270.000  F3000.0
G01 X-40.000 Y220.000 
G01 X-90.000 Y220.000 
G01 X-90.000 Y270.000 
G00 Z5.000
G01 Z-5.000 F1200.0 M3
G01 X-90.000 Y220.000  F3000.0
G01 X-140.000 Y220.000 
G01 X-140.000 Y270.000 
G01 X-90.000 Y270.000 
G00 Z5.000
G00 X-90.000 Y220.000  F6000.0
G01 Z-5.000 F1200.0 M3
G01 X-90.000 Y170.000  F3000.0
G01 X-140.000 Y170.000 
G01 X-140.000 Y220.000 
G01 X-90.000 Y220.000 
G00 Z5.000
G01 Z-5.000 F1200.0 M3
G01 X-40.000 Y220.000  F3000.0
G01 X-40.000 Y170.000 
G01 X-90.000 Y170.000 
G01 X-90.000 Y220.000 
G00 Z5.000
G00 X-90.000 Y170.000  F6000.0
G01 Z-5.000 F1200.0 M3
G01 X-40.000 Y170.000  F3000.0
G01 X-40.000 Y120.000 
G01 X-90.000 Y120.000 
G01 X-90.000 Y170.000 
G00 Z5.000
G01 Z-5.000 F1200.0 M3
G01 X-90.000 Y120.000  F3000.0
G01 X-140.000 Y120.000 
G01 X-140.000 Y170.000 
G01 X-90.000 Y170.000 
G00 Z5.000
G00 X-90.000 Y120.000  F6000.0
G01 Z-5.000 F1200.0 M3
G01 X-90.000 Y70.000  F3000.0
G01 X-140.000 Y70.000 
G01 X-140.000 Y120.000 
G01 X-90.000 Y120.000 
G00 Z5.000
G01 Z-5.000 F1200.0 M3
G01 X-40.000 Y120.000  F3000.0
G01 X-40.000 Y70.000 
G01 X-90.000 Y70.000 
G01 X-90.000 Y120.000 
G00 Z5.000
G00 X-90.000 Y70.000  F6000.0
G01 Z-5.000 F1200.0 M3
G01 X-40.000 Y70.000  F3000.0
G01 X-40.000 Y20.000 
G01 X-90.000 Y20.000 
G01 X-90.000 Y70.000 
G00 Z5.000
G01 Z-5.000 F1200.0 M3
G01 X-90.000 Y20.000  F3000.0
G01 X-140.000 Y20.000 
G01 X-140.000 Y70.000 
G01 X-90.000 Y70.000 
G00 Z5.000
(Begin Footer)
G00 Z5.000
M30
M05
G53 G0 Z-10
G53 G0 X1350 Y1000
(End Footer)
%
