%
( apport ) ( File created: Tuesday August 20 2024 - 07:05 PM)
( for LinuxCNC )
( Material Size) ( X= 250.000, Y= 263.894, Z= 42.000)
G90 (Incremental distance mode)
G17 G21 (Active Plane: XY)(Metric Mode)
G40 G49 G80(Tool Diameter, Length compensation & canned cycles OFF)
G64 P0.05 Q0.05(Path Blending)
M600
G90 (absolute distance mode)
G57 (Coordinate System)
S18000M3
("G00 Z47.000")
G4 P6
( 3D Finish 1 )
G00 X0.007 A359.649 Z47.000 F20000.0
G01 Z12.500 F2000.0 M3
G01 X0.007 A0.000  F10000.0
G01 X0.307 A0.000 Z12.500
G01 X0.307 A359.649 
G01 X0.307 A360.000 Z12.488
G01 X0.607 A360.000 Z12.487
G01 X0.607 A358.247 Z12.500
G01 X0.607 A0.000 
G01 X0.907 A0.000 Z12.500
G01 X0.907 A359.649 
G01 X0.907 A360.000 Z12.486
G01 X1.207 A360.000 Z12.488
G01 X1.207 A358.247 Z12.500
G01 X1.207 A0.000 
G01 X1.507 A0.000 Z12.500
G01 X1.507 A359.649 
G01 X1.507 A360.000 Z12.488
G01 X1.807 A360.000 Z12.488
G01 X1.807 A356.495 Z12.499
G01 X1.807 A0.000 
G01 X2.107 A0.000 Z12.499
G01 X2.107 A359.649 
G01 X2.107 A360.000 Z12.488
G01 X2.407 A360.000 Z12.487
G01 X2.407 A358.247 Z12.499
G01 X2.407 A0.000 
G01 X2.707 A0.000 Z12.499
G01 X2.707 A359.649 
G01 X2.707 A360.000 Z12.486
G01 X3.007 A360.000 Z12.487
G01 X3.007 A358.247 Z12.499
G01 X3.007 A0.000 
G01 X3.307 A0.000 Z12.499
G01 X3.307 A359.649 
G01 X3.307 A360.000 Z12.488
G01 X3.607 A360.000 Z12.488
G01 X3.607 A356.495 Z12.499
G01 X3.607 A0.000 
G01 X3.907 A0.000 Z12.499
G01 X3.907 A359.649 
G01 X3.907 A360.000 Z12.487
G01 X4.207 A360.000 Z12.486
G01 X4.207 A359.649 Z12.572
G01 X4.207 A0.000 
G01 X4.507 A0.000 Z14.510
G01 X4.507 A359.649 
G01 X4.507 A360.000 Z14.450
G01 X4.807 A360.000 Z16.125
G01 X4.807 A359.649 Z16.170
G01 X4.807 A0.000 
G01 X5.107 A0.000 Z17.478
G01 X5.107 A359.649 
G01 X5.107 A360.000 Z17.441
G01 X5.407 A360.000 Z18.606
G01 X5.407 A359.649 Z18.639
G01 X5.407 A0.000 
G01 X5.707 A0.000 Z19.712
G01 X5.707 A359.649 
G01 X5.707 A360.000 Z19.683
G01 X6.007 A360.000 Z20.618
G01 X6.007 A359.649 Z20.645
G01 X6.007 A0.000 
G01 X6.307 A0.000 Z21.540
G01 X6.307 A359.649 
G01 X6.307 A360.000 Z21.515
G01 X6.607 A360.000 Z22.379
G01 X6.607 A359.649 Z22.423
G01 X6.607 A0.000 
G01 X6.907 A0.000 Z23.241
G01 X6.907 A359.649 
G01 X6.907 A360.000 Z23.204
G01 X7.207 A360.000 Z23.945
G01 X7.207 A359.649 Z23.977
G01 X7.207 A0.000 
G01 X7.507 A0.000 Z24.663
G01 X7.507 A359.649 
G01 X7.507 A360.000 Z24.633
G01 X7.807 A360.000 Z25.280
G01 X7.807 A359.649 Z25.307
G01 X7.807 A0.000 
G01 X8.107 A0.000 Z25.894
G01 X8.107 A359.649 
G01 X8.107 A360.000 Z25.869
G01 X8.407 A360.000 Z26.431
G01 X8.407 A359.649 Z26.454
G01 X8.407 A0.000 
G01 X8.707 A0.000 Z26.990
G01 X8.707 A359.649 
G01 X8.707 A360.000 Z26.967
G01 X9.007 A360.000 Z27.468
G01 X9.007 A359.649 Z27.489
G01 X9.007 A0.000 
G01 X9.307 A0.000 Z27.971
G01 X9.307 A359.649 
G01 X9.307 A360.000 Z27.950
G01 X9.607 A360.000 Z28.413
G01 X9.607 A359.299 Z28.432
G01 X9.607 A0.000 
G01 X9.907 A0.000 Z28.867
G01 X9.907 A359.649 
G01 X9.907 A360.000 Z28.848
G01 X10.207 A360.000 Z29.270
G01 X10.207 A359.299 Z29.289
G01 X10.207 A0.000 
G01 X10.507 A0.000 Z29.694
G01 X10.507 A359.649 
G01 X10.507 A360.000 Z29.676
G01 X10.807 A360.000 Z30.064
G01 X10.807 A359.299 Z30.081
G01 X10.807 A0.000 
G01 X11.107 A0.000 Z30.457
G01 X11.107 A359.649 
G01 X11.107 A360.000 Z30.441
G01 X11.407 A360.000 Z30.803
G01 X11.407 A359.299 Z30.819
G01 X11.407 A0.000 
G01 X11.707 A0.000 Z31.168
G01 X11.707 A359.649 
G01 X11.707 A360.000 Z31.152
G01 X12.007 A360.000 Z31.490
G01 X12.007 A359.299 Z31.506
G01 X12.007 A0.000 
G01 X12.307 A0.000 Z31.828
G01 X12.307 A359.649 
G01 X12.307 A360.000 Z31.813
G01 X12.607 A360.000 Z32.125
G01 X12.607 A359.299 Z32.140
G01 X12.607 A0.000 
G01 X12.907 A0.000 Z32.444
G01 X12.907 A359.649 
G01 X12.907 A360.000 Z32.429
G01 X13.207 A360.000 Z32.718
G01 X13.207 A358.948 Z32.732
G01 X13.207 A0.000 
G01 X13.507 A0.000 Z33.015
G01 X13.507 A359.649 
G01 X13.507 A360.000 Z32.999
G01 X13.807 A360.000 Z33.274
G01 X13.807 A358.948 Z33.288
G01 X13.807 A0.000 
G01 X14.107 A0.000 Z33.548
G01 X14.107 A359.649 
G01 X14.107 A360.000 Z33.533
G01 X14.407 A360.000 Z33.792
G01 X14.407 A359.299 Z33.807
G01 X14.407 A0.000 
G01 X14.707 A0.000 Z34.054
G01 X14.707 A359.649 
G01 X14.707 A360.000 Z34.039
G01 X15.007 A360.000 Z34.281
G01 X15.007 A358.948 Z34.296
G01 X15.007 A0.000 
G01 X15.307 A0.000 Z34.532
G01 X15.307 A359.649 
G01 X15.307 A360.000 Z34.518
G01 X15.607 A360.000 Z34.744
G01 X15.607 A358.948 Z34.758
G01 X15.607 A0.000 
G01 X15.907 A0.000 Z34.975
G01 X15.907 A359.649 
G01 X15.907 A360.000 Z34.961
G01 X16.207 A360.000 Z35.172
G01 X16.207 A358.948 Z35.185
G01 X16.207 A0.000 
G01 X16.507 A0.000 Z35.391
G01 X16.507 A359.649 
G01 X16.507 A360.000 Z35.377
G01 X16.807 A360.000 Z35.576
G01 X16.807 A358.948 Z35.590
G01 X16.807 A0.000 
G01 X17.107 A0.000 Z35.782
G01 X17.107 A359.649 
G01 X17.107 A360.000 Z35.768
G01 X17.407 A360.000 Z35.955
G01 X17.407 A358.598 Z35.968
G01 X17.407 A0.000 
G01 X17.707 A0.000 Z36.149
G01 X17.707 A359.649 
G01 X17.707 A360.000 Z36.136
G01 X18.007 A360.000 Z36.311
G01 X18.007 A358.598 Z36.324
G01 X18.007 A0.000 
G01 X18.307 A0.000 Z36.492
G01 X18.307 A359.649 
G01 X18.307 A360.000 Z36.480
G01 X18.607 A360.000 Z36.643
G01 X18.607 A358.598 Z36.656
G01 X18.607 A0.000 
G01 X18.907 A0.000 Z36.814
G01 X18.907 A359.649 
G01 X18.907 A360.000 Z36.802
G01 X19.207 A360.000 Z36.956
G01 X19.207 A358.247 Z36.968
G01 X19.207 A0.000 
G01 X19.507 A0.000 Z37.119
G01 X19.507 A359.649 
G01 X19.507 A360.000 Z37.107
G01 X19.807 A360.000 Z37.252
G01 X19.807 A358.247 Z37.264
G01 X19.807 A0.000 
G01 X20.107 A0.000 Z37.402
G01 X20.107 A359.649 
G01 X20.107 A360.000 Z37.390
G01 X20.407 A360.000 Z37.524
G01 X20.407 A357.897 Z37.536
G01 X20.407 A0.000 
G01 X20.707 A0.000 Z37.666
G01 X20.707 A359.649 
G01 X20.707 A360.000 Z37.654
G01 X21.007 A360.000 Z37.777
G01 X21.007 A357.897 Z37.789
G01 X21.007 A0.000 
G01 X21.307 A0.000 Z37.908
G01 X21.307 A359.649 
G01 X21.307 A360.000 Z37.896
G01 X21.607 A360.000 Z38.014
G01 X21.607 A357.897 Z38.025
G01 X21.607 A0.000 
G01 X21.907 A0.000 Z38.136
G01 X21.907 A359.649 
G01 X21.907 A360.000 Z38.124
G01 X22.207 A360.000 Z38.231
G01 X22.207 A357.546 Z38.242
G01 X22.207 A0.000 
G01 X22.507 A0.000 Z38.346
G01 X22.507 A359.649 
G01 X22.507 A360.000 Z38.334
G01 X22.807 A360.000 Z38.432
G01 X22.807 A357.546 Z38.444
G01 X22.807 A0.000 
G01 X23.107 A0.000 Z38.538
G01 X23.107 A359.649 
G01 X23.107 A360.000 Z38.527
G01 X23.407 A360.000 Z38.617
G01 X23.407 A357.196 Z38.628
G01 X23.407 A0.000 
G01 X23.707 A0.000 Z38.714
G01 X23.707 A359.649 
G01 X23.707 A360.000 Z38.703
G01 X24.007 A360.000 Z38.787
G01 X24.007 A357.546 Z38.798
G01 X24.007 A0.000 
G01 X24.307 A0.000 Z38.880
G01 X24.307 A359.649 
G01 X24.307 A360.000 Z38.869
G01 X24.607 A360.000 Z38.948
G01 X24.607 A357.546 Z38.959
G01 X24.607 A0.000 
G01 X24.907 A0.000 Z39.035
G01 X24.907 A359.649 
G01 X24.907 A360.000 Z39.023
G01 X25.207 A360.000 Z39.096
G01 X25.207 A357.196 Z39.108
G01 X25.207 A0.000 
G01 X25.507 A0.000 Z39.178
G01 X25.507 A359.649 
G01 X25.507 A360.000 Z39.167
G01 X25.807 A360.000 Z39.234
G01 X25.807 A357.196 Z39.245
G01 X25.807 A0.000 
G01 X26.107 A0.000 Z39.310
G01 X26.107 A359.649 
G01 X26.107 A360.000 Z39.299
G01 X26.407 A360.000 Z39.360
G01 X26.407 A356.845 Z39.372
G01 X26.407 A0.000 
G01 X26.707 A0.000 Z39.429
G01 X26.707 A359.649 
G01 X26.707 A360.000 Z39.418
G01 X27.007 A360.000 Z39.474
G01 X27.007 A356.845 Z39.485
G01 X27.007 A0.000 
G01 X27.307 A0.000 Z39.537
G01 X27.307 A359.649 
G01 X27.307 A360.000 Z39.526
G01 X27.607 A360.000 Z39.576
G01 X27.607 A356.845 Z39.587
G01 X27.607 A0.000 
G01 X27.907 A0.000 Z39.635
G01 X27.907 A359.649 
G01 X27.907 A360.000 Z39.624
G01 X28.207 A360.000 Z39.668
G01 X28.207 A356.495 Z39.679
G01 X28.207 A0.000 
G01 X28.507 A0.000 Z39.721
G01 X28.507 A359.649 
G01 X28.507 A360.000 Z39.710
G01 X28.807 A360.000 Z39.750
G01 X28.807 A356.845 Z39.761
G01 X28.807 A0.000 
G01 X29.107 A0.000 Z39.799
G01 X29.107 A359.649 
G01 X29.107 A360.000 Z39.788
G01 X29.407 A360.000 Z39.823
G01 X29.407 A356.845 Z39.834
G01 X29.407 A0.000 
G01 X29.707 A0.000 Z39.866
G01 X29.707 A359.649 
G01 X29.707 A360.000 Z39.855
G01 X30.007 A360.000 Z39.884
G01 X30.007 A356.495 Z39.895
G01 X30.007 A0.000 
G01 X30.307 A0.000 Z39.921
G01 X30.307 A359.649 
G01 X30.307 A360.000 Z39.910
G01 X30.607 A360.000 Z39.934
G01 X30.607 A356.495 Z39.945
G01 X30.607 A0.000 
G01 X30.907 A0.000 Z39.967
G01 X30.907 A359.649 
G01 X30.907 A360.000 Z39.956
G01 X31.207 A360.000 Z39.974
G01 X31.207 A356.495 Z39.985
G01 X31.207 A0.000 
G01 X31.507 A0.000 Z40.001
G01 X31.507 A359.649 
G01 X31.507 A360.000 Z39.990
G01 X31.807 A360.000 Z40.004
G01 X31.807 A356.495 Z40.015
G01 X31.807 A0.000 
G01 X32.107 A0.000 Z40.015
G01 X32.107 A359.649 
G01 X32.107 A360.000 Z40.004
G01 X32.407 A360.000 Z40.002
G01 X32.407 A356.495 Z40.013
G01 X32.407 A0.000 
G01 X32.707 A0.000 Z40.012
G01 X32.707 A359.649 
G01 X32.707 A360.000 Z40.000
G01 X33.007 A360.000 Z39.997
G01 X33.007 A358.598 Z40.010
G01 X33.007 A0.000 
G01 X33.307 A0.000 Z40.009
G01 X33.307 A359.649 
G01 X33.307 A360.000 Z39.996
G01 X33.607 A360.000 Z39.995
G01 X33.607 A357.897 Z40.007
G01 X33.607 A0.000 
G01 X33.907 A0.000 Z40.005
G01 X33.907 A359.649 
G01 X33.907 A360.000 Z39.994
G01 X34.207 A360.000 Z39.993
G01 X34.207 A356.495 Z40.004
G01 X34.207 A0.000 
G01 X34.507 A0.000 Z40.002
G01 X34.507 A359.649 
G01 X34.507 A360.000 Z39.991
G01 X34.807 A360.000 Z39.988
G01 X34.807 A358.598 Z40.001
G01 X34.807 A0.000 
G01 X35.107 A0.000 Z39.999
G01 X35.107 A359.649 
G01 X35.107 A360.000 Z39.986
G01 X35.407 A360.000 Z39.986
G01 X35.407 A357.897 Z39.998
G01 X35.407 A0.000 
G01 X35.707 A0.000 Z39.996
G01 X35.707 A359.649 
G01 X35.707 A360.000 Z39.985
G01 X36.007 A360.000 Z39.983
G01 X36.007 A356.495 Z39.994
G01 X36.007 A0.000 
G01 X36.307 A0.000 Z39.993
G01 X36.307 A359.649 
G01 X36.307 A360.000 Z39.981
G01 X36.607 A360.000 Z39.978
G01 X36.607 A358.598 Z39.991
G01 X36.607 A0.000 
G01 X36.907 A0.000 Z39.990
G01 X36.907 A359.649 
G01 X36.907 A360.000 Z39.977
G01 X37.207 A360.000 Z39.976
G01 X37.207 A357.897 Z39.988
G01 X37.207 A0.000 
G01 X37.507 A0.000 Z39.987
G01 X37.507 A359.649 
G01 X37.507 A360.000 Z39.975
G01 X37.807 A360.000 Z39.974
G01 X37.807 A356.495 Z39.985
G01 X37.807 A0.000 
G01 X38.107 A0.000 Z39.983
G01 X38.107 A359.649 
G01 X38.107 A360.000 Z39.972
G01 X38.407 A360.000 Z39.969
G01 X38.407 A358.598 Z39.982
G01 X38.407 A0.000 
G01 X38.707 A0.000 Z39.980
G01 X38.707 A359.649 
G01 X38.707 A360.000 Z39.967
G01 X39.007 A360.000 Z39.967
G01 X39.007 A357.546 Z39.979
G01 X39.007 A0.000 
G01 X39.307 A0.000 Z39.977
G01 X39.307 A359.649 
G01 X39.307 A360.000 Z39.966
G01 X39.607 A360.000 Z39.964
G01 X39.607 A356.495 Z39.976
G01 X39.607 A0.000 
G01 X39.907 A0.000 Z39.974
G01 X39.907 A359.649 
G01 X39.907 A360.000 Z39.962
G01 X40.207 A360.000 Z39.959
G01 X40.207 A358.598 Z39.972
G01 X40.207 A0.000 
G01 X40.507 A0.000 Z39.971
G01 X40.507 A359.649 
G01 X40.507 A360.000 Z39.958
G01 X40.807 A360.000 Z39.958
G01 X40.807 A357.546 Z39.969
G01 X40.807 A0.000 
G01 X41.107 A0.000 Z39.968
G01 X41.107 A359.649 
G01 X41.107 A360.000 Z39.957
G01 X41.407 A360.000 Z39.955
G01 X41.407 A356.495 Z39.966
G01 X41.407 A0.000 
G01 X41.707 A0.000 Z39.965
G01 X41.707 A359.649 
G01 X41.707 A360.000 Z39.953
G01 X42.007 A360.000 Z39.950
G01 X42.007 A358.598 Z39.963
G01 X42.007 A0.000 
G01 X42.307 A0.000 Z39.961
G01 X42.307 A359.649 
G01 X42.307 A360.000 Z39.949
G01 X42.607 A360.000 Z39.948
G01 X42.607 A357.546 Z39.960
G01 X42.607 A0.000 
G01 X42.907 A0.000 Z39.958
G01 X42.907 A359.649 
G01 X42.907 A360.000 Z39.947
G01 X43.207 A360.000 Z39.946
G01 X43.207 A356.495 Z39.957
G01 X43.207 A0.000 
G01 X43.507 A0.000 Z39.955
G01 X43.507 A359.649 
G01 X43.507 A360.000 Z39.943
G01 X43.807 A360.000 Z39.940
G01 X43.807 A358.598 Z39.954
G01 X43.807 A0.000 
G01 X44.107 A0.000 Z39.952
G01 X44.107 A359.649 
G01 X44.107 A360.000 Z39.939
G01 X44.407 A360.000 Z39.939
G01 X44.407 A357.546 Z39.950
G01 X44.407 A0.000 
G01 X44.707 A0.000 Z39.949
G01 X44.707 A359.649 
G01 X44.707 A360.000 Z39.938
G01 X45.007 A360.000 Z39.936
G01 X45.007 A356.495 Z39.947
G01 X45.007 A0.000 
G01 X45.307 A0.000 Z39.946
G01 X45.307 A359.649 
G01 X45.307 A360.000 Z39.934
G01 X45.607 A360.000 Z39.931
G01 X45.607 A358.598 Z39.944
G01 X45.607 A0.000 
G01 X45.907 A0.000 Z39.942
G01 X45.907 A359.649 
G01 X45.907 A360.000 Z39.930
G01 X46.207 A360.000 Z39.929
G01 X46.207 A357.546 Z39.941
G01 X46.207 A0.000 
G01 X46.507 A0.000 Z39.939
G01 X46.507 A359.649 
G01 X46.507 A360.000 Z39.928
G01 X46.807 A360.000 Z39.927
G01 X46.807 A356.845 Z39.938
G01 X46.807 A0.000 
G01 X47.107 A0.000 Z39.936
G01 X47.107 A359.649 
G01 X47.107 A360.000 Z39.924
G01 X47.407 A360.000 Z39.921
G01 X47.407 A358.598 Z39.935
G01 X47.407 A0.000 
G01 X47.707 A0.000 Z39.933
G01 X47.707 A359.649 
G01 X47.707 A360.000 Z39.920
G01 X48.007 A360.000 Z39.920
G01 X48.007 A357.546 Z39.931
G01 X48.007 A0.000 
G01 X48.307 A0.000 Z39.930
G01 X48.307 A359.649 
G01 X48.307 A360.000 Z39.919
G01 X48.607 A360.000 Z39.917
G01 X48.607 A356.845 Z39.928
G01 X48.607 A0.000 
G01 X48.907 A0.000 Z39.927
G01 X48.907 A359.649 
G01 X48.907 A360.000 Z39.915
G01 X49.207 A360.000 Z39.912
G01 X49.207 A358.598 Z39.925
G01 X49.207 A0.000 
G01 X49.507 A0.000 Z39.924
G01 X49.507 A359.649 
G01 X49.507 A360.000 Z39.911
G01 X49.807 A360.000 Z39.911
G01 X49.807 A357.546 Z39.922
G01 X49.807 A0.000 
G01 X50.107 A0.000 Z39.920
G01 X50.107 A359.649 
G01 X50.107 A360.000 Z39.909
G01 X50.407 A360.000 Z39.908
G01 X50.407 A356.845 Z39.919
G01 X50.407 A0.000 
G01 X50.707 A0.000 Z39.917
G01 X50.707 A359.649 
G01 X50.707 A360.000 Z39.905
G01 X51.007 A360.000 Z39.902
G01 X51.007 A358.598 Z39.916
G01 X51.007 A0.000 
G01 X51.307 A0.000 Z39.914
G01 X51.307 A359.649 
G01 X51.307 A360.000 Z39.902
G01 X51.607 A360.000 Z39.901
G01 X51.607 A357.546 Z39.913
G01 X51.607 A0.000 
G01 X51.907 A0.000 Z39.911
G01 X51.907 A359.649 
G01 X51.907 A360.000 Z39.900
G01 X52.207 A360.000 Z39.898
G01 X52.207 A356.845 Z39.909
G01 X52.207 A0.000 
G01 X52.507 A0.000 Z39.908
G01 X52.507 A359.649 
G01 X52.507 A360.000 Z39.896
G01 X52.807 A360.000 Z39.893
G01 X52.807 A358.948 Z39.906
G01 X52.807 A0.000 
G01 X53.107 A0.000 Z39.905
G01 X53.107 A359.649 
G01 X53.107 A360.000 Z39.892
G01 X53.407 A360.000 Z39.892
G01 X53.407 A357.196 Z39.903
G01 X53.407 A0.000 
G01 X53.707 A0.000 Z39.902
G01 X53.707 A359.649 
G01 X53.707 A360.000 Z39.891
G01 X54.007 A360.000 Z39.889
G01 X54.007 A356.845 Z39.900
G01 X54.007 A0.000 
G01 X54.307 A0.000 Z39.898
G01 X54.307 A359.649 
G01 X54.307 A360.000 Z39.886
G01 X54.607 A360.000 Z39.883
G01 X54.607 A358.948 Z39.897
G01 X54.607 A0.000 
G01 X54.907 A0.000 Z39.895
G01 X54.907 A359.649 
G01 X54.907 A360.000 Z39.883
G01 X55.207 A360.000 Z39.882
G01 X55.207 A357.196 Z39.894
G01 X55.207 A0.000 
G01 X55.507 A0.000 Z39.892
G01 X55.507 A359.649 
G01 X55.507 A360.000 Z39.881
G01 X55.807 A360.000 Z39.879
G01 X55.807 A356.845 Z39.891
G01 X55.807 A0.000 
G01 X56.107 A0.000 Z39.889
G01 X56.107 A359.649 
G01 X56.107 A360.000 Z39.877
G01 X56.407 A360.000 Z39.874
G01 X56.407 A358.948 Z39.887
G01 X56.407 A0.000 
G01 X56.707 A0.000 Z39.886
G01 X56.707 A359.649 
G01 X56.707 A360.000 Z39.873
G01 X57.007 A360.000 Z39.873
G01 X57.007 A357.196 Z39.884
G01 X57.007 A0.000 
G01 X57.307 A0.000 Z39.883
G01 X57.307 A359.649 
G01 X57.307 A360.000 Z39.872
G01 X57.607 A360.000 Z39.870
G01 X57.607 A356.845 Z39.881
G01 X57.607 A0.000 
G01 X57.907 A0.000 Z39.880
G01 X57.907 A359.649 
G01 X57.907 A360.000 Z39.868
G01 X58.207 A360.000 Z39.864
G01 X58.207 A358.948 Z39.878
G01 X58.207 A0.000 
G01 X58.507 A0.000 Z39.876
G01 X58.507 A359.649 
G01 X58.507 A360.000 Z39.864
G01 X58.807 A360.000 Z39.864
G01 X58.807 A357.196 Z39.875
G01 X58.807 A0.000 
G01 X59.107 A0.000 Z39.873
G01 X59.107 A359.649 
G01 X59.107 A360.000 Z39.862
G01 X59.407 A360.000 Z39.860
G01 X59.407 A356.845 Z39.872
G01 X59.407 A0.000 
G01 X59.707 A0.000 Z39.870
G01 X59.707 A359.649 
G01 X59.707 A360.000 Z39.858
G01 X60.007 A360.000 Z39.855
G01 X60.007 A358.948 Z39.869
G01 X60.007 A0.000 
G01 X60.307 A0.000 Z39.862
G01 X60.307 A359.649 
G01 X60.307 A360.000 Z39.851
G01 X60.607 A360.000 Z39.818
G01 X60.607 A356.845 Z39.829
G01 X60.607 A0.000 
G01 X60.907 A0.000 Z39.784
G01 X60.907 A359.649 
G01 X60.907 A360.000 Z39.773
G01 X61.207 A360.000 Z39.710
G01 X61.207 A356.845 Z39.721
G01 X61.207 A0.000 
G01 X61.507 A0.000 Z39.654
G01 X61.507 A359.649 
G01 X61.507 A360.000 Z39.643
G01 X61.807 A360.000 Z39.575
G01 X61.807 A357.196 Z39.586
G01 X61.807 A0.000 
G01 X62.107 A0.000 Z39.517
G01 X62.107 A359.649 
G01 X62.107 A360.000 Z39.505
G01 X62.407 A360.000 Z39.434
G01 X62.407 A357.196 Z39.446
G01 X62.407 A0.000 
G01 X62.707 A0.000 Z39.373
G01 X62.707 A359.649 
G01 X62.707 A360.000 Z39.362
G01 X63.007 A360.000 Z39.287
G01 X63.007 A357.546 Z39.298
G01 X63.007 A0.000 
G01 X63.307 A0.000 Z39.221
G01 X63.307 A359.649 
G01 X63.307 A360.000 Z39.209
G01 X63.607 A360.000 Z39.128
G01 X63.607 A357.196 Z39.140
G01 X63.607 A0.000 
G01 X63.907 A0.000 Z39.057
G01 X63.907 A359.649 
G01 X63.907 A360.000 Z39.046
G01 X64.207 A360.000 Z38.959
G01 X64.207 A357.196 Z38.970
G01 X64.207 A0.000 
G01 X64.507 A0.000 Z38.880
G01 X64.507 A359.649 
G01 X64.507 A360.000 Z38.869
G01 X64.807 A360.000 Z38.776
G01 X64.807 A357.546 Z38.787
G01 X64.807 A0.000 
G01 X65.107 A0.000 Z38.692
G01 X65.107 A359.649 
G01 X65.107 A360.000 Z38.680
G01 X65.407 A360.000 Z38.582
G01 X65.407 A357.546 Z38.593
G01 X65.407 A0.000 
G01 X65.707 A0.000 Z38.490
G01 X65.707 A359.649 
G01 X65.707 A360.000 Z38.478
G01 X66.007 A360.000 Z38.371
G01 X66.007 A357.897 Z38.382
G01 X66.007 A0.000 
G01 X66.307 A0.000 Z38.272
G01 X66.307 A359.649 
G01 X66.307 A360.000 Z38.261
G01 X66.607 A360.000 Z38.148
G01 X66.607 A357.897 Z38.160
G01 X66.607 A0.000 
G01 X66.907 A0.000 Z38.043
G01 X66.907 A359.649 
G01 X66.907 A360.000 Z38.031
G01 X67.207 A360.000 Z37.911
G01 X67.207 A357.897 Z37.923
G01 X67.207 A0.000 
G01 X67.507 A0.000 Z37.797
G01 X67.507 A359.649 
G01 X67.507 A360.000 Z37.785
G01 X67.807 A360.000 Z37.658
G01 X67.807 A358.247 Z37.670
G01 X67.807 A0.000 
G01 X68.107 A0.000 Z37.540
G01 X68.107 A359.649 
G01 X68.107 A360.000 Z37.528
G01 X68.407 A360.000 Z37.390
G01 X68.407 A358.247 Z37.403
G01 X68.407 A0.000 
G01 X68.707 A0.000 Z37.261
G01 X68.707 A359.649 
G01 X68.707 A360.000 Z37.249
G01 X69.007 A360.000 Z37.104
G01 X69.007 A358.247 Z37.116
G01 X69.007 A0.000 
G01 X69.307 A0.000 Z36.971
G01 X69.307 A359.649 
G01 X69.307 A360.000 Z36.959
G01 X69.607 A360.000 Z36.809
G01 X69.607 A358.247 Z36.821
G01 X69.607 A0.000 
G01 X69.907 A0.000 Z36.666
G01 X69.907 A359.649 
G01 X69.907 A360.000 Z36.653
G01 X70.207 A360.000 Z36.494
G01 X70.207 A358.247 Z36.507
G01 X70.207 A0.000 
G01 X70.507 A0.000 Z36.341
G01 X70.507 A359.649 
G01 X70.507 A360.000 Z36.328
G01 X70.807 A360.000 Z36.159
G01 X70.807 A358.598 Z36.172
G01 X70.807 A0.000 
G01 X71.107 A0.000 Z35.999
G01 X71.107 A359.649 
G01 X71.107 A360.000 Z35.987
G01 X71.407 A360.000 Z35.804
G01 X71.407 A358.598 Z35.817
G01 X71.407 A0.000 
G01 X71.707 A0.000 Z35.630
G01 X71.707 A359.649 
G01 X71.707 A360.000 Z35.617
G01 X72.007 A360.000 Z35.425
G01 X72.007 A358.598 Z35.438
G01 X72.007 A0.000 
G01 X72.307 A0.000 Z35.239
G01 X72.307 A359.649 
G01 X72.307 A360.000 Z35.226
G01 X72.607 A360.000 Z35.020
G01 X72.607 A358.948 Z35.034
G01 X72.607 A0.000 
G01 X72.907 A0.000 Z34.823
G01 X72.907 A359.649 
G01 X72.907 A360.000 Z34.809
G01 X73.207 A360.000 Z34.588
G01 X73.207 A358.948 Z34.601
G01 X73.207 A0.000 
G01 X73.507 A0.000 Z34.374
G01 X73.507 A359.649 
G01 X73.507 A360.000 Z34.360
G01 X73.807 A360.000 Z34.128
G01 X73.807 A358.948 Z34.142
G01 X73.807 A0.000 
G01 X74.107 A0.000 Z33.900
G01 X74.107 A359.649 
G01 X74.107 A360.000 Z33.886
G01 X74.407 A360.000 Z33.637
G01 X74.407 A358.948 Z33.651
G01 X74.407 A0.000 
G01 X74.707 A0.000 Z33.394
G01 X74.707 A359.649 
G01 X74.707 A360.000 Z33.380
G01 X75.007 A360.000 Z33.112
G01 X75.007 A359.299 Z33.127
G01 X75.007 A0.000 
G01 X75.307 A0.000 Z32.853
G01 X75.307 A359.649 
G01 X75.307 A360.000 Z32.837
G01 X75.607 A360.000 Z32.555
G01 X75.607 A359.299 Z32.571
G01 X75.607 A0.000 
G01 X75.907 A0.000 Z32.275
G01 X75.907 A359.649 
G01 X75.907 A360.000 Z32.259
G01 X76.207 A360.000 Z31.955
G01 X76.207 A359.299 Z31.971
G01 X76.207 A0.000 
G01 X76.507 A0.000 Z31.656
G01 X76.507 A359.649 
G01 X76.507 A360.000 Z31.639
G01 X76.807 A360.000 Z31.309
G01 X76.807 A359.299 Z31.327
G01 X76.807 A0.000 
G01 X77.107 A0.000 Z30.988
G01 X77.107 A359.649 
G01 X77.107 A360.000 Z30.970
G01 X77.407 A360.000 Z30.609
G01 X77.407 A359.299 Z30.627
G01 X77.407 A0.000 
G01 X77.707 A0.000 Z30.257
G01 X77.707 A359.649 
G01 X77.707 A360.000 Z30.238
G01 X78.007 A360.000 Z29.860
G01 X78.007 A359.299 Z29.879
G01 X78.007 A0.000 
G01 X78.307 A0.000 Z29.477
G01 X78.307 A359.649 
G01 X78.307 A360.000 Z29.457
G01 X78.607 A360.000 Z29.039
G01 X78.607 A359.649 Z29.060
G01 X78.607 A0.000 
G01 X78.907 A0.000 Z28.616
G01 X78.907 A359.649 
G01 X78.907 A360.000 Z28.594
G01 X79.207 A360.000 Z28.129
G01 X79.207 A359.649 Z28.150
G01 X79.207 A0.000 
G01 X79.507 A0.000 Z27.668
G01 X79.507 A359.649 
G01 X79.507 A360.000 Z27.643
G01 X79.807 A360.000 Z27.138
G01 X79.807 A359.299 Z27.158
G01 X79.807 A0.000 
G01 X80.107 A0.000 Z26.669
G01 X80.107 A359.649 
G01 X80.107 A360.000 Z26.648
G01 X80.407 A360.000 Z26.196
G01 X80.407 A359.649 Z26.217
G01 X80.407 A0.000 
G01 X80.707 A0.000 Z25.808
G01 X80.707 A359.649 
G01 X80.707 A360.000 Z25.790
G01 X81.007 A360.000 Z25.400
G01 X81.007 A359.299 Z25.418
G01 X81.007 A0.000 
G01 X81.307 A0.000 Z25.028
G01 X81.307 A359.649 
G01 X81.307 A360.000 Z25.009
G01 X81.607 A360.000 Z24.636
G01 X81.607 A359.299 Z24.653
G01 X81.607 A0.000 
G01 X81.907 A0.000 Z24.303
G01 X81.907 A359.649 
G01 X81.907 A360.000 Z24.287
G01 X82.207 A360.000 Z23.940
G01 X82.207 A359.299 Z23.957
G01 X82.207 A0.000 
G01 X82.507 A0.000 Z23.621
G01 X82.507 A359.649 
G01 X82.507 A360.000 Z23.606
G01 X82.807 A360.000 Z23.288
G01 X82.807 A359.299 Z23.304
G01 X82.807 A0.000 
G01 X83.107 A0.000 Z22.992
G01 X83.107 A359.649 
G01 X83.107 A360.000 Z22.976
G01 X83.407 A360.000 Z22.669
G01 X83.407 A359.299 Z22.685
G01 X83.407 A0.000 
G01 X83.707 A0.000 Z22.399
G01 X83.707 A359.649 
G01 X83.707 A360.000 Z22.384
G01 X84.007 A360.000 Z22.102
G01 X84.007 A359.299 Z22.117
G01 X84.007 A0.000 
G01 X84.307 A0.000 Z21.839
G01 X84.307 A359.649 
G01 X84.307 A360.000 Z21.823
G01 X84.607 A360.000 Z21.557
G01 X84.607 A358.948 Z21.571
G01 X84.607 A0.000 
G01 X84.907 A0.000 Z21.313
G01 X84.907 A359.649 
G01 X84.907 A360.000 Z21.298
G01 X85.207 A360.000 Z21.046
G01 X85.207 A358.948 Z21.061
G01 X85.207 A0.000 
G01 X85.507 A0.000 Z20.812
G01 X85.507 A359.649 
G01 X85.507 A360.000 Z20.798
G01 X85.807 A360.000 Z20.565
G01 X85.807 A358.948 Z20.579
G01 X85.807 A0.000 
G01 X86.107 A0.000 Z20.348
G01 X86.107 A359.649 
G01 X86.107 A360.000 Z20.334
G01 X86.407 A360.000 Z20.107
G01 X86.407 A358.948 Z20.121
G01 X86.407 A0.000 
G01 X86.707 A0.000 Z19.898
G01 X86.707 A359.649 
G01 X86.707 A360.000 Z19.885
G01 X87.007 A360.000 Z19.673
G01 X87.007 A358.948 Z19.686
G01 X87.007 A0.000 
G01 X87.307 A0.000 Z19.477
G01 X87.307 A359.649 
G01 X87.307 A360.000 Z19.463
G01 X87.607 A360.000 Z19.255
G01 X87.607 A358.948 Z19.269
G01 X87.607 A0.000 
G01 X87.907 A0.000 Z19.072
G01 X87.907 A359.649 
G01 X87.907 A360.000 Z19.060
G01 X88.207 A360.000 Z18.868
G01 X88.207 A358.598 Z18.881
G01 X88.207 A0.000 
G01 X88.507 A0.000 Z18.690
G01 X88.507 A359.649 
G01 X88.507 A360.000 Z18.677
G01 X88.807 A360.000 Z18.493
G01 X88.807 A358.598 Z18.505
G01 X88.807 A0.000 
G01 X89.107 A0.000 Z18.329
G01 X89.107 A359.649 
G01 X89.107 A360.000 Z18.316
G01 X89.407 A360.000 Z18.141
G01 X89.407 A358.598 Z18.154
G01 X89.407 A0.000 
G01 X89.707 A0.000 Z17.982
G01 X89.707 A359.649 
G01 X89.707 A360.000 Z17.969
G01 X90.007 A360.000 Z17.802
G01 X90.007 A358.247 Z17.815
G01 X90.007 A0.000 
G01 X90.307 A0.000 Z17.656
G01 X90.307 A359.649 
G01 X90.307 A360.000 Z17.643
G01 X90.607 A360.000 Z17.484
G01 X90.607 A358.598 Z17.497
G01 X90.607 A0.000 
G01 X90.907 A0.000 Z17.343
G01 X90.907 A359.649 
G01 X90.907 A360.000 Z17.330
G01 X91.207 A360.000 Z17.184
G01 X91.207 A358.247 Z17.196
G01 X91.207 A0.000 
G01 X91.507 A0.000 Z17.050
G01 X91.507 A359.649 
G01 X91.507 A360.000 Z17.038
G01 X91.807 A360.000 Z16.896
G01 X91.807 A358.247 Z16.908
G01 X91.807 A0.000 
G01 X92.107 A0.000 Z16.771
G01 X92.107 A359.649 
G01 X92.107 A360.000 Z16.759
G01 X92.407 A360.000 Z16.627
G01 X92.407 A358.247 Z16.639
G01 X92.407 A0.000 
G01 X92.707 A0.000 Z16.508
G01 X92.707 A359.649 
G01 X92.707 A360.000 Z16.496
G01 X93.007 A360.000 Z16.366
G01 X93.007 A358.247 Z16.379
G01 X93.007 A0.000 
G01 X93.307 A0.000 Z16.254
G01 X93.307 A359.649 
G01 X93.307 A360.000 Z16.243
G01 X93.607 A360.000 Z16.119
G01 X93.607 A357.897 Z16.131
G01 X93.607 A0.000 
G01 X93.907 A0.000 Z16.007
G01 X93.907 A359.649 
G01 X93.907 A360.000 Z15.995
G01 X94.207 A360.000 Z15.871
G01 X94.207 A358.247 Z15.883
G01 X94.207 A0.000 
G01 X94.507 A0.000 Z15.761
G01 X94.507 A359.649 
G01 X94.507 A360.000 Z15.750
G01 X94.807 A360.000 Z15.632
G01 X94.807 A357.897 Z15.644
G01 X94.807 A0.000 
G01 X95.107 A0.000 Z15.526
G01 X95.107 A359.649 
G01 X95.107 A360.000 Z15.515
G01 X95.407 A360.000 Z15.397
G01 X95.407 A357.897 Z15.408
G01 X95.407 A0.000 
G01 X95.707 A0.000 Z15.293
G01 X95.707 A359.649 
G01 X95.707 A360.000 Z15.281
G01 X96.007 A360.000 Z15.166
G01 X96.007 A357.546 Z15.178
G01 X96.007 A0.000 
G01 X96.307 A0.000 Z15.077
G01 X96.307 A359.649 
G01 X96.307 A360.000 Z15.065
G01 X96.607 A360.000 Z15.026
G01 X96.607 A356.495 Z15.037
G01 X96.607 A0.000 
G01 X96.907 A0.000 Z15.037
G01 X96.907 A359.649 
G01 X96.907 A360.000 Z15.025
G01 X97.207 A360.000 Z15.024
G01 X97.207 A358.247 Z15.036
G01 X97.207 A0.000 
G01 X97.507 A0.000 Z15.036
G01 X97.507 A359.649 
G01 X97.507 A360.000 Z15.022
G01 X97.807 A360.000 Z15.023
G01 X97.807 A358.247 Z15.035
G01 X97.807 A0.000 
G01 X98.107 A0.000 Z15.034
G01 X98.107 A359.649 
G01 X98.107 A360.000 Z15.023
G01 X98.407 A360.000 Z15.023
G01 X98.407 A356.495 Z15.034
G01 X98.407 A0.000 
G01 X98.707 A0.000 Z15.033
G01 X98.707 A359.649 
G01 X98.707 A360.000 Z15.022
G01 X99.007 A360.000 Z15.021
G01 X99.007 A358.247 Z15.033
G01 X99.007 A0.000 
G01 X99.307 A0.000 Z15.032
G01 X99.307 A359.649 
G01 X99.307 A360.000 Z15.019
G01 X99.607 A360.000 Z15.019
G01 X99.607 A358.247 Z15.032
G01 X99.607 A0.000 
G01 X99.907 A0.000 Z15.031
G01 X99.907 A359.649 
G01 X99.907 A360.000 Z15.020
G01 X100.207 A360.000 Z15.019
G01 X100.207 A356.495 Z15.031
G01 X100.207 A0.000 
G01 X100.507 A0.000 Z15.030
G01 X100.507 A359.649 
G01 X100.507 A360.000 Z15.019
G01 X100.807 A360.000 Z15.017
G01 X100.807 A358.247 Z15.029
G01 X100.807 A0.000 
G01 X101.107 A0.000 Z15.029
G01 X101.107 A359.649 
G01 X101.107 A360.000 Z15.015
G01 X101.407 A360.000 Z15.016
G01 X101.407 A358.247 Z15.028
G01 X101.407 A0.000 
G01 X101.707 A0.000 Z15.028
G01 X101.707 A359.649 
G01 X101.707 A360.000 Z15.016
G01 X102.007 A360.000 Z15.016
G01 X102.007 A356.495 Z15.027
G01 X102.007 A0.000 
G01 X102.307 A0.000 Z15.027
G01 X102.307 A359.649 
G01 X102.307 A360.000 Z15.015
G01 X102.607 A360.000 Z15.014
G01 X102.607 A358.247 Z15.026
G01 X102.607 A0.000 
G01 X102.907 A0.000 Z15.025
G01 X102.907 A359.649 
G01 X102.907 A360.000 Z15.012
G01 X103.207 A360.000 Z15.013
G01 X103.207 A358.247 Z15.025
G01 X103.207 A0.000 
G01 X103.507 A0.000 Z15.024
G01 X103.507 A359.649 
G01 X103.507 A360.000 Z15.013
G01 X103.807 A360.000 Z15.013
G01 X103.807 A356.495 Z15.024
G01 X103.807 A0.000 
G01 X104.107 A0.000 Z15.023
G01 X104.107 A359.649 
G01 X104.107 A360.000 Z15.012
G01 X104.407 A360.000 Z15.010
G01 X104.407 A358.247 Z15.023
G01 X104.407 A0.000 
G01 X104.707 A0.000 Z15.022
G01 X104.707 A359.649 
G01 X104.707 A360.000 Z15.008
G01 X105.007 A360.000 Z15.009
G01 X105.007 A358.247 Z15.021
G01 X105.007 A0.000 
G01 X105.307 A0.000 Z15.021
G01 X105.307 A359.649 
G01 X105.307 A360.000 Z15.010
G01 X105.607 A360.000 Z15.009
G01 X105.607 A356.495 Z15.020
G01 X105.607 A0.000 
G01 X105.907 A0.000 Z15.020
G01 X105.907 A359.649 
G01 X105.907 A360.000 Z15.008
G01 X106.207 A360.000 Z15.007
G01 X106.207 A358.247 Z15.019
G01 X106.207 A0.000 
G01 X106.507 A0.000 Z15.019
G01 X106.507 A359.649 
G01 X106.507 A360.000 Z15.005
G01 X106.807 A360.000 Z15.006
G01 X106.807 A358.247 Z15.018
G01 X106.807 A0.000 
G01 X107.107 A0.000 Z15.018
G01 X107.107 A359.649 
G01 X107.107 A360.000 Z15.006
G01 X107.407 A360.000 Z15.006
G01 X107.407 A356.495 Z15.017
G01 X107.407 A0.000 
G01 X107.707 A0.000 Z15.016
G01 X107.707 A359.649 
G01 X107.707 A360.000 Z15.005
G01 X108.007 A360.000 Z15.004
G01 X108.007 A358.247 Z15.016
G01 X108.007 A0.000 
G01 X108.307 A0.000 Z15.015
G01 X108.307 A359.649 
G01 X108.307 A360.000 Z15.002
G01 X108.607 A360.000 Z15.003
G01 X108.607 A358.247 Z15.015
G01 X108.607 A0.000 
G01 X108.907 A0.000 Z15.014
G01 X108.907 A359.649 
G01 X108.907 A360.000 Z15.003
G01 X109.207 A360.000 Z15.003
G01 X109.207 A356.495 Z15.014
G01 X109.207 A0.000 
G01 X109.507 A0.000 Z15.013
G01 X109.507 A359.649 
G01 X109.507 A360.000 Z15.002
G01 X109.807 A360.000 Z15.000
G01 X109.807 A358.247 Z15.012
G01 X109.807 A0.000 
G01 X110.107 A0.000 Z15.012
G01 X110.107 A359.649 
G01 X110.107 A360.000 Z14.998
G01 X110.407 A360.000 Z14.999
G01 X110.407 A358.247 Z15.011
G01 X110.407 A0.000 
G01 X110.707 A0.000 Z15.011
G01 X110.707 A359.649 
G01 X110.707 A360.000 Z14.999
G01 X111.007 A360.000 Z14.999
G01 X111.007 A356.495 Z15.010
G01 X111.007 A0.000 
G01 X111.307 A0.000 Z15.010
G01 X111.307 A359.649 
G01 X111.307 A360.000 Z14.998
G01 X111.607 A360.000 Z14.997
G01 X111.607 A358.247 Z15.009
G01 X111.607 A0.000 
G01 X111.907 A0.000 Z15.008
G01 X111.907 A359.649 
G01 X111.907 A360.000 Z14.995
G01 X112.207 A360.000 Z14.996
G01 X112.207 A358.247 Z15.008
G01 X112.207 A0.000 
G01 X112.507 A0.000 Z15.007
G01 X112.507 A359.649 
G01 X112.507 A360.000 Z14.996
G01 X112.807 A360.000 Z14.996
G01 X112.807 A356.495 Z15.007
G01 X112.807 A0.000 
G01 X113.107 A0.000 Z15.006
G01 X113.107 A359.649 
G01 X113.107 A360.000 Z14.995
G01 X113.407 A360.000 Z14.993
G01 X113.407 A358.247 Z15.006
G01 X113.407 A0.000 
G01 X113.707 A0.000 Z15.005
G01 X113.707 A359.649 
G01 X113.707 A360.000 Z14.992
G01 X114.007 A360.000 Z14.992
G01 X114.007 A358.247 Z15.005
G01 X114.007 A0.000 
G01 X114.307 A0.000 Z15.004
G01 X114.307 A359.649 
G01 X114.307 A360.000 Z14.993
G01 X114.607 A360.000 Z14.992
G01 X114.607 A356.495 Z15.003
G01 X114.607 A0.000 
G01 X114.907 A0.000 Z15.003
G01 X114.907 A359.649 
G01 X114.907 A360.000 Z14.991
G01 X115.207 A360.000 Z14.990
G01 X115.207 A358.247 Z15.002
G01 X115.207 A0.000 
G01 X115.507 A0.000 Z15.002
G01 X115.507 A359.649 
G01 X115.507 A360.000 Z14.988
G01 X115.807 A360.000 Z14.989
G01 X115.807 A358.247 Z15.001
G01 X115.807 A0.000 
G01 X116.107 A0.000 Z15.001
G01 X116.107 A359.649 
G01 X116.107 A360.000 Z14.989
G01 X116.407 A360.000 Z14.989
G01 X116.407 A356.495 Z15.000
G01 X116.407 A0.000 
G01 X116.707 A0.000 Z14.999
G01 X116.707 A359.649 
G01 X116.707 A360.000 Z14.988
G01 X117.007 A360.000 Z14.986
G01 X117.007 A358.598 Z14.999
G01 X117.007 A0.000 
G01 X117.307 A0.000 Z14.998
G01 X117.307 A359.649 
G01 X117.307 A360.000 Z14.985
G01 X117.607 A360.000 Z14.986
G01 X117.607 A357.897 Z14.998
G01 X117.607 A0.000 
G01 X117.907 A0.000 Z14.997
G01 X117.907 A359.649 
G01 X117.907 A360.000 Z14.986
G01 X118.207 A360.000 Z14.986
G01 X118.207 A356.495 Z14.997
G01 X118.207 A0.000 
G01 X118.507 A0.000 Z14.996
G01 X118.507 A359.649 
G01 X118.507 A360.000 Z14.985
G01 X118.807 A360.000 Z14.983
G01 X118.807 A358.598 Z14.995
G01 X118.807 A0.000 
G01 X119.107 A0.000 Z14.995
G01 X119.107 A359.649 
G01 X119.107 A360.000 Z14.982
G01 X119.407 A360.000 Z14.982
G01 X119.407 A357.897 Z14.994
G01 X119.407 A0.000 
G01 X119.707 A0.000 Z14.994
G01 X119.707 A359.649 
G01 X119.707 A360.000 Z14.983
G01 X120.007 A360.000 Z14.982
G01 X120.007 A356.495 Z14.993
G01 X120.007 A0.000 
G01 X120.307 A0.000 Z14.993
G01 X120.307 A359.649 
G01 X120.307 A360.000 Z14.981
G01 X120.607 A360.000 Z14.979
G01 X120.607 A358.598 Z14.992
G01 X120.607 A0.000 
G01 X120.907 A0.000 Z14.992
G01 X120.907 A359.649 
G01 X120.907 A360.000 Z14.978
G01 X121.207 A360.000 Z14.979
G01 X121.207 A357.897 Z14.991
G01 X121.207 A0.000 
G01 X121.507 A0.000 Z14.990
G01 X121.507 A359.649 
G01 X121.507 A360.000 Z14.979
G01 X121.807 A360.000 Z14.979
G01 X121.807 A356.495 Z14.990
G01 X121.807 A0.000 
G01 X122.107 A0.000 Z14.989
G01 X122.107 A359.649 
G01 X122.107 A360.000 Z14.978
G01 X122.407 A360.000 Z14.976
G01 X122.407 A358.598 Z14.989
G01 X122.407 A0.000 
G01 X122.707 A0.000 Z14.988
G01 X122.707 A359.649 
G01 X122.707 A360.000 Z14.975
G01 X123.007 A360.000 Z14.976
G01 X123.007 A357.897 Z14.988
G01 X123.007 A0.000 
G01 X123.307 A0.000 Z14.987
G01 X123.307 A359.649 
G01 X123.307 A360.000 Z14.976
G01 X123.607 A360.000 Z14.975
G01 X123.607 A356.495 Z14.986
G01 X123.607 A0.000 
G01 X123.907 A0.000 Z14.986
G01 X123.907 A359.649 
G01 X123.907 A360.000 Z14.974
G01 X124.207 A360.000 Z14.973
G01 X124.207 A358.598 Z14.985
G01 X124.207 A0.000 
G01 X124.507 A0.000 Z14.985
G01 X124.507 A359.649 
G01 X124.507 A360.000 Z14.972
G01 X124.807 A360.000 Z14.972
G01 X124.807 A357.897 Z14.984
G01 X124.807 A0.000 
G01 X125.107 A0.000 Z14.984
G01 X125.107 A359.649 
G01 X125.107 A360.000 Z14.972
G01 X125.407 A360.000 Z14.972
G01 X125.407 A356.495 Z14.983
G01 X125.407 A0.000 
G01 X125.707 A0.000 Z14.983
G01 X125.707 A359.649 
G01 X125.707 A360.000 Z14.971
G01 X126.007 A360.000 Z14.969
G01 X126.007 A358.598 Z14.982
G01 X126.007 A0.000 
G01 X126.307 A0.000 Z14.981
G01 X126.307 A359.649 
G01 X126.307 A360.000 Z14.968
G01 X126.607 A360.000 Z14.969
G01 X126.607 A357.897 Z14.981
G01 X126.607 A0.000 
G01 X126.907 A0.000 Z14.980
G01 X126.907 A359.649 
G01 X126.907 A360.000 Z14.969
G01 X127.207 A360.000 Z14.969
G01 X127.207 A356.495 Z14.980
G01 X127.207 A0.000 
G01 X127.507 A0.000 Z14.979
G01 X127.507 A359.649 
G01 X127.507 A360.000 Z14.967
G01 X127.807 A360.000 Z14.966
G01 X127.807 A358.598 Z14.979
G01 X127.807 A0.000 
G01 X128.107 A0.000 Z14.978
G01 X128.107 A359.649 
G01 X128.107 A360.000 Z14.965
G01 X128.407 A360.000 Z14.966
G01 X128.407 A357.897 Z14.977
G01 X128.407 A0.000 
G01 X128.707 A0.000 Z14.977
G01 X128.707 A359.649 
G01 X128.707 A360.000 Z14.966
G01 X129.007 A360.000 Z14.965
G01 X129.007 A356.495 Z14.976
G01 X129.007 A0.000 
G01 X129.307 A0.000 Z14.976
G01 X129.307 A359.649 
G01 X129.307 A360.000 Z14.964
G01 X129.607 A360.000 Z14.962
G01 X129.607 A358.598 Z14.975
G01 X129.607 A0.000 
G01 X129.907 A0.000 Z14.975
G01 X129.907 A359.649 
G01 X129.907 A360.000 Z14.962
G01 X130.207 A360.000 Z14.962
G01 X130.207 A357.897 Z14.974
G01 X130.207 A0.000 
G01 X130.507 A0.000 Z14.973
G01 X130.507 A359.649 
G01 X130.507 A360.000 Z14.962
G01 X130.807 A360.000 Z14.962
G01 X130.807 A356.495 Z14.973
G01 X130.807 A0.000 
G01 X131.107 A0.000 Z14.972
G01 X131.107 A359.649 
G01 X131.107 A360.000 Z14.961
G01 X131.407 A360.000 Z14.959
G01 X131.407 A358.598 Z14.972
G01 X131.407 A0.000 
G01 X131.707 A0.000 Z14.971
G01 X131.707 A359.649 
G01 X131.707 A360.000 Z14.958
G01 X132.007 A360.000 Z14.959
G01 X132.007 A357.897 Z14.971
G01 X132.007 A0.000 
G01 X132.307 A0.000 Z14.970
G01 X132.307 A359.649 
G01 X132.307 A360.000 Z14.959
G01 X132.607 A360.000 Z14.958
G01 X132.607 A356.495 Z14.970
G01 X132.607 A0.000 
G01 X132.907 A0.000 Z14.969
G01 X132.907 A359.649 
G01 X132.907 A360.000 Z14.957
G01 X133.207 A360.000 Z14.955
G01 X133.207 A358.598 Z14.968
G01 X133.207 A0.000 
G01 X133.507 A0.000 Z14.968
G01 X133.507 A359.649 
G01 X133.507 A360.000 Z14.955
G01 X133.807 A360.000 Z14.956
G01 X133.807 A357.897 Z14.967
G01 X133.807 A0.000 
G01 X134.107 A0.000 Z14.967
G01 X134.107 A359.649 
G01 X134.107 A360.000 Z14.956
G01 X134.407 A360.000 Z14.955
G01 X134.407 A356.495 Z14.966
G01 X134.407 A0.000 
G01 X134.707 A0.000 Z14.966
G01 X134.707 A359.649 
G01 X134.707 A360.000 Z14.954
G01 X135.007 A360.000 Z14.952
G01 X135.007 A358.598 Z14.965
G01 X135.007 A0.000 
G01 X135.307 A0.000 Z14.964
G01 X135.307 A359.649 
G01 X135.307 A360.000 Z14.952
G01 X135.607 A360.000 Z14.952
G01 X135.607 A357.546 Z14.964
G01 X135.607 A0.000 
G01 X135.907 A0.000 Z14.963
G01 X135.907 A359.649 
G01 X135.907 A360.000 Z14.952
G01 X136.207 A360.000 Z14.952
G01 X136.207 A356.845 Z14.963
G01 X136.207 A0.000 
G01 X136.507 A0.000 Z14.962
G01 X136.507 A359.649 
G01 X136.507 A360.000 Z14.950
G01 X136.807 A360.000 Z14.949
G01 X136.807 A358.598 Z14.962
G01 X136.807 A0.000 
G01 X137.107 A0.000 Z14.961
G01 X137.107 A359.649 
G01 X137.107 A360.000 Z14.948
G01 X137.407 A360.000 Z14.949
G01 X137.407 A357.546 Z14.960
G01 X137.407 A0.000 
G01 X137.707 A0.000 Z14.960
G01 X137.707 A359.649 
G01 X137.707 A360.000 Z14.949
G01 X138.007 A360.000 Z14.948
G01 X138.007 A356.845 Z14.959
G01 X138.007 A0.000 
G01 X138.307 A0.000 Z14.959
G01 X138.307 A359.649 
G01 X138.307 A360.000 Z14.947
G01 X138.607 A360.000 Z14.945
G01 X138.607 A358.598 Z14.958
G01 X138.607 A0.000 
G01 X138.907 A0.000 Z14.958
G01 X138.907 A359.649 
G01 X138.907 A360.000 Z14.945
G01 X139.207 A360.000 Z14.945
G01 X139.207 A357.546 Z14.957
G01 X139.207 A0.000 
G01 X139.507 A0.000 Z14.957
G01 X139.507 A359.649 
G01 X139.507 A360.000 Z14.945
G01 X139.807 A360.000 Z14.945
G01 X139.807 A356.845 Z14.956
G01 X139.807 A0.000 
G01 X140.107 A0.000 Z14.955
G01 X140.107 A359.649 
G01 X140.107 A360.000 Z14.944
G01 X140.407 A360.000 Z14.942
G01 X140.407 A358.598 Z14.955
G01 X140.407 A0.000 
G01 X140.707 A0.000 Z14.954
G01 X140.707 A359.649 
G01 X140.707 A360.000 Z14.942
G01 X141.007 A360.000 Z14.942
G01 X141.007 A357.546 Z14.954
G01 X141.007 A0.000 
G01 X141.307 A0.000 Z14.953
G01 X141.307 A359.649 
G01 X141.307 A360.000 Z14.942
G01 X141.607 A360.000 Z14.941
G01 X141.607 A356.845 Z14.953
G01 X141.607 A0.000 
G01 X141.907 A0.000 Z14.952
G01 X141.907 A359.649 
G01 X141.907 A360.000 Z14.940
G01 X142.207 A360.000 Z14.938
G01 X142.207 A358.598 Z14.951
G01 X142.207 A0.000 
G01 X142.507 A0.000 Z14.951
G01 X142.507 A359.649 
G01 X142.507 A360.000 Z14.938
G01 X142.807 A360.000 Z14.939
G01 X142.807 A357.546 Z14.950
G01 X142.807 A0.000 
G01 X143.107 A0.000 Z14.950
G01 X143.107 A359.649 
G01 X143.107 A360.000 Z14.939
G01 X143.407 A360.000 Z14.938
G01 X143.407 A356.845 Z14.949
G01 X143.407 A0.000 
G01 X143.707 A0.000 Z14.949
G01 X143.707 A359.649 
G01 X143.707 A360.000 Z14.937
G01 X144.007 A360.000 Z14.935
G01 X144.007 A358.598 Z14.948
G01 X144.007 A0.000 
G01 X144.307 A0.000 Z14.947
G01 X144.307 A359.649 
G01 X144.307 A360.000 Z14.935
G01 X144.607 A360.000 Z14.935
G01 X144.607 A357.546 Z14.947
G01 X144.607 A0.000 
G01 X144.907 A0.000 Z14.946
G01 X144.907 A359.649 
G01 X144.907 A360.000 Z14.935
G01 X145.207 A360.000 Z14.935
G01 X145.207 A356.845 Z14.946
G01 X145.207 A0.000 
G01 X145.507 A0.000 Z14.945
G01 X145.507 A359.649 
G01 X145.507 A360.000 Z14.933
G01 X145.807 A360.000 Z14.931
G01 X145.807 A358.948 Z14.945
G01 X145.807 A0.000 
G01 X146.107 A0.000 Z14.944
G01 X146.107 A359.649 
G01 X146.107 A360.000 Z14.932
G01 X146.407 A360.000 Z14.932
G01 X146.407 A357.546 Z14.944
G01 X146.407 A0.000 
G01 X146.707 A0.000 Z14.943
G01 X146.707 A359.649 
G01 X146.707 A360.000 Z14.932
G01 X147.007 A360.000 Z14.931
G01 X147.007 A356.845 Z14.942
G01 X147.007 A0.000 
G01 X147.307 A0.000 Z14.942
G01 X147.307 A359.649 
G01 X147.307 A360.000 Z14.930
G01 X147.607 A360.000 Z14.928
G01 X147.607 A358.948 Z14.941
G01 X147.607 A0.000 
G01 X147.907 A0.000 Z14.941
G01 X147.907 A359.649 
G01 X147.907 A360.000 Z14.928
G01 X148.207 A360.000 Z14.929
G01 X148.207 A357.546 Z14.940
G01 X148.207 A0.000 
G01 X148.507 A0.000 Z14.940
G01 X148.507 A359.649 
G01 X148.507 A360.000 Z14.929
G01 X148.807 A360.000 Z14.928
G01 X148.807 A356.845 Z14.939
G01 X148.807 A0.000 
G01 X149.107 A0.000 Z14.938
G01 X149.107 A359.649 
G01 X149.107 A360.000 Z14.926
G01 X149.407 A360.000 Z14.955
G01 X149.407 A357.546 Z14.967
G01 X149.407 A0.000 
G01 X149.707 A0.000 Z15.057
G01 X149.707 A359.649 
G01 X149.707 A360.000 Z15.046
G01 X150.007 A360.000 Z15.143
G01 X150.007 A357.546 Z15.155
G01 X150.007 A0.000 
G01 X150.307 A0.000 Z15.248
G01 X150.307 A359.649 
G01 X150.307 A360.000 Z15.237
G01 X150.607 A360.000 Z15.328
G01 X150.607 A357.897 Z15.340
G01 X150.607 A0.000 
G01 X150.907 A0.000 Z15.433
G01 X150.907 A359.649 
G01 X150.907 A360.000 Z15.421
G01 X151.207 A360.000 Z15.515
G01 X151.207 A357.546 Z15.526
G01 X151.207 A0.000 
G01 X151.507 A0.000 Z15.623
G01 X151.507 A359.649 
G01 X151.507 A360.000 Z15.611
G01 X151.807 A360.000 Z15.710
G01 X151.807 A357.897 Z15.722
G01 X151.807 A0.000 
G01 X152.107 A0.000 Z15.827
G01 X152.107 A359.649 
G01 X152.107 A360.000 Z15.815
G01 X152.407 A360.000 Z15.921
G01 X152.407 A357.546 Z15.933
G01 X152.407 A0.000 
G01 X152.707 A0.000 Z16.042
G01 X152.707 A359.649 
G01 X152.707 A360.000 Z16.030
G01 X153.007 A360.000 Z16.147
G01 X153.007 A357.897 Z16.159
G01 X153.007 A0.000 
G01 X153.307 A0.000 Z16.277
G01 X153.307 A359.649 
G01 X153.307 A360.000 Z16.265
G01 X153.607 A360.000 Z16.386
G01 X153.607 A357.897 Z16.397
G01 X153.607 A0.000 
G01 X153.907 A0.000 Z16.520
G01 X153.907 A359.649 
G01 X153.907 A360.000 Z16.508
G01 X154.207 A360.000 Z16.638
G01 X154.207 A358.247 Z16.650
G01 X154.207 A0.000 
G01 X154.507 A0.000 Z16.781
G01 X154.507 A359.649 
G01 X154.507 A360.000 Z16.769
G01 X154.807 A360.000 Z16.904
G01 X154.807 A357.897 Z16.915
G01 X154.807 A0.000 
G01 X155.107 A0.000 Z17.057
G01 X155.107 A359.649 
G01 X155.107 A360.000 Z17.045
G01 X155.407 A360.000 Z17.189
G01 X155.407 A358.247 Z17.201
G01 X155.407 A0.000 
G01 X155.707 A0.000 Z17.350
G01 X155.707 A359.649 
G01 X155.707 A360.000 Z17.337
G01 X156.007 A360.000 Z17.487
G01 X156.007 A358.247 Z17.499
G01 X156.007 A0.000 
G01 X156.307 A0.000 Z17.656
G01 X156.307 A359.649 
G01 X156.307 A360.000 Z17.644
G01 X156.607 A360.000 Z17.802
G01 X156.607 A358.247 Z17.815
G01 X156.607 A0.000 
G01 X156.907 A0.000 Z17.977
G01 X156.907 A359.649 
G01 X156.907 A360.000 Z17.965
G01 X157.207 A360.000 Z18.133
G01 X157.207 A358.598 Z18.146
G01 X157.207 A0.000 
G01 X157.507 A0.000 Z18.321
G01 X157.507 A359.649 
G01 X157.507 A360.000 Z18.309
G01 X157.807 A360.000 Z18.487
G01 X157.807 A358.598 Z18.500
G01 X157.807 A0.000 
G01 X158.107 A0.000 Z18.680
G01 X158.107 A359.649 
G01 X158.107 A360.000 Z18.667
G01 X158.407 A360.000 Z18.859
G01 X158.407 A358.598 Z18.872
G01 X158.407 A0.000 
G01 X158.707 A0.000 Z19.067
G01 X158.707 A359.649 
G01 X158.707 A360.000 Z19.054
G01 X159.007 A360.000 Z19.252
G01 X159.007 A358.598 Z19.265
G01 X159.007 A0.000 
G01 X159.307 A0.000 Z19.471
G01 X159.307 A359.649 
G01 X159.307 A360.000 Z19.457
G01 X159.607 A360.000 Z19.667
G01 X159.607 A358.948 Z19.681
G01 X159.607 A0.000 
G01 X159.907 A0.000 Z19.896
G01 X159.907 A359.649 
G01 X159.907 A360.000 Z19.882
G01 X160.207 A360.000 Z20.102
G01 X160.207 A358.948 Z20.117
G01 X160.207 A0.000 
G01 X160.507 A0.000 Z20.351
G01 X160.507 A359.649 
G01 X160.507 A360.000 Z20.337
G01 X160.807 A360.000 Z20.573
G01 X160.807 A358.948 Z20.587
G01 X160.807 A0.000 
G01 X161.107 A0.000 Z20.825
G01 X161.107 A359.649 
G01 X161.107 A360.000 Z20.811
G01 X161.407 A360.000 Z21.064
G01 X161.407 A358.948 Z21.078
G01 X161.407 A0.000 
G01 X161.707 A0.000 Z21.337
G01 X161.707 A359.649 
G01 X161.707 A360.000 Z21.322
G01 X162.007 A360.000 Z21.585
G01 X162.007 A358.948 Z21.600
G01 X162.007 A0.000 
G01 X162.307 A0.000 Z21.870
G01 X162.307 A359.649 
G01 X162.307 A360.000 Z21.854
G01 X162.607 A360.000 Z22.141
G01 X162.607 A359.299 Z22.157
G01 X162.607 A0.000 
G01 X162.907 A0.000 Z22.447
G01 X162.907 A359.649 
G01 X162.907 A360.000 Z22.432
G01 X163.207 A360.000 Z22.728
G01 X163.207 A359.299 Z22.744
G01 X163.207 A0.000 
G01 X163.507 A0.000 Z23.060
G01 X163.507 A359.649 
G01 X163.507 A360.000 Z23.044
G01 X163.807 A360.000 Z23.364
G01 X163.807 A359.299 Z23.380
G01 X163.807 A0.000 
G01 X164.107 A0.000 Z23.705
G01 X164.107 A359.649 
G01 X164.107 A360.000 Z23.689
G01 X164.407 A360.000 Z24.040
G01 X164.407 A359.299 Z24.058
G01 X164.407 A0.000 
G01 X164.707 A0.000 Z24.416
G01 X164.707 A359.649 
G01 X164.707 A360.000 Z24.399
G01 X165.007 A360.000 Z24.768
G01 X165.007 A359.299 Z24.784
G01 X165.007 A0.000 
G01 X165.307 A0.000 Z25.162
G01 X165.307 A359.649 
G01 X165.307 A360.000 Z25.142
G01 X165.607 A360.000 Z25.540
G01 X165.607 A359.299 Z25.559
G01 X165.607 A0.000 
G01 X165.907 A0.000 Z25.956
G01 X165.907 A359.649 
G01 X165.907 A360.000 Z25.938
G01 X166.207 A360.000 Z26.338
G01 X166.207 A359.299 Z26.356
G01 X166.207 A0.000 
G01 X166.507 A0.000 Z26.760
G01 X166.507 A359.649 
G01 X166.507 A360.000 Z26.743
G01 X166.807 A360.000 Z27.173
G01 X166.807 A359.649 Z27.194
G01 X166.807 A0.000 
G01 X167.107 A0.000 Z27.623
G01 X167.107 A359.649 
G01 X167.107 A360.000 Z27.604
G01 X167.407 A360.000 Z28.032
G01 X167.407 A359.299 Z28.051
G01 X167.407 A0.000 
G01 X167.707 A0.000 Z28.488
G01 X167.707 A359.649 
G01 X167.707 A360.000 Z28.470
G01 X168.007 A360.000 Z28.898
G01 X168.007 A359.299 Z28.916
G01 X168.007 A0.000 
G01 X168.307 A0.000 Z29.336
G01 X168.307 A359.649 
G01 X168.307 A360.000 Z29.318
G01 X168.607 A360.000 Z29.725
G01 X168.607 A359.649 Z29.745
G01 X168.607 A0.000 
G01 X168.907 A0.000 Z30.132
G01 X168.907 A359.649 
G01 X168.907 A360.000 Z30.116
G01 X169.207 A360.000 Z30.489
G01 X169.207 A359.299 Z30.508
G01 X169.207 A0.000 
G01 X169.507 A0.000 Z30.877
G01 X169.507 A359.649 
G01 X169.507 A360.000 Z30.859
G01 X169.807 A360.000 Z31.205
G01 X169.807 A359.299 Z31.223
G01 X169.807 A0.000 
G01 X170.107 A0.000 Z31.560
G01 X170.107 A359.649 
G01 X170.107 A360.000 Z31.542
G01 X170.407 A360.000 Z31.865
G01 X170.407 A359.299 Z31.882
G01 X170.407 A0.000 
G01 X170.707 A0.000 Z32.196
G01 X170.707 A359.649 
G01 X170.707 A360.000 Z32.180
G01 X171.007 A360.000 Z32.488
G01 X171.007 A359.299 Z32.504
G01 X171.007 A0.000 
G01 X171.307 A0.000 Z32.795
G01 X171.307 A359.649 
G01 X171.307 A360.000 Z32.779
G01 X171.607 A360.000 Z33.065
G01 X171.607 A359.299 Z33.080
G01 X171.607 A0.000 
G01 X171.907 A0.000 Z33.357
G01 X171.907 A359.649 
G01 X171.907 A360.000 Z33.342
G01 X172.207 A360.000 Z33.609
G01 X172.207 A358.948 Z33.623
G01 X172.207 A0.000 
G01 X172.507 A0.000 Z33.884
G01 X172.507 A359.649 
G01 X172.507 A360.000 Z33.869
G01 X172.807 A360.000 Z34.119
G01 X172.807 A358.948 Z34.133
G01 X172.807 A0.000 
G01 X173.107 A0.000 Z34.374
G01 X173.107 A359.649 
G01 X173.107 A360.000 Z34.360
G01 X173.407 A360.000 Z34.595
G01 X173.407 A358.948 Z34.609
G01 X173.407 A0.000 
G01 X173.707 A0.000 Z34.835
G01 X173.707 A359.649 
G01 X173.707 A360.000 Z34.821
G01 X174.007 A360.000 Z35.042
G01 X174.007 A358.948 Z35.055
G01 X174.007 A0.000 
G01 X174.307 A0.000 Z35.271
G01 X174.307 A359.649 
G01 X174.307 A360.000 Z35.257
G01 X174.607 A360.000 Z35.459
G01 X174.607 A358.598 Z35.472
G01 X174.607 A0.000 
G01 X174.907 A0.000 Z35.670
G01 X174.907 A359.649 
G01 X174.907 A360.000 Z35.657
G01 X175.207 A360.000 Z35.852
G01 X175.207 A358.598 Z35.865
G01 X175.207 A0.000 
G01 X175.507 A0.000 Z36.050
G01 X175.507 A359.649 
G01 X175.507 A360.000 Z36.038
G01 X175.807 A360.000 Z36.219
G01 X175.807 A358.598 Z36.231
G01 X175.807 A0.000 
G01 X176.107 A0.000 Z36.407
G01 X176.107 A359.649 
G01 X176.107 A360.000 Z36.394
G01 X176.407 A360.000 Z36.561
G01 X176.407 A358.247 Z36.573
G01 X176.407 A0.000 
G01 X176.707 A0.000 Z36.736
G01 X176.707 A359.649 
G01 X176.707 A360.000 Z36.723
G01 X177.007 A360.000 Z36.882
G01 X177.007 A358.247 Z36.895
G01 X177.007 A0.000 
G01 X177.307 A0.000 Z37.047
G01 X177.307 A359.649 
G01 X177.307 A360.000 Z37.035
G01 X177.607 A360.000 Z37.183
G01 X177.607 A358.247 Z37.195
G01 X177.607 A0.000 
G01 X177.907 A0.000 Z37.336
G01 X177.907 A359.649 
G01 X177.907 A360.000 Z37.324
G01 X178.207 A360.000 Z37.460
G01 X178.207 A357.897 Z37.472
G01 X178.207 A0.000 
G01 X178.507 A0.000 Z37.604
G01 X178.507 A359.649 
G01 X178.507 A360.000 Z37.593
G01 X178.807 A360.000 Z37.719
G01 X178.807 A357.897 Z37.731
G01 X178.807 A0.000 
G01 X179.107 A0.000 Z37.859
G01 X179.107 A359.649 
G01 X179.107 A360.000 Z37.847
G01 X179.407 A360.000 Z37.969
G01 X179.407 A358.247 Z37.981
G01 X179.407 A0.000 
G01 X179.707 A0.000 Z38.100
G01 X179.707 A359.649 
G01 X179.707 A360.000 Z38.088
G01 X180.007 A360.000 Z38.204
G01 X180.007 A357.897 Z38.216
G01 X180.007 A0.000 
G01 X180.307 A0.000 Z38.329
G01 X180.307 A359.649 
G01 X180.307 A360.000 Z38.318
G01 X180.607 A360.000 Z38.429
G01 X180.607 A357.897 Z38.440
G01 X180.607 A0.000 
G01 X180.907 A0.000 Z38.548
G01 X180.907 A359.649 
G01 X180.907 A360.000 Z38.537
G01 X181.207 A360.000 Z38.641
G01 X181.207 A357.546 Z38.653
G01 X181.207 A0.000 
G01 X181.507 A0.000 Z38.754
G01 X181.507 A359.649 
G01 X181.507 A360.000 Z38.742
G01 X181.807 A360.000 Z38.839
G01 X181.807 A357.546 Z38.851
G01 X181.807 A0.000 
G01 X182.107 A0.000 Z38.946
G01 X182.107 A359.649 
G01 X182.107 A360.000 Z38.934
G01 X182.407 A360.000 Z39.025
G01 X182.407 A357.196 Z39.037
G01 X182.407 A0.000 
G01 X182.707 A0.000 Z39.126
G01 X182.707 A359.649 
G01 X182.707 A360.000 Z39.115
G01 X183.007 A360.000 Z39.202
G01 X183.007 A357.196 Z39.214
G01 X183.007 A0.000 
G01 X183.307 A0.000 Z39.296
G01 X183.307 A359.649 
G01 X183.307 A360.000 Z39.285
G01 X183.607 A360.000 Z39.364
G01 X183.607 A357.196 Z39.375
G01 X183.607 A0.000 
G01 X183.907 A0.000 Z39.450
G01 X183.907 A359.649 
G01 X183.907 A360.000 Z39.439
G01 X184.207 A360.000 Z39.509
G01 X184.207 A357.196 Z39.521
G01 X184.207 A0.000 
G01 X184.507 A0.000 Z39.586
G01 X184.507 A359.649 
G01 X184.507 A360.000 Z39.575
G01 X184.807 A360.000 Z39.634
G01 X184.807 A356.845 Z39.645
G01 X184.807 A0.000 
G01 X185.107 A0.000 Z39.700
G01 X185.107 A359.649 
G01 X185.107 A360.000 Z39.689
G01 X185.407 A360.000 Z39.738
G01 X185.407 A356.495 Z39.749
G01 X185.407 A0.000 
G01 X185.707 A0.000 Z39.794
G01 X185.707 A359.649 
G01 X185.707 A360.000 Z39.783
G01 X186.007 A360.000 Z39.825
G01 X186.007 A356.495 Z39.836
G01 X186.007 A0.000 
G01 X186.307 A0.000 Z39.871
G01 X186.307 A359.649 
G01 X186.307 A360.000 Z39.860
G01 X186.607 A360.000 Z39.881
G01 X186.607 A356.495 Z39.892
G01 X186.607 A0.000 
G01 X186.907 A0.000 Z39.897
G01 X186.907 A359.649 
G01 X186.907 A360.000 Z39.884
G01 X187.207 A360.000 Z39.885
G01 X187.207 A358.598 Z39.897
G01 X187.207 A0.000 
G01 X187.507 A0.000 
G01 X187.507 A359.649 
G01 X187.507 A360.000 Z39.886
G01 X187.807 A360.000 Z39.886
G01 X187.807 A356.495 Z39.897
G01 X187.807 A0.000 
G01 X188.107 A0.000 
G01 X188.107 A359.649 
G01 X188.107 A360.000 Z39.886
G01 X188.407 A360.000 Z39.886
G01 X188.407 A357.897 Z39.897
G01 X188.407 A0.000 
G01 X188.707 A0.000 
G01 X188.707 A359.649 
G01 X188.707 A360.000 Z39.884
G01 X189.007 A360.000 Z39.885
G01 X189.007 A358.598 Z39.897
G01 X189.007 A0.000 
G01 X189.307 A0.000 
G01 X189.307 A359.649 
G01 X189.307 A360.000 Z39.886
G01 X189.607 A360.000 Z39.886
G01 X189.607 A356.495 Z39.897
G01 X189.607 A0.000 
G01 X189.907 A0.000 
G01 X189.907 A359.649 
G01 X189.907 A360.000 Z39.886
G01 X190.207 A360.000 Z39.886
G01 X190.207 A357.897 Z39.897
G01 X190.207 A0.000 
G01 X190.507 A0.000 
G01 X190.507 A359.649 
G01 X190.507 A360.000 Z39.884
G01 X190.807 A360.000 Z39.885
G01 X190.807 A358.598 Z39.897
G01 X190.807 A0.000 
G01 X191.107 A0.000 
G01 X191.107 A359.649 
G01 X191.107 A360.000 Z39.886
G01 X191.407 A360.000 Z39.886
G01 X191.407 A356.495 Z39.897
G01 X191.407 A0.000 
G01 X191.707 A0.000 
G01 X191.707 A359.649 
G01 X191.707 A360.000 Z39.886
G01 X192.007 A360.000 Z39.885
G01 X192.007 A357.897 Z39.897
G01 X192.007 A0.000 
G01 X192.307 A0.000 
G01 X192.307 A359.649 
G01 X192.307 A360.000 Z39.884
G01 X192.607 A360.000 Z39.885
G01 X192.607 A358.598 Z39.897
G01 X192.607 A0.000 
G01 X192.907 A0.000 
G01 X192.907 A359.649 
G01 X192.907 A360.000 Z39.886
G01 X193.207 A360.000 Z39.886
G01 X193.207 A356.495 Z39.897
G01 X193.207 A0.000 
G01 X193.507 A0.000 
G01 X193.507 A359.649 
G01 X193.507 A360.000 Z39.886
G01 X193.807 A360.000 Z39.885
G01 X193.807 A357.897 Z39.897
G01 X193.807 A0.000 
G01 X194.107 A0.000 
G01 X194.107 A359.649 
G01 X194.107 A360.000 Z39.884
G01 X194.407 A360.000 Z39.885
G01 X194.407 A358.598 Z39.897
G01 X194.407 A0.000 
G01 X194.707 A0.000 
G01 X194.707 A359.649 
G01 X194.707 A360.000 Z39.886
G01 X195.007 A360.000 Z39.886
G01 X195.007 A356.495 Z39.897
G01 X195.007 A0.000 
G01 X195.307 A0.000 
G01 X195.307 A359.649 
G01 X195.307 A360.000 Z39.886
G01 X195.607 A360.000 Z39.885
G01 X195.607 A358.247 Z39.897
G01 X195.607 A0.000 
G01 X195.907 A0.000 
G01 X195.907 A359.649 
G01 X195.907 A360.000 Z39.884
G01 X196.207 A360.000 Z39.885
G01 X196.207 A358.247 Z39.897
G01 X196.207 A0.000 
G01 X196.507 A0.000 
G01 X196.507 A359.649 
G01 X196.507 A360.000 Z39.886
G01 X196.807 A360.000 Z39.886
G01 X196.807 A356.495 Z39.897
G01 X196.807 A0.000 
G01 X197.107 A0.000 
G01 X197.107 A359.649 
G01 X197.107 A360.000 Z39.886
G01 X197.407 A360.000 Z39.885
G01 X197.407 A358.247 Z39.897
G01 X197.407 A0.000 
G01 X197.707 A0.000 
G01 X197.707 A359.649 
G01 X197.707 A360.000 Z39.884
G01 X198.007 A360.000 Z39.885
G01 X198.007 A358.247 Z39.897
G01 X198.007 A0.000 
G01 X198.307 A0.000 
G01 X198.307 A359.649 
G01 X198.307 A360.000 Z39.886
G01 X198.607 A360.000 Z39.886
G01 X198.607 A356.495 Z39.897
G01 X198.607 A0.000 
G01 X198.907 A0.000 
G01 X198.907 A359.649 
G01 X198.907 A360.000 Z39.886
G01 X199.207 A360.000 Z39.885
G01 X199.207 A358.247 Z39.897
G01 X199.207 A0.000 
G01 X199.507 A0.000 
G01 X199.507 A359.649 
G01 X199.507 A360.000 Z39.884
G01 X199.807 A360.000 Z39.885
G01 X199.807 A358.247 Z39.897
G01 X199.807 A0.000 
G01 X200.107 A0.000 
G01 X200.107 A359.649 
G01 X200.107 A360.000 Z39.886
G01 X200.407 A360.000 Z39.886
G01 X200.407 A356.495 Z39.897
G01 X200.407 A0.000 
G01 X200.707 A0.000 
G01 X200.707 A359.649 
G01 X200.707 A360.000 Z39.886
G01 X201.007 A360.000 Z39.885
G01 X201.007 A358.247 Z39.897
G01 X201.007 A0.000 
G01 X201.307 A0.000 
G01 X201.307 A359.649 
G01 X201.307 A360.000 Z39.884
G01 X201.607 A360.000 Z39.885
G01 X201.607 A358.247 Z39.897
G01 X201.607 A0.000 
G01 X201.907 A0.000 
G01 X201.907 A359.649 
G01 X201.907 A360.000 Z39.886
G01 X202.207 A360.000 Z39.886
G01 X202.207 A356.495 Z39.897
G01 X202.207 A0.000 
G01 X202.507 A0.000 
G01 X202.507 A359.649 
G01 X202.507 A360.000 Z39.886
G01 X202.807 A360.000 Z39.885
G01 X202.807 A358.247 Z39.897
G01 X202.807 A0.000 
G01 X203.107 A0.000 
G01 X203.107 A359.649 
G01 X203.107 A360.000 Z39.884
G01 X203.407 A360.000 Z39.885
G01 X203.407 A358.247 Z39.897
G01 X203.407 A0.000 
G01 X203.707 A0.000 
G01 X203.707 A359.649 
G01 X203.707 A360.000 Z39.886
G01 X204.007 A360.000 Z39.886
G01 X204.007 A356.495 Z39.897
G01 X204.007 A0.000 
G01 X204.307 A0.000 
G01 X204.307 A359.649 
G01 X204.307 A360.000 Z39.886
G01 X204.607 A360.000 Z39.885
G01 X204.607 A358.247 Z39.897
G01 X204.607 A0.000 
G01 X204.907 A0.000 
G01 X204.907 A359.649 
G01 X204.907 A360.000 Z39.884
G01 X205.207 A360.000 Z39.885
G01 X205.207 A358.247 Z39.897
G01 X205.207 A0.000 
G01 X205.507 A0.000 
G01 X205.507 A359.649 
G01 X205.507 A360.000 Z39.886
G01 X205.807 A360.000 Z39.886
G01 X205.807 A356.495 Z39.897
G01 X205.807 A0.000 
G01 X206.107 A0.000 
G01 X206.107 A359.649 
G01 X206.107 A360.000 Z39.886
G01 X206.407 A360.000 Z39.885
G01 X206.407 A358.247 Z39.897
G01 X206.407 A0.000 
G01 X206.707 A0.000 
G01 X206.707 A359.649 
G01 X206.707 A360.000 Z39.884
G01 X207.007 A360.000 Z39.885
G01 X207.007 A358.247 Z39.897
G01 X207.007 A0.000 
G01 X207.307 A0.000 
G01 X207.307 A359.649 
G01 X207.307 A360.000 Z39.886
G01 X207.607 A360.000 Z39.886
G01 X207.607 A356.495 Z39.897
G01 X207.607 A0.000 
G01 X207.907 A0.000 
G01 X207.907 A359.649 
G01 X207.907 A360.000 Z39.886
G01 X208.207 A360.000 Z39.885
G01 X208.207 A358.247 Z39.897
G01 X208.207 A0.000 
G01 X208.507 A0.000 
G01 X208.507 A359.649 
G01 X208.507 A360.000 Z39.884
G01 X208.807 A360.000 Z39.885
G01 X208.807 A358.247 Z39.897
G01 X208.807 A0.000 
G01 X209.107 A0.000 
G01 X209.107 A359.649 
G01 X209.107 A360.000 Z39.886
G01 X209.407 A360.000 Z39.886
G01 X209.407 A356.495 Z39.897
G01 X209.407 A0.000 
G01 X209.707 A0.000 
G01 X209.707 A359.649 
G01 X209.707 A360.000 Z39.886
G01 X210.007 A360.000 Z39.885
G01 X210.007 A358.247 Z39.897
G01 X210.007 A0.000 
G01 X210.307 A0.000 
G01 X210.307 A359.649 
G01 X210.307 A360.000 Z39.884
G01 X210.607 A360.000 Z39.885
G01 X210.607 A358.247 Z39.897
G01 X210.607 A0.000 
G01 X210.907 A0.000 
G01 X210.907 A359.649 
G01 X210.907 A360.000 Z39.886
G01 X211.207 A360.000 Z39.886
G01 X211.207 A356.495 Z39.897
G01 X211.207 A0.000 
G01 X211.507 A0.000 
G01 X211.507 A359.649 
G01 X211.507 A360.000 Z39.886
G01 X211.807 A360.000 Z39.885
G01 X211.807 A358.247 Z39.897
G01 X211.807 A0.000 
G01 X212.107 A0.000 
G01 X212.107 A359.649 
G01 X212.107 A360.000 Z39.884
G01 X212.407 A360.000 Z39.885
G01 X212.407 A358.247 Z39.897
G01 X212.407 A0.000 
G01 X212.707 A0.000 
G01 X212.707 A359.649 
G01 X212.707 A360.000 Z39.886
G01 X213.007 A360.000 Z39.886
G01 X213.007 A356.495 Z39.897
G01 X213.007 A0.000 
G01 X213.307 A0.000 
G01 X213.307 A359.649 
G01 X213.307 A360.000 Z39.886
G01 X213.607 A360.000 Z39.885
G01 X213.607 A358.247 Z39.897
G01 X213.607 A0.000 
G01 X213.907 A0.000 
G01 X213.907 A359.649 
G01 X213.907 A360.000 Z39.884
G01 X214.207 A360.000 Z39.885
G01 X214.207 A358.247 Z39.897
G01 X214.207 A0.000 
G01 X214.507 A0.000 
G01 X214.507 A359.649 
G01 X214.507 A360.000 Z39.886
G01 X214.807 A360.000 Z39.886
G01 X214.807 A356.495 Z39.897
G01 X214.807 A0.000 
G01 X215.107 A0.000 
G01 X215.107 A359.649 
G01 X215.107 A360.000 Z39.886
G01 X215.407 A360.000 Z39.885
G01 X215.407 A358.247 Z39.897
G01 X215.407 A0.000 
G01 X215.707 A0.000 
G01 X215.707 A359.649 
G01 X215.707 A360.000 Z39.884
G01 X216.007 A360.000 Z39.885
G01 X216.007 A358.247 Z39.897
G01 X216.007 A0.000 
G01 X216.307 A0.000 
G01 X216.307 A359.649 
G01 X216.307 A360.000 Z39.886
G01 X216.607 A360.000 Z39.886
G01 X216.607 A356.495 Z39.897
G01 X216.607 A0.000 
G01 X216.907 A0.000 
G01 X216.907 A359.649 
G01 X216.907 A360.000 Z39.886
G01 X217.207 A360.000 Z39.885
G01 X217.207 A358.598 Z39.897
G01 X217.207 A0.000 
G01 X217.507 A0.000 
G01 X217.507 A359.649 
G01 X217.507 A360.000 Z39.884
G01 X217.807 A360.000 Z39.881
G01 X217.807 A358.247 Z39.893
G01 X217.807 A0.000 
G01 X218.107 A0.000 Z39.883
G01 X218.107 A359.649 
G01 X218.107 A360.000 Z39.872
G01 X218.407 A360.000 Z39.834
G01 X218.407 A356.845 Z39.846
G01 X218.407 A0.000 
G01 X218.707 A0.000 Z39.799
G01 X218.707 A359.649 
G01 X218.707 A360.000 Z39.788
G01 X219.007 A360.000 Z39.728
G01 X219.007 A357.196 Z39.739
G01 X219.007 A0.000 
G01 X219.307 A0.000 Z39.677
G01 X219.307 A359.649 
G01 X219.307 A360.000 Z39.666
G01 X219.607 A360.000 Z39.601
G01 X219.607 A357.196 Z39.613
G01 X219.607 A0.000 
G01 X219.907 A0.000 Z39.547
G01 X219.907 A359.649 
G01 X219.907 A360.000 Z39.535
G01 X220.207 A360.000 Z39.468
G01 X220.207 A357.196 Z39.479
G01 X220.207 A0.000 
G01 X220.507 A0.000 Z39.411
G01 X220.507 A359.649 
G01 X220.507 A360.000 Z39.399
G01 X220.807 A360.000 Z39.328
G01 X220.807 A357.196 Z39.339
G01 X220.807 A0.000 
G01 X221.107 A0.000 Z39.266
G01 X221.107 A359.649 
G01 X221.107 A360.000 Z39.255
G01 X221.407 A360.000 Z39.178
G01 X221.407 A357.196 Z39.189
G01 X221.407 A0.000 
G01 X221.707 A0.000 Z39.110
G01 X221.707 A359.649 
G01 X221.707 A360.000 Z39.098
G01 X222.007 A360.000 Z39.017
G01 X222.007 A357.196 Z39.029
G01 X222.007 A0.000 
G01 X222.307 A0.000 Z38.944
G01 X222.307 A359.649 
G01 X222.307 A360.000 Z38.933
G01 X222.607 A360.000 Z38.846
G01 X222.607 A357.546 Z38.857
G01 X222.607 A0.000 
G01 X222.907 A0.000 Z38.766
G01 X222.907 A359.649 
G01 X222.907 A360.000 Z38.755
G01 X223.207 A360.000 Z38.661
G01 X223.207 A357.546 Z38.672
G01 X223.207 A0.000 
G01 X223.507 A0.000 Z38.577
G01 X223.507 A359.649 
G01 X223.507 A360.000 Z38.565
G01 X223.807 A360.000 Z38.465
G01 X223.807 A357.897 Z38.477
G01 X223.807 A0.000 
G01 X224.107 A0.000 Z38.374
G01 X224.107 A359.649 
G01 X224.107 A360.000 Z38.362
G01 X224.407 A360.000 Z38.257
G01 X224.407 A357.897 Z38.269
G01 X224.407 A0.000 
G01 X224.707 A0.000 Z38.160
G01 X224.707 A359.649 
G01 X224.707 A360.000 Z38.149
G01 X225.007 A360.000 Z38.036
G01 X225.007 A357.546 Z38.048
G01 X225.007 A0.000 
G01 X225.307 A0.000 Z37.932
G01 X225.307 A359.649 
G01 X225.307 A360.000 Z37.920
G01 X225.607 A360.000 Z37.798
G01 X225.607 A357.897 Z37.810
G01 X225.607 A0.000 
G01 X225.907 A0.000 Z37.684
G01 X225.907 A359.649 
G01 X225.907 A360.000 Z37.672
G01 X226.207 A360.000 Z37.544
G01 X226.207 A357.897 Z37.556
G01 X226.207 A0.000 
G01 X226.507 A0.000 Z37.419
G01 X226.507 A359.649 
G01 X226.507 A360.000 Z37.407
G01 X226.807 A360.000 Z37.268
G01 X226.807 A358.247 Z37.280
G01 X226.807 A0.000 
G01 X227.107 A0.000 Z37.137
G01 X227.107 A359.649 
G01 X227.107 A360.000 Z37.125
G01 X227.407 A360.000 Z36.975
G01 X227.407 A358.247 Z36.987
G01 X227.407 A0.000 
G01 X227.707 A0.000 Z36.833
G01 X227.707 A359.649 
G01 X227.707 A360.000 Z36.821
G01 X228.007 A360.000 Z36.661
G01 X228.007 A358.247 Z36.673
G01 X228.007 A0.000 
G01 X228.307 A0.000 Z36.509
G01 X228.307 A359.649 
G01 X228.307 A360.000 Z36.496
G01 X228.607 A360.000 Z36.327
G01 X228.607 A358.598 Z36.340
G01 X228.607 A0.000 
G01 X228.907 A0.000 Z36.161
G01 X228.907 A359.649 
G01 X228.907 A360.000 Z36.148
G01 X229.207 A360.000 Z35.966
G01 X229.207 A358.598 Z35.979
G01 X229.207 A0.000 
G01 X229.507 A0.000 Z35.795
G01 X229.507 A359.649 
G01 X229.507 A360.000 Z35.782
G01 X229.807 A360.000 Z35.590
G01 X229.807 A358.598 Z35.603
G01 X229.807 A0.000 
G01 X230.107 A0.000 Z35.406
G01 X230.107 A359.649 
G01 X230.107 A360.000 Z35.392
G01 X230.407 A360.000 Z35.188
G01 X230.407 A358.948 Z35.202
G01 X230.407 A0.000 
G01 X230.707 A0.000 Z34.989
G01 X230.707 A359.649 
G01 X230.707 A360.000 Z34.976
G01 X231.007 A360.000 Z34.758
G01 X231.007 A358.948 Z34.772
G01 X231.007 A0.000 
G01 X231.307 A0.000 Z34.549
G01 X231.307 A359.649 
G01 X231.307 A360.000 Z34.535
G01 X231.607 A360.000 Z34.299
G01 X231.607 A358.948 Z34.313
G01 X231.607 A0.000 
G01 X231.907 A0.000 Z34.072
G01 X231.907 A359.649 
G01 X231.907 A360.000 Z34.058
G01 X232.207 A360.000 Z33.813
G01 X232.207 A358.948 Z33.827
G01 X232.207 A0.000 
G01 X232.507 A0.000 Z33.572
G01 X232.507 A359.649 
G01 X232.507 A360.000 Z33.557
G01 X232.807 A360.000 Z33.295
G01 X232.807 A359.299 Z33.310
G01 X232.807 A0.000 
G01 X233.107 A0.000 Z33.039
G01 X233.107 A359.649 
G01 X233.107 A360.000 Z33.024
G01 X233.407 A360.000 Z32.744
G01 X233.407 A359.299 Z32.760
G01 X233.407 A0.000 
G01 X233.707 A0.000 Z32.474
G01 X233.707 A359.649 
G01 X233.707 A360.000 Z32.458
G01 X234.007 A360.000 Z32.154
G01 X234.007 A359.299 Z32.170
G01 X234.007 A0.000 
G01 X234.307 A0.000 Z31.864
G01 X234.307 A359.649 
G01 X234.307 A360.000 Z31.849
G01 X234.607 A360.000 Z31.525
G01 X234.607 A359.299 Z31.543
G01 X234.607 A0.000 
G01 X234.907 A0.000 Z31.206
G01 X234.907 A359.649 
G01 X234.907 A360.000 Z31.190
G01 X235.207 A360.000 Z30.848
G01 X235.207 A359.299 Z30.863
G01 X235.207 A0.000 
G01 X235.507 A0.000 Z30.509
G01 X235.507 A359.649 
G01 X235.507 A360.000 Z30.493
G01 X235.807 A360.000 Z30.124
G01 X235.807 A359.299 Z30.141
G01 X235.807 A0.000 
G01 X236.107 A0.000 Z29.751
G01 X236.107 A359.649 
G01 X236.107 A360.000 Z29.734
G01 X236.407 A360.000 Z29.333
G01 X236.407 A359.299 Z29.351
G01 X236.407 A0.000 
G01 X236.707 A0.000 Z28.938
G01 X236.707 A359.649 
G01 X236.707 A360.000 Z28.920
G01 X237.007 A360.000 Z28.484
G01 X237.007 A359.299 Z28.503
G01 X237.007 A0.000 
G01 X237.307 A0.000 Z28.043
G01 X237.307 A359.649 
G01 X237.307 A360.000 Z28.024
G01 X237.607 A360.000 Z27.546
G01 X237.607 A359.649 Z27.567
G01 X237.607 A0.000 
G01 X237.907 A0.000 Z27.061
G01 X237.907 A359.649 
G01 X237.907 A360.000 Z27.040
G01 X238.207 A360.000 Z26.497
G01 X238.207 A359.649 Z26.519
G01 X238.207 A0.000 
G01 X238.507 A0.000 Z25.949
G01 X238.507 A359.649 
G01 X238.507 A360.000 Z25.926
G01 X238.807 A360.000 Z25.317
G01 X238.807 A359.649 Z25.342
G01 X238.807 A0.000 
G01 X239.107 A0.000 Z24.713
G01 X239.107 A359.649 
G01 X239.107 A360.000 Z24.686
G01 X239.407 A360.000 Z24.027
G01 X239.407 A359.649 Z24.056
G01 X239.407 A0.000 
G01 X239.707 A0.000 Z23.343
G01 X239.707 A359.649 
G01 X239.707 A360.000 Z23.311
G01 X240.007 A360.000 Z22.560
G01 X240.007 A359.649 Z22.597
G01 X240.007 A0.000 
G01 X240.307 A0.000 Z21.792
G01 X240.307 A359.649 
G01 X240.307 A360.000 Z21.748
G01 X240.607 A360.000 Z20.893
G01 X240.607 A359.649 Z20.918
G01 X240.607 A0.000 
G01 X240.907 A0.000 Z20.003
G01 X240.907 A359.649 
G01 X240.907 A360.000 Z19.976
G01 X241.207 A360.000 Z19.002
G01 X241.207 A359.649 Z19.031
G01 X241.207 A0.000 
G01 X241.507 A0.000 Z17.928
G01 X241.507 A359.649 
G01 X241.507 A360.000 Z17.896
G01 X241.807 A360.000 Z16.603
G01 X241.807 A359.649 Z16.639
G01 X241.807 A0.000 
G01 X242.107 A0.000 Z15.129
G01 X242.107 A359.649 
G01 X242.107 A360.000 Z15.086
G01 X242.407 A360.000 Z12.602
G01 X242.407 A359.649 Z12.660
G01 X242.407 A0.000 
G01 X242.707 A0.000 Z12.499
G01 X242.707 A359.649 
G01 X242.707 A360.000 Z12.486
G01 X243.007 A360.000 Z12.487
G01 X243.007 A357.546 Z12.499
G01 X243.007 A0.000 
G01 X243.307 A0.000 Z12.499
G01 X243.307 A359.649 
G01 X243.307 A360.000 Z12.488
G01 X243.607 A360.000 Z12.488
G01 X243.607 A356.845 Z12.499
G01 X243.607 A0.000 
G01 X243.907 A0.000 Z12.499
G01 X243.907 A359.649 
G01 X243.907 A360.000 Z12.487
G01 X244.207 A360.000 Z12.486
G01 X244.207 A358.598 Z12.499
G01 X244.207 A0.000 
G01 X244.507 A0.000 Z12.499
G01 X244.507 A359.649 
G01 X244.507 A360.000 Z12.487
G01 X244.807 A360.000 Z12.488
G01 X244.807 A357.546 Z12.499
G01 X244.807 A0.000 
G01 X245.107 A0.000 Z12.499
G01 X245.107 A359.649 
G01 X245.107 A360.000 Z12.488
G01 X245.407 A360.000 Z12.488
G01 X245.407 A356.845 Z12.499
G01 X245.407 A0.000 
G01 X245.707 A0.000 Z12.500
G01 X245.707 A359.649 
G01 X245.707 A360.000 Z12.488
G01 X246.007 A360.000 Z12.486
G01 X246.007 A358.948 Z12.500
G01 X246.007 A0.000 
G01 X246.307 A0.000 Z12.500
G01 X246.307 A359.649 
G01 X246.307 A360.000 Z12.487
G01 X246.607 A360.000 Z12.488
G01 X246.607 A357.546 Z12.500
G01 X246.607 A0.000 
G01 X246.907 A0.000 Z12.499
G01 X246.907 A359.649 
G01 X246.907 A360.000 Z12.488
G01 X247.207 A360.000 Z12.474
G01 X247.207 A356.495 Z12.485
G01 X247.207 A0.000 
G01 X247.507 A0.000 Z12.441
G01 X247.507 A359.649 
G01 X247.507 A360.000 Z12.430
G01 X247.807 A360.000 Z12.353
G01 X247.807 A357.546 Z12.364
G01 X247.807 A0.000 
G01 X248.107 A0.000 Z12.253
G01 X248.107 A359.649 
G01 X248.107 A360.000 Z12.241
G01 X248.407 A360.000 Z12.090
G01 X248.407 A358.598 Z12.103
G01 X248.407 A0.000 
G01 X248.707 A0.000 Z11.907
G01 X248.707 A359.649 
G01 X248.707 A360.000 Z11.893
G01 X249.007 A360.000 Z11.636
G01 X249.007 A359.299 Z11.651
G01 X249.007 A0.000 
G01 X249.307 A0.000 Z11.312
G01 X249.307 A359.649 
G01 X249.307 A360.000 Z11.294
G01 X249.607 A360.000 Z10.802
G01 X249.607 A359.649 Z10.827
G01 X249.607 A0.000 
G01 X249.907 A0.000 Z9.741
G01 X249.907 A359.649 
G01 X249.907 A360.000 Z0.000
G00 Z47.000
(Begin Footer)
G00 Z47.000
M30
M05
G53 G0 Z-10
G53 G0 X1350 Y1000
(End Footer)
%
