%
( apport400g23cm_correctX2 ) ( File created: Thursday August 22 2024 - 06:45 PM)
( for LinuxCNC )
( Material Size) ( X= 500.000, Y= 263.894, Z= 42.000)
G90 (Incremental distance mode)
G17 G21 (Active Plane: XY)(Metric Mode)
G40 G49 G80(Tool Diameter, Length compensation & canned cycles OFF)
G64 P0.05 Q0.05(Path Blending)
M600
G90 (absolute distance mode)
G57 (Coordinate System)
S18000M3
("G00 Z47.000")
G4 P6
( 3D Roughing 1 [1] )
G00 X2.182 A360.000 Z47.000 F20000.0
G01 Z36.000 F600.0 M3
G01 X2.182 A0.000  F10000.0
G01 X4.582 A0.000 
G01 X4.582 A360.000 
G01 X6.982 A360.000 
G01 X6.982 A0.000 
G01 X9.382 A0.000 
G01 X9.382 A360.000 
G01 X11.782 A360.000 
G01 X11.782 A0.000 
G01 X14.182 A0.000 
G01 X14.182 A360.000 
G00 Z47.000
G00 X15.532 A0.000  F20000.0
G01 Z36.000 F600.0 M3
G01 X15.532 A360.000  F10000.0
G01 X0.099 A360.000 
G01 X0.006 A359.992 
G01 X0.000 A359.865 
G01 X0.000 A0.135 
G01 X0.006 A0.008 
G01 X0.099 A0.000 
G01 X15.532 A0.000 
G00 Z47.000
G00 X1.646 A0.000  F20000.0
G01 Z30.000 F600.0 M3
G01 X1.646 A360.000  F10000.0
G01 X4.046 A360.000 
G01 X4.046 A0.000 
G01 X6.446 A0.000 
G01 X6.446 A360.000 
G01 X8.846 A360.000 
G01 X8.846 A0.000 
G00 Z47.000
G00 X9.355 A0.000  F20000.0
G01 Z30.000 F600.0 M3
G01 X9.355 A360.000  F10000.0
G01 X0.099 A360.000 
G01 X0.006 A359.992 
G01 X0.000 A359.865 
G01 X0.000 A0.135 
G01 X0.006 A0.008 
G01 X0.099 A0.000 
G01 X9.355 A0.000 
G00 Z47.000
G00 X0.238 A0.000  F20000.0
G01 Z24.000 F600.0 M3
G01 X0.238 A360.000  F10000.0
G01 X2.638 A360.000 
G01 X2.638 A0.000 
G01 X5.038 A0.000 
G01 X5.038 A360.000 
G00 Z47.000
G00 X6.448 A0.000  F20000.0
G01 Z24.000 F600.0 M3
G01 X6.448 A360.000  F10000.0
G01 X0.099 A360.000 
G01 X0.006 A359.992 
G01 X0.000 A359.865 
G01 X0.000 A0.135 
G01 X0.006 A0.008 
G01 X0.099 A0.000 
G01 X6.448 A0.000 
G00 Z47.000
G00 X1.750 A360.000  F20000.0
G01 Z18.000 F600.0 M3
G01 X1.750 A0.000  F10000.0
G01 X4.150 A0.000 
G01 X4.150 A360.000 
G00 Z47.000
G00 X4.631 A0.000  F20000.0
G01 Z18.000 F600.0 M3
G01 X4.631 A360.000  F10000.0
G01 X0.099 A360.000 
G01 X0.006 A359.992 
G01 X0.000 A359.865 
G01 X0.000 A0.135 
G01 X0.006 A0.008 
G01 X0.099 A0.000 
G01 X4.631 A0.000 
G00 Z47.000
( 3D Finish 1 )
G00 X0.221 A360.000 Z47.000 F20000.0
G01 Z12.500 F2000.0 M3
G01 X0.221 A0.000  F10000.0
G01 X0.521 A0.000 Z12.500
G01 X0.521 A360.000 
G01 X0.821 A360.000 Z12.500
G01 X0.821 A0.000 
G01 X1.121 A0.000 Z12.500
G01 X1.121 A360.000 
G01 X1.421 A360.000 Z12.500
G01 X1.421 A0.000 
G01 X1.721 A0.000 Z12.499
G01 X1.721 A360.000 
G01 X2.021 A360.000 Z12.499
G01 X2.021 A0.000 
G01 X2.321 A0.000 Z12.499
G01 X2.321 A360.000 
G01 X2.621 A360.000 Z12.499
G01 X2.621 A0.000 
G01 X2.921 A0.000 Z12.499
G01 X2.921 A360.000 
G01 X3.221 A360.000 Z12.499
G01 X3.221 A0.000 
G01 X3.521 A0.000 Z12.499
G01 X3.521 A360.000 
G01 X3.821 A360.000 Z12.499
G01 X3.821 A0.000 
G01 X4.121 A0.000 Z12.499
G01 X4.121 A360.000 
G01 X4.421 A360.000 Z13.639
G01 X4.421 A359.504 Z13.711
G01 X4.421 A0.000 
G01 X4.721 A0.000 Z14.350
G01 X4.721 A359.504 
G01 X4.721 A360.000 Z14.307
G01 X5.021 A360.000 Z16.398
G01 X5.021 A359.504 Z16.443
G01 X5.021 A0.000 
G01 X5.321 A0.000 Z18.046
G01 X5.321 A359.504 
G01 X5.321 A360.000 Z17.996
G01 X5.621 A360.000 Z19.285
G01 X5.621 A359.504 Z19.340
G01 X5.621 A0.000 
G01 X5.921 A0.000 Z20.428
G01 X5.921 A359.504 
G01 X5.921 A360.000 Z20.365
G01 X6.221 A360.000 Z21.290
G01 X6.221 A359.504 Z21.368
G01 X6.221 A0.000 
G01 X6.521 A0.000 Z22.031
G01 X6.521 A359.504 
G01 X6.521 A360.000 Z21.988
G01 X6.821 A360.000 Z22.897
G01 X6.821 A359.504 Z22.944
G01 X6.821 A0.000 
G01 X7.121 A0.000 Z23.766
G01 X7.121 A359.504 
G01 X7.121 A360.000 Z23.716
G01 X7.421 A360.000 Z24.416
G01 X7.421 A359.504 Z24.473
G01 X7.421 A0.000 
G01 X7.721 A0.000 Z25.097
G01 X7.721 A359.504 
G01 X7.721 A360.000 Z25.031
G01 X8.021 A360.000 Z25.656
G01 X8.021 A359.504 Z25.697
G01 X8.021 A0.000 
G01 X8.321 A0.000 Z26.289
G01 X8.321 A359.504 
G01 X8.321 A360.000 Z26.245
G01 X8.621 A360.000 Z26.789
G01 X8.621 A359.504 Z26.836
G01 X8.621 A0.000 
G01 X8.921 A0.000 Z27.317
G01 X8.921 A359.504 
G01 X8.921 A360.000 Z27.265
G01 X9.221 A360.000 Z27.777
G01 X9.221 A359.504 Z27.814
G01 X9.221 A0.000 
G01 X9.521 A0.000 Z28.300
G01 X9.521 A359.504 
G01 X9.521 A360.000 Z28.261
G01 X9.821 A360.000 Z28.698
G01 X9.821 A359.504 Z28.740
G01 X9.821 A0.000 
G01 X10.121 A0.000 Z29.143
G01 X10.121 A359.504 
G01 X10.121 A360.000 Z29.103
G01 X10.421 A360.000 Z29.536
G01 X10.421 A359.504 Z29.571
G01 X10.421 A0.000 
G01 X10.721 A0.000 Z29.974
G01 X10.721 A359.504 
G01 X10.721 A360.000 Z29.938
G01 X11.021 A360.000 Z30.310
G01 X11.021 A359.504 Z30.348
G01 X11.021 A0.000 
G01 X11.321 A0.000 Z30.699
G01 X11.321 A359.504 
G01 X11.321 A360.000 Z30.668
G01 X11.621 A360.000 Z31.037
G01 X11.621 A359.504 Z31.069
G01 X11.621 A0.000 
G01 X11.921 A0.000 Z31.416
G01 X11.921 A359.504 
G01 X11.921 A360.000 Z31.382
G01 X12.221 A360.000 Z31.697
G01 X12.221 A359.504 Z31.732
G01 X12.221 A0.000 
G01 X12.521 A0.000 Z32.046
G01 X12.521 A359.504 
G01 X12.521 A360.000 Z32.016
G01 X12.821 A360.000 Z32.334
G01 X12.821 A359.504 Z32.364
G01 X12.821 A0.000 
G01 X13.121 A0.000 Z32.654
G01 X13.121 A359.504 
G01 X13.121 A360.000 Z32.622
G01 X13.421 A360.000 Z32.897
G01 X13.421 A359.504 Z32.930
G01 X13.421 A0.000 
G01 X13.721 A0.000 Z33.213
G01 X13.721 A359.504 
G01 X13.721 A360.000 Z33.184
G01 X14.021 A360.000 Z33.451
G01 X14.021 A359.504 Z33.480
G01 X14.021 A0.000 
G01 X14.321 A0.000 Z33.735
G01 X14.321 A359.504 
G01 X14.321 A360.000 Z33.705
G01 X14.621 A360.000 Z33.950
G01 X14.621 A359.504 Z33.977
G01 X14.621 A0.000 
G01 X14.921 A0.000 Z34.228
G01 X14.921 A359.504 
G01 X14.921 A360.000 Z34.201
G01 X15.221 A360.000 Z34.438
G01 X15.221 A359.504 Z34.467
G01 X15.221 A0.000 
G01 X15.521 A0.000 Z34.690
G01 X15.521 A359.504 
G01 X15.521 A360.000 Z34.661
G01 X15.821 A360.000 Z34.884
G01 X15.821 A359.504 Z34.910
G01 X15.821 A0.000 
G01 X16.121 A0.000 Z35.127
G01 X16.121 A359.504 
G01 X16.121 A360.000 Z35.101
G01 X16.421 A360.000 Z35.305
G01 X16.421 A359.504 Z35.332
G01 X16.421 A0.000 
G01 X16.721 A0.000 Z35.525
G01 X16.721 A359.504 
G01 X16.721 A360.000 Z35.497
G01 X17.021 A360.000 Z35.700
G01 X17.021 A359.504 Z35.725
G01 X17.021 A0.000 
G01 X17.321 A0.000 Z35.915
G01 X17.321 A359.504 
G01 X17.321 A360.000 Z35.889
G01 X17.621 A360.000 Z36.069
G01 X17.621 A359.504 Z36.095
G01 X17.621 A0.000 
G01 X17.921 A0.000 Z36.267
G01 X17.921 A359.504 
G01 X17.921 A360.000 Z36.242
G01 X18.221 A360.000 Z36.418
G01 X18.221 A359.504 Z36.443
G01 X18.221 A0.000 
G01 X18.521 A0.000 Z36.609
G01 X18.521 A359.504 
G01 X18.521 A360.000 Z36.584
G01 X18.821 A360.000 Z36.738
G01 X18.821 A359.504 Z36.764
G01 X18.821 A0.000 
G01 X19.121 A0.000 Z36.919
G01 X19.121 A359.504 
G01 X19.121 A360.000 Z36.895
G01 X19.421 A360.000 Z37.051
G01 X19.421 A359.504 Z37.075
G01 X19.421 A0.000 
G01 X19.721 A0.000 Z37.222
G01 X19.721 A359.504 
G01 X19.721 A360.000 Z37.198
G01 X20.021 A360.000 Z37.331
G01 X20.021 A359.504 Z37.355
G01 X20.021 A0.000 
G01 X20.321 A0.000 Z37.496
G01 X20.321 A359.504 
G01 X20.321 A360.000 Z37.472
G01 X20.621 A360.000 Z37.606
G01 X20.621 A359.504 Z37.630
G01 X20.621 A0.000 
G01 X20.921 A0.000 Z37.751
G01 X20.921 A359.504 
G01 X20.921 A360.000 Z37.727
G01 X21.221 A360.000 Z37.845
G01 X21.221 A359.504 Z37.869
G01 X21.221 A0.000 
G01 X21.521 A0.000 Z37.992
G01 X21.521 A359.504 
G01 X21.521 A360.000 Z37.968
G01 X21.821 A360.000 Z38.081
G01 X21.821 A359.504 Z38.105
G01 X21.821 A0.000 
G01 X22.121 A0.000 Z38.209
G01 X22.121 A359.504 
G01 X22.121 A360.000 Z38.185
G01 X22.421 A360.000 Z38.291
G01 X22.421 A359.504 Z38.314
G01 X22.421 A0.000 
G01 X22.721 A0.000 Z38.417
G01 X22.721 A359.504 
G01 X22.721 A360.000 Z38.394
G01 X23.021 A360.000 Z38.489
G01 X23.021 A359.504 Z38.512
G01 X23.021 A0.000 
G01 X23.321 A0.000 Z38.599
G01 X23.321 A359.504 
G01 X23.321 A360.000 Z38.575
G01 X23.621 A360.000 Z38.667
G01 X23.621 A359.504 Z38.690
G01 X23.621 A0.000 
G01 X23.921 A0.000 Z38.777
G01 X23.921 A359.504 
G01 X23.921 A360.000 Z38.754
G01 X24.221 A360.000 Z38.835
G01 X24.221 A359.504 Z38.858
G01 X24.221 A0.000 
G01 X24.521 A0.000 Z38.933
G01 X24.521 A359.504 
G01 X24.521 A360.000 Z38.910
G01 X24.821 A360.000 Z38.990
G01 X24.821 A359.504 Z39.013
G01 X24.821 A0.000 
G01 X25.121 A0.000 Z39.087
G01 X25.121 A359.504 
G01 X25.121 A360.000 Z39.065
G01 X25.421 A360.000 Z39.135
G01 X25.421 A359.504 Z39.158
G01 X25.421 A0.000 
G01 X25.721 A0.000 Z39.221
G01 X25.721 A359.504 
G01 X25.721 A360.000 Z39.198
G01 X26.021 A360.000 Z39.266
G01 X26.021 A359.504 Z39.289
G01 X26.021 A0.000 
G01 X26.321 A0.000 Z39.354
G01 X26.321 A359.504 
G01 X26.321 A360.000 Z39.331
G01 X26.621 A360.000 Z39.390
G01 X26.621 A359.504 Z39.412
G01 X26.621 A0.000 
G01 X26.921 A0.000 Z39.464
G01 X26.921 A359.504 
G01 X26.921 A360.000 Z39.442
G01 X27.221 A360.000 Z39.498
G01 X27.221 A359.504 Z39.520
G01 X27.221 A0.000 
G01 X27.521 A0.000 Z39.574
G01 X27.521 A359.504 
G01 X27.521 A360.000 Z39.551
G01 X27.821 A360.000 Z39.600
G01 X27.821 A359.504 Z39.622
G01 X27.821 A0.000 
G01 X28.121 A0.000 Z39.664
G01 X28.121 A359.504 
G01 X28.121 A360.000 Z39.642
G01 X28.421 A360.000 Z39.686
G01 X28.421 A359.504 Z39.709
G01 X28.421 A0.000 
G01 X28.721 A0.000 Z39.752
G01 X28.721 A359.504 
G01 X28.721 A360.000 Z39.730
G01 X29.021 A360.000 Z39.767
G01 X29.021 A359.504 Z39.789
G01 X29.021 A0.000 
G01 X29.321 A0.000 Z39.822
G01 X29.321 A359.504 
G01 X29.321 A360.000 Z39.804
G01 X29.621 A360.000 Z39.840
G01 X29.621 A359.008 Z39.855
G01 X29.621 A0.000 
G01 X29.921 A0.000 Z39.887
G01 X29.921 A359.504 
G01 X29.921 A360.000 Z39.872
G01 X30.221 A360.000 Z39.902
G01 X30.221 A357.025 Z39.914
G01 X30.221 A0.000 
G01 X30.521 A0.000 Z39.935
G01 X30.521 A360.000 Z39.929
G01 X30.821 A360.000 Z39.952
G01 X30.821 A0.000 Z39.957
G01 X31.121 A0.000 Z39.980
G01 X31.121 A360.000 Z39.974
G01 X31.421 A360.000 Z39.992
G01 X31.421 A0.000 Z39.997
G01 X31.721 A0.000 Z40.007
G01 X31.721 A360.000 
G01 X32.021 A360.000 Z40.015
G01 X32.021 A0.000 
G01 X32.321 A0.000 Z40.014
G01 X32.321 A360.000 
G01 X32.621 A360.000 Z40.012
G01 X32.621 A0.000 
G01 X32.921 A0.000 Z40.011
G01 X32.921 A360.000 
G01 X33.221 A360.000 Z40.009
G01 X33.221 A0.000 
G01 X33.521 A0.000 Z40.007
G01 X33.521 A360.000 
G01 X33.821 A360.000 Z40.006
G01 X33.821 A0.000 Z40.006
G01 X34.121 A0.000 Z40.004
G01 X34.121 A360.000 
G01 X34.421 A360.000 Z40.003
G01 X34.421 A0.000 
G01 X34.721 A0.000 Z40.001
G01 X34.721 A360.000 
G01 X35.021 A360.000 Z40.000
G01 X35.021 A0.000 
G01 X35.321 A0.000 Z39.998
G01 X35.321 A360.000 
G01 X35.621 A360.000 Z39.996
G01 X35.621 A0.000 Z39.996
G01 X35.921 A0.000 Z39.995
G01 X35.921 A360.000 
G01 X36.221 A360.000 Z39.993
G01 X36.221 A0.000 
G01 X36.521 A0.000 Z39.992
G01 X36.521 A360.000 
G01 X36.821 A360.000 Z39.990
G01 X36.821 A0.000 
G01 X37.121 A0.000 Z39.989
G01 X37.121 A360.000 
G01 X37.421 A360.000 Z39.987
G01 X37.421 A0.000 
G01 X37.721 A0.000 Z39.985
G01 X37.721 A360.000 
G01 X38.021 A360.000 Z39.984
G01 X38.021 A0.000 
G01 X38.321 A0.000 Z39.982
G01 X38.321 A360.000 
G01 X38.621 A360.000 Z39.981
G01 X38.621 A0.000 
G01 X38.921 A0.000 Z39.979
G01 X38.921 A360.000 
G01 X39.221 A360.000 Z39.978
G01 X39.221 A0.000 
G01 X39.521 A0.000 Z39.976
G01 X39.521 A360.000 
G01 X39.821 A360.000 Z39.974
G01 X39.821 A0.000 
G01 X40.121 A0.000 Z39.973
G01 X40.121 A360.000 
G01 X40.421 A360.000 Z39.971
G01 X40.421 A0.000 
G01 X40.721 A0.000 Z39.970
G01 X40.721 A360.000 Z39.970
G01 X41.021 A360.000 Z39.968
G01 X41.021 A0.000 
G01 X41.321 A0.000 Z39.967
G01 X41.321 A360.000 
G01 X41.621 A360.000 Z39.965
G01 X41.621 A0.000 
G01 X41.921 A0.000 Z39.963
G01 X41.921 A360.000 
G01 X42.221 A360.000 Z39.962
G01 X42.221 A0.000 
G01 X42.521 A0.000 Z39.960
G01 X42.521 A360.000 Z39.960
G01 X42.821 A360.000 Z39.959
G01 X42.821 A0.000 
G01 X43.121 A0.000 Z39.957
G01 X43.121 A360.000 
G01 X43.421 A360.000 Z39.956
G01 X43.421 A0.000 
G01 X43.721 A0.000 Z39.954
G01 X43.721 A360.000 
G01 X44.021 A360.000 Z39.952
G01 X44.021 A0.000 
G01 X44.321 A0.000 Z39.951
G01 X44.321 A360.000 
G01 X44.621 A360.000 Z39.949
G01 X44.621 A0.000 
G01 X44.921 A0.000 Z39.948
G01 X44.921 A360.000 
G01 X45.221 A360.000 Z39.946
G01 X45.221 A0.000 
G01 X45.521 A0.000 Z39.945
G01 X45.521 A360.000 
G01 X45.821 A360.000 Z39.943
G01 X45.821 A0.000 
G01 X46.121 A0.000 Z39.941
G01 X46.121 A360.000 
G01 X46.421 A360.000 Z39.940
G01 X46.421 A0.000 
G01 X46.721 A0.000 Z39.938
G01 X46.721 A360.000 
G01 X47.021 A360.000 Z39.937
G01 X47.021 A0.000 
G01 X47.321 A0.000 Z39.935
G01 X47.321 A360.000 
G01 X47.621 A360.000 Z39.933
G01 X47.621 A0.000 Z39.934
G01 X47.921 A0.000 Z39.932
G01 X47.921 A360.000 
G01 X48.221 A360.000 Z39.930
G01 X48.221 A0.000 
G01 X48.521 A0.000 Z39.929
G01 X48.521 A360.000 
G01 X48.821 A360.000 Z39.927
G01 X48.821 A0.000 
G01 X49.121 A0.000 Z39.926
G01 X49.121 A360.000 
G01 X49.421 A360.000 Z39.924
G01 X49.421 A0.000 Z39.924
G01 X49.721 A0.000 Z39.922
G01 X49.721 A360.000 
G01 X50.021 A360.000 Z39.921
G01 X50.021 A0.000 
G01 X50.321 A0.000 Z39.919
G01 X50.321 A360.000 
G01 X50.621 A360.000 Z39.918
G01 X50.621 A0.000 
G01 X50.921 A0.000 Z39.916
G01 X50.921 A360.000 
G01 X51.221 A360.000 Z39.915
G01 X51.221 A0.000 
G01 X51.521 A0.000 Z39.913
G01 X51.521 A360.000 
G01 X51.821 A360.000 Z39.911
G01 X51.821 A0.000 
G01 X52.121 A0.000 Z39.910
G01 X52.121 A360.000 
G01 X52.421 A360.000 Z39.908
G01 X52.421 A0.000 
G01 X52.721 A0.000 Z39.907
G01 X52.721 A360.000 
G01 X53.021 A360.000 Z39.905
G01 X53.021 A0.000 
G01 X53.321 A0.000 Z39.904
G01 X53.321 A360.000 
G01 X53.621 A360.000 Z39.902
G01 X53.621 A0.000 
G01 X53.921 A0.000 Z39.900
G01 X53.921 A360.000 
G01 X54.221 A360.000 Z39.899
G01 X54.221 A0.000 
G01 X54.521 A0.000 Z39.897
G01 X54.521 A360.000 Z39.897
G01 X54.821 A360.000 Z39.896
G01 X54.821 A0.000 
G01 X55.121 A0.000 Z39.894
G01 X55.121 A360.000 
G01 X55.421 A360.000 Z39.893
G01 X55.421 A0.000 
G01 X55.721 A0.000 Z39.891
G01 X55.721 A360.000 
G01 X56.021 A360.000 Z39.889
G01 X56.021 A0.000 
G01 X56.321 A0.000 Z39.888
G01 X56.321 A360.000 
G01 X56.621 A360.000 Z39.886
G01 X56.621 A0.000 
G01 X56.921 A0.000 Z39.885
G01 X56.921 A360.000 
G01 X57.221 A360.000 Z39.883
G01 X57.221 A0.000 
G01 X57.521 A0.000 Z39.882
G01 X57.521 A360.000 
G01 X57.821 A360.000 Z39.880
G01 X57.821 A0.000 
G01 X58.121 A0.000 Z39.878
G01 X58.121 A360.000 
G01 X58.421 A360.000 Z39.877
G01 X58.421 A0.000 
G01 X58.721 A0.000 Z39.875
G01 X58.721 A360.000 
G01 X59.021 A360.000 Z39.874
G01 X59.021 A0.000 
G01 X59.321 A0.000 Z39.872
G01 X59.321 A360.000 
G01 X59.621 A360.000 Z39.871
G01 X59.621 A0.000 Z39.871
G01 X59.921 A0.000 Z39.869
G01 X59.921 A360.000 
G01 X60.221 A360.000 Z39.847
G01 X60.221 A0.000 Z39.857
G01 X60.521 A0.000 Z39.832
G01 X60.521 A359.504 
G01 X60.521 A360.000 Z39.810
G01 X60.821 A360.000 Z39.775
G01 X60.821 A359.504 Z39.797
G01 X60.821 A0.000 
G01 X61.121 A0.000 Z39.733
G01 X61.121 A359.504 
G01 X61.121 A360.000 Z39.711
G01 X61.421 A360.000 Z39.650
G01 X61.421 A359.504 Z39.673
G01 X61.421 A0.000 
G01 X61.721 A0.000 Z39.606
G01 X61.721 A359.504 
G01 X61.721 A360.000 Z39.583
G01 X62.021 A360.000 Z39.513
G01 X62.021 A359.504 Z39.536
G01 X62.021 A0.000 
G01 X62.321 A0.000 Z39.463
G01 X62.321 A359.504 
G01 X62.321 A360.000 Z39.440
G01 X62.621 A360.000 Z39.368
G01 X62.621 A359.504 Z39.391
G01 X62.621 A0.000 
G01 X62.921 A0.000 Z39.321
G01 X62.921 A359.504 
G01 X62.921 A360.000 Z39.298
G01 X63.221 A360.000 Z39.222
G01 X63.221 A359.504 Z39.245
G01 X63.221 A0.000 
G01 X63.521 A0.000 Z39.163
G01 X63.521 A359.504 
G01 X63.521 A360.000 Z39.140
G01 X63.821 A360.000 Z39.056
G01 X63.821 A359.504 Z39.079
G01 X63.821 A0.000 
G01 X64.121 A0.000 Z38.998
G01 X64.121 A359.504 
G01 X64.121 A360.000 Z38.975
G01 X64.421 A360.000 Z38.885
G01 X64.421 A359.504 Z38.908
G01 X64.421 A0.000 
G01 X64.721 A0.000 Z38.812
G01 X64.721 A359.504 
G01 X64.721 A360.000 Z38.789
G01 X65.021 A360.000 Z38.692
G01 X65.021 A359.504 Z38.715
G01 X65.021 A0.000 
G01 X65.321 A0.000 Z38.621
G01 X65.321 A359.504 
G01 X65.321 A360.000 Z38.597
G01 X65.621 A360.000 Z38.496
G01 X65.621 A359.504 Z38.519
G01 X65.621 A0.000 
G01 X65.921 A0.000 Z38.409
G01 X65.921 A359.504 
G01 X65.921 A360.000 Z38.386
G01 X66.221 A360.000 Z38.276
G01 X66.221 A359.504 Z38.300
G01 X66.221 A0.000 
G01 X66.521 A0.000 Z38.191
G01 X66.521 A359.504 
G01 X66.521 A360.000 Z38.168
G01 X66.821 A360.000 Z38.053
G01 X66.821 A359.504 Z38.077
G01 X66.821 A0.000 
G01 X67.121 A0.000 Z37.953
G01 X67.121 A359.504 
G01 X67.121 A360.000 Z37.930
G01 X67.421 A360.000 Z37.806
G01 X67.421 A359.504 Z37.830
G01 X67.421 A0.000 
G01 X67.721 A0.000 Z37.707
G01 X67.721 A359.504 
G01 X67.721 A360.000 Z37.683
G01 X68.021 A360.000 Z37.555
G01 X68.021 A359.504 Z37.579
G01 X68.021 A0.000 
G01 X68.321 A0.000 Z37.438
G01 X68.321 A359.504 
G01 X68.321 A360.000 Z37.414
G01 X68.621 A360.000 Z37.276
G01 X68.621 A359.504 Z37.301
G01 X68.621 A0.000 
G01 X68.921 A0.000 Z37.161
G01 X68.921 A359.504 
G01 X68.921 A360.000 Z37.136
G01 X69.221 A360.000 Z36.990
G01 X69.221 A359.504 Z37.015
G01 X69.221 A0.000 
G01 X69.521 A0.000 Z36.861
G01 X69.521 A359.504 
G01 X69.521 A360.000 Z36.837
G01 X69.821 A360.000 Z36.683
G01 X69.821 A359.504 Z36.709
G01 X69.821 A0.000 
G01 X70.121 A0.000 Z36.554
G01 X70.121 A359.504 
G01 X70.121 A360.000 Z36.528
G01 X70.421 A360.000 Z36.363
G01 X70.421 A359.504 Z36.388
G01 X70.421 A0.000 
G01 X70.721 A0.000 Z36.214
G01 X70.721 A359.504 
G01 X70.721 A360.000 Z36.189
G01 X71.021 A360.000 Z36.019
G01 X71.021 A359.504 Z36.046
G01 X71.021 A0.000 
G01 X71.321 A0.000 Z35.870
G01 X71.321 A359.504 
G01 X71.321 A360.000 Z35.844
G01 X71.621 A360.000 Z35.655
G01 X71.621 A359.504 Z35.681
G01 X71.621 A0.000 
G01 X71.921 A0.000 Z35.484
G01 X71.921 A359.504 
G01 X71.921 A360.000 Z35.457
G01 X72.221 A360.000 Z35.268
G01 X72.221 A359.504 Z35.295
G01 X72.221 A0.000 
G01 X72.521 A0.000 Z35.092
G01 X72.521 A359.504 
G01 X72.521 A360.000 Z35.066
G01 X72.821 A360.000 Z34.851
G01 X72.821 A359.504 Z34.877
G01 X72.821 A0.000 
G01 X73.121 A0.000 Z34.661
G01 X73.121 A359.504 
G01 X73.121 A360.000 Z34.632
G01 X73.421 A360.000 Z34.411
G01 X73.421 A359.504 Z34.439
G01 X73.421 A0.000 
G01 X73.721 A0.000 Z34.207
G01 X73.721 A359.504 
G01 X73.721 A360.000 Z34.180
G01 X74.021 A360.000 Z33.930
G01 X74.021 A359.504 Z33.957
G01 X74.021 A0.000 
G01 X74.321 A0.000 Z33.719
G01 X74.321 A359.504 
G01 X74.321 A360.000 Z33.689
G01 X74.621 A360.000 Z33.439
G01 X74.621 A359.504 Z33.468
G01 X74.621 A0.000 
G01 X74.921 A0.000 Z33.198
G01 X74.921 A359.504 
G01 X74.921 A360.000 Z33.169
G01 X75.221 A360.000 Z32.888
G01 X75.221 A359.504 Z32.920
G01 X75.221 A0.000 
G01 X75.521 A0.000 Z32.651
G01 X75.521 A359.504 
G01 X75.521 A360.000 Z32.620
G01 X75.821 A360.000 Z32.329
G01 X75.821 A359.504 Z32.360
G01 X75.821 A0.000 
G01 X76.121 A0.000 Z32.048
G01 X76.121 A359.504 
G01 X76.121 A360.000 Z32.018
G01 X76.421 A360.000 Z31.706
G01 X76.421 A359.504 Z31.740
G01 X76.421 A0.000 
G01 X76.721 A0.000 Z31.424
G01 X76.721 A359.504 
G01 X76.721 A360.000 Z31.391
G01 X77.021 A360.000 Z31.049
G01 X77.021 A359.504 Z31.081
G01 X77.021 A0.000 
G01 X77.321 A0.000 Z30.713
G01 X77.321 A359.504 
G01 X77.321 A360.000 Z30.677
G01 X77.621 A360.000 Z30.327
G01 X77.621 A359.504 Z30.364
G01 X77.621 A0.000 
G01 X77.921 A0.000 Z29.995
G01 X77.921 A359.504 
G01 X77.921 A360.000 Z29.960
G01 X78.221 A360.000 Z29.553
G01 X78.221 A359.504 Z29.587
G01 X78.221 A0.000 
G01 X78.521 A0.000 Z29.170
G01 X78.521 A359.504 
G01 X78.521 A360.000 Z29.126
G01 X78.821 A360.000 Z28.714
G01 X78.821 A359.504 Z28.755
G01 X78.821 A0.000 
G01 X79.121 A0.000 Z28.294
G01 X79.121 A359.504 
G01 X79.121 A360.000 Z28.255
G01 X79.421 A360.000 Z27.747
G01 X79.421 A359.504 Z27.783
G01 X79.421 A0.000 
G01 X79.721 A0.000 Z27.301
G01 X79.721 A359.504 
G01 X79.721 A360.000 Z27.250
G01 X80.021 A360.000 Z26.764
G01 X80.021 A359.504 Z26.810
G01 X80.021 A0.000 
G01 X80.321 A0.000 Z26.345
G01 X80.321 A359.504 
G01 X80.321 A360.000 Z26.302
G01 X80.621 A360.000 Z25.883
G01 X80.621 A359.504 Z25.923
G01 X80.621 A0.000 
G01 X80.921 A0.000 Z25.528
G01 X80.921 A359.504 
G01 X80.921 A360.000 Z25.490
G01 X81.221 A360.000 Z25.105
G01 X81.221 A359.504 Z25.141
G01 X81.221 A0.000 
G01 X81.521 A0.000 Z24.760
G01 X81.521 A359.504 
G01 X81.521 A360.000 Z24.725
G01 X81.821 A360.000 Z24.370
G01 X81.821 A359.504 Z24.403
G01 X81.821 A0.000 
G01 X82.121 A0.000 Z24.054
G01 X82.121 A359.504 
G01 X82.121 A360.000 Z24.022
G01 X82.421 A360.000 Z23.687
G01 X82.421 A359.504 Z23.718
G01 X82.421 A0.000 
G01 X82.721 A0.000 Z23.388
G01 X82.721 A359.504 
G01 X82.721 A360.000 Z23.358
G01 X83.021 A360.000 Z23.040
G01 X83.021 A359.504 Z23.070
G01 X83.021 A0.000 
G01 X83.321 A0.000 Z22.763
G01 X83.321 A359.504 
G01 X83.321 A360.000 Z22.733
G01 X83.621 A360.000 Z22.440
G01 X83.621 A359.504 Z22.473
G01 X83.621 A0.000 
G01 X83.921 A0.000 Z22.193
G01 X83.921 A359.504 
G01 X83.921 A360.000 Z22.161
G01 X84.221 A360.000 Z21.886
G01 X84.221 A359.504 Z21.917
G01 X84.221 A0.000 
G01 X84.521 A0.000 Z21.650
G01 X84.521 A359.504 
G01 X84.521 A360.000 Z21.620
G01 X84.821 A360.000 Z21.359
G01 X84.821 A359.504 Z21.388
G01 X84.821 A0.000 
G01 X85.121 A0.000 Z21.133
G01 X85.121 A359.504 
G01 X85.121 A360.000 Z21.104
G01 X85.421 A360.000 Z20.858
G01 X85.421 A359.504 Z20.886
G01 X85.421 A0.000 
G01 X85.721 A0.000 Z20.646
G01 X85.721 A359.504 
G01 X85.721 A360.000 Z20.618
G01 X86.021 A360.000 Z20.384
G01 X86.021 A359.504 Z20.411
G01 X86.021 A0.000 
G01 X86.321 A0.000 Z20.182
G01 X86.321 A359.504 
G01 X86.321 A360.000 Z20.155
G01 X86.621 A360.000 Z19.929
G01 X86.621 A359.504 Z19.955
G01 X86.621 A0.000 
G01 X86.921 A0.000 Z19.740
G01 X86.921 A359.504 
G01 X86.921 A360.000 Z19.712
G01 X87.221 A360.000 Z19.505
G01 X87.221 A359.504 Z19.533
G01 X87.221 A0.000 
G01 X87.521 A0.000 Z19.329
G01 X87.521 A359.504 
G01 X87.521 A360.000 Z19.302
G01 X87.821 A360.000 Z19.102
G01 X87.821 A359.504 Z19.129
G01 X87.821 A0.000 
G01 X88.121 A0.000 Z18.936
G01 X88.121 A359.504 
G01 X88.121 A360.000 Z18.909
G01 X88.421 A360.000 Z18.719
G01 X88.421 A359.504 Z18.745
G01 X88.421 A0.000 
G01 X88.721 A0.000 Z18.559
G01 X88.721 A359.504 
G01 X88.721 A360.000 Z18.533
G01 X89.021 A360.000 Z18.353
G01 X89.021 A359.504 Z18.378
G01 X89.021 A0.000 
G01 X89.321 A0.000 Z18.201
G01 X89.321 A359.504 
G01 X89.321 A360.000 Z18.176
G01 X89.621 A360.000 Z18.003
G01 X89.621 A359.504 Z18.028
G01 X89.621 A0.000 
G01 X89.921 A0.000 Z17.859
G01 X89.921 A359.504 
G01 X89.921 A360.000 Z17.833
G01 X90.221 A360.000 Z17.670
G01 X90.221 A359.504 Z17.696
G01 X90.221 A0.000 
G01 X90.521 A0.000 Z17.540
G01 X90.521 A359.504 
G01 X90.521 A360.000 Z17.515
G01 X90.821 A360.000 Z17.361
G01 X90.821 A359.504 Z17.386
G01 X90.821 A0.000 
G01 X91.121 A0.000 Z17.238
G01 X91.121 A359.504 
G01 X91.121 A360.000 Z17.213
G01 X91.421 A360.000 Z17.067
G01 X91.421 A359.504 Z17.092
G01 X91.421 A0.000 
G01 X91.721 A0.000 Z16.950
G01 X91.721 A359.504 
G01 X91.721 A360.000 Z16.926
G01 X92.021 A360.000 Z16.787
G01 X92.021 A359.504 Z16.811
G01 X92.021 A0.000 
G01 X92.321 A0.000 Z16.674
G01 X92.321 A359.504 
G01 X92.321 A360.000 Z16.651
G01 X92.621 A360.000 Z16.518
G01 X92.621 A359.504 Z16.542
G01 X92.621 A0.000 
G01 X92.921 A0.000 Z16.411
G01 X92.921 A359.504 
G01 X92.921 A360.000 Z16.388
G01 X93.221 A360.000 Z16.263
G01 X93.221 A359.504 Z16.288
G01 X93.221 A0.000 
G01 X93.521 A0.000 Z16.166
G01 X93.521 A359.504 
G01 X93.521 A360.000 Z16.141
G01 X93.821 A360.000 Z16.018
G01 X93.821 A359.504 Z16.042
G01 X93.821 A0.000 
G01 X94.121 A0.000 Z15.919
G01 X94.121 A359.504 
G01 X94.121 A360.000 Z15.895
G01 X94.421 A360.000 Z15.774
G01 X94.421 A359.504 Z15.797
G01 X94.421 A0.000 
G01 X94.721 A0.000 Z15.676
G01 X94.721 A359.504 
G01 X94.721 A360.000 Z15.652
G01 X95.021 A360.000 Z15.530
G01 X95.021 A359.504 Z15.555
G01 X95.021 A0.000 
G01 X95.321 A0.000 Z15.440
G01 X95.321 A359.504 
G01 X95.321 A360.000 Z15.415
G01 X95.621 A360.000 Z15.302
G01 X95.621 A359.504 Z15.326
G01 X95.621 A0.000 
G01 X95.921 A0.000 Z15.213
G01 X95.921 A359.504 
G01 X95.921 A360.000 Z15.189
G01 X96.221 A360.000 Z15.081
G01 X96.221 A359.504 Z15.105
G01 X96.221 A0.000 
G01 X96.521 A0.000 Z15.038
G01 X96.521 A360.000 
G01 X96.821 A360.000 Z15.037
G01 X96.821 A0.000 
G01 X97.121 A0.000 Z15.036
G01 X97.121 A360.000 
G01 X97.421 A360.000 Z15.036
G01 X97.421 A0.000 
G01 X97.721 A0.000 Z15.035
G01 X97.721 A360.000 
G01 X98.021 A360.000 Z15.035
G01 X98.021 A0.000 
G01 X98.321 A0.000 Z15.034
G01 X98.321 A360.000 
G01 X98.621 A360.000 Z15.034
G01 X98.621 A0.000 
G01 X98.921 A0.000 Z15.033
G01 X98.921 A360.000 
G01 X99.221 A360.000 Z15.032
G01 X99.221 A0.000 
G01 X99.521 A0.000 Z15.032
G01 X99.521 A360.000 
G01 X99.821 A360.000 Z15.031
G01 X99.821 A0.000 
G01 X100.121 A0.000 Z15.031
G01 X100.121 A360.000 
G01 X100.421 A360.000 Z15.030
G01 X100.421 A0.000 
G01 X100.721 A0.000 Z15.030
G01 X100.721 A360.000 
G01 X101.021 A360.000 Z15.029
G01 X101.021 A0.000 Z15.029
G01 X101.321 A0.000 Z15.028
G01 X101.321 A360.000 
G01 X101.621 A360.000 Z15.028
G01 X101.621 A0.000 
G01 X101.921 A0.000 Z15.027
G01 X101.921 A360.000 
G01 X102.221 A360.000 Z15.027
G01 X102.221 A0.000 
G01 X102.521 A0.000 Z15.026
G01 X102.521 A360.000 
G01 X102.821 A360.000 Z15.026
G01 X102.821 A0.000 
G01 X103.121 A0.000 Z15.025
G01 X103.121 A360.000 
G01 X103.421 A360.000 Z15.024
G01 X103.421 A0.000 
G01 X103.721 A0.000 Z15.024
G01 X103.721 A360.000 
G01 X104.021 A360.000 Z15.023
G01 X104.021 A0.000 
G01 X104.321 A0.000 Z15.023
G01 X104.321 A360.000 
G01 X104.621 A360.000 Z15.022
G01 X104.621 A0.000 
G01 X104.921 A0.000 Z15.022
G01 X104.921 A360.000 
G01 X105.221 A360.000 Z15.021
G01 X105.221 A0.000 
G01 X105.521 A0.000 Z15.021
G01 X105.521 A360.000 
G01 X105.821 A360.000 Z15.020
G01 X105.821 A0.000 
G01 X106.121 A0.000 Z15.019
G01 X106.121 A360.000 
G01 X106.421 A360.000 Z15.019
G01 X106.421 A0.000 
G01 X106.721 A0.000 Z15.018
G01 X106.721 A360.000 
G01 X107.021 A360.000 Z15.018
G01 X107.021 A0.000 
G01 X107.321 A0.000 Z15.017
G01 X107.321 A360.000 
G01 X107.621 A360.000 Z15.017
G01 X107.621 A0.000 
G01 X107.921 A0.000 Z15.016
G01 X107.921 A360.000 
G01 X108.221 A360.000 Z15.015
G01 X108.221 A0.000 
G01 X108.521 A0.000 Z15.015
G01 X108.521 A360.000 
G01 X108.821 A360.000 Z15.014
G01 X108.821 A0.000 
G01 X109.121 A0.000 Z15.014
G01 X109.121 A360.000 
G01 X109.421 A360.000 Z15.013
G01 X109.421 A0.000 
G01 X109.721 A0.000 Z15.013
G01 X109.721 A360.000 
G01 X110.021 A360.000 Z15.012
G01 X110.021 A0.000 
G01 X110.321 A0.000 Z15.011
G01 X110.321 A360.000 
G01 X110.621 A360.000 Z15.011
G01 X110.621 A0.000 
G01 X110.921 A0.000 Z15.010
G01 X110.921 A360.000 
G01 X111.221 A360.000 Z15.010
G01 X111.221 A0.000 
G01 X111.521 A0.000 Z15.009
G01 X111.521 A360.000 
G01 X111.821 A360.000 Z15.009
G01 X111.821 A0.000 
G01 X112.121 A0.000 Z15.008
G01 X112.121 A360.000 
G01 X112.421 A360.000 Z15.008
G01 X112.421 A0.000 
G01 X112.721 A0.000 Z15.007
G01 X112.721 A360.000 
G01 X113.021 A360.000 Z15.006
G01 X113.021 A0.000 
G01 X113.321 A0.000 Z15.006
G01 X113.321 A360.000 
G01 X113.621 A360.000 Z15.005
G01 X113.621 A0.000 
G01 X113.921 A0.000 Z15.005
G01 X113.921 A360.000 
G01 X114.221 A360.000 Z15.004
G01 X114.221 A0.000 
G01 X114.521 A0.000 Z15.004
G01 X114.521 A360.000 
G01 X114.821 A360.000 Z15.003
G01 X114.821 A0.000 
G01 X115.121 A0.000 Z15.002
G01 X115.121 A360.000 
G01 X115.421 A360.000 Z15.002
G01 X115.421 A0.000 
G01 X115.721 A0.000 Z15.001
G01 X115.721 A360.000 
G01 X116.021 A360.000 Z15.001
G01 X116.021 A0.000 
G01 X116.321 A0.000 Z15.000
G01 X116.321 A360.000 
G01 X116.621 A360.000 Z15.000
G01 X116.621 A0.000 
G01 X116.921 A0.000 Z14.999
G01 X116.921 A360.000 
G01 X117.221 A360.000 Z14.998
G01 X117.221 A0.000 
G01 X117.521 A0.000 Z14.998
G01 X117.521 A360.000 
G01 X117.821 A360.000 Z14.997
G01 X117.821 A0.000 
G01 X118.121 A0.000 Z14.997
G01 X118.121 A360.000 
G01 X118.421 A360.000 Z14.996
G01 X118.421 A0.000 
G01 X118.721 A0.000 Z14.996
G01 X118.721 A360.000 
G01 X119.021 A360.000 Z14.995
G01 X119.021 A0.000 
G01 X119.321 A0.000 Z14.995
G01 X119.321 A360.000 
G01 X119.621 A360.000 Z14.994
G01 X119.621 A0.000 
G01 X119.921 A0.000 Z14.993
G01 X119.921 A360.000 Z14.993
G01 X120.221 A360.000 Z14.993
G01 X120.221 A0.000 
G01 X120.521 A0.000 Z14.992
G01 X120.521 A360.000 
G01 X120.821 A360.000 Z14.992
G01 X120.821 A0.000 
G01 X121.121 A0.000 Z14.991
G01 X121.121 A360.000 
G01 X121.421 A360.000 Z14.991
G01 X121.421 A0.000 
G01 X121.721 A0.000 Z14.990
G01 X121.721 A360.000 
G01 X122.021 A360.000 Z14.989
G01 X122.021 A0.000 
G01 X122.321 A0.000 Z14.989
G01 X122.321 A360.000 
G01 X122.621 A360.000 Z14.988
G01 X122.621 A0.000 
G01 X122.921 A0.000 Z14.988
G01 X122.921 A360.000 
G01 X123.221 A360.000 Z14.987
G01 X123.221 A0.000 
G01 X123.521 A0.000 Z14.987
G01 X123.521 A360.000 
G01 X123.821 A360.000 Z14.986
G01 X123.821 A0.000 
G01 X124.121 A0.000 Z14.985
G01 X124.121 A360.000 
G01 X124.421 A360.000 Z14.985
G01 X124.421 A0.000 
G01 X124.721 A0.000 Z14.984
G01 X124.721 A360.000 
G01 X125.021 A360.000 Z14.984
G01 X125.021 A0.000 
G01 X125.321 A0.000 Z14.983
G01 X125.321 A360.000 
G01 X125.621 A360.000 Z14.983
G01 X125.621 A0.000 
G01 X125.921 A0.000 Z14.982
G01 X125.921 A360.000 
G01 X126.221 A360.000 Z14.982
G01 X126.221 A0.000 
G01 X126.521 A0.000 Z14.981
G01 X126.521 A360.000 
G01 X126.821 A360.000 Z14.980
G01 X126.821 A0.000 Z14.980
G01 X127.121 A0.000 Z14.980
G01 X127.121 A360.000 
G01 X127.421 A360.000 Z14.979
G01 X127.421 A0.000 
G01 X127.721 A0.000 Z14.979
G01 X127.721 A360.000 
G01 X128.021 A360.000 Z14.978
G01 X128.021 A0.000 
G01 X128.321 A0.000 Z14.978
G01 X128.321 A360.000 
G01 X128.621 A360.000 Z14.977
G01 X128.621 A0.000 
G01 X128.921 A0.000 Z14.976
G01 X128.921 A360.000 
G01 X129.221 A360.000 Z14.976
G01 X129.221 A0.000 
G01 X129.521 A0.000 Z14.975
G01 X129.521 A360.000 
G01 X129.821 A360.000 Z14.975
G01 X129.821 A0.000 
G01 X130.121 A0.000 Z14.974
G01 X130.121 A360.000 
G01 X130.421 A360.000 Z14.974
G01 X130.421 A0.000 
G01 X130.721 A0.000 Z14.973
G01 X130.721 A360.000 
G01 X131.021 A360.000 Z14.973
G01 X131.021 A0.000 
G01 X131.321 A0.000 Z14.972
G01 X131.321 A360.000 
G01 X131.621 A360.000 Z14.971
G01 X131.621 A0.000 
G01 X131.921 A0.000 Z14.971
G01 X131.921 A360.000 
G01 X132.221 A360.000 Z14.970
G01 X132.221 A0.000 
G01 X132.521 A0.000 Z14.970
G01 X132.521 A360.000 
G01 X132.821 A360.000 Z14.969
G01 X132.821 A0.000 
G01 X133.121 A0.000 Z14.969
G01 X133.121 A360.000 
G01 X133.421 A360.000 Z14.968
G01 X133.421 A0.000 
G01 X133.721 A0.000 Z14.967
G01 X133.721 A360.000 Z14.967
G01 X134.021 A360.000 Z14.967
G01 X134.021 A0.000 
G01 X134.321 A0.000 Z14.966
G01 X134.321 A360.000 
G01 X134.621 A360.000 Z14.966
G01 X134.621 A0.000 
G01 X134.921 A0.000 Z14.965
G01 X134.921 A360.000 
G01 X135.221 A360.000 Z14.965
G01 X135.221 A0.000 
G01 X135.521 A0.000 Z14.964
G01 X135.521 A360.000 
G01 X135.821 A360.000 Z14.963
G01 X135.821 A0.000 
G01 X136.121 A0.000 Z14.963
G01 X136.121 A360.000 
G01 X136.421 A360.000 Z14.962
G01 X136.421 A0.000 
G01 X136.721 A0.000 Z14.962
G01 X136.721 A360.000 
G01 X137.021 A360.000 Z14.961
G01 X137.021 A0.000 
G01 X137.321 A0.000 Z14.961
G01 X137.321 A360.000 
G01 X137.621 A360.000 Z14.960
G01 X137.621 A0.000 
G01 X137.921 A0.000 Z14.960
G01 X137.921 A360.000 
G01 X138.221 A360.000 Z14.959
G01 X138.221 A0.000 
G01 X138.521 A0.000 Z14.958
G01 X138.521 A360.000 
G01 X138.821 A360.000 Z14.958
G01 X138.821 A0.000 
G01 X139.121 A0.000 Z14.957
G01 X139.121 A360.000 
G01 X139.421 A360.000 Z14.957
G01 X139.421 A0.000 
G01 X139.721 A0.000 Z14.956
G01 X139.721 A360.000 
G01 X140.021 A360.000 Z14.956
G01 X140.021 A0.000 
G01 X140.321 A0.000 Z14.955
G01 X140.321 A360.000 
G01 X140.621 A360.000 Z14.954
G01 X140.621 A0.000 
G01 X140.921 A0.000 Z14.954
G01 X140.921 A360.000 
G01 X141.221 A360.000 Z14.953
G01 X141.221 A0.000 
G01 X141.521 A0.000 Z14.953
G01 X141.521 A360.000 
G01 X141.821 A360.000 Z14.952
G01 X141.821 A0.000 
G01 X142.121 A0.000 Z14.952
G01 X142.121 A360.000 
G01 X142.421 A360.000 Z14.951
G01 X142.421 A0.000 
G01 X142.721 A0.000 Z14.950
G01 X142.721 A360.000 
G01 X143.021 A360.000 Z14.950
G01 X143.021 A0.000 
G01 X143.321 A0.000 Z14.949
G01 X143.321 A360.000 
G01 X143.621 A360.000 Z14.949
G01 X143.621 A0.000 
G01 X143.921 A0.000 Z14.948
G01 X143.921 A360.000 
G01 X144.221 A360.000 Z14.948
G01 X144.221 A0.000 
G01 X144.521 A0.000 Z14.947
G01 X144.521 A360.000 
G01 X144.821 A360.000 Z14.947
G01 X144.821 A0.000 
G01 X145.121 A0.000 Z14.946
G01 X145.121 A360.000 
G01 X145.421 A360.000 Z14.945
G01 X145.421 A0.000 
G01 X145.721 A0.000 Z14.945
G01 X145.721 A360.000 Z14.945
G01 X146.021 A360.000 Z14.944
G01 X146.021 A0.000 
G01 X146.321 A0.000 Z14.944
G01 X146.321 A360.000 
G01 X146.621 A360.000 Z14.943
G01 X146.621 A0.000 
G01 X146.921 A0.000 Z14.943
G01 X146.921 A360.000 
G01 X147.221 A360.000 Z14.942
G01 X147.221 A0.000 
G01 X147.521 A0.000 Z14.941
G01 X147.521 A360.000 
G01 X147.821 A360.000 Z14.941
G01 X147.821 A0.000 
G01 X148.121 A0.000 Z14.940
G01 X148.121 A360.000 
G01 X148.421 A360.000 Z14.940
G01 X148.421 A0.000 
G01 X148.721 A0.000 Z14.939
G01 X148.721 A360.000 
G01 X149.021 A360.000 Z14.939
G01 X149.021 A0.000 
G01 X149.321 A0.000 Z14.942
G01 X149.321 A360.000 Z14.938
G01 X149.621 A360.000 Z15.008
G01 X149.621 A359.504 Z15.031
G01 X149.621 A0.000 
G01 X149.921 A0.000 Z15.129
G01 X149.921 A359.504 
G01 X149.921 A360.000 Z15.106
G01 X150.221 A360.000 Z15.200
G01 X150.221 A359.504 Z15.223
G01 X150.221 A0.000 
G01 X150.521 A0.000 Z15.313
G01 X150.521 A359.504 
G01 X150.521 A360.000 Z15.289
G01 X150.821 A360.000 Z15.379
G01 X150.821 A359.504 Z15.402
G01 X150.821 A0.000 
G01 X151.121 A0.000 Z15.497
G01 X151.121 A359.504 
G01 X151.121 A360.000 Z15.474
G01 X151.421 A360.000 Z15.571
G01 X151.421 A359.504 Z15.594
G01 X151.421 A0.000 
G01 X151.721 A0.000 Z15.694
G01 X151.721 A359.504 
G01 X151.721 A360.000 Z15.671
G01 X152.021 A360.000 Z15.774
G01 X152.021 A359.504 Z15.797
G01 X152.021 A0.000 
G01 X152.321 A0.000 Z15.903
G01 X152.321 A359.504 
G01 X152.321 A360.000 Z15.879
G01 X152.621 A360.000 Z15.989
G01 X152.621 A359.504 Z16.012
G01 X152.621 A0.000 
G01 X152.921 A0.000 Z16.126
G01 X152.921 A359.504 
G01 X152.921 A360.000 Z16.102
G01 X153.221 A360.000 Z16.216
G01 X153.221 A359.504 Z16.240
G01 X153.221 A0.000 
G01 X153.521 A0.000 Z16.359
G01 X153.521 A359.504 
G01 X153.521 A360.000 Z16.335
G01 X153.821 A360.000 Z16.458
G01 X153.821 A359.504 Z16.481
G01 X153.821 A0.000 
G01 X154.121 A0.000 Z16.610
G01 X154.121 A359.504 
G01 X154.121 A360.000 Z16.586
G01 X154.421 A360.000 Z16.718
G01 X154.421 A359.504 Z16.742
G01 X154.421 A0.000 
G01 X154.721 A0.000 Z16.877
G01 X154.721 A359.504 
G01 X154.721 A360.000 Z16.853
G01 X155.021 A360.000 Z16.994
G01 X155.021 A359.504 Z17.018
G01 X155.021 A0.000 
G01 X155.321 A0.000 Z17.161
G01 X155.321 A359.504 
G01 X155.321 A360.000 Z17.136
G01 X155.621 A360.000 Z17.283
G01 X155.621 A359.504 Z17.308
G01 X155.621 A0.000 
G01 X155.921 A0.000 Z17.459
G01 X155.921 A359.504 
G01 X155.921 A360.000 Z17.433
G01 X156.221 A360.000 Z17.585
G01 X156.221 A359.504 Z17.611
G01 X156.221 A0.000 
G01 X156.521 A0.000 Z17.765
G01 X156.521 A359.504 
G01 X156.521 A360.000 Z17.739
G01 X156.821 A360.000 Z17.900
G01 X156.821 A359.504 Z17.926
G01 X156.821 A0.000 
G01 X157.121 A0.000 Z18.093
G01 X157.121 A359.504 
G01 X157.121 A360.000 Z18.069
G01 X157.421 A360.000 Z18.243
G01 X157.421 A359.504 Z18.268
G01 X157.421 A0.000 
G01 X157.721 A0.000 Z18.447
G01 X157.721 A359.504 
G01 X157.721 A360.000 Z18.421
G01 X158.021 A360.000 Z18.605
G01 X158.021 A359.504 Z18.630
G01 X158.021 A0.000 
G01 X158.321 A0.000 Z18.818
G01 X158.321 A359.504 
G01 X158.321 A360.000 Z18.792
G01 X158.621 A360.000 Z18.985
G01 X158.621 A359.504 Z19.011
G01 X158.621 A0.000 
G01 X158.921 A0.000 Z19.210
G01 X158.921 A359.504 
G01 X158.921 A360.000 Z19.183
G01 X159.221 A360.000 Z19.386
G01 X159.221 A359.504 Z19.414
G01 X159.221 A0.000 
G01 X159.521 A0.000 Z19.618
G01 X159.521 A359.504 
G01 X159.521 A360.000 Z19.590
G01 X159.821 A360.000 Z19.802
G01 X159.821 A359.504 Z19.831
G01 X159.821 A0.000 
G01 X160.121 A0.000 Z20.050
G01 X160.121 A359.504 
G01 X160.121 A360.000 Z20.021
G01 X160.421 A360.000 Z20.248
G01 X160.421 A359.504 Z20.276
G01 X160.421 A0.000 
G01 X160.721 A0.000 Z20.513
G01 X160.721 A359.504 
G01 X160.721 A360.000 Z20.486
G01 X161.021 A360.000 Z20.728
G01 X161.021 A359.504 Z20.755
G01 X161.021 A0.000 
G01 X161.321 A0.000 Z21.005
G01 X161.321 A359.504 
G01 X161.321 A360.000 Z20.977
G01 X161.621 A360.000 Z21.234
G01 X161.621 A359.504 Z21.262
G01 X161.621 A0.000 
G01 X161.921 A0.000 Z21.526
G01 X161.921 A359.504 
G01 X161.921 A360.000 Z21.496
G01 X162.221 A360.000 Z21.765
G01 X162.221 A359.504 Z21.795
G01 X162.221 A0.000 
G01 X162.521 A0.000 Z22.075
G01 X162.521 A359.504 
G01 X162.521 A360.000 Z22.044
G01 X162.821 A360.000 Z22.332
G01 X162.821 A359.504 Z22.364
G01 X162.821 A0.000 
G01 X163.121 A0.000 Z22.662
G01 X163.121 A359.504 
G01 X163.121 A360.000 Z22.629
G01 X163.421 A360.000 Z22.931
G01 X163.421 A359.504 Z22.965
G01 X163.421 A0.000 
G01 X163.721 A0.000 Z23.278
G01 X163.721 A359.504 
G01 X163.721 A360.000 Z23.242
G01 X164.021 A360.000 Z23.570
G01 X164.021 A359.504 Z23.602
G01 X164.021 A0.000 
G01 X164.321 A0.000 Z23.945
G01 X164.321 A359.504 
G01 X164.321 A360.000 Z23.914
G01 X164.621 A360.000 Z24.273
G01 X164.621 A359.504 Z24.305
G01 X164.621 A0.000 
G01 X164.921 A0.000 Z24.675
G01 X164.921 A359.504 
G01 X164.921 A360.000 Z24.642
G01 X165.221 A360.000 Z25.023
G01 X165.221 A359.504 Z25.058
G01 X165.221 A0.000 
G01 X165.521 A0.000 Z25.448
G01 X165.521 A359.504 
G01 X165.521 A360.000 Z25.412
G01 X165.821 A360.000 Z25.805
G01 X165.821 A359.504 Z25.842
G01 X165.821 A0.000 
G01 X166.121 A0.000 Z26.240
G01 X166.121 A359.504 
G01 X166.121 A360.000 Z26.201
G01 X166.421 A360.000 Z26.600
G01 X166.421 A359.504 Z26.643
G01 X166.421 A0.000 
G01 X166.721 A0.000 Z27.051
G01 X166.721 A359.504 
G01 X166.721 A360.000 Z27.012
G01 X167.021 A360.000 Z27.451
G01 X167.021 A359.504 Z27.486
G01 X167.021 A0.000 
G01 X167.321 A0.000 Z27.924
G01 X167.321 A359.504 
G01 X167.321 A360.000 Z27.887
G01 X167.621 A360.000 Z28.330
G01 X167.621 A359.504 Z28.368
G01 X167.621 A0.000 
G01 X167.921 A0.000 Z28.803
G01 X167.921 A359.504 
G01 X167.921 A360.000 Z28.762
G01 X168.221 A360.000 Z29.170
G01 X168.221 A359.504 Z29.212
G01 X168.221 A0.000 
G01 X168.521 A0.000 Z29.623
G01 X168.521 A359.504 
G01 X168.521 A360.000 Z29.589
G01 X168.821 A360.000 Z30.000
G01 X168.821 A359.504 Z30.036
G01 X168.821 A0.000 
G01 X169.121 A0.000 Z30.407
G01 X169.121 A359.504 
G01 X169.121 A360.000 Z30.370
G01 X169.421 A360.000 Z30.724
G01 X169.421 A359.504 Z30.762
G01 X169.421 A0.000 
G01 X169.721 A0.000 Z31.125
G01 X169.721 A359.504 
G01 X169.721 A360.000 Z31.093
G01 X170.021 A360.000 Z31.435
G01 X170.021 A359.504 Z31.468
G01 X170.021 A0.000 
G01 X170.321 A0.000 Z31.789
G01 X170.321 A359.504 
G01 X170.321 A360.000 Z31.755
G01 X170.621 A360.000 Z32.063
G01 X170.621 A359.504 Z32.093
G01 X170.621 A0.000 
G01 X170.921 A0.000 Z32.412
G01 X170.921 A359.504 
G01 X170.921 A360.000 Z32.382
G01 X171.221 A360.000 Z32.682
G01 X171.221 A359.504 Z32.713
G01 X171.221 A0.000 
G01 X171.521 A0.000 Z32.994
G01 X171.521 A359.504 
G01 X171.521 A360.000 Z32.962
G01 X171.821 A360.000 Z33.240
G01 X171.821 A359.504 Z33.269
G01 X171.821 A0.000 
G01 X172.121 A0.000 Z33.547
G01 X172.121 A359.504 
G01 X172.121 A360.000 Z33.518
G01 X172.421 A360.000 Z33.779
G01 X172.421 A359.504 Z33.809
G01 X172.421 A0.000 
G01 X172.721 A0.000 Z34.052
G01 X172.721 A359.504 
G01 X172.721 A360.000 Z34.022
G01 X173.021 A360.000 Z34.274
G01 X173.021 A359.504 Z34.301
G01 X173.021 A0.000 
G01 X173.321 A0.000 Z34.542
G01 X173.321 A359.504 
G01 X173.321 A360.000 Z34.514
G01 X173.621 A360.000 Z34.739
G01 X173.621 A359.504 Z34.768
G01 X173.621 A0.000 
G01 X173.921 A0.000 Z34.982
G01 X173.921 A359.504 
G01 X173.921 A360.000 Z34.955
G01 X174.221 A360.000 Z35.180
G01 X174.221 A359.504 Z35.207
G01 X174.221 A0.000 
G01 X174.521 A0.000 Z35.414
G01 X174.521 A359.504 
G01 X174.521 A360.000 Z35.387
G01 X174.821 A360.000 Z35.581
G01 X174.821 A359.504 Z35.609
G01 X174.821 A0.000 
G01 X175.121 A0.000 Z35.803
G01 X175.121 A359.504 
G01 X175.121 A360.000 Z35.778
G01 X175.421 A360.000 Z35.972
G01 X175.421 A359.504 Z35.998
G01 X175.421 A0.000 
G01 X175.721 A0.000 Z36.180
G01 X175.721 A359.504 
G01 X175.721 A360.000 Z36.153
G01 X176.021 A360.000 Z36.322
G01 X176.021 A359.504 Z36.348
G01 X176.021 A0.000 
G01 X176.321 A0.000 Z36.524
G01 X176.321 A359.504 
G01 X176.321 A360.000 Z36.499
G01 X176.621 A360.000 Z36.666
G01 X176.621 A359.504 Z36.691
G01 X176.621 A0.000 
G01 X176.921 A0.000 Z36.848
G01 X176.921 A359.504 
G01 X176.921 A360.000 Z36.822
G01 X177.221 A360.000 Z36.974
G01 X177.221 A359.504 Z36.999
G01 X177.221 A0.000 
G01 X177.521 A0.000 Z37.154
G01 X177.521 A359.504 
G01 X177.521 A360.000 Z37.129
G01 X177.821 A360.000 Z37.272
G01 X177.821 A359.504 Z37.296
G01 X177.821 A0.000 
G01 X178.121 A0.000 Z37.430
G01 X178.121 A359.504 
G01 X178.121 A360.000 Z37.405
G01 X178.421 A360.000 Z37.542
G01 X178.421 A359.504 Z37.565
G01 X178.421 A0.000 
G01 X178.721 A0.000 Z37.698
G01 X178.721 A359.504 
G01 X178.721 A360.000 Z37.674
G01 X179.021 A360.000 Z37.800
G01 X179.021 A359.504 Z37.824
G01 X179.021 A0.000 
G01 X179.321 A0.000 Z37.943
G01 X179.321 A359.504 
G01 X179.321 A360.000 Z37.919
G01 X179.621 A360.000 Z38.041
G01 X179.621 A359.504 Z38.065
G01 X179.621 A0.000 
G01 X179.921 A0.000 Z38.184
G01 X179.921 A359.504 
G01 X179.921 A360.000 Z38.161
G01 X180.221 A360.000 Z38.273
G01 X180.221 A359.504 Z38.297
G01 X180.221 A0.000 
G01 X180.521 A0.000 Z38.405
G01 X180.521 A359.504 
G01 X180.521 A360.000 Z38.381
G01 X180.821 A360.000 Z38.490
G01 X180.821 A359.504 Z38.513
G01 X180.821 A0.000 
G01 X181.121 A0.000 Z38.622
G01 X181.121 A359.504 
G01 X181.121 A360.000 Z38.599
G01 X181.421 A360.000 Z38.702
G01 X181.421 A359.504 Z38.725
G01 X181.421 A0.000 
G01 X181.721 A0.000 Z38.820
G01 X181.721 A359.504 
G01 X181.721 A360.000 Z38.796
G01 X182.021 A360.000 Z38.892
G01 X182.021 A359.504 Z38.915
G01 X182.021 A0.000 
G01 X182.321 A0.000 Z39.011
G01 X182.321 A359.504 
G01 X182.321 A360.000 Z38.988
G01 X182.621 A360.000 Z39.080
G01 X182.621 A359.504 Z39.103
G01 X182.621 A0.000 
G01 X182.921 A0.000 Z39.188
G01 X182.921 A359.504 
G01 X182.921 A360.000 Z39.165
G01 X183.221 A360.000 Z39.248
G01 X183.221 A359.504 Z39.271
G01 X183.221 A0.000 
G01 X183.521 A0.000 Z39.356
G01 X183.521 A359.504 
G01 X183.521 A360.000 Z39.333
G01 X183.821 A360.000 Z39.408
G01 X183.821 A359.504 Z39.431
G01 X183.821 A0.000 
G01 X184.121 A0.000 Z39.499
G01 X184.121 A359.504 
G01 X184.121 A360.000 Z39.476
G01 X184.421 A360.000 Z39.547
G01 X184.421 A359.504 Z39.569
G01 X184.421 A0.000 
G01 X184.721 A0.000 Z39.631
G01 X184.721 A359.504 
G01 X184.721 A360.000 Z39.608
G01 X185.021 A360.000 Z39.660
G01 X185.021 A359.504 Z39.683
G01 X185.021 A0.000 
G01 X185.321 A0.000 Z39.735
G01 X185.321 A359.504 
G01 X185.321 A360.000 Z39.713
G01 X185.621 A360.000 Z39.762
G01 X185.621 A359.504 Z39.784
G01 X185.621 A0.000 
G01 X185.921 A0.000 Z39.824
G01 X185.921 A359.504 
G01 X185.921 A360.000 Z39.802
G01 X186.221 A360.000 Z39.838
G01 X186.221 A359.504 Z39.858
G01 X186.221 A0.000 
G01 X186.521 A0.000 Z39.885
G01 X186.521 A359.504 
G01 X186.521 A360.000 Z39.874
G01 X186.821 A360.000 Z39.896
G01 X186.821 A0.000 
G01 X187.121 A0.000 Z39.897
G01 X187.121 A360.000 Z39.897
G01 X187.421 A360.000 Z39.897
G01 X187.421 A0.000 
G01 X187.721 A0.000 
G01 X187.721 A360.000 
G01 X188.021 A360.000 
G01 X188.021 A0.000 
G01 X188.321 A0.000 
G01 X188.321 A360.000 
G01 X188.621 A360.000 
G01 X188.621 A0.000 
G01 X188.921 A0.000 
G01 X188.921 A360.000 
G01 X189.221 A360.000 
G01 X189.221 A0.000 
G01 X189.521 A0.000 
G01 X189.521 A360.000 
G01 X189.821 A360.000 
G01 X189.821 A0.000 
G01 X190.121 A0.000 
G01 X190.121 A360.000 
G01 X190.421 A360.000 
G01 X190.421 A0.000 
G01 X190.721 A0.000 
G01 X190.721 A360.000 
G01 X191.021 A360.000 
G01 X191.021 A0.000 
G01 X191.321 A0.000 
G01 X191.321 A360.000 
G01 X191.621 A360.000 
G01 X191.621 A0.000 
G01 X191.921 A0.000 
G01 X191.921 A360.000 
G01 X192.221 A360.000 
G01 X192.221 A0.000 
G01 X192.521 A0.000 
G01 X192.521 A360.000 
G01 X192.821 A360.000 
G01 X192.821 A0.000 
G01 X193.121 A0.000 
G01 X193.121 A360.000 
G01 X193.421 A360.000 
G01 X193.421 A0.000 
G01 X193.721 A0.000 
G01 X193.721 A360.000 
G01 X194.021 A360.000 
G01 X194.021 A0.000 
G01 X194.321 A0.000 
G01 X194.321 A360.000 
G01 X194.621 A360.000 
G01 X194.621 A0.000 
G01 X194.921 A0.000 
G01 X194.921 A360.000 
G01 X195.221 A360.000 
G01 X195.221 A0.000 
G01 X195.521 A0.000 
G01 X195.521 A360.000 
G01 X195.821 A360.000 
G01 X195.821 A0.000 
G01 X196.121 A0.000 
G01 X196.121 A360.000 
G01 X196.421 A360.000 
G01 X196.421 A0.000 
G01 X196.721 A0.000 
G01 X196.721 A360.000 
G01 X197.021 A360.000 
G01 X197.021 A0.000 
G01 X197.321 A0.000 
G01 X197.321 A360.000 
G01 X197.621 A360.000 
G01 X197.621 A0.000 
G01 X197.921 A0.000 
G01 X197.921 A360.000 
G01 X198.221 A360.000 
G01 X198.221 A0.000 
G01 X198.521 A0.000 
G01 X198.521 A360.000 
G01 X198.821 A360.000 
G01 X198.821 A0.000 
G01 X199.121 A0.000 
G01 X199.121 A360.000 
G01 X199.421 A360.000 
G01 X199.421 A0.000 
G01 X199.721 A0.000 
G01 X199.721 A360.000 
G01 X200.021 A360.000 
G01 X200.021 A0.000 
G01 X200.321 A0.000 
G01 X200.321 A360.000 
G01 X200.621 A360.000 
G01 X200.621 A0.000 
G01 X200.921 A0.000 
G01 X200.921 A360.000 
G01 X201.221 A360.000 
G01 X201.221 A0.000 
G01 X201.521 A0.000 
G01 X201.521 A360.000 
G01 X201.821 A360.000 
G01 X201.821 A0.000 
G01 X202.121 A0.000 
G01 X202.121 A360.000 
G01 X202.421 A360.000 
G01 X202.421 A0.000 
G01 X202.721 A0.000 
G01 X202.721 A360.000 
G01 X203.021 A360.000 
G01 X203.021 A0.000 
G01 X203.321 A0.000 
G01 X203.321 A360.000 
G01 X203.621 A360.000 
G01 X203.621 A0.000 
G01 X203.921 A0.000 
G01 X203.921 A360.000 
G01 X204.221 A360.000 
G01 X204.221 A0.000 
G01 X204.521 A0.000 
G01 X204.521 A360.000 
G01 X204.821 A360.000 
G01 X204.821 A0.000 
G01 X205.121 A0.000 
G01 X205.121 A360.000 
G01 X205.421 A360.000 
G01 X205.421 A0.000 
G01 X205.721 A0.000 
G01 X205.721 A360.000 
G01 X206.021 A360.000 
G01 X206.021 A0.000 
G01 X206.321 A0.000 
G01 X206.321 A360.000 
G01 X206.621 A360.000 
G01 X206.621 A0.000 
G01 X206.921 A0.000 
G01 X206.921 A360.000 
G01 X207.221 A360.000 
G01 X207.221 A0.000 
G01 X207.521 A0.000 
G01 X207.521 A360.000 
G01 X207.821 A360.000 
G01 X207.821 A0.000 
G01 X208.121 A0.000 
G01 X208.121 A360.000 
G01 X208.421 A360.000 
G01 X208.421 A0.000 
G01 X208.721 A0.000 
G01 X208.721 A360.000 
G01 X209.021 A360.000 
G01 X209.021 A0.000 
G01 X209.321 A0.000 
G01 X209.321 A360.000 
G01 X209.621 A360.000 
G01 X209.621 A0.000 
G01 X209.921 A0.000 
G01 X209.921 A360.000 
G01 X210.221 A360.000 
G01 X210.221 A0.000 
G01 X210.521 A0.000 
G01 X210.521 A360.000 
G01 X210.821 A360.000 
G01 X210.821 A0.000 
G01 X211.121 A0.000 
G01 X211.121 A360.000 
G01 X211.421 A360.000 
G01 X211.421 A0.000 
G01 X211.721 A0.000 
G01 X211.721 A360.000 
G01 X212.021 A360.000 
G01 X212.021 A0.000 
G01 X212.321 A0.000 
G01 X212.321 A360.000 
G01 X212.621 A360.000 
G01 X212.621 A0.000 
G01 X212.921 A0.000 
G01 X212.921 A360.000 
G01 X213.221 A360.000 
G01 X213.221 A0.000 
G01 X213.521 A0.000 
G01 X213.521 A360.000 
G01 X213.821 A360.000 
G01 X213.821 A0.000 
G01 X214.121 A0.000 
G01 X214.121 A360.000 
G01 X214.421 A360.000 
G01 X214.421 A0.000 
G01 X214.721 A0.000 
G01 X214.721 A360.000 
G01 X215.021 A360.000 
G01 X215.021 A0.000 
G01 X215.321 A0.000 
G01 X215.321 A360.000 
G01 X215.621 A360.000 
G01 X215.621 A0.000 
G01 X215.921 A0.000 
G01 X215.921 A360.000 
G01 X216.221 A360.000 
G01 X216.221 A0.000 
G01 X216.521 A0.000 
G01 X216.521 A360.000 
G01 X216.821 A360.000 
G01 X216.821 A0.000 
G01 X217.121 A0.000 
G01 X217.121 A360.000 
G01 X217.421 A360.000 Z39.897
G01 X217.421 A0.000 
G01 X217.721 A0.000 Z39.896
G01 X217.721 A360.000 Z39.892
G01 X218.021 A360.000 Z39.871
G01 X218.021 A0.000 Z39.875
G01 X218.321 A0.000 Z39.856
G01 X218.321 A359.504 
G01 X218.321 A360.000 Z39.834
G01 X218.621 A360.000 Z39.788
G01 X218.621 A359.504 Z39.810
G01 X218.621 A0.000 
G01 X218.921 A0.000 Z39.756
G01 X218.921 A359.504 
G01 X218.921 A360.000 Z39.733
G01 X219.221 A360.000 Z39.669
G01 X219.221 A359.504 Z39.691
G01 X219.221 A0.000 
G01 X219.521 A0.000 Z39.628
G01 X219.521 A359.504 
G01 X219.521 A360.000 Z39.605
G01 X219.821 A360.000 Z39.544
G01 X219.821 A359.504 Z39.566
G01 X219.821 A0.000 
G01 X220.121 A0.000 Z39.501
G01 X220.121 A359.504 
G01 X220.121 A360.000 Z39.478
G01 X220.421 A360.000 Z39.408
G01 X220.421 A359.504 Z39.431
G01 X220.421 A0.000 
G01 X220.721 A0.000 Z39.355
G01 X220.721 A359.504 
G01 X220.721 A360.000 Z39.333
G01 X221.021 A360.000 Z39.264
G01 X221.021 A359.504 Z39.287
G01 X221.021 A0.000 
G01 X221.321 A0.000 Z39.212
G01 X221.321 A359.504 
G01 X221.321 A360.000 Z39.189
G01 X221.621 A360.000 Z39.109
G01 X221.621 A359.504 Z39.132
G01 X221.621 A0.000 
G01 X221.921 A0.000 Z39.047
G01 X221.921 A359.504 
G01 X221.921 A360.000 Z39.024
G01 X222.221 A360.000 Z38.943
G01 X222.221 A359.504 Z38.966
G01 X222.221 A0.000 
G01 X222.521 A0.000 Z38.882
G01 X222.521 A359.504 
G01 X222.521 A360.000 Z38.859
G01 X222.821 A360.000 Z38.768
G01 X222.821 A359.504 Z38.791
G01 X222.821 A0.000 
G01 X223.121 A0.000 Z38.695
G01 X223.121 A359.504 
G01 X223.121 A360.000 Z38.672
G01 X223.421 A360.000 Z38.579
G01 X223.421 A359.504 Z38.602
G01 X223.421 A0.000 
G01 X223.721 A0.000 Z38.507
G01 X223.721 A359.504 
G01 X223.721 A360.000 Z38.483
G01 X224.021 A360.000 Z38.382
G01 X224.021 A359.504 Z38.405
G01 X224.021 A0.000 
G01 X224.321 A0.000 Z38.297
G01 X224.321 A359.504 
G01 X224.321 A360.000 Z38.274
G01 X224.621 A360.000 Z38.167
G01 X224.621 A359.504 Z38.191
G01 X224.621 A0.000 
G01 X224.921 A0.000 Z38.083
G01 X224.921 A359.504 
G01 X224.921 A360.000 Z38.059
G01 X225.221 A360.000 Z37.943
G01 X225.221 A359.504 Z37.966
G01 X225.221 A0.000 
G01 X225.521 A0.000 Z37.840
G01 X225.521 A359.504 
G01 X225.521 A360.000 Z37.817
G01 X225.821 A360.000 Z37.697
G01 X225.821 A359.504 Z37.721
G01 X225.821 A0.000 
G01 X226.121 A0.000 Z37.594
G01 X226.121 A359.504 
G01 X226.121 A360.000 Z37.570
G01 X226.421 A360.000 Z37.433
G01 X226.421 A359.504 Z37.457
G01 X226.421 A0.000 
G01 X226.721 A0.000 Z37.315
G01 X226.721 A359.504 
G01 X226.721 A360.000 Z37.290
G01 X227.021 A360.000 Z37.152
G01 X227.021 A359.504 Z37.177
G01 X227.021 A0.000 
G01 X227.321 A0.000 Z37.030
G01 X227.321 A359.504 
G01 X227.321 A360.000 Z37.006
G01 X227.621 A360.000 Z36.849
G01 X227.621 A359.504 Z36.873
G01 X227.621 A0.000 
G01 X227.921 A0.000 Z36.716
G01 X227.921 A359.504 
G01 X227.921 A360.000 Z36.690
G01 X228.221 A360.000 Z36.530
G01 X228.221 A359.504 Z36.556
G01 X228.221 A0.000 
G01 X228.521 A0.000 Z36.387
G01 X228.521 A359.504 
G01 X228.521 A360.000 Z36.362
G01 X228.821 A360.000 Z36.178
G01 X228.821 A359.504 Z36.204
G01 X228.821 A0.000 
G01 X229.121 A0.000 Z36.029
G01 X229.121 A359.504 
G01 X229.121 A360.000 Z36.002
G01 X229.421 A360.000 Z35.822
G01 X229.421 A359.504 Z35.848
G01 X229.421 A0.000 
G01 X229.721 A0.000 Z35.655
G01 X229.721 A359.504 
G01 X229.721 A360.000 Z35.630
G01 X230.021 A360.000 Z35.425
G01 X230.021 A359.504 Z35.453
G01 X230.021 A0.000 
G01 X230.321 A0.000 Z35.259
G01 X230.321 A359.504 
G01 X230.321 A360.000 Z35.231
G01 X230.621 A360.000 Z35.023
G01 X230.621 A359.504 Z35.050
G01 X230.621 A0.000 
G01 X230.921 A0.000 Z34.829
G01 X230.921 A359.504 
G01 X230.921 A360.000 Z34.803
G01 X231.221 A360.000 Z34.578
G01 X231.221 A359.504 Z34.607
G01 X231.221 A0.000 
G01 X231.521 A0.000 Z34.381
G01 X231.521 A359.504 
G01 X231.521 A360.000 Z34.353
G01 X231.821 A360.000 Z34.113
G01 X231.821 A359.504 Z34.141
G01 X231.821 A0.000 
G01 X232.121 A0.000 Z33.888
G01 X232.121 A359.504 
G01 X232.121 A360.000 Z33.861
G01 X232.421 A360.000 Z33.613
G01 X232.421 A359.504 Z33.644
G01 X232.421 A0.000 
G01 X232.721 A0.000 Z33.389
G01 X232.721 A359.504 
G01 X232.721 A360.000 Z33.360
G01 X233.021 A360.000 Z33.088
G01 X233.021 A359.504 Z33.117
G01 X233.021 A0.000 
G01 X233.321 A0.000 Z32.831
G01 X233.321 A359.504 
G01 X233.321 A360.000 Z32.803
G01 X233.621 A360.000 Z32.529
G01 X233.621 A359.504 Z32.561
G01 X233.621 A0.000 
G01 X233.921 A0.000 Z32.263
G01 X233.921 A359.504 
G01 X233.921 A360.000 Z32.232
G01 X234.221 A360.000 Z31.921
G01 X234.221 A359.504 Z31.951
G01 X234.221 A0.000 
G01 X234.521 A0.000 Z31.633
G01 X234.521 A359.504 
G01 X234.521 A360.000 Z31.598
G01 X234.821 A360.000 Z31.278
G01 X234.821 A359.504 Z31.311
G01 X234.821 A0.000 
G01 X235.121 A0.000 Z30.967
G01 X235.121 A359.504 
G01 X235.121 A360.000 Z30.934
G01 X235.421 A360.000 Z30.569
G01 X235.421 A359.504 Z30.601
G01 X235.421 A0.000 
G01 X235.721 A0.000 Z30.245
G01 X235.721 A359.504 
G01 X235.721 A360.000 Z30.207
G01 X236.021 A360.000 Z29.835
G01 X236.021 A359.504 Z29.871
G01 X236.021 A0.000 
G01 X236.321 A0.000 Z29.463
G01 X236.321 A359.504 
G01 X236.321 A360.000 Z29.428
G01 X236.621 A360.000 Z28.996
G01 X236.621 A359.504 Z29.029
G01 X236.621 A0.000 
G01 X236.921 A0.000 Z28.627
G01 X236.921 A359.504 
G01 X236.921 A360.000 Z28.585
G01 X237.221 A360.000 Z28.138
G01 X237.221 A359.504 Z28.178
G01 X237.221 A0.000 
G01 X237.521 A0.000 Z27.689
G01 X237.521 A359.504 
G01 X237.521 A360.000 Z27.651
G01 X237.821 A360.000 Z27.129
G01 X237.821 A359.504 Z27.182
G01 X237.821 A0.000 
G01 X238.121 A0.000 Z26.677
G01 X238.121 A359.504 
G01 X238.121 A360.000 Z26.629
G01 X238.421 A360.000 Z26.063
G01 X238.421 A359.504 Z26.107
G01 X238.421 A0.000 
G01 X238.721 A0.000 Z25.470
G01 X238.721 A359.504 
G01 X238.721 A360.000 Z25.429
G01 X239.021 A360.000 Z24.786
G01 X239.021 A359.504 Z24.854
G01 X239.021 A0.000 
G01 X239.321 A0.000 Z24.242
G01 X239.321 A359.504 
G01 X239.321 A360.000 Z24.184
G01 X239.621 A360.000 Z23.490
G01 X239.621 A359.504 Z23.542
G01 X239.621 A0.000 
G01 X239.921 A0.000 Z22.767
G01 X239.921 A359.504 
G01 X239.921 A360.000 Z22.720
G01 X240.221 A360.000 Z21.866
G01 X240.221 A359.504 Z21.941
G01 X240.221 A0.000 
G01 X240.521 A0.000 Z21.225
G01 X240.521 A359.504 
G01 X240.521 A360.000 Z21.144
G01 X240.821 A360.000 Z20.282
G01 X240.821 A359.504 Z20.347
G01 X240.821 A0.000 
G01 X241.121 A0.000 Z19.301
G01 X241.121 A359.504 
G01 X241.121 A360.000 Z19.245
G01 X241.421 A360.000 Z17.985
G01 X241.421 A359.504 Z18.036
G01 X241.421 A0.000 
G01 X241.721 A0.000 Z16.990
G01 X241.721 A359.504 
G01 X241.721 A360.000 Z16.349
G01 X242.021 A360.000 Z15.510
G01 X242.021 A359.504 Z15.616
G01 X242.021 A0.000 
G01 X242.321 A0.000 Z13.009
G01 X242.321 A359.504 
G01 X242.321 A360.000 Z12.933
G01 X242.621 A360.000 Z12.499
G01 X242.621 A0.000 
G01 X242.921 A0.000 Z12.499
G01 X242.921 A360.000 
G01 X243.221 A360.000 Z12.499
G01 X243.221 A0.000 
G01 X243.521 A0.000 Z12.499
G01 X243.521 A360.000 
G01 X243.821 A360.000 Z12.499
G01 X243.821 A0.000 
G01 X244.121 A0.000 Z12.499
G01 X244.121 A360.000 
G01 X244.421 A360.000 Z12.499
G01 X244.421 A0.000 
G01 X244.721 A0.000 Z12.499
G01 X244.721 A360.000 
G01 X245.021 A360.000 Z12.499
G01 X245.021 A0.000 
G01 X245.321 A0.000 Z12.499
G01 X245.321 A360.000 
G01 X245.621 A360.000 Z12.500
G01 X245.621 A0.000 
G01 X245.921 A0.000 Z12.500
G01 X245.921 A360.000 
G01 X246.221 A360.000 Z12.500
G01 X246.221 A0.000 
G01 X246.521 A0.000 Z12.500
G01 X246.521 A360.000 
G01 X246.821 A360.000 Z12.500
G01 X246.821 A0.000 
G01 X247.121 A0.000 Z12.500
G01 X247.121 A360.000 
G01 X247.421 A360.000 Z12.500
G01 X247.421 A0.000 
G01 X247.721 A0.000 Z12.500
G01 X247.721 A360.000 
G01 X248.021 A360.000 Z12.500
G01 X248.021 A0.000 
G01 X248.321 A0.000 Z12.500
G01 X248.321 A360.000 
G01 X248.621 A360.000 Z12.499
G01 X248.621 A0.000 
G01 X248.921 A0.000 Z12.499
G01 X248.921 A360.000 
G01 X249.221 A360.000 Z12.499
G01 X249.221 A0.000 
G01 X249.521 A0.000 Z12.499
G01 X249.521 A360.000 
G01 X249.821 A360.000 Z12.499
G01 X249.821 A0.000 
G01 X250.121 A0.000 Z12.499
G01 X250.121 A360.000 
G01 X250.421 A360.000 Z12.499
G01 X250.421 A0.000 
G01 X250.721 A0.000 Z12.499
G01 X250.721 A360.000 
G01 X251.021 A360.000 Z12.499
G01 X251.021 A0.000 
G01 X251.321 A0.000 Z12.499
G01 X251.321 A360.000 
G01 X251.621 A360.000 Z14.524
G01 X251.621 A359.504 Z14.580
G01 X251.621 A0.000 
G01 X251.921 A0.000 Z16.547
G01 X251.921 A359.504 
G01 X251.921 A360.000 Z16.484
G01 X252.221 A360.000 Z17.867
G01 X252.221 A359.504 Z17.945
G01 X252.221 A0.000 
G01 X252.521 A0.000 Z18.613
G01 X252.521 A359.504 
G01 X252.521 A360.000 Z18.570
G01 X252.821 A360.000 Z19.857
G01 X252.821 A359.504 Z19.903
G01 X252.821 A0.000 
G01 X253.121 A0.000 Z20.966
G01 X253.121 A359.504 
G01 X253.121 A360.000 Z20.915
G01 X253.421 A360.000 Z21.872
G01 X253.421 A359.504 Z21.929
G01 X253.421 A0.000 
G01 X253.721 A0.000 Z22.768
G01 X253.721 A359.504 
G01 X253.721 A360.000 Z22.701
G01 X254.021 A360.000 Z23.406
G01 X254.021 A359.504 Z23.490
G01 X254.021 A0.000 
G01 X254.321 A0.000 Z24.185
G01 X254.321 A359.504 
G01 X254.321 A360.000 Z24.141
G01 X254.621 A360.000 Z24.855
G01 X254.621 A359.504 Z24.903
G01 X254.621 A0.000 
G01 X254.921 A0.000 Z25.532
G01 X254.921 A359.504 
G01 X254.921 A360.000 Z25.479
G01 X255.221 A360.000 Z26.017
G01 X255.221 A359.504 Z26.076
G01 X255.221 A0.000 
G01 X255.521 A0.000 Z26.629
G01 X255.521 A359.504 
G01 X255.521 A360.000 Z26.590
G01 X255.821 A360.000 Z27.137
G01 X255.821 A359.504 Z27.179
G01 X255.821 A0.000 
G01 X256.121 A0.000 Z27.670
G01 X256.121 A359.504 
G01 X256.121 A360.000 Z27.625
G01 X256.421 A360.000 Z28.073
G01 X256.421 A359.504 Z28.122
G01 X256.421 A0.000 
G01 X256.721 A0.000 Z28.589
G01 X256.721 A359.504 
G01 X256.721 A360.000 Z28.552
G01 X257.021 A360.000 Z28.991
G01 X257.021 A359.504 Z29.029
G01 X257.021 A0.000 
G01 X257.321 A0.000 Z29.441
G01 X257.321 A359.504 
G01 X257.321 A360.000 Z29.401
G01 X257.621 A360.000 Z29.786
G01 X257.621 A359.504 Z29.818
G01 X257.621 A0.000 
G01 X257.921 A0.000 Z30.221
G01 X257.921 A359.504 
G01 X257.921 A360.000 Z30.188
G01 X258.221 A360.000 Z30.565
G01 X258.221 A359.504 Z30.600
G01 X258.221 A0.000 
G01 X258.521 A0.000 Z30.951
G01 X258.521 A359.504 
G01 X258.521 A360.000 Z30.914
G01 X258.821 A360.000 Z31.255
G01 X258.821 A359.504 Z31.286
G01 X258.821 A0.000 
G01 X259.121 A0.000 Z31.632
G01 X259.121 A359.504 
G01 X259.121 A360.000 Z31.600
G01 X259.421 A360.000 Z31.920
G01 X259.421 A359.504 Z31.953
G01 X259.421 A0.000 
G01 X259.721 A0.000 Z32.252
G01 X259.721 A359.504 
G01 X259.721 A360.000 Z32.218
G01 X260.021 A360.000 Z32.524
G01 X260.021 A359.504 Z32.553
G01 X260.021 A0.000 
G01 X260.321 A0.000 Z32.847
G01 X260.321 A359.504 
G01 X260.321 A360.000 Z32.816
G01 X260.621 A360.000 Z33.093
G01 X260.621 A359.504 Z33.124
G01 X260.621 A0.000 
G01 X260.921 A0.000 Z33.381
G01 X260.921 A359.504 
G01 X260.921 A360.000 Z33.353
G01 X261.221 A360.000 Z33.621
G01 X261.221 A359.504 Z33.649
G01 X261.221 A0.000 
G01 X261.521 A0.000 Z33.907
G01 X261.521 A359.504 
G01 X261.521 A360.000 Z33.879
G01 X261.821 A360.000 Z34.116
G01 X261.821 A359.504 Z34.145
G01 X261.821 A0.000 
G01 X262.121 A0.000 Z34.379
G01 X262.121 A359.504 
G01 X262.121 A360.000 Z34.352
G01 X262.421 A360.000 Z34.592
G01 X262.421 A359.504 Z34.620
G01 X262.421 A0.000 
G01 X262.721 A0.000 Z34.843
G01 X262.721 A359.504 
G01 X262.721 A360.000 Z34.815
G01 X263.021 A360.000 Z35.021
G01 X263.021 A359.504 Z35.049
G01 X263.021 A0.000 
G01 X263.321 A0.000 Z35.261
G01 X263.321 A359.504 
G01 X263.321 A360.000 Z35.235
G01 X263.621 A360.000 Z35.442
G01 X263.621 A359.504 Z35.468
G01 X263.621 A0.000 
G01 X263.921 A0.000 Z35.662
G01 X263.921 A359.504 
G01 X263.921 A360.000 Z35.635
G01 X264.221 A360.000 Z35.819
G01 X264.221 A359.504 Z35.844
G01 X264.221 A0.000 
G01 X264.521 A0.000 Z36.036
G01 X264.521 A359.504 
G01 X264.521 A360.000 Z36.010
G01 X264.821 A360.000 Z36.190
G01 X264.821 A359.504 Z36.216
G01 X264.821 A0.000 
G01 X265.121 A0.000 Z36.384
G01 X265.121 A359.504 
G01 X265.121 A360.000 Z36.358
G01 X265.421 A360.000 Z36.525
G01 X265.421 A359.504 Z36.549
G01 X265.421 A0.000 
G01 X265.721 A0.000 Z36.716
G01 X265.721 A359.504 
G01 X265.721 A360.000 Z36.691
G01 X266.021 A360.000 Z36.847
G01 X266.021 A359.504 Z36.872
G01 X266.021 A0.000 
G01 X266.321 A0.000 Z37.021
G01 X266.321 A359.504 
G01 X266.321 A360.000 Z36.996
G01 X266.621 A360.000 Z37.147
G01 X266.621 A359.504 Z37.171
G01 X266.621 A0.000 
G01 X266.921 A0.000 Z37.317
G01 X266.921 A359.504 
G01 X266.921 A360.000 Z37.292
G01 X267.221 A360.000 Z37.427
G01 X267.221 A359.504 Z37.452
G01 X267.221 A0.000 
G01 X267.521 A0.000 Z37.578
G01 X267.521 A359.504 
G01 X267.521 A360.000 Z37.555
G01 X267.821 A360.000 Z37.689
G01 X267.821 A359.504 Z37.712
G01 X267.821 A0.000 
G01 X268.121 A0.000 Z37.834
G01 X268.121 A359.504 
G01 X268.121 A360.000 Z37.811
G01 X268.421 A360.000 Z37.928
G01 X268.421 A359.504 Z37.952
G01 X268.421 A0.000 
G01 X268.721 A0.000 Z38.064
G01 X268.721 A359.504 
G01 X268.721 A360.000 Z38.041
G01 X269.021 A360.000 Z38.153
G01 X269.021 A359.504 Z38.177
G01 X269.021 A0.000 
G01 X269.321 A0.000 Z38.283
G01 X269.321 A359.504 
G01 X269.321 A360.000 Z38.260
G01 X269.621 A360.000 Z38.356
G01 X269.621 A359.504 Z38.380
G01 X269.621 A0.000 
G01 X269.921 A0.000 Z38.479
G01 X269.921 A359.504 
G01 X269.921 A360.000 Z38.456
G01 X270.221 A360.000 Z38.552
G01 X270.221 A359.504 Z38.575
G01 X270.221 A0.000 
G01 X270.521 A0.000 Z38.662
G01 X270.521 A359.504 
G01 X270.521 A360.000 Z38.639
G01 X270.821 A360.000 Z38.720
G01 X270.821 A359.504 Z38.743
G01 X270.821 A0.000 
G01 X271.121 A0.000 Z38.830
G01 X271.121 A359.504 
G01 X271.121 A360.000 Z38.807
G01 X271.421 A360.000 Z38.890
G01 X271.421 A359.504 Z38.913
G01 X271.421 A0.000 
G01 X271.721 A0.000 Z38.988
G01 X271.721 A359.504 
G01 X271.721 A360.000 Z38.965
G01 X272.021 A360.000 Z39.035
G01 X272.021 A359.504 Z39.058
G01 X272.021 A0.000 
G01 X272.321 A0.000 Z39.132
G01 X272.321 A359.504 
G01 X272.321 A360.000 Z39.110
G01 X272.621 A360.000 Z39.181
G01 X272.621 A359.504 Z39.204
G01 X272.621 A0.000 
G01 X272.921 A0.000 Z39.269
G01 X272.921 A359.504 
G01 X272.921 A360.000 Z39.246
G01 X273.221 A360.000 Z39.306
G01 X273.221 A359.504 Z39.329
G01 X273.221 A0.000 
G01 X273.521 A0.000 Z39.392
G01 X273.521 A359.504 
G01 X273.521 A360.000 Z39.369
G01 X273.821 A360.000 Z39.428
G01 X273.821 A359.504 Z39.451
G01 X273.821 A0.000 
G01 X274.121 A0.000 Z39.504
G01 X274.121 A359.504 
G01 X274.121 A360.000 Z39.482
G01 X274.421 A360.000 Z39.530
G01 X274.421 A359.504 Z39.553
G01 X274.421 A0.000 
G01 X274.721 A0.000 Z39.604
G01 X274.721 A359.504 
G01 X274.721 A360.000 Z39.582
G01 X275.021 A360.000 Z39.631
G01 X275.021 A359.504 Z39.653
G01 X275.021 A0.000 
G01 X275.321 A0.000 Z39.697
G01 X275.321 A359.504 
G01 X275.321 A360.000 Z39.675
G01 X275.621 A360.000 Z39.713
G01 X275.621 A359.504 Z39.735
G01 X275.621 A0.000 
G01 X275.921 A0.000 Z39.775
G01 X275.921 A359.504 
G01 X275.921 A360.000 Z39.752
G01 X276.221 A360.000 Z39.792
G01 X276.221 A359.504 Z39.814
G01 X276.221 A0.000 
G01 X276.521 A0.000 Z39.847
G01 X276.521 A359.504 
G01 X276.521 A360.000 Z39.829
G01 X276.821 A360.000 Z39.862
G01 X276.821 A357.521 Z39.874
G01 X276.821 A0.000 
G01 X277.121 A0.000 Z39.902
G01 X277.121 A359.504 
G01 X277.121 A360.000 Z39.892
G01 X277.421 A360.000 Z39.920
G01 X277.421 A350.578 Z39.930
G01 X277.421 A0.000 
G01 X277.721 A0.000 Z39.953
G01 X277.721 A360.000 Z39.945
G01 X278.021 A360.000 Z39.967
G01 X278.021 A0.000 Z39.971
G01 X278.321 A0.000 Z39.988
G01 X278.321 A360.000 Z39.987
G01 X278.621 A360.000 Z40.003
G01 X278.621 A0.000 Z40.007
G01 X278.921 A0.000 Z40.012
G01 X278.921 A360.000 
G01 X279.221 A360.000 Z40.014
G01 X279.221 A0.000 
G01 X279.521 A0.000 Z40.013
G01 X279.521 A360.000 
G01 X279.821 A360.000 Z40.011
G01 X279.821 A0.000 Z40.011
G01 X280.121 A0.000 Z40.010
G01 X280.121 A360.000 
G01 X280.421 A360.000 Z40.008
G01 X280.421 A0.000 
G01 X280.721 A0.000 Z40.006
G01 X280.721 A360.000 
G01 X281.021 A360.000 Z40.005
G01 X281.021 A0.000 
G01 X281.321 A0.000 Z40.003
G01 X281.321 A360.000 
G01 X281.621 A360.000 Z40.002
G01 X281.621 A0.000 Z40.002
G01 X281.921 A0.000 Z40.000
G01 X281.921 A360.000 
G01 X282.221 A360.000 Z39.999
G01 X282.221 A0.000 
G01 X282.521 A0.000 Z39.997
G01 X282.521 A360.000 
G01 X282.821 A360.000 Z39.995
G01 X282.821 A0.000 
G01 X283.121 A0.000 Z39.994
G01 X283.121 A360.000 
G01 X283.421 A360.000 Z39.992
G01 X283.421 A0.000 
G01 X283.721 A0.000 Z39.991
G01 X283.721 A360.000 
G01 X284.021 A360.000 Z39.989
G01 X284.021 A0.000 
G01 X284.321 A0.000 Z39.987
G01 X284.321 A360.000 
G01 X284.621 A360.000 Z39.986
G01 X284.621 A0.000 
G01 X284.921 A0.000 Z39.984
G01 X284.921 A360.000 
G01 X285.221 A360.000 Z39.983
G01 X285.221 A0.000 
G01 X285.521 A0.000 Z39.981
G01 X285.521 A360.000 
G01 X285.821 A360.000 Z39.980
G01 X285.821 A0.000 
G01 X286.121 A0.000 Z39.978
G01 X286.121 A360.000 
G01 X286.421 A360.000 Z39.976
G01 X286.421 A0.000 
G01 X286.721 A0.000 Z39.975
G01 X286.721 A360.000 Z39.975
G01 X287.021 A360.000 Z39.973
G01 X287.021 A0.000 
G01 X287.321 A0.000 Z39.972
G01 X287.321 A360.000 
G01 X287.621 A360.000 Z39.970
G01 X287.621 A0.000 
G01 X287.921 A0.000 Z39.969
G01 X287.921 A360.000 
G01 X288.221 A360.000 Z39.967
G01 X288.221 A0.000 
G01 X288.521 A0.000 Z39.966
G01 X288.521 A360.000 Z39.965
G01 X288.821 A360.000 Z39.964
G01 X288.821 A0.000 
G01 X289.121 A0.000 Z39.962
G01 X289.121 A360.000 
G01 X289.421 A360.000 Z39.961
G01 X289.421 A0.000 
G01 X289.721 A0.000 Z39.959
G01 X289.721 A360.000 
G01 X290.021 A360.000 Z39.958
G01 X290.021 A0.000 
G01 X290.321 A0.000 Z39.956
G01 X290.321 A360.000 
G01 X290.621 A360.000 Z39.954
G01 X290.621 A0.000 
G01 X290.921 A0.000 Z39.953
G01 X290.921 A360.000 
G01 X291.221 A360.000 Z39.951
G01 X291.221 A0.000 
G01 X291.521 A0.000 Z39.950
G01 X291.521 A360.000 
G01 X291.821 A360.000 Z39.948
G01 X291.821 A0.000 
G01 X292.121 A0.000 Z39.947
G01 X292.121 A360.000 
G01 X292.421 A360.000 Z39.945
G01 X292.421 A0.000 
G01 X292.721 A0.000 Z39.943
G01 X292.721 A360.000 
G01 X293.021 A360.000 Z39.942
G01 X293.021 A0.000 
G01 X293.321 A0.000 Z39.940
G01 X293.321 A360.000 
G01 X293.621 A360.000 Z39.939
G01 X293.621 A0.000 Z39.939
G01 X293.921 A0.000 Z39.937
G01 X293.921 A360.000 
G01 X294.221 A360.000 Z39.936
G01 X294.221 A0.000 
G01 X294.521 A0.000 Z39.934
G01 X294.521 A360.000 
G01 X294.821 A360.000 Z39.932
G01 X294.821 A0.000 
G01 X295.121 A0.000 Z39.931
G01 X295.121 A360.000 
G01 X295.421 A360.000 Z39.929
G01 X295.421 A0.000 
G01 X295.721 A0.000 Z39.928
G01 X295.721 A360.000 
G01 X296.021 A360.000 Z39.926
G01 X296.021 A0.000 
G01 X296.321 A0.000 Z39.925
G01 X296.321 A360.000 
G01 X296.621 A360.000 Z39.923
G01 X296.621 A0.000 
G01 X296.921 A0.000 Z39.921
G01 X296.921 A360.000 
G01 X297.221 A360.000 Z39.920
G01 X297.221 A0.000 
G01 X297.521 A0.000 Z39.918
G01 X297.521 A360.000 
G01 X297.821 A360.000 Z39.917
G01 X297.821 A0.000 
G01 X298.121 A0.000 Z39.915
G01 X298.121 A360.000 
G01 X298.421 A360.000 Z39.914
G01 X298.421 A0.000 
G01 X298.721 A0.000 Z39.912
G01 X298.721 A360.000 Z39.912
G01 X299.021 A360.000 Z39.910
G01 X299.021 A0.000 
G01 X299.321 A0.000 Z39.909
G01 X299.321 A360.000 
G01 X299.621 A360.000 Z39.907
G01 X299.621 A0.000 
G01 X299.921 A0.000 Z39.906
G01 X299.921 A360.000 
G01 X300.221 A360.000 Z39.904
G01 X300.221 A0.000 
G01 X300.521 A0.000 Z39.903
G01 X300.521 A360.000 Z39.903
G01 X300.821 A360.000 Z39.901
G01 X300.821 A0.000 
G01 X301.121 A0.000 Z39.899
G01 X301.121 A360.000 
G01 X301.421 A360.000 Z39.898
G01 X301.421 A0.000 
G01 X301.721 A0.000 Z39.896
G01 X301.721 A360.000 
G01 X302.021 A360.000 Z39.895
G01 X302.021 A0.000 
G01 X302.321 A0.000 Z39.893
G01 X302.321 A360.000 
G01 X302.621 A360.000 Z39.892
G01 X302.621 A0.000 
G01 X302.921 A0.000 Z39.890
G01 X302.921 A360.000 
G01 X303.221 A360.000 Z39.888
G01 X303.221 A0.000 
G01 X303.521 A0.000 Z39.887
G01 X303.521 A360.000 
G01 X303.821 A360.000 Z39.885
G01 X303.821 A0.000 
G01 X304.121 A0.000 Z39.884
G01 X304.121 A360.000 
G01 X304.421 A360.000 Z39.882
G01 X304.421 A0.000 
G01 X304.721 A0.000 Z39.881
G01 X304.721 A360.000 
G01 X305.021 A360.000 Z39.879
G01 X305.021 A0.000 
G01 X305.321 A0.000 Z39.877
G01 X305.321 A360.000 
G01 X305.621 A360.000 Z39.876
G01 X305.621 A0.000 Z39.876
G01 X305.921 A0.000 Z39.874
G01 X305.921 A360.000 
G01 X306.221 A360.000 Z39.873
G01 X306.221 A0.000 
G01 X306.521 A0.000 Z39.871
G01 X306.521 A360.000 
G01 X306.821 A360.000 Z39.870
G01 X306.821 A0.000 
G01 X307.121 A0.000 Z39.868
G01 X307.121 A360.000 Z39.859
G01 X307.421 A360.000 Z39.823
G01 X307.421 A359.504 Z39.845
G01 X307.421 A0.000 
G01 X307.721 A0.000 Z39.808
G01 X307.721 A359.504 
G01 X307.721 A360.000 Z39.785
G01 X308.021 A360.000 Z39.738
G01 X308.021 A359.504 Z39.761
G01 X308.021 A0.000 
G01 X308.321 A0.000 Z39.694
G01 X308.321 A359.504 
G01 X308.321 A360.000 Z39.672
G01 X308.621 A360.000 Z39.600
G01 X308.621 A359.504 Z39.623
G01 X308.621 A0.000 
G01 X308.921 A0.000 Z39.558
G01 X308.921 A359.504 
G01 X308.921 A360.000 Z39.535
G01 X309.221 A360.000 Z39.467
G01 X309.221 A359.504 Z39.490
G01 X309.221 A0.000 
G01 X309.521 A0.000 Z39.419
G01 X309.521 A359.504 
G01 X309.521 A360.000 Z39.396
G01 X309.821 A360.000 Z39.320
G01 X309.821 A359.504 Z39.343
G01 X309.821 A0.000 
G01 X310.121 A0.000 Z39.266
G01 X310.121 A359.504 
G01 X310.121 A360.000 Z39.243
G01 X310.421 A360.000 Z39.169
G01 X310.421 A359.504 Z39.192
G01 X310.421 A0.000 
G01 X310.721 A0.000 Z39.112
G01 X310.721 A359.504 
G01 X310.721 A360.000 Z39.089
G01 X311.021 A360.000 Z39.001
G01 X311.021 A359.504 Z39.023
G01 X311.021 A0.000 
G01 X311.321 A0.000 Z38.934
G01 X311.321 A359.504 
G01 X311.321 A360.000 Z38.911
G01 X311.621 A360.000 Z38.823
G01 X311.621 A359.504 Z38.846
G01 X311.621 A0.000 
G01 X311.921 A0.000 Z38.752
G01 X311.921 A359.504 
G01 X311.921 A360.000 Z38.729
G01 X312.221 A360.000 Z38.628
G01 X312.221 A359.504 Z38.651
G01 X312.221 A0.000 
G01 X312.521 A0.000 Z38.550
G01 X312.521 A359.504 
G01 X312.521 A360.000 Z38.526
G01 X312.821 A360.000 Z38.425
G01 X312.821 A359.504 Z38.449
G01 X312.821 A0.000 
G01 X313.121 A0.000 Z38.340
G01 X313.121 A359.504 
G01 X313.121 A360.000 Z38.317
G01 X313.421 A360.000 Z38.203
G01 X313.421 A359.504 Z38.226
G01 X313.421 A0.000 
G01 X313.721 A0.000 Z38.111
G01 X313.721 A359.504 
G01 X313.721 A360.000 Z38.087
G01 X314.021 A360.000 Z37.973
G01 X314.021 A359.504 Z37.997
G01 X314.021 A0.000 
G01 X314.321 A0.000 Z37.875
G01 X314.321 A359.504 
G01 X314.321 A360.000 Z37.851
G01 X314.621 A360.000 Z37.722
G01 X314.621 A359.504 Z37.746
G01 X314.621 A0.000 
G01 X314.921 A0.000 Z37.617
G01 X314.921 A359.504 
G01 X314.921 A360.000 Z37.593
G01 X315.221 A360.000 Z37.465
G01 X315.221 A359.504 Z37.489
G01 X315.221 A0.000 
G01 X315.521 A0.000 Z37.351
G01 X315.521 A359.504 
G01 X315.521 A360.000 Z37.326
G01 X315.821 A360.000 Z37.180
G01 X315.821 A359.504 Z37.203
G01 X315.821 A0.000 
G01 X316.121 A0.000 Z37.060
G01 X316.121 A359.504 
G01 X316.121 A360.000 Z37.035
G01 X316.421 A360.000 Z36.892
G01 X316.421 A359.504 Z36.917
G01 X316.421 A0.000 
G01 X316.721 A0.000 Z36.764
G01 X316.721 A359.504 
G01 X316.721 A360.000 Z36.739
G01 X317.021 A360.000 Z36.576
G01 X317.021 A359.504 Z36.601
G01 X317.021 A0.000 
G01 X317.321 A0.000 Z36.442
G01 X317.321 A359.504 
G01 X317.321 A360.000 Z36.416
G01 X317.621 A360.000 Z36.252
G01 X317.621 A359.504 Z36.278
G01 X317.621 A0.000 
G01 X317.921 A0.000 Z36.105
G01 X317.921 A359.504 
G01 X317.921 A360.000 Z36.080
G01 X318.221 A360.000 Z35.896
G01 X318.221 A359.504 Z35.920
G01 X318.221 A0.000 
G01 X318.521 A0.000 Z35.745
G01 X318.521 A359.504 
G01 X318.521 A360.000 Z35.719
G01 X318.821 A360.000 Z35.531
G01 X318.821 A359.504 Z35.557
G01 X318.821 A0.000 
G01 X319.121 A0.000 Z35.358
G01 X319.121 A359.504 
G01 X319.121 A360.000 Z35.332
G01 X319.421 A360.000 Z35.126
G01 X319.421 A359.504 Z35.154
G01 X319.421 A0.000 
G01 X319.721 A0.000 Z34.953
G01 X319.721 A359.504 
G01 X319.721 A360.000 Z34.926
G01 X320.021 A360.000 Z34.710
G01 X320.021 A359.504 Z34.737
G01 X320.021 A0.000 
G01 X320.321 A0.000 Z34.506
G01 X320.321 A359.504 
G01 X320.321 A360.000 Z34.480
G01 X320.621 A360.000 Z34.253
G01 X320.621 A359.504 Z34.282
G01 X320.621 A0.000 
G01 X320.921 A0.000 Z34.050
G01 X320.921 A359.504 
G01 X320.921 A360.000 Z34.022
G01 X321.221 A360.000 Z33.775
G01 X321.221 A359.504 Z33.802
G01 X321.221 A0.000 
G01 X321.521 A0.000 Z33.541
G01 X321.521 A359.504 
G01 X321.521 A360.000 Z33.511
G01 X321.821 A360.000 Z33.261
G01 X321.821 A359.504 Z33.291
G01 X321.821 A0.000 
G01 X322.121 A0.000 Z33.023
G01 X322.121 A359.504 
G01 X322.121 A360.000 Z32.993
G01 X322.421 A360.000 Z32.712
G01 X322.421 A359.504 Z32.741
G01 X322.421 A0.000 
G01 X322.721 A0.000 Z32.451
G01 X322.721 A359.504 
G01 X322.721 A360.000 Z32.418
G01 X323.021 A360.000 Z32.128
G01 X323.021 A359.504 Z32.160
G01 X323.021 A0.000 
G01 X323.321 A0.000 Z31.852
G01 X323.321 A359.504 
G01 X323.321 A360.000 Z31.821
G01 X323.621 A360.000 Z31.486
G01 X323.621 A359.504 Z31.516
G01 X323.621 A0.000 
G01 X323.921 A0.000 Z31.195
G01 X323.921 A359.504 
G01 X323.921 A360.000 Z31.159
G01 X324.221 A360.000 Z30.818
G01 X324.221 A359.504 Z30.852
G01 X324.221 A0.000 
G01 X324.521 A0.000 Z30.484
G01 X324.521 A359.504 
G01 X324.521 A360.000 Z30.451
G01 X324.821 A360.000 Z30.059
G01 X324.821 A359.504 Z30.098
G01 X324.821 A0.000 
G01 X325.121 A0.000 Z29.731
G01 X325.121 A359.504 
G01 X325.121 A360.000 Z29.693
G01 X325.421 A360.000 Z29.292
G01 X325.421 A359.504 Z29.329
G01 X325.421 A0.000 
G01 X325.721 A0.000 Z28.878
G01 X325.721 A359.504 
G01 X325.721 A360.000 Z28.843
G01 X326.021 A360.000 Z28.391
G01 X326.021 A359.504 Z28.437
G01 X326.021 A0.000 
G01 X326.321 A0.000 Z27.987
G01 X326.321 A359.504 
G01 X326.321 A360.000 Z27.944
G01 X326.621 A360.000 Z27.436
G01 X326.621 A359.504 Z27.476
G01 X326.621 A0.000 
G01 X326.921 A0.000 Z26.959
G01 X326.921 A359.504 
G01 X326.921 A360.000 Z26.921
G01 X327.221 A360.000 Z26.449
G01 X327.221 A359.504 Z26.485
G01 X327.221 A0.000 
G01 X327.521 A0.000 Z26.055
G01 X327.521 A359.504 
G01 X327.521 A360.000 Z26.020
G01 X327.821 A360.000 Z25.614
G01 X327.821 A359.504 Z25.647
G01 X327.821 A0.000 
G01 X328.121 A0.000 Z25.248
G01 X328.121 A359.504 
G01 X328.121 A360.000 Z25.214
G01 X328.421 A360.000 Z24.835
G01 X328.421 A359.504 Z24.874
G01 X328.421 A0.000 
G01 X328.721 A0.000 Z24.512
G01 X328.721 A359.504 
G01 X328.721 A360.000 Z24.475
G01 X329.021 A360.000 Z24.132
G01 X329.021 A359.504 Z24.167
G01 X329.021 A0.000 
G01 X329.321 A0.000 Z23.831
G01 X329.321 A359.504 
G01 X329.321 A360.000 Z23.797
G01 X329.621 A360.000 Z23.472
G01 X329.621 A359.504 Z23.505
G01 X329.621 A0.000 
G01 X329.921 A0.000 Z23.186
G01 X329.921 A359.504 
G01 X329.921 A360.000 Z23.154
G01 X330.221 A360.000 Z22.845
G01 X330.221 A359.504 Z22.876
G01 X330.221 A0.000 
G01 X330.521 A0.000 Z22.578
G01 X330.521 A359.504 
G01 X330.521 A360.000 Z22.548
G01 X330.821 A360.000 Z22.260
G01 X330.821 A359.504 Z22.289
G01 X330.821 A0.000 
G01 X331.121 A0.000 Z22.005
G01 X331.121 A359.504 
G01 X331.121 A360.000 Z21.976
G01 X331.421 A360.000 Z21.704
G01 X331.421 A359.504 Z21.732
G01 X331.421 A0.000 
G01 X331.721 A0.000 Z21.464
G01 X331.721 A359.504 
G01 X331.721 A360.000 Z21.435
G01 X332.021 A360.000 Z21.179
G01 X332.021 A359.504 Z21.209
G01 X332.021 A0.000 
G01 X332.321 A0.000 Z20.963
G01 X332.321 A359.504 
G01 X332.321 A360.000 Z20.933
G01 X332.621 A360.000 Z20.694
G01 X332.621 A359.504 Z20.723
G01 X332.621 A0.000 
G01 X332.921 A0.000 Z20.490
G01 X332.921 A359.504 
G01 X332.921 A360.000 Z20.462
G01 X333.221 A360.000 Z20.234
G01 X333.221 A359.504 Z20.262
G01 X333.221 A0.000 
G01 X333.521 A0.000 Z20.038
G01 X333.521 A359.504 
G01 X333.521 A360.000 Z20.011
G01 X333.821 A360.000 Z19.791
G01 X333.821 A359.504 Z19.818
G01 X333.821 A0.000 
G01 X334.121 A0.000 Z19.605
G01 X334.121 A359.504 
G01 X334.121 A360.000 Z19.578
G01 X334.421 A360.000 Z19.369
G01 X334.421 A359.504 Z19.395
G01 X334.421 A0.000 
G01 X334.721 A0.000 Z19.191
G01 X334.721 A359.504 
G01 X334.721 A360.000 Z19.165
G01 X335.021 A360.000 Z18.967
G01 X335.021 A359.504 Z18.992
G01 X335.021 A0.000 
G01 X335.321 A0.000 Z18.803
G01 X335.321 A359.504 
G01 X335.321 A360.000 Z18.776
G01 X335.621 A360.000 Z18.591
G01 X335.621 A359.504 Z18.618
G01 X335.621 A0.000 
G01 X335.921 A0.000 Z18.437
G01 X335.921 A359.504 
G01 X335.921 A360.000 Z18.411
G01 X336.221 A360.000 Z18.236
G01 X336.221 A359.504 Z18.262
G01 X336.221 A0.000 
G01 X336.521 A0.000 Z18.090
G01 X336.521 A359.504 
G01 X336.521 A360.000 Z18.064
G01 X336.821 A360.000 Z17.895
G01 X336.821 A359.504 Z17.921
G01 X336.821 A0.000 
G01 X337.121 A0.000 Z17.754
G01 X337.121 A359.504 
G01 X337.121 A360.000 Z17.729
G01 X337.421 A360.000 Z17.569
G01 X337.421 A359.504 Z17.593
G01 X337.421 A0.000 
G01 X337.721 A0.000 Z17.435
G01 X337.721 A359.504 
G01 X337.721 A360.000 Z17.411
G01 X338.021 A360.000 Z17.259
G01 X338.021 A359.504 Z17.283
G01 X338.021 A0.000 
G01 X338.321 A0.000 Z17.135
G01 X338.321 A359.504 
G01 X338.321 A360.000 Z17.109
G01 X338.621 A360.000 Z16.967
G01 X338.621 A359.504 Z16.993
G01 X338.621 A0.000 
G01 X338.921 A0.000 Z16.856
G01 X338.921 A359.504 
G01 X338.921 A360.000 Z16.831
G01 X339.221 A360.000 Z16.696
G01 X339.221 A359.504 Z16.720
G01 X339.221 A0.000 
G01 X339.521 A0.000 Z16.589
G01 X339.521 A359.504 
G01 X339.521 A360.000 Z16.564
G01 X339.821 A360.000 Z16.436
G01 X339.821 A359.504 Z16.460
G01 X339.821 A0.000 
G01 X340.121 A0.000 Z16.333
G01 X340.121 A359.504 
G01 X340.121 A360.000 Z16.309
G01 X340.421 A360.000 Z16.182
G01 X340.421 A359.504 Z16.205
G01 X340.421 A0.000 
G01 X340.721 A0.000 Z16.077
G01 X340.721 A359.504 
G01 X340.721 A360.000 Z16.054
G01 X341.021 A360.000 Z15.932
G01 X341.021 A359.504 Z15.956
G01 X341.021 A0.000 
G01 X341.321 A0.000 Z15.837
G01 X341.321 A359.504 
G01 X341.321 A360.000 Z15.813
G01 X341.621 A360.000 Z15.695
G01 X341.621 A359.504 Z15.719
G01 X341.621 A0.000 
G01 X341.921 A0.000 Z15.600
G01 X341.921 A359.504 
G01 X341.921 A360.000 Z15.576
G01 X342.221 A360.000 Z15.457
G01 X342.221 A359.504 Z15.480
G01 X342.221 A0.000 
G01 X342.521 A0.000 Z15.362
G01 X342.521 A359.504 
G01 X342.521 A360.000 Z15.339
G01 X342.821 A360.000 Z15.222
G01 X342.821 A359.504 Z15.245
G01 X342.821 A0.000 
G01 X343.121 A0.000 Z15.136
G01 X343.121 A359.504 
G01 X343.121 A360.000 Z15.113
G01 X343.421 A360.000 Z15.038
G01 X343.421 A0.000 Z15.043
G01 X343.721 A0.000 Z15.037
G01 X343.721 A360.000 
G01 X344.021 A360.000 Z15.037
G01 X344.021 A0.000 
G01 X344.321 A0.000 Z15.036
G01 X344.321 A360.000 
G01 X344.621 A360.000 Z15.035
G01 X344.621 A0.000 
G01 X344.921 A0.000 Z15.035
G01 X344.921 A360.000 
G01 X345.221 A360.000 Z15.034
G01 X345.221 A0.000 
G01 X345.521 A0.000 Z15.034
G01 X345.521 A360.000 
G01 X345.821 A360.000 Z15.033
G01 X345.821 A0.000 
G01 X346.121 A0.000 Z15.033
G01 X346.121 A360.000 
G01 X346.421 A360.000 Z15.032
G01 X346.421 A0.000 
G01 X346.721 A0.000 Z15.031
G01 X346.721 A360.000 
G01 X347.021 A360.000 Z15.031
G01 X347.021 A0.000 Z15.031
G01 X347.321 A0.000 Z15.030
G01 X347.321 A360.000 
G01 X347.621 A360.000 Z15.030
G01 X347.621 A0.000 
G01 X347.921 A0.000 Z15.029
G01 X347.921 A360.000 
G01 X348.221 A360.000 Z15.029
G01 X348.221 A0.000 
G01 X348.521 A0.000 Z15.028
G01 X348.521 A360.000 
G01 X348.821 A360.000 Z15.027
G01 X348.821 A0.000 
G01 X349.121 A0.000 Z15.027
G01 X349.121 A360.000 
G01 X349.421 A360.000 Z15.026
G01 X349.421 A0.000 
G01 X349.721 A0.000 Z15.026
G01 X349.721 A360.000 
G01 X350.021 A360.000 Z15.025
G01 X350.021 A0.000 
G01 X350.321 A0.000 Z15.025
G01 X350.321 A360.000 
G01 X350.621 A360.000 Z15.024
G01 X350.621 A0.000 
G01 X350.921 A0.000 Z15.024
G01 X350.921 A360.000 
G01 X351.221 A360.000 Z15.023
G01 X351.221 A0.000 
G01 X351.521 A0.000 Z15.022
G01 X351.521 A360.000 
G01 X351.821 A360.000 Z15.022
G01 X351.821 A0.000 
G01 X352.121 A0.000 Z15.021
G01 X352.121 A360.000 
G01 X352.421 A360.000 Z15.021
G01 X352.421 A0.000 
G01 X352.721 A0.000 Z15.020
G01 X352.721 A360.000 
G01 X353.021 A360.000 Z15.020
G01 X353.021 A0.000 
G01 X353.321 A0.000 Z15.019
G01 X353.321 A360.000 
G01 X353.621 A360.000 Z15.018
G01 X353.621 A0.000 
G01 X353.921 A0.000 Z15.018
G01 X353.921 A360.000 
G01 X354.221 A360.000 Z15.017
G01 X354.221 A0.000 
G01 X354.521 A0.000 Z15.017
G01 X354.521 A360.000 
G01 X354.821 A360.000 Z15.016
G01 X354.821 A0.000 
G01 X355.121 A0.000 Z15.016
G01 X355.121 A360.000 
G01 X355.421 A360.000 Z15.015
G01 X355.421 A0.000 
G01 X355.721 A0.000 Z15.014
G01 X355.721 A360.000 
G01 X356.021 A360.000 Z15.014
G01 X356.021 A0.000 
G01 X356.321 A0.000 Z15.013
G01 X356.321 A360.000 
G01 X356.621 A360.000 Z15.013
G01 X356.621 A0.000 
G01 X356.921 A0.000 Z15.012
G01 X356.921 A360.000 
G01 X357.221 A360.000 Z15.012
G01 X357.221 A0.000 
G01 X357.521 A0.000 Z15.011
G01 X357.521 A360.000 
G01 X357.821 A360.000 Z15.011
G01 X357.821 A0.000 
G01 X358.121 A0.000 Z15.010
G01 X358.121 A360.000 
G01 X358.421 A360.000 Z15.009
G01 X358.421 A0.000 
G01 X358.721 A0.000 Z15.009
G01 X358.721 A360.000 
G01 X359.021 A360.000 Z15.008
G01 X359.021 A0.000 Z15.008
G01 X359.321 A0.000 Z15.008
G01 X359.321 A360.000 
G01 X359.621 A360.000 Z15.007
G01 X359.621 A0.000 
G01 X359.921 A0.000 Z15.007
G01 X359.921 A360.000 
G01 X360.221 A360.000 Z15.006
G01 X360.221 A0.000 
G01 X360.521 A0.000 Z15.005
G01 X360.521 A360.000 
G01 X360.821 A360.000 Z15.005
G01 X360.821 A0.000 
G01 X361.121 A0.000 Z15.004
G01 X361.121 A360.000 
G01 X361.421 A360.000 Z15.004
G01 X361.421 A0.000 
G01 X361.721 A0.000 Z15.003
G01 X361.721 A360.000 
G01 X362.021 A360.000 Z15.003
G01 X362.021 A0.000 
G01 X362.321 A0.000 Z15.002
G01 X362.321 A360.000 
G01 X362.621 A360.000 Z15.001
G01 X362.621 A0.000 
G01 X362.921 A0.000 Z15.001
G01 X362.921 A360.000 
G01 X363.221 A360.000 Z15.000
G01 X363.221 A0.000 
G01 X363.521 A0.000 Z15.000
G01 X363.521 A360.000 
G01 X363.821 A360.000 Z14.999
G01 X363.821 A0.000 
G01 X364.121 A0.000 Z14.999
G01 X364.121 A360.000 
G01 X364.421 A360.000 Z14.998
G01 X364.421 A0.000 
G01 X364.721 A0.000 Z14.998
G01 X364.721 A360.000 
G01 X365.021 A360.000 Z14.997
G01 X365.021 A0.000 
G01 X365.321 A0.000 Z14.996
G01 X365.321 A360.000 
G01 X365.621 A360.000 Z14.996
G01 X365.621 A0.000 
G01 X365.921 A0.000 Z14.995
G01 X365.921 A360.000 Z14.995
G01 X366.221 A360.000 Z14.995
G01 X366.221 A0.000 
G01 X366.521 A0.000 Z14.994
G01 X366.521 A360.000 
G01 X366.821 A360.000 Z14.994
G01 X366.821 A0.000 
G01 X367.121 A0.000 Z14.993
G01 X367.121 A360.000 
G01 X367.421 A360.000 Z14.992
G01 X367.421 A0.000 
G01 X367.721 A0.000 Z14.992
G01 X367.721 A360.000 
G01 X368.021 A360.000 Z14.991
G01 X368.021 A0.000 
G01 X368.321 A0.000 Z14.991
G01 X368.321 A360.000 
G01 X368.621 A360.000 Z14.990
G01 X368.621 A0.000 
G01 X368.921 A0.000 Z14.990
G01 X368.921 A360.000 
G01 X369.221 A360.000 Z14.989
G01 X369.221 A0.000 
G01 X369.521 A0.000 Z14.989
G01 X369.521 A360.000 
G01 X369.821 A360.000 Z14.988
G01 X369.821 A0.000 
G01 X370.121 A0.000 Z14.987
G01 X370.121 A360.000 
G01 X370.421 A360.000 Z14.987
G01 X370.421 A0.000 
G01 X370.721 A0.000 Z14.986
G01 X370.721 A360.000 
G01 X371.021 A360.000 Z14.986
G01 X371.021 A0.000 
G01 X371.321 A0.000 Z14.985
G01 X371.321 A360.000 
G01 X371.621 A360.000 Z14.985
G01 X371.621 A0.000 
G01 X371.921 A0.000 Z14.984
G01 X371.921 A360.000 
G01 X372.221 A360.000 Z14.983
G01 X372.221 A0.000 
G01 X372.521 A0.000 Z14.983
G01 X372.521 A360.000 
G01 X372.821 A360.000 Z14.982
G01 X372.821 A0.000 Z14.982
G01 X373.121 A0.000 Z14.982
G01 X373.121 A360.000 
G01 X373.421 A360.000 Z14.981
G01 X373.421 A0.000 
G01 X373.721 A0.000 Z14.981
G01 X373.721 A360.000 
G01 X374.021 A360.000 Z14.980
G01 X374.021 A0.000 
G01 X374.321 A0.000 Z14.979
G01 X374.321 A360.000 
G01 X374.621 A360.000 Z14.979
G01 X374.621 A0.000 
G01 X374.921 A0.000 Z14.978
G01 X374.921 A360.000 
G01 X375.221 A360.000 Z14.978
G01 X375.221 A0.000 
G01 X375.521 A0.000 Z14.977
G01 X375.521 A360.000 
G01 X375.821 A360.000 Z14.977
G01 X375.821 A0.000 
G01 X376.121 A0.000 Z14.976
G01 X376.121 A360.000 
G01 X376.421 A360.000 Z14.976
G01 X376.421 A0.000 
G01 X376.721 A0.000 Z14.975
G01 X376.721 A360.000 
G01 X377.021 A360.000 Z14.974
G01 X377.021 A0.000 
G01 X377.321 A0.000 Z14.974
G01 X377.321 A360.000 
G01 X377.621 A360.000 Z14.973
G01 X377.621 A0.000 
G01 X377.921 A0.000 Z14.973
G01 X377.921 A360.000 
G01 X378.221 A360.000 Z14.972
G01 X378.221 A0.000 
G01 X378.521 A0.000 Z14.972
G01 X378.521 A360.000 
G01 X378.821 A360.000 Z14.971
G01 X378.821 A0.000 
G01 X379.121 A0.000 Z14.970
G01 X379.121 A360.000 
G01 X379.421 A360.000 Z14.970
G01 X379.421 A0.000 
G01 X379.721 A0.000 Z14.969
G01 X379.721 A360.000 
G01 X380.021 A360.000 Z14.969
G01 X380.021 A0.000 
G01 X380.321 A0.000 Z14.968
G01 X380.321 A360.000 
G01 X380.621 A360.000 Z14.968
G01 X380.621 A0.000 
G01 X380.921 A0.000 Z14.967
G01 X380.921 A360.000 
G01 X381.221 A360.000 Z14.966
G01 X381.221 A0.000 
G01 X381.521 A0.000 Z14.966
G01 X381.521 A360.000 
G01 X381.821 A360.000 Z14.965
G01 X381.821 A0.000 
G01 X382.121 A0.000 Z14.965
G01 X382.121 A360.000 
G01 X382.421 A360.000 Z14.964
G01 X382.421 A0.000 
G01 X382.721 A0.000 Z14.964
G01 X382.721 A360.000 
G01 X383.021 A360.000 Z14.963
G01 X383.021 A0.000 
G01 X383.321 A0.000 Z14.963
G01 X383.321 A360.000 
G01 X383.621 A360.000 Z14.962
G01 X383.621 A0.000 
G01 X383.921 A0.000 Z14.961
G01 X383.921 A360.000 
G01 X384.221 A360.000 Z14.961
G01 X384.221 A0.000 
G01 X384.521 A0.000 Z14.960
G01 X384.521 A360.000 
G01 X384.821 A360.000 Z14.960
G01 X384.821 A0.000 Z14.960
G01 X385.121 A0.000 Z14.959
G01 X385.121 A360.000 
G01 X385.421 A360.000 Z14.959
G01 X385.421 A0.000 
G01 X385.721 A0.000 Z14.958
G01 X385.721 A360.000 
G01 X386.021 A360.000 Z14.957
G01 X386.021 A0.000 
G01 X386.321 A0.000 Z14.957
G01 X386.321 A360.000 
G01 X386.621 A360.000 Z14.956
G01 X386.621 A0.000 
G01 X386.921 A0.000 Z14.956
G01 X386.921 A360.000 
G01 X387.221 A360.000 Z14.955
G01 X387.221 A0.000 
G01 X387.521 A0.000 Z14.955
G01 X387.521 A360.000 
G01 X387.821 A360.000 Z14.954
G01 X387.821 A0.000 
G01 X388.121 A0.000 Z14.953
G01 X388.121 A360.000 
G01 X388.421 A360.000 Z14.953
G01 X388.421 A0.000 
G01 X388.721 A0.000 Z14.952
G01 X388.721 A360.000 
G01 X389.021 A360.000 Z14.952
G01 X389.021 A0.000 
G01 X389.321 A0.000 Z14.951
G01 X389.321 A360.000 
G01 X389.621 A360.000 Z14.951
G01 X389.621 A0.000 
G01 X389.921 A0.000 Z14.950
G01 X389.921 A360.000 
G01 X390.221 A360.000 Z14.950
G01 X390.221 A0.000 
G01 X390.521 A0.000 Z14.949
G01 X390.521 A360.000 
G01 X390.821 A360.000 Z14.948
G01 X390.821 A0.000 
G01 X391.121 A0.000 Z14.948
G01 X391.121 A360.000 
G01 X391.421 A360.000 Z14.947
G01 X391.421 A0.000 
G01 X391.721 A0.000 Z14.947
G01 X391.721 A360.000 Z14.947
G01 X392.021 A360.000 Z14.946
G01 X392.021 A0.000 
G01 X392.321 A0.000 Z14.946
G01 X392.321 A360.000 
G01 X392.621 A360.000 Z14.945
G01 X392.621 A0.000 
G01 X392.921 A0.000 Z14.944
G01 X392.921 A360.000 
G01 X393.221 A360.000 Z14.944
G01 X393.221 A0.000 
G01 X393.521 A0.000 Z14.943
G01 X393.521 A360.000 
G01 X393.821 A360.000 Z14.943
G01 X393.821 A0.000 
G01 X394.121 A0.000 Z14.942
G01 X394.121 A360.000 
G01 X394.421 A360.000 Z14.942
G01 X394.421 A0.000 
G01 X394.721 A0.000 Z14.941
G01 X394.721 A360.000 
G01 X395.021 A360.000 Z14.940
G01 X395.021 A0.000 
G01 X395.321 A0.000 Z14.940
G01 X395.321 A360.000 
G01 X395.621 A360.000 Z14.939
G01 X395.621 A0.000 
G01 X395.921 A0.000 Z14.939
G01 X395.921 A360.000 
G01 X396.221 A360.000 Z14.938
G01 X396.221 A0.000 
G01 X396.521 A0.000 Z14.997
G01 X396.521 A359.504 
G01 X396.521 A360.000 Z14.974
G01 X396.821 A360.000 Z15.069
G01 X396.821 A359.504 Z15.092
G01 X396.821 A0.000 
G01 X397.121 A0.000 Z15.189
G01 X397.121 A359.504 
G01 X397.121 A360.000 Z15.166
G01 X397.421 A360.000 Z15.262
G01 X397.421 A359.504 Z15.285
G01 X397.421 A0.000 
G01 X397.721 A0.000 Z15.377
G01 X397.721 A359.504 
G01 X397.721 A360.000 Z15.354
G01 X398.021 A360.000 Z15.445
G01 X398.021 A359.504 Z15.468
G01 X398.021 A0.000 
G01 X398.321 A0.000 Z15.561
G01 X398.321 A359.504 
G01 X398.321 A360.000 Z15.538
G01 X398.621 A360.000 Z15.634
G01 X398.621 A359.504 Z15.658
G01 X398.621 A0.000 
G01 X398.921 A0.000 Z15.757
G01 X398.921 A359.504 
G01 X398.921 A360.000 Z15.734
G01 X399.221 A360.000 Z15.840
G01 X399.221 A359.504 Z15.863
G01 X399.221 A0.000 
G01 X399.521 A0.000 Z15.973
G01 X399.521 A359.504 
G01 X399.521 A360.000 Z15.949
G01 X399.821 A360.000 Z16.064
G01 X399.821 A359.504 Z16.087
G01 X399.821 A0.000 
G01 X400.121 A0.000 Z16.204
G01 X400.121 A359.504 
G01 X400.121 A360.000 Z16.180
G01 X400.421 A360.000 Z16.299
G01 X400.421 A359.504 Z16.323
G01 X400.421 A0.000 
G01 X400.721 A0.000 Z16.445
G01 X400.721 A359.504 
G01 X400.721 A360.000 Z16.421
G01 X401.021 A360.000 Z16.546
G01 X401.021 A359.504 Z16.571
G01 X401.021 A0.000 
G01 X401.321 A0.000 Z16.698
G01 X401.321 A359.504 
G01 X401.321 A360.000 Z16.674
G01 X401.621 A360.000 Z16.805
G01 X401.621 A359.504 Z16.830
G01 X401.621 A0.000 
G01 X401.921 A0.000 Z16.966
G01 X401.921 A359.504 
G01 X401.921 A360.000 Z16.941
G01 X402.221 A360.000 Z17.083
G01 X402.221 A359.504 Z17.107
G01 X402.221 A0.000 
G01 X402.521 A0.000 Z17.254
G01 X402.521 A359.504 
G01 X402.521 A360.000 Z17.230
G01 X402.821 A360.000 Z17.382
G01 X402.821 A359.504 Z17.406
G01 X402.821 A0.000 
G01 X403.121 A0.000 Z17.561
G01 X403.121 A359.504 
G01 X403.121 A360.000 Z17.536
G01 X403.421 A360.000 Z17.692
G01 X403.421 A359.504 Z17.717
G01 X403.421 A0.000 
G01 X403.721 A0.000 Z17.877
G01 X403.721 A359.504 
G01 X403.721 A360.000 Z17.852
G01 X404.021 A360.000 Z18.018
G01 X404.021 A359.504 Z18.043
G01 X404.021 A0.000 
G01 X404.321 A0.000 Z18.213
G01 X404.321 A359.504 
G01 X404.321 A360.000 Z18.187
G01 X404.621 A360.000 Z18.361
G01 X404.621 A359.504 Z18.387
G01 X404.621 A0.000 
G01 X404.921 A0.000 Z18.566
G01 X404.921 A359.504 
G01 X404.921 A360.000 Z18.539
G01 X405.221 A360.000 Z18.721
G01 X405.221 A359.504 Z18.749
G01 X405.221 A0.000 
G01 X405.521 A0.000 Z18.939
G01 X405.521 A359.504 
G01 X405.521 A360.000 Z18.914
G01 X405.821 A360.000 Z19.112
G01 X405.821 A359.504 Z19.137
G01 X405.821 A0.000 
G01 X406.121 A0.000 Z19.343
G01 X406.121 A359.504 
G01 X406.121 A360.000 Z19.317
G01 X406.421 A360.000 Z19.525
G01 X406.421 A359.504 Z19.551
G01 X406.421 A0.000 
G01 X406.721 A0.000 Z19.762
G01 X406.721 A359.504 
G01 X406.721 A360.000 Z19.735
G01 X407.021 A360.000 Z19.954
G01 X407.021 A359.504 Z19.981
G01 X407.021 A0.000 
G01 X407.321 A0.000 Z20.208
G01 X407.321 A359.504 
G01 X407.321 A360.000 Z20.180
G01 X407.621 A360.000 Z20.412
G01 X407.621 A359.504 Z20.441
G01 X407.621 A0.000 
G01 X407.921 A0.000 Z20.676
G01 X407.921 A359.504 
G01 X407.921 A360.000 Z20.647
G01 X408.221 A360.000 Z20.891
G01 X408.221 A359.504 Z20.921
G01 X408.221 A0.000 
G01 X408.521 A0.000 Z21.170
G01 X408.521 A359.504 
G01 X408.521 A360.000 Z21.139
G01 X408.821 A360.000 Z21.398
G01 X408.821 A359.504 Z21.426
G01 X408.821 A0.000 
G01 X409.121 A0.000 Z21.696
G01 X409.121 A359.504 
G01 X409.121 A360.000 Z21.668
G01 X409.421 A360.000 Z21.945
G01 X409.421 A359.504 Z21.974
G01 X409.421 A0.000 
G01 X409.721 A0.000 Z22.263
G01 X409.721 A359.504 
G01 X409.721 A360.000 Z22.233
G01 X410.021 A360.000 Z22.531
G01 X410.021 A359.504 Z22.561
G01 X410.021 A0.000 
G01 X410.321 A0.000 Z22.868
G01 X410.321 A359.504 
G01 X410.321 A360.000 Z22.836
G01 X410.621 A360.000 Z23.150
G01 X410.621 A359.504 Z23.182
G01 X410.621 A0.000 
G01 X410.921 A0.000 Z23.505
G01 X410.921 A359.504 
G01 X410.921 A360.000 Z23.472
G01 X411.221 A360.000 Z23.809
G01 X411.221 A359.504 Z23.844
G01 X411.221 A0.000 
G01 X411.521 A0.000 Z24.193
G01 X411.521 A359.504 
G01 X411.521 A360.000 Z24.157
G01 X411.821 A360.000 Z24.515
G01 X411.821 A359.504 Z24.552
G01 X411.821 A0.000 
G01 X412.121 A0.000 Z24.922
G01 X412.121 A359.504 
G01 X412.121 A360.000 Z24.882
G01 X412.421 A360.000 Z25.265
G01 X412.421 A359.504 Z25.297
G01 X412.421 A0.000 
G01 X412.721 A0.000 Z25.698
G01 X412.721 A359.504 
G01 X412.721 A360.000 Z25.664
G01 X413.021 A360.000 Z26.069
G01 X413.021 A359.504 Z26.104
G01 X413.021 A0.000 
G01 X413.321 A0.000 Z26.515
G01 X413.321 A359.504 
G01 X413.321 A360.000 Z26.479
G01 X413.621 A360.000 Z26.893
G01 X413.621 A359.504 Z26.932
G01 X413.621 A0.000 
G01 X413.921 A0.000 Z27.358
G01 X413.921 A359.504 
G01 X413.921 A360.000 Z27.317
G01 X414.221 A360.000 Z27.732
G01 X414.221 A359.504 Z27.775
G01 X414.221 A0.000 
G01 X414.521 A0.000 Z28.198
G01 X414.521 A359.504 
G01 X414.521 A360.000 Z28.153
G01 X414.821 A360.000 Z28.609
G01 X414.821 A359.504 Z28.644
G01 X414.821 A0.000 
G01 X415.121 A0.000 Z29.087
G01 X415.121 A359.504 
G01 X415.121 A360.000 Z29.050
G01 X415.421 A360.000 Z29.465
G01 X415.421 A359.504 Z29.504
G01 X415.421 A0.000 
G01 X415.721 A0.000 Z29.887
G01 X415.721 A359.504 
G01 X415.721 A360.000 Z29.845
G01 X416.021 A360.000 Z30.244
G01 X416.021 A359.504 Z30.277
G01 X416.021 A0.000 
G01 X416.321 A0.000 Z30.654
G01 X416.321 A359.504 
G01 X416.321 A360.000 Z30.620
G01 X416.621 A360.000 Z30.976
G01 X416.621 A359.504 Z31.012
G01 X416.621 A0.000 
G01 X416.921 A0.000 Z31.336
G01 X416.921 A359.504 
G01 X416.921 A360.000 Z31.306
G01 X417.221 A360.000 Z31.651
G01 X417.221 A359.504 Z31.682
G01 X417.221 A0.000 
G01 X417.521 A0.000 Z32.005
G01 X417.521 A359.504 
G01 X417.521 A360.000 Z31.973
G01 X417.821 A360.000 Z32.277
G01 X417.821 A359.504 Z32.310
G01 X417.821 A0.000 
G01 X418.121 A0.000 Z32.602
G01 X418.121 A359.504 
G01 X418.121 A360.000 Z32.573
G01 X418.421 A360.000 Z32.874
G01 X418.421 A359.504 Z32.903
G01 X418.421 A0.000 
G01 X418.721 A0.000 Z33.186
G01 X418.721 A359.504 
G01 X418.721 A360.000 Z33.156
G01 X419.021 A360.000 Z33.420
G01 X419.021 A359.504 Z33.451
G01 X419.021 A0.000 
G01 X419.321 A0.000 Z33.715
G01 X419.321 A359.504 
G01 X419.321 A360.000 Z33.687
G01 X419.621 A360.000 Z33.950
G01 X419.621 A359.504 Z33.979
G01 X419.621 A0.000 
G01 X419.921 A0.000 Z34.223
G01 X419.921 A359.504 
G01 X419.921 A360.000 Z34.194
G01 X420.221 A360.000 Z34.423
G01 X420.221 A359.504 Z34.453
G01 X420.221 A0.000 
G01 X420.521 A0.000 Z34.692
G01 X420.521 A359.504 
G01 X420.521 A360.000 Z34.665
G01 X420.821 A360.000 Z34.892
G01 X420.821 A359.504 Z34.919
G01 X420.821 A0.000 
G01 X421.121 A0.000 Z35.135
G01 X421.121 A359.504 
G01 X421.121 A360.000 Z35.107
G01 X421.421 A360.000 Z35.315
G01 X421.421 A359.504 Z35.341
G01 X421.421 A0.000 
G01 X421.721 A0.000 Z35.547
G01 X421.721 A359.504 
G01 X421.721 A360.000 Z35.521
G01 X422.021 A360.000 Z35.718
G01 X422.021 A359.504 Z35.745
G01 X422.021 A0.000 
G01 X422.321 A0.000 Z35.929
G01 X422.321 A359.504 
G01 X422.321 A360.000 Z35.902
G01 X422.621 A360.000 Z36.091
G01 X422.621 A359.504 Z36.116
G01 X422.621 A0.000 
G01 X422.921 A0.000 Z36.299
G01 X422.921 A359.504 
G01 X422.921 A360.000 Z36.273
G01 X423.221 A360.000 Z36.442
G01 X423.221 A359.504 Z36.468
G01 X423.221 A0.000 
G01 X423.521 A0.000 Z36.628
G01 X423.521 A359.504 
G01 X423.521 A360.000 Z36.604
G01 X423.821 A360.000 Z36.771
G01 X423.821 A359.504 Z36.796
G01 X423.821 A0.000 
G01 X424.121 A0.000 Z36.954
G01 X424.121 A359.504 
G01 X424.121 A360.000 Z36.929
G01 X424.421 A360.000 Z37.076
G01 X424.421 A359.504 Z37.101
G01 X424.421 A0.000 
G01 X424.721 A0.000 Z37.246
G01 X424.721 A359.504 
G01 X424.721 A360.000 Z37.222
G01 X425.021 A360.000 Z37.365
G01 X425.021 A359.504 Z37.389
G01 X425.021 A0.000 
G01 X425.321 A0.000 Z37.525
G01 X425.321 A359.504 
G01 X425.321 A360.000 Z37.500
G01 X425.621 A360.000 Z37.624
G01 X425.621 A359.504 Z37.649
G01 X425.621 A0.000 
G01 X425.921 A0.000 Z37.779
G01 X425.921 A359.504 
G01 X425.921 A360.000 Z37.755
G01 X426.221 A360.000 Z37.885
G01 X426.221 A359.504 Z37.908
G01 X426.221 A0.000 
G01 X426.521 A0.000 Z38.028
G01 X426.521 A359.504 
G01 X426.521 A360.000 Z38.004
G01 X426.821 A360.000 Z38.117
G01 X426.821 A359.504 Z38.141
G01 X426.821 A0.000 
G01 X427.121 A0.000 Z38.257
G01 X427.121 A359.504 
G01 X427.121 A360.000 Z38.234
G01 X427.421 A360.000 Z38.348
G01 X427.421 A359.504 Z38.372
G01 X427.421 A0.000 
G01 X427.721 A0.000 Z38.481
G01 X427.721 A359.504 
G01 X427.721 A360.000 Z38.458
G01 X428.021 A360.000 Z38.561
G01 X428.021 A359.504 Z38.585
G01 X428.021 A0.000 
G01 X428.321 A0.000 Z38.687
G01 X428.321 A359.504 
G01 X428.321 A360.000 Z38.664
G01 X428.621 A360.000 Z38.768
G01 X428.621 A359.504 Z38.791
G01 X428.621 A0.000 
G01 X428.921 A0.000 Z38.887
G01 X428.921 A359.504 
G01 X428.921 A360.000 Z38.864
G01 X429.221 A360.000 Z38.954
G01 X429.221 A359.504 Z38.978
G01 X429.221 A0.000 
G01 X429.521 A0.000 Z39.068
G01 X429.521 A359.504 
G01 X429.521 A360.000 Z39.045
G01 X429.821 A360.000 Z39.138
G01 X429.821 A359.504 Z39.161
G01 X429.821 A0.000 
G01 X430.121 A0.000 Z39.248
G01 X430.121 A359.504 
G01 X430.121 A360.000 Z39.225
G01 X430.421 A360.000 Z39.303
G01 X430.421 A359.504 Z39.326
G01 X430.421 A0.000 
G01 X430.721 A0.000 Z39.404
G01 X430.721 A359.504 
G01 X430.721 A360.000 Z39.381
G01 X431.021 A360.000 Z39.457
G01 X431.021 A359.504 Z39.480
G01 X431.021 A0.000 
G01 X431.321 A0.000 Z39.548
G01 X431.321 A359.504 
G01 X431.321 A360.000 Z39.525
G01 X431.621 A360.000 Z39.584
G01 X431.621 A359.504 Z39.607
G01 X431.621 A0.000 
G01 X431.921 A0.000 Z39.668
G01 X431.921 A359.504 
G01 X431.921 A360.000 Z39.646
G01 X432.221 A360.000 Z39.698
G01 X432.221 A359.504 Z39.721
G01 X432.221 A0.000 
G01 X432.521 A0.000 Z39.764
G01 X432.521 A359.504 
G01 X432.521 A360.000 Z39.741
G01 X432.821 A360.000 Z39.789
G01 X432.821 A359.504 Z39.811
G01 X432.821 A0.000 
G01 X433.121 A0.000 Z39.851
G01 X433.121 A359.504 
G01 X433.121 A360.000 Z39.829
G01 X433.421 A360.000 Z39.865
G01 X433.421 A0.000 Z39.875
G01 X433.721 A0.000 Z39.894
G01 X433.721 A360.000 Z39.889
G01 X434.021 A360.000 Z39.897
G01 X434.021 A0.000 
G01 X434.321 A0.000 
G01 X434.321 A360.000 
G01 X434.621 A360.000 
G01 X434.621 A0.000 
G01 X434.921 A0.000 
G01 X434.921 A360.000 
G01 X435.221 A360.000 
G01 X435.221 A0.000 
G01 X435.521 A0.000 
G01 X435.521 A360.000 
G01 X435.821 A360.000 
G01 X435.821 A0.000 
G01 X436.121 A0.000 
G01 X436.121 A360.000 
G01 X436.421 A360.000 
G01 X436.421 A0.000 
G01 X436.721 A0.000 
G01 X436.721 A360.000 
G01 X437.021 A360.000 
G01 X437.021 A0.000 
G01 X437.321 A0.000 
G01 X437.321 A360.000 
G01 X437.621 A360.000 
G01 X437.621 A0.000 
G01 X437.921 A0.000 
G01 X437.921 A360.000 
G01 X438.221 A360.000 
G01 X438.221 A0.000 
G01 X438.521 A0.000 
G01 X438.521 A360.000 
G01 X438.821 A360.000 
G01 X438.821 A0.000 
G01 X439.121 A0.000 
G01 X439.121 A360.000 
G01 X439.421 A360.000 
G01 X439.421 A0.000 
G01 X439.721 A0.000 
G01 X439.721 A360.000 
G01 X440.021 A360.000 
G01 X440.021 A0.000 
G01 X440.321 A0.000 
G01 X440.321 A360.000 
G01 X440.621 A360.000 
G01 X440.621 A0.000 
G01 X440.921 A0.000 
G01 X440.921 A360.000 
G01 X441.221 A360.000 
G01 X441.221 A0.000 
G01 X441.521 A0.000 
G01 X441.521 A360.000 
G01 X441.821 A360.000 
G01 X441.821 A0.000 
G01 X442.121 A0.000 
G01 X442.121 A360.000 
G01 X442.421 A360.000 
G01 X442.421 A0.000 
G01 X442.721 A0.000 
G01 X442.721 A360.000 
G01 X443.021 A360.000 
G01 X443.021 A0.000 
G01 X443.321 A0.000 
G01 X443.321 A360.000 
G01 X443.621 A360.000 
G01 X443.621 A0.000 
G01 X443.921 A0.000 
G01 X443.921 A360.000 
G01 X444.221 A360.000 
G01 X444.221 A0.000 
G01 X444.521 A0.000 
G01 X444.521 A360.000 
G01 X444.821 A360.000 
G01 X444.821 A0.000 
G01 X445.121 A0.000 
G01 X445.121 A360.000 
G01 X445.421 A360.000 
G01 X445.421 A0.000 
G01 X445.721 A0.000 
G01 X445.721 A360.000 
G01 X446.021 A360.000 
G01 X446.021 A0.000 
G01 X446.321 A0.000 
G01 X446.321 A360.000 
G01 X446.621 A360.000 
G01 X446.621 A0.000 
G01 X446.921 A0.000 
G01 X446.921 A360.000 
G01 X447.221 A360.000 
G01 X447.221 A0.000 
G01 X447.521 A0.000 
G01 X447.521 A360.000 
G01 X447.821 A360.000 
G01 X447.821 A0.000 
G01 X448.121 A0.000 
G01 X448.121 A360.000 
G01 X448.421 A360.000 
G01 X448.421 A0.000 
G01 X448.721 A0.000 
G01 X448.721 A360.000 
G01 X449.021 A360.000 
G01 X449.021 A0.000 
G01 X449.321 A0.000 
G01 X449.321 A360.000 
G01 X449.621 A360.000 
G01 X449.621 A0.000 
G01 X449.921 A0.000 
G01 X449.921 A360.000 
G01 X450.221 A360.000 
G01 X450.221 A0.000 
G01 X450.521 A0.000 
G01 X450.521 A360.000 
G01 X450.821 A360.000 
G01 X450.821 A0.000 
G01 X451.121 A0.000 
G01 X451.121 A360.000 
G01 X451.421 A360.000 
G01 X451.421 A0.000 
G01 X451.721 A0.000 
G01 X451.721 A360.000 
G01 X452.021 A360.000 
G01 X452.021 A0.000 
G01 X452.321 A0.000 
G01 X452.321 A360.000 
G01 X452.621 A360.000 
G01 X452.621 A0.000 
G01 X452.921 A0.000 
G01 X452.921 A360.000 
G01 X453.221 A360.000 
G01 X453.221 A0.000 
G01 X453.521 A0.000 
G01 X453.521 A360.000 
G01 X453.821 A360.000 
G01 X453.821 A0.000 
G01 X454.121 A0.000 
G01 X454.121 A360.000 
G01 X454.421 A360.000 
G01 X454.421 A0.000 
G01 X454.721 A0.000 
G01 X454.721 A360.000 
