%
( apport400g23cm_correctX2Namn ) ( File created: Friday August 23 2024 - 03:08 PM)
( for LinuxCNC )
( Material Size) ( X= 500.000, Y= 63.000, Z= 29.000)
G90 (Incremental distance mode)
G17 G21 (Active Plane: XY)(Metric Mode)
G40 G49 G80(Tool Diameter, Length compensation & canned cycles OFF)
G64 P0.05 Q0.05(Path Blending)
M600
G90 (absolute distance mode)
G54 (Coordinate System)
S12000M3
G00 Z5.000
G4 P6
( V-Carve 1 )
G00 X-216.497 Y3.588 Z5.000 F3000.0
G01 Z-2.135 F500.0 M3
G01 X-216.477 Y3.384 Z-2.040 F1500.0
G01 X-216.459 Y3.096 Z-1.943
G01 X-216.437 Y2.431 Z-1.815
G01 X-216.426 Y1.598 Z-1.773
G01 X-216.428 Y1.057 Z-1.810
G01 X-216.423 Y0.923 Z-1.838
G01 X-216.399 Y0.741 Z-1.938
G01 X-216.420 Y0.621 Z-1.866
G01 X-216.437 Y0.437 Z-1.806
G01 X-216.448 Y0.128 Z-1.778
G01 X-216.471 Y-1.470 Z-1.766
G01 X-216.492 Y-2.079 Z-1.880
G01 X-216.510 Y-2.332 Z-1.978
G01 X-216.522 Y-2.465 Z-2.059
G01 X-216.831 Y-2.682 Z-1.262
G01 X-217.000 Y-2.773 Z-0.934
G01 X-217.133 Y-2.828 Z-0.746
G01 X-217.258 Y-2.867 Z-0.616
G01 X-217.380 Y-2.894 Z-0.532
G01 X-217.798 Y-2.947 Z-0.386
G01 X-217.906 Y-2.951 Z-0.314
G01 X-217.940 Y-2.872 Z0.000
G01 X-217.906 Y-2.951 Z-0.314
G01 X-217.983 Y-2.902 Z0.000
G01 X-217.917 Y-2.949 Z-0.286
G01 X-217.997 Y-2.949 Z0.000
G01 X-217.915 Y-2.950 Z-0.292
G01 X-217.984 Y-2.994 Z0.000
G01 X-217.905 Y-2.951 Z-0.314
G01 X-217.947 Y-3.026 Z0.000
G01 X-217.905 Y-2.951 Z-0.314
G01 X-217.798 Y-2.947 Z-0.386
G01 X-217.357 Y-2.889 Z-0.545
G01 X-217.228 Y-2.859 Z-0.643
G01 X-217.095 Y-2.814 Z-0.794
G01 X-216.940 Y-2.743 Z-1.039
G01 X-216.763 Y-2.639 Z-1.419
G01 X-216.522 Y-2.465 Z-2.059
G01 X-216.249 Y-2.688 Z-1.215
G01 X-216.107 Y-2.764 Z-0.922
G01 X-215.954 Y-2.818 Z-0.715
G01 X-215.650 Y-2.871 Z-0.502
G01 X-215.285 Y-2.902 Z-0.421
G01 X-214.772 Y-2.918 Z-0.425
G01 X-214.455 Y-2.913 Z-0.479
G01 X-214.277 Y-2.898 Z-0.510
G01 X-214.057 Y-2.864 Z-0.576
G01 X-213.847 Y-2.810 Z-0.668
G01 X-213.641 Y-2.729 Z-0.801
G01 X-213.432 Y-2.614 Z-0.978
G01 X-213.223 Y-2.460 Z-1.181
G01 X-213.144 Y-2.390 Z-1.271
G01 X-213.012 Y-2.256 Z-1.396
G01 X-212.857 Y-2.052 Z-1.552
G01 X-212.697 Y-1.765 Z-1.753
G01 X-212.613 Y-1.541 Z-1.892
G01 X-212.556 Y-1.291 Z-1.986
G01 X-212.543 Y-1.170 Z-2.010
G01 X-212.543 Y-0.929 Z-2.010
G01 X-212.573 Y-0.716 Z-1.961
G01 X-212.632 Y-0.513 Z-1.858
G01 X-212.730 Y-0.301 Z-1.692
G01 X-212.886 Y-0.070 Z-1.460
G01 X-213.113 Y0.168 Z-1.168
G01 X-213.303 Y0.321 Z-0.998
G01 X-213.471 Y0.426 Z-0.878
G01 X-213.804 Y0.585 Z-0.734
G01 X-214.012 Y0.660 Z-0.693
G01 X-214.086 Y0.682 Z-0.692
G01 X-214.162 Y0.715 Z-0.726
G01 X-214.206 Y0.744 Z-0.784
G01 X-214.285 Y0.812 Z-0.966
G01 X-214.200 Y0.928 Z-0.681
G01 X-214.171 Y0.955 Z-0.633
G01 X-214.083 Y1.008 Z-0.587
G01 X-213.883 Y1.098 Z-0.653
G01 X-213.689 Y1.201 Z-0.771
G01 X-213.523 Y1.316 Z-0.893
G01 X-213.355 Y1.456 Z-1.073
G01 X-213.179 Y1.647 Z-1.314
G01 X-213.044 Y1.850 Z-1.529
G01 X-212.956 Y2.039 Z-1.681
G01 X-212.898 Y2.235 Z-1.791
G01 X-212.872 Y2.401 Z-1.855
G01 X-212.864 Y2.612 Z-1.885
G01 X-212.887 Y2.858 Z-1.875
G01 X-212.944 Y3.071 Z-1.812
G01 X-213.039 Y3.272 Z-1.689
G01 X-213.194 Y3.488 Z-1.485
G01 X-213.372 Y3.659 Z-1.281
G01 X-213.559 Y3.793 Z-1.105
G01 X-213.721 Y3.880 Z-0.974
G01 X-214.007 Y3.995 Z-0.762
G01 X-214.099 Y4.021 Z-0.719
G01 X-214.328 Y4.072 Z-0.573
G01 X-214.558 Y4.103 Z-0.500
G01 X-214.658 Y4.111 Z-0.453
G01 X-215.003 Y4.114 Z-0.384
G01 X-215.221 Y4.103 Z-0.388
G01 X-215.454 Y4.081 Z-0.431
G01 X-215.784 Y4.034 Z-0.548
G01 X-215.965 Y4.006 Z-0.634
G01 X-216.040 Y3.985 Z-0.703
G01 X-216.145 Y3.927 Z-0.907
G01 X-216.497 Y3.588 Z-2.135
G01 X-216.828 Y3.819 Z-1.255
G01 X-217.022 Y3.922 Z-0.876
G01 X-217.172 Y3.976 Z-0.681
G01 X-217.322 Y4.012 Z-0.552
G01 X-217.488 Y4.039 Z-0.461
G01 X-217.686 Y4.060 Z-0.388
G01 X-217.761 Y4.067 Z-0.315
G01 X-217.809 Y4.139 Z0.000
G01 X-217.761 Y4.067 Z-0.315
G01 X-217.838 Y4.108 Z0.000
G01 X-217.760 Y4.066 Z-0.319
G01 X-217.848 Y4.065 Z0.000
G01 X-217.759 Y4.066 Z-0.323
G01 X-217.838 Y4.023 Z0.000
G01 X-217.760 Y4.065 Z-0.318
G01 X-217.808 Y3.991 Z0.000
G01 X-217.759 Y4.066 Z-0.323
G01 X-217.662 Y4.056 Z-0.402
G01 X-217.474 Y4.037 Z-0.468
G01 X-217.297 Y4.007 Z-0.570
G01 X-217.127 Y3.962 Z-0.732
G01 X-216.943 Y3.885 Z-1.013
G01 X-216.703 Y3.735 Z-1.564
G01 X-216.497 Y3.588 Z-2.135
G00 Z5.000
G01 Z-2.135 F500.0 M3
G01 X-216.145 Y3.927 Z-0.907 F1500.0
G01 X-216.040 Y3.985 Z-0.703
G01 X-215.965 Y4.006 Z-0.634
G01 X-215.696 Y4.049 Z-0.509
G01 X-215.446 Y4.082 Z-0.429
G01 X-215.212 Y4.104 Z-0.387
G01 X-214.991 Y4.114 Z-0.385
G01 X-214.639 Y4.110 Z-0.460
G01 X-214.558 Y4.103 Z-0.500
G01 X-214.301 Y4.067 Z-0.586
G01 X-214.099 Y4.021 Z-0.719
G01 X-213.971 Y3.983 Z-0.786
G01 X-213.655 Y3.848 Z-1.017
G01 X-213.492 Y3.749 Z-1.161
G01 X-213.296 Y3.592 Z-1.371
G01 X-213.099 Y3.368 Z-1.605
G01 X-212.985 Y3.172 Z-1.755
G01 X-212.944 Y3.071 Z-1.812
G01 X-212.887 Y2.858 Z-1.875
G01 X-212.864 Y2.612 Z-1.885
G01 X-212.872 Y2.401 Z-1.855
G01 X-212.902 Y2.216 Z-1.787
G01 X-212.976 Y1.991 Z-1.640
G01 X-213.063 Y1.818 Z-1.490
G01 X-213.199 Y1.623 Z-1.279
G01 X-213.389 Y1.423 Z-1.038
G01 X-213.552 Y1.295 Z-0.868
G01 X-213.722 Y1.182 Z-0.745
G01 X-213.900 Y1.090 Z-0.645
G01 X-214.095 Y1.003 Z-0.586
G01 X-214.171 Y0.955 Z-0.633
G01 X-214.249 Y0.867 Z-0.816
G01 X-214.285 Y0.812 Z-0.966
G01 X-214.454 Y0.800 Z-0.800
G01 X-214.683 Y0.785 Z-0.634
G01 X-215.150 Y0.758 Z-0.451
G01 X-215.651 Y0.734 Z-0.444
G01 X-215.858 Y0.735 Z-0.508
G01 X-215.953 Y0.745 Z-0.596
G01 X-216.039 Y0.745 Z-0.768
G01 X-216.399 Y0.741 Z-1.938
G01 X-216.423 Y0.923 Z-1.838
G01 X-216.428 Y1.095 Z-1.804
G01 X-216.427 Y1.621 Z-1.773
G01 X-216.438 Y2.460 Z-1.819
G01 X-216.461 Y3.133 Z-1.953
G01 X-216.480 Y3.424 Z-2.056
G01 X-216.497 Y3.588 Z-2.135
G00 Z5.000
G00 X-216.522 Y-2.465  F3000.0
G01 Z-2.059 F500.0 M3
G01 X-216.507 Y-2.277 Z-1.951 F1500.0
G01 X-216.490 Y-2.035 Z-1.868
G01 X-216.470 Y-1.439 Z-1.765
G01 X-216.447 Y0.149 Z-1.779
G01 X-216.432 Y0.512 Z-1.824
G01 X-216.406 Y0.707 Z-1.914
G01 X-216.399 Y0.741 Z-1.938
G01 X-216.039 Y0.745 Z-0.768
G01 X-215.953 Y0.745 Z-0.596
G01 X-215.818 Y0.732 Z-0.487
G01 X-215.637 Y0.734 Z-0.442
G01 X-215.132 Y0.759 Z-0.455
G01 X-214.643 Y0.789 Z-0.657
G01 X-214.403 Y0.805 Z-0.845
G01 X-214.285 Y0.812 Z-0.966
G01 X-214.191 Y0.734 Z-0.761
G01 X-214.162 Y0.715 Z-0.726
G01 X-214.085 Y0.682 Z-0.692
G01 X-213.995 Y0.654 Z-0.695
G01 X-213.804 Y0.585 Z-0.734
G01 X-213.471 Y0.426 Z-0.878
G01 X-213.265 Y0.295 Z-1.035
G01 X-213.113 Y0.168 Z-1.168
G01 X-212.886 Y-0.070 Z-1.460
G01 X-212.721 Y-0.317 Z-1.704
G01 X-212.623 Y-0.538 Z-1.870
G01 X-212.573 Y-0.716 Z-1.961
G01 X-212.543 Y-0.929 Z-2.010
G01 X-212.543 Y-1.170 Z-2.010
G01 X-212.556 Y-1.291 Z-1.986
G01 X-212.613 Y-1.541 Z-1.892
G01 X-212.697 Y-1.765 Z-1.753
G01 X-212.857 Y-2.052 Z-1.552
G01 X-213.014 Y-2.259 Z-1.394
G01 X-213.144 Y-2.390 Z-1.271
G01 X-213.295 Y-2.518 Z-1.118
G01 X-213.471 Y-2.639 Z-0.947
G01 X-213.676 Y-2.746 Z-0.779
G01 X-213.876 Y-2.819 Z-0.654
G01 X-214.075 Y-2.867 Z-0.569
G01 X-214.291 Y-2.900 Z-0.506
G01 X-214.525 Y-2.916 Z-0.459
G01 X-214.781 Y-2.918 Z-0.425
G01 X-215.298 Y-2.901 Z-0.422
G01 X-215.650 Y-2.871 Z-0.502
G01 X-215.954 Y-2.818 Z-0.715
G01 X-216.107 Y-2.764 Z-0.922
G01 X-216.249 Y-2.688 Z-1.215
G01 X-216.522 Y-2.465 Z-2.059
G00 Z5.000
G00 X-210.090 Y3.888  F3000.0
G01 Z-1.845 F500.0 M3
G01 X-209.901 Y4.126 Z-1.117 F1500.0
G01 X-209.692 Y4.413 Z-0.309
G01 X-209.611 Y4.496 Z0.000
G01 X-209.692 Y4.413 Z-0.309
G01 X-209.922 Y4.099 Z-1.198
G01 X-210.090 Y3.888 Z-1.845
G01 X-210.366 Y3.998 Z-1.262
G01 X-210.617 Y4.071 Z-0.864
G01 X-210.795 Y4.106 Z-0.658
G01 X-210.970 Y4.129 Z-0.516
G01 X-211.254 Y4.148 Z-0.336
G01 X-211.289 Y4.147 Z-0.293
G01 X-211.332 Y4.214 Z0.000
G01 X-211.289 Y4.147 Z-0.293
G01 X-211.364 Y4.183 Z0.000
G01 X-211.301 Y4.146 Z-0.262
G01 X-211.375 Y4.142 Z0.000
G01 X-211.305 Y4.145 Z-0.251
G01 X-211.361 Y4.104 Z0.000
G01 X-211.284 Y4.146 Z-0.301
G01 X-211.321 Y4.073 Z0.000
G01 X-211.284 Y4.146 Z-0.301
G01 X-211.135 Y4.139 Z-0.423
G01 X-210.950 Y4.127 Z-0.530
G01 X-210.765 Y4.101 Z-0.688
G01 X-210.572 Y4.060 Z-0.927
G01 X-210.366 Y3.998 Z-1.262
G01 X-210.090 Y3.888 Z-1.845
G01 X-210.047 Y3.721 Z-1.698
G01 X-210.010 Y3.519 Z-1.581
G01 X-209.989 Y3.317 Z-1.524
G01 X-209.970 Y2.709 Z-1.476
G01 X-209.946 Y-0.276 Z-1.416
G01 X-209.926 Y-1.610 Z-1.437
G01 X-209.927 Y-1.948 Z-1.468
G01 X-209.934 Y-2.209 Z-1.549
G01 X-209.939 Y-2.438 Z-1.705
G01 X-209.938 Y-2.504 Z-1.765
G01 X-210.252 Y-2.707 Z-0.996
G01 X-210.467 Y-2.810 Z-0.640
G01 X-210.665 Y-2.869 Z-0.447
G01 X-210.874 Y-2.911 Z-0.379
G01 X-211.098 Y-2.931 Z-0.376
G01 X-211.149 Y-2.932 Z-0.353
G01 X-211.169 Y-2.931 Z-0.318
G01 X-211.220 Y-2.860 Z0.000
G01 X-211.169 Y-2.931 Z-0.318
G01 X-211.247 Y-2.891 Z0.000
G01 X-211.167 Y-2.932 Z-0.325
G01 X-211.256 Y-2.933 Z0.000
G01 X-211.166 Y-2.932 Z-0.329
G01 X-211.246 Y-2.977 Z0.000
G01 X-211.167 Y-2.933 Z-0.325
G01 X-211.215 Y-3.008 Z0.000
G01 X-211.166 Y-2.932 Z-0.329
G01 X-211.143 Y-2.932 Z-0.357
G01 X-211.091 Y-2.931 Z-0.378
G01 X-210.854 Y-2.908 Z-0.382
G01 X-210.653 Y-2.866 Z-0.453
G01 X-210.467 Y-2.810 Z-0.640
G01 X-210.217 Y-2.689 Z-1.061
G01 X-209.938 Y-2.504 Z-1.765
G01 X-209.774 Y-2.625 Z-1.322
G01 X-209.569 Y-2.747 Z-0.875
G01 X-209.393 Y-2.823 Z-0.617
G01 X-209.223 Y-2.872 Z-0.474
G01 X-209.038 Y-2.904 Z-0.393
G01 X-208.790 Y-2.932 Z-0.345
G01 X-208.727 Y-2.935 Z-0.293
G01 X-208.681 Y-3.001 Z0.000
G01 X-208.727 Y-2.935 Z-0.293
G01 X-208.655 Y-2.972 Z0.000
G01 X-208.727 Y-2.934 Z-0.293
G01 X-208.646 Y-2.931 Z0.000
G01 X-208.725 Y-2.934 Z-0.286
G01 X-208.658 Y-2.892 Z0.000
G01 X-208.729 Y-2.934 Z-0.297
G01 X-208.690 Y-2.862 Z0.000
G01 X-208.729 Y-2.934 Z-0.297
G01 X-208.790 Y-2.932 Z-0.345
G01 X-209.054 Y-2.902 Z-0.398
G01 X-209.251 Y-2.865 Z-0.492
G01 X-209.444 Y-2.804 Z-0.678
G01 X-209.642 Y-2.708 Z-1.017
G01 X-209.844 Y-2.576 Z-1.500
G01 X-209.938 Y-2.504 Z-1.765
G01 X-209.934 Y-2.257 Z-1.576
G01 X-209.934 Y-2.148 Z-1.525
G01 X-209.927 Y-1.917 Z-1.462
G01 X-209.926 Y-1.596 Z-1.436
G01 X-209.946 Y-0.269 Z-1.416
G01 X-209.971 Y2.723 Z-1.477
G01 X-209.989 Y3.317 Z-1.524
G01 X-210.020 Y3.586 Z-1.613
G01 X-210.065 Y3.798 Z-1.759
G01 X-210.090 Y3.888 Z-1.845
G00 Z5.000
G00 X-204.744 Y-2.548  F3000.0
G01 Z-1.629 F500.0 M3
G01 X-204.862 Y-2.674 Z-1.059 F1500.0
G01 X-204.744 Y-2.548 Z-1.629
G01 X-204.517 Y-2.693 Z-1.086
G01 X-204.303 Y-2.787 Z-0.708
G01 X-204.121 Y-2.826 Z-0.509
G01 X-203.959 Y-2.827 Z-0.430
G01 X-203.807 Y-2.804 Z-0.407
G01 X-203.719 Y-2.784 Z-0.356
G01 X-203.687 Y-2.776 Z-0.301
G01 X-203.618 Y-2.823 Z0.000
G01 X-203.687 Y-2.776 Z-0.301
G01 X-203.602 Y-2.774 Z0.000
G01 X-203.675 Y-2.769 Z-0.267
G01 X-203.610 Y-2.734 Z0.000
G01 X-203.668 Y-2.762 Z-0.235
G01 X-203.633 Y-2.706 Z0.000
G01 X-203.687 Y-2.776 Z-0.301
G01 X-203.733 Y-2.785 Z-0.373
G01 X-203.727 Y-2.684 Z0.000
G01 X-203.733 Y-2.785 Z-0.373
G01 X-203.808 Y-2.804 Z-0.408
G01 X-203.959 Y-2.827 Z-0.430
G01 X-204.121 Y-2.826 Z-0.509
G01 X-204.303 Y-2.787 Z-0.708
G01 X-204.517 Y-2.693 Z-1.086
G01 X-204.744 Y-2.548 Z-1.629
G01 X-204.797 Y-2.246 Z-1.545
G01 X-204.803 Y-2.195 Z-1.537
G01 X-204.833 Y-2.057 Z-1.582
G01 X-204.852 Y-2.000 Z-1.627
G01 X-204.843 Y-1.903 Z-1.555
G01 X-204.825 Y-1.656 Z-1.449
G01 X-204.817 Y-1.387 Z-1.381
G01 X-204.818 Y-1.092 Z-1.356
G01 X-204.820 Y-0.613 Z-1.395
G01 X-204.832 Y-0.097 Z-1.470
G01 X-204.849 Y0.053 Z-1.545
G01 X-204.818 Y0.314 Z-1.431
G01 X-204.818 Y0.512 Z-1.394
G01 X-204.838 Y0.796 Z-1.406
G01 X-204.861 Y0.921 Z-1.420
G01 X-204.882 Y0.999 Z-1.405
G01 X-204.934 Y1.091 Z-1.336
G01 X-205.080 Y1.259 Z-1.095
G01 X-205.272 Y1.410 Z-0.844
G01 X-205.470 Y1.511 Z-0.641
G01 X-205.665 Y1.572 Z-0.501
G01 X-205.867 Y1.605 Z-0.419
G01 X-206.080 Y1.613 Z-0.389
G01 X-206.256 Y1.602 Z-0.394
G01 X-206.418 Y1.576 Z-0.432
G01 X-206.570 Y1.530 Z-0.501
G01 X-206.721 Y1.460 Z-0.631
G01 X-206.868 Y1.356 Z-0.825
G01 X-207.068 Y1.147 Z-1.182
G01 X-207.177 Y0.987 Z-1.393
G01 X-207.236 Y0.867 Z-1.505
G01 X-207.267 Y0.781 Z-1.533
G01 X-207.288 Y0.670 Z-1.496
G01 X-207.300 Y0.642 Z-1.428
G01 X-207.291 Y0.648 Z-1.466
G01 X-207.265 Y0.548 Z-1.181
G01 X-207.263 Y0.518 Z-1.076
G01 X-207.273 Y0.574 Z-1.268
G01 X-207.290 Y0.662 Z-1.486
G01 X-207.286 Y0.688 Z-1.508
G01 X-207.267 Y0.781 Z-1.533
G01 X-207.236 Y0.867 Z-1.505
G01 X-207.177 Y0.987 Z-1.393
G01 X-207.068 Y1.147 Z-1.182
G01 X-206.903 Y1.326 Z-0.889
G01 X-206.830 Y1.385 Z-0.768
G01 X-206.670 Y1.489 Z-0.588
G01 X-206.542 Y1.540 Z-0.483
G01 X-206.398 Y1.581 Z-0.427
G01 X-206.241 Y1.603 Z-0.392
G01 X-206.065 Y1.613 Z-0.391
G01 X-205.844 Y1.603 Z-0.425
G01 X-205.634 Y1.564 Z-0.517
G01 X-205.428 Y1.492 Z-0.675
G01 X-205.225 Y1.377 Z-0.896
G01 X-205.080 Y1.259 Z-1.095
G01 X-204.934 Y1.091 Z-1.336
G01 X-204.880 Y0.994 Z-1.409
G01 X-204.861 Y0.921 Z-1.420
G01 X-204.831 Y0.742 Z-1.402
G01 X-204.816 Y0.461 Z-1.398
G01 X-204.822 Y0.249 Z-1.454
G01 X-204.849 Y0.053 Z-1.545
G01 X-205.007 Y0.044 Z-1.019
G01 X-205.174 Y0.009 Z-0.520
G01 X-205.244 Y-0.022 Z-0.376
G01 X-205.298 Y-0.072 Z-0.326
G01 X-205.432 Y-0.190 Z-0.360
G01 X-205.656 Y-0.330 Z-0.425
G01 X-205.967 Y-0.487 Z-0.515
G01 X-206.346 Y-0.660 Z-0.645
G01 X-206.573 Y-0.774 Z-0.747
G01 X-206.827 Y-0.916 Z-0.913
G01 X-207.006 Y-1.039 Z-1.049
G01 X-207.146 Y-1.159 Z-1.196
G01 X-207.233 Y-1.266 Z-1.289
G01 X-207.322 Y-1.414 Z-1.368
G01 X-207.402 Y-1.610 Z-1.470
G01 X-207.428 Y-1.727 Z-1.524
G01 X-207.444 Y-1.960 Z-1.575
G01 X-207.424 Y-2.135 Z-1.576
G01 X-207.396 Y-2.238 Z-1.570
G01 X-207.345 Y-2.353 Z-1.521
G01 X-207.283 Y-2.450 Z-1.460
G01 X-207.192 Y-2.552 Z-1.356
G01 X-207.036 Y-2.671 Z-1.161
G01 X-206.843 Y-2.765 Z-0.941
G01 X-206.655 Y-2.820 Z-0.769
G01 X-206.473 Y-2.842 Z-0.648
G01 X-206.275 Y-2.831 Z-0.561
G01 X-206.122 Y-2.801 Z-0.503
G01 X-205.957 Y-2.745 Z-0.457
G01 X-205.800 Y-2.668 Z-0.423
G01 X-205.734 Y-2.628 Z-0.422
G01 X-205.651 Y-2.569 Z-0.397
G01 X-205.524 Y-2.461 Z-0.380
G01 X-205.396 Y-2.322 Z-0.372
G01 X-205.293 Y-2.182 Z-0.384
G01 X-205.241 Y-2.126 Z-0.459
G01 X-205.106 Y-2.059 Z-0.800
G01 X-204.852 Y-2.000 Z-1.627
G01 X-204.833 Y-2.057 Z-1.582
G01 X-204.800 Y-2.221 Z-1.539
G01 X-204.751 Y-2.526 Z-1.621
G01 X-204.744 Y-2.548 Z-1.629
G00 Z5.000
G00 X-204.852 Y-2.000  F3000.0
G01 Z-1.627 F500.0 M3
G01 X-205.106 Y-2.059 Z-0.800 F1500.0
G01 X-205.241 Y-2.126 Z-0.459
G01 X-205.301 Y-2.193 Z-0.382
G01 X-205.429 Y-2.362 Z-0.380
G01 X-205.524 Y-2.461 Z-0.380
G01 X-205.662 Y-2.577 Z-0.399
G01 X-205.734 Y-2.628 Z-0.422
G01 X-205.814 Y-2.676 Z-0.425
G01 X-205.957 Y-2.745 Z-0.457
G01 X-206.143 Y-2.806 Z-0.508
G01 X-206.325 Y-2.836 Z-0.574
G01 X-206.513 Y-2.839 Z-0.668
G01 X-206.704 Y-2.810 Z-0.810
G01 X-206.905 Y-2.742 Z-1.014
G01 X-207.088 Y-2.637 Z-1.225
G01 X-207.210 Y-2.534 Z-1.370
G01 X-207.283 Y-2.450 Z-1.460
G01 X-207.350 Y-2.346 Z-1.526
G01 X-207.396 Y-2.238 Z-1.570
G01 X-207.435 Y-2.064 Z-1.573
G01 X-207.444 Y-1.960 Z-1.575
G01 X-207.428 Y-1.727 Z-1.524
G01 X-207.355 Y-1.488 Z-1.416
G01 X-207.289 Y-1.352 Z-1.334
G01 X-207.188 Y-1.206 Z-1.237
G01 X-207.102 Y-1.117 Z-1.159
G01 X-206.968 Y-1.011 Z-1.013
G01 X-206.779 Y-0.886 Z-0.873
G01 X-206.559 Y-0.766 Z-0.739
G01 X-206.310 Y-0.642 Z-0.629
G01 X-205.960 Y-0.483 Z-0.513
G01 X-205.656 Y-0.330 Z-0.425
G01 X-205.554 Y-0.270 Z-0.406
G01 X-205.432 Y-0.190 Z-0.360
G01 X-205.298 Y-0.072 Z-0.326
G01 X-205.244 Y-0.022 Z-0.376
G01 X-205.132 Y0.021 Z-0.632
G01 X-204.889 Y0.052 Z-1.407
G01 X-204.849 Y0.053 Z-1.545
G01 X-204.832 Y-0.097 Z-1.470
G01 X-204.820 Y-0.626 Z-1.394
G01 X-204.819 Y-1.192 Z-1.358
G01 X-204.818 Y-1.414 Z-1.387
G01 X-204.827 Y-1.694 Z-1.463
G01 X-204.848 Y-1.960 Z-1.593
G01 X-204.852 Y-2.000 Z-1.627
G00 Z5.000
G00 X-202.642 Y-1.084  F3000.0
G01 Z-1.773 F500.0 M3
G01 X-202.607 Y-1.250 Z-1.758 F1500.0
G01 X-202.500 Y-1.573 Z-1.688
G01 X-202.427 Y-1.733 Z-1.631
G01 X-202.221 Y-2.069 Z-1.470
G01 X-202.049 Y-2.276 Z-1.345
G01 X-201.887 Y-2.431 Z-1.227
G01 X-201.714 Y-2.564 Z-1.099
G01 X-201.542 Y-2.664 Z-0.969
G01 X-201.364 Y-2.741 Z-0.844
G01 X-201.187 Y-2.795 Z-0.733
G01 X-201.001 Y-2.829 Z-0.637
G01 X-200.811 Y-2.841 Z-0.563
G01 X-200.630 Y-2.832 Z-0.513
G01 X-200.425 Y-2.798 Z-0.472
G01 X-200.222 Y-2.731 Z-0.457
G01 X-200.002 Y-2.619 Z-0.454
G01 X-199.886 Y-2.537 Z-0.458
G01 X-199.766 Y-2.439 Z-0.441
G01 X-199.597 Y-2.260 Z-0.417
G01 X-199.561 Y-2.215 Z-0.430
G01 X-199.455 Y-2.053 Z-0.412
G01 X-199.419 Y-1.983 Z-0.431
G01 X-199.355 Y-1.827 Z-0.419
G01 X-199.336 Y-1.755 Z-0.427
G01 X-199.309 Y-1.610 Z-0.405
G01 X-199.289 Y-1.514 Z-0.345
G01 X-199.202 Y-1.475 Z0.000
G01 X-199.278 Y-1.503 Z-0.295
G01 X-199.220 Y-1.445 Z0.000
G01 X-199.278 Y-1.503 Z-0.295
G01 X-199.251 Y-1.426 Z0.000
G01 X-199.289 Y-1.514 Z-0.345
G01 X-199.294 Y-1.420 Z0.000
G01 X-199.290 Y-1.516 Z-0.350
G01 X-199.336 Y-1.431 Z0.000
G01 X-199.294 Y-1.512 Z-0.334
G01 X-199.370 Y-1.460 Z0.000
G01 X-199.291 Y-1.523 Z-0.356
G01 X-199.313 Y-1.638 Z-0.414
G01 X-199.336 Y-1.755 Z-0.427
G01 X-199.370 Y-1.871 Z-0.426
G01 X-199.419 Y-1.983 Z-0.431
G01 X-199.466 Y-2.071 Z-0.410
G01 X-199.561 Y-2.215 Z-0.430
G01 X-199.610 Y-2.275 Z-0.416
G01 X-199.791 Y-2.462 Z-0.440
G01 X-199.886 Y-2.537 Z-0.458
G01 X-200.013 Y-2.626 Z-0.457
G01 X-200.222 Y-2.731 Z-0.457
G01 X-200.425 Y-2.798 Z-0.472
G01 X-200.679 Y-2.837 Z-0.518
G01 X-200.856 Y-2.840 Z-0.574
G01 X-201.034 Y-2.824 Z-0.650
G01 X-201.213 Y-2.789 Z-0.749
G01 X-201.392 Y-2.731 Z-0.865
G01 X-201.570 Y-2.650 Z-0.990
G01 X-201.744 Y-2.543 Z-1.118
G01 X-201.911 Y-2.411 Z-1.243
G01 X-202.071 Y-2.252 Z-1.361
G01 X-202.232 Y-2.054 Z-1.481
G01 X-202.427 Y-1.733 Z-1.631
G01 X-202.545 Y-1.454 Z-1.715
G01 X-202.617 Y-1.207 Z-1.758
G01 X-202.642 Y-1.084 Z-1.773
G01 X-202.678 Y-0.729 Z-1.763
G01 X-202.681 Y-0.522 Z-1.725
G01 X-202.671 Y-0.322 Z-1.670
G01 X-202.647 Y-0.127 Z-1.609
G01 X-202.606 Y0.095 Z-1.501
G01 X-202.560 Y0.257 Z-1.427
G01 X-202.474 Y0.503 Z-1.264
G01 X-202.411 Y0.642 Z-1.184
G01 X-202.296 Y0.857 Z-1.019
G01 X-202.186 Y1.018 Z-0.911
G01 X-202.056 Y1.184 Z-0.773
G01 X-201.910 Y1.327 Z-0.655
G01 X-201.749 Y1.448 Z-0.553
G01 X-201.569 Y1.547 Z-0.468
G01 X-201.382 Y1.615 Z-0.418
G01 X-201.279 Y1.640 Z-0.390
G01 X-201.125 Y1.663 Z-0.376
G01 X-200.961 Y1.673 Z-0.376
G01 X-200.793 Y1.661 Z-0.384
G01 X-200.630 Y1.632 Z-0.432
G01 X-200.472 Y1.581 Z-0.512
G01 X-200.315 Y1.506 Z-0.629
G01 X-200.157 Y1.407 Z-0.796
G01 X-199.960 Y1.238 Z-1.062
G01 X-199.798 Y1.054 Z-1.316
G01 X-199.718 Y0.933 Z-1.423
G01 X-199.676 Y0.846 Z-1.441
G01 X-199.652 Y0.778 Z-1.401
G01 X-199.638 Y0.705 Z-1.286
G01 X-199.633 Y0.617 Z-1.031
G01 X-199.629 Y0.627 Z-1.069
G01 X-199.605 Y0.564 Z-0.835
G01 X-199.631 Y0.673 Z-1.205
G01 X-199.639 Y0.723 Z-1.321
G01 X-199.299 Y0.606 Z0.000
G01 X-199.639 Y0.723 Z-1.321
G01 X-199.662 Y0.807 Z-1.429
G01 X-199.693 Y0.887 Z-1.440
G01 X-199.753 Y0.990 Z-1.383
G01 X-199.878 Y1.149 Z-1.176
G01 X-200.030 Y1.303 Z-0.953
G01 X-200.185 Y1.427 Z-0.765
G01 X-200.341 Y1.520 Z-0.608
G01 X-200.495 Y1.590 Z-0.496
G01 X-200.651 Y1.638 Z-0.426
G01 X-200.810 Y1.663 Z-0.381
G01 X-200.974 Y1.672 Z-0.375
G01 X-201.178 Y1.657 Z-0.387
G01 X-201.293 Y1.637 Z-0.393
G01 X-201.442 Y1.596 Z-0.424
G01 X-201.706 Y1.475 Z-0.524
G01 X-201.910 Y1.327 Z-0.655
G01 X-202.056 Y1.184 Z-0.773
G01 X-202.186 Y1.018 Z-0.911
G01 X-202.319 Y0.819 Z-1.047
G01 X-202.411 Y0.642 Z-1.184
G01 X-202.497 Y0.450 Z-1.303
G01 X-202.560 Y0.257 Z-1.427
G01 X-202.616 Y0.050 Z-1.524
G01 X-202.647 Y-0.127 Z-1.609
G01 X-202.678 Y-0.412 Z-1.688
G01 X-202.681 Y-0.522 Z-1.725
G01 X-202.678 Y-0.729 Z-1.763
G01 X-202.642 Y-1.084 Z-1.773
G00 Z5.000
G00 X-197.532 Y3.995  F3000.0
G01 Z-1.760 F500.0 M3
G01 X-197.318 Y4.240 Z-0.976 F1500.0
G01 X-197.073 Y4.527 Z0.000
G01 X-197.328 Y4.227 Z-1.015
G01 X-197.532 Y3.995 Z-1.760
G01 X-197.701 Y4.082 Z-1.350
G01 X-197.905 Y4.167 Z-0.945
G01 X-198.104 Y4.222 Z-0.657
G01 X-198.293 Y4.252 Z-0.473
G01 X-198.499 Y4.261 Z-0.322
G01 X-198.566 Y4.259 Z-0.233
G01 X-198.608 Y4.309 Z0.000
G01 X-198.566 Y4.259 Z-0.233
G01 X-198.636 Y4.267 Z0.000
G01 X-198.581 Y4.257 Z-0.191
G01 X-198.627 Y4.232 Z0.000
G01 X-198.566 Y4.259 Z-0.234
G01 X-198.601 Y4.204 Z0.000
G01 X-198.566 Y4.259 Z-0.234
G01 X-198.473 Y4.259 Z-0.346
G01 X-198.266 Y4.248 Z-0.494
G01 X-198.056 Y4.211 Z-0.717
G01 X-197.824 Y4.137 Z-1.091
G01 X-197.560 Y4.012 Z-1.685
G01 X-197.532 Y3.995 Z-1.760
G01 X-197.500 Y3.788 Z-1.622
G01 X-197.476 Y3.540 Z-1.530
G01 X-197.460 Y3.260 Z-1.489
G01 X-197.425 Y1.555 Z-1.478
G01 X-197.394 Y-0.609 Z-1.431
G01 X-197.381 Y-0.731 Z-1.468
G01 X-197.390 Y-0.889 Z-1.422
G01 X-197.390 Y-1.172 Z-1.410
G01 X-197.377 Y-1.757 Z-1.433
G01 X-197.373 Y-2.064 Z-1.503
G01 X-197.367 Y-2.207 Z-1.564
G01 X-197.369 Y-2.352 Z-1.654
G01 X-197.369 Y-2.432 Z-1.733
G01 X-197.540 Y-2.550 Z-1.299
G01 X-197.753 Y-2.671 Z-0.852
G01 X-197.866 Y-2.721 Z-0.667
G01 X-197.938 Y-2.744 Z-0.581
G01 X-198.097 Y-2.776 Z-0.467
G01 X-198.321 Y-2.795 Z-0.367
G01 X-198.402 Y-2.800 Z-0.272
G01 X-198.447 Y-2.740 Z0.000
G01 X-198.402 Y-2.800 Z-0.272
G01 X-198.471 Y-2.771 Z0.000
G01 X-198.406 Y-2.801 Z-0.261
G01 X-198.479 Y-2.811 Z0.000
G01 X-198.410 Y-2.803 Z-0.249
G01 X-198.461 Y-2.851 Z0.000
G01 X-198.402 Y-2.800 Z-0.272
G01 X-198.304 Y-2.795 Z-0.379
G01 X-198.072 Y-2.772 Z-0.481
G01 X-197.938 Y-2.744 Z-0.581
G01 X-197.866 Y-2.721 Z-0.667
G01 X-197.702 Y-2.644 Z-0.950
G01 X-197.472 Y-2.506 Z-1.460
G01 X-197.369 Y-2.432 Z-1.733
G01 X-197.107 Y-2.610 Z-1.064
G01 X-196.917 Y-2.702 Z-0.717
G01 X-196.750 Y-2.756 Z-0.511
G01 X-196.590 Y-2.784 Z-0.397
G01 X-196.363 Y-2.790 Z-0.299
G01 X-196.319 Y-2.794 Z-0.221
G01 X-196.278 Y-2.841 Z0.000
G01 X-196.319 Y-2.794 Z-0.221
G01 X-196.256 Y-2.803 Z0.000
G01 X-196.324 Y-2.792 Z-0.235
G01 X-196.267 Y-2.760 Z0.000
G01 X-196.338 Y-2.789 Z-0.265
G01 X-196.299 Y-2.728 Z0.000
G01 X-196.338 Y-2.789 Z-0.265
G01 X-196.371 Y-2.789 Z-0.306
G01 X-196.616 Y-2.781 Z-0.413
G01 X-196.789 Y-2.745 Z-0.552
G01 X-196.975 Y-2.677 Z-0.810
G01 X-197.201 Y-2.553 Z-1.280
G01 X-197.369 Y-2.432 Z-1.733
G01 X-197.369 Y-2.340 Z-1.646
G01 X-197.368 Y-2.152 Z-1.536
G01 X-197.374 Y-2.031 Z-1.493
G01 X-197.382 Y-1.641 Z-1.419
G01 X-197.390 Y-1.158 Z-1.410
G01 X-197.390 Y-0.852 Z-1.425
G01 X-197.381 Y-0.731 Z-1.468
G01 X-197.254 Y-0.730 Z-1.029
G01 X-197.103 Y-0.729 Z-0.591
G01 X-197.018 Y-0.718 Z-0.438
G01 X-196.949 Y-0.685 Z-0.386
G01 X-196.443 Y-0.312 Z-0.384
G01 X-196.368 Y-0.275 Z-0.449
G01 X-196.015 Y-0.226 Z-1.123
G01 X-195.828 Y-0.211 Z-1.542
G01 X-195.716 Y-0.288 Z-1.548
G01 X-195.617 Y-0.376 Z-1.553
G01 X-195.512 Y-0.490 Z-1.526
G01 X-195.355 Y-0.706 Z-1.494
G01 X-195.205 Y-0.987 Z-1.472
G01 X-195.090 Y-1.273 Z-1.474
G01 X-194.987 Y-1.616 Z-1.506
G01 X-194.847 Y-2.224 Z-1.600
G01 X-194.784 Y-2.407 Z-1.631
G01 X-194.759 Y-2.450 Z-1.609
G01 X-194.942 Y-2.882 Z0.000
G01 X-194.759 Y-2.450 Z-1.609
G01 X-194.506 Y-2.591 Z-1.077
G01 X-194.315 Y-2.671 Z-0.775
G01 X-194.144 Y-2.718 Z-0.595
G01 X-193.962 Y-2.748 Z-0.480
G01 X-193.755 Y-2.765 Z-0.409
G01 X-193.518 Y-2.771 Z-0.361
G01 X-193.427 Y-2.768 Z-0.265
G01 X-193.369 Y-2.816 Z0.000
G01 X-193.427 Y-2.768 Z-0.265
G01 X-193.352 Y-2.772 Z0.000
G01 X-193.424 Y-2.768 Z-0.258
G01 X-193.362 Y-2.732 Z0.000
G01 X-193.430 Y-2.768 Z-0.273
G01 X-193.393 Y-2.702 Z0.000
G01 X-193.430 Y-2.768 Z-0.273
G01 X-193.531 Y-2.770 Z-0.368
G01 X-193.767 Y-2.765 Z-0.412
G01 X-193.982 Y-2.745 Z-0.490
G01 X-194.181 Y-2.709 Z-0.628
G01 X-194.374 Y-2.649 Z-0.857
G01 X-194.566 Y-2.561 Z-1.190
G01 X-194.759 Y-2.450 Z-1.609
G01 X-194.795 Y-2.380 Z-1.633
G01 X-194.852 Y-2.206 Z-1.600
G01 X-195.004 Y-1.551 Z-1.493
G01 X-195.105 Y-1.233 Z-1.470
G01 X-195.227 Y-0.942 Z-1.473
G01 X-195.376 Y-0.676 Z-1.497
G01 X-195.512 Y-0.490 Z-1.526
G01 X-195.617 Y-0.376 Z-1.553
G01 X-195.774 Y-0.244 Z-1.545
G01 X-195.828 Y-0.211 Z-1.542
G01 X-195.844 Y0.040 Z-0.799
G01 X-195.818 Y0.175 Z-0.487
G01 X-195.802 Y0.210 Z-0.435
G01 X-195.766 Y0.261 Z-0.400
G01 X-195.573 Y0.459 Z-0.392
G01 X-195.367 Y0.688 Z-0.426
G01 X-195.202 Y0.884 Z-0.503
G01 X-195.071 Y1.066 Z-0.643
G01 X-194.983 Y1.229 Z-0.853
G01 X-194.934 Y1.370 Z-1.144
G01 X-194.634 Y1.464 Z-0.793
G01 X-194.451 Y1.506 Z-0.634
G01 X-194.276 Y1.541 Z-0.522
G01 X-193.919 Y1.588 Z-0.366
G01 X-193.839 Y1.590 Z-0.266
G01 X-193.796 Y1.530 Z0.000
G01 X-193.839 Y1.590 Z-0.266
G01 X-193.772 Y1.558 Z0.000
G01 X-193.836 Y1.590 Z-0.259
G01 X-193.765 Y1.593 Z0.000
G01 X-193.841 Y1.591 Z-0.273
G01 X-193.779 Y1.636 Z0.000
G01 X-193.855 Y1.593 Z-0.298
G01 X-193.820 Y1.666 Z0.000
G01 X-193.855 Y1.593 Z-0.298
G01 X-193.919 Y1.588 Z-0.366
G01 X-194.294 Y1.538 Z-0.532
G01 X-194.476 Y1.501 Z-0.653
G01 X-194.659 Y1.457 Z-0.818
G01 X-194.934 Y1.370 Z-1.144
G01 X-195.019 Y1.431 Z-0.916
G01 X-195.198 Y1.512 Z-0.616
G01 X-195.284 Y1.535 Z-0.530
G01 X-195.419 Y1.557 Z-0.427
G01 X-195.738 Y1.581 Z-0.290
G01 X-195.768 Y1.658 Z0.000
G01 X-195.744 Y1.583 Z-0.282
G01 X-195.810 Y1.630 Z0.000
G01 X-195.746 Y1.583 Z-0.277
G01 X-195.824 Y1.578 Z0.000
G01 X-195.755 Y1.580 Z-0.249
G01 X-195.811 Y1.540 Z0.000
G01 X-195.738 Y1.581 Z-0.290
G01 X-195.771 Y1.509 Z0.000
G01 X-195.738 Y1.581 Z-0.290
G01 X-195.419 Y1.557 Z-0.427
G01 X-195.257 Y1.529 Z-0.549
G01 X-195.093 Y1.469 Z-0.775
G01 X-194.964 Y1.393 Z-1.057
G01 X-194.934 Y1.370 Z-1.144
G01 X-194.993 Y1.208 Z-0.818
G01 X-195.095 Y1.028 Z-0.606
G01 X-195.214 Y0.869 Z-0.495
G01 X-195.373 Y0.681 Z-0.424
G01 X-195.578 Y0.454 Z-0.392
G01 X-195.766 Y0.261 Z-0.400
G01 X-195.802 Y0.210 Z-0.435
G01 X-195.838 Y0.102 Z-0.643
G01 X-195.841 Y-0.069 Z-1.111
G01 X-195.828 Y-0.211 Z-1.542
G01 X-196.078 Y-0.232 Z-0.994
G01 X-196.368 Y-0.275 Z-0.449
G01 X-196.443 Y-0.312 Z-0.384
G01 X-196.949 Y-0.685 Z-0.386
G01 X-197.018 Y-0.718 Z-0.438
G01 X-197.103 Y-0.729 Z-0.591
G01 X-197.254 Y-0.730 Z-1.029
G01 X-197.381 Y-0.731 Z-1.468
G01 X-197.394 Y-0.604 Z-1.431
G01 X-197.425 Y1.555 Z-1.478
G01 X-197.461 Y3.288 Z-1.491
G01 X-197.480 Y3.581 Z-1.541
G01 X-197.509 Y3.856 Z-1.661
G01 X-197.532 Y3.995 Z-1.760
G00 Z5.000
G00 X-191.741 Y0.433  F3000.0
G01 Z-1.675 F500.0 M3
G01 X-191.473 Y0.511 Z-0.828 F1500.0
G01 X-191.370 Y0.572 Z-0.555
G01 X-191.319 Y0.625 Z-0.451
G01 X-191.202 Y0.814 Z-0.393
G01 X-191.084 Y0.981 Z-0.372
G01 X-190.960 Y1.129 Z-0.368
G01 X-190.829 Y1.256 Z-0.367
G01 X-190.691 Y1.365 Z-0.382
G01 X-190.546 Y1.456 Z-0.415
G01 X-190.387 Y1.529 Z-0.466
G01 X-190.225 Y1.578 Z-0.516
G01 X-190.042 Y1.607 Z-0.584
G01 X-189.968 Y1.611 Z-0.629
G01 X-189.786 Y1.606 Z-0.703
G01 X-189.532 Y1.550 Z-0.865
G01 X-189.293 Y1.447 Z-1.068
G01 X-189.163 Y1.363 Z-1.208
G01 X-189.040 Y1.265 Z-1.316
G01 X-188.955 Y1.169 Z-1.392
G01 X-188.908 Y1.103 Z-1.435
G01 X-188.846 Y0.989 Z-1.470
G01 X-188.801 Y0.863 Z-1.496
G01 X-188.739 Y0.608 Z-1.465
G01 X-188.708 Y0.380 Z-1.451
G01 X-188.685 Y0.089 Z-1.403
G01 X-188.676 Y-0.458 Z-1.357
G01 X-188.691 Y-1.558 Z-1.366
G01 X-188.699 Y-1.824 Z-1.385
G01 X-188.698 Y-2.122 Z-1.446
G01 X-188.702 Y-2.295 Z-1.513
G01 X-188.699 Y-2.374 Z-1.562
G01 X-188.821 Y-2.470 Z-1.218
G01 X-189.008 Y-2.583 Z-0.813
G01 X-189.177 Y-2.655 Z-0.577
G01 X-189.357 Y-2.702 Z-0.447
G01 X-189.543 Y-2.733 Z-0.375
G01 X-189.617 Y-2.741 Z-0.328
G01 X-189.666 Y-2.743 Z-0.266
G01 X-189.718 Y-2.688 Z0.000
G01 X-189.666 Y-2.743 Z-0.266
G01 X-189.745 Y-2.742 Z0.000
G01 X-189.681 Y-2.747 Z-0.220
G01 X-189.732 Y-2.783 Z0.000
G01 X-189.661 Y-2.744 Z-0.275
G01 X-189.694 Y-2.811 Z0.000
G01 X-189.661 Y-2.744 Z-0.275
G01 X-189.607 Y-2.740 Z-0.336
G01 X-189.543 Y-2.733 Z-0.375
G01 X-189.335 Y-2.697 Z-0.460
G01 X-189.177 Y-2.655 Z-0.577
G01 X-189.008 Y-2.583 Z-0.813
G01 X-188.821 Y-2.470 Z-1.218
G01 X-188.699 Y-2.374 Z-1.562
G01 X-188.568 Y-2.474 Z-1.181
G01 X-188.399 Y-2.580 Z-0.799
G01 X-188.278 Y-2.633 Z-0.613
G01 X-188.150 Y-2.672 Z-0.480
G01 X-187.787 Y-2.759 Z-0.297
G01 X-187.777 Y-2.840 Z0.000
G01 X-187.787 Y-2.759 Z-0.297
G01 X-187.761 Y-2.762 Z-0.259
G01 X-187.708 Y-2.819 Z0.000
G01 X-187.761 Y-2.762 Z-0.259
G01 X-187.685 Y-2.757 Z0.000
G01 X-187.743 Y-2.757 Z-0.201
G01 X-187.697 Y-2.725 Z0.000
G01 X-187.761 Y-2.762 Z-0.259
G01 X-187.787 Y-2.759 Z-0.297
G01 X-188.183 Y-2.663 Z-0.508
G01 X-188.318 Y-2.617 Z-0.668
G01 X-188.475 Y-2.537 Z-0.953
G01 X-188.639 Y-2.422 Z-1.376
G01 X-188.699 Y-2.374 Z-1.562
G01 X-188.702 Y-2.237 Z-1.486
G01 X-188.697 Y-2.090 Z-1.437
G01 X-188.698 Y-1.799 Z-1.382
G01 X-188.691 Y-1.547 Z-1.366
G01 X-188.676 Y-0.438 Z-1.357
G01 X-188.687 Y0.123 Z-1.406
G01 X-188.708 Y0.380 Z-1.451
G01 X-188.739 Y0.608 Z-1.465
G01 X-188.801 Y0.863 Z-1.496
G01 X-188.851 Y1.000 Z-1.470
G01 X-188.923 Y1.125 Z-1.418
G01 X-188.976 Y1.197 Z-1.379
G01 X-189.088 Y1.307 Z-1.271
G01 X-189.163 Y1.363 Z-1.208
G01 X-189.335 Y1.468 Z-1.028
G01 X-189.532 Y1.550 Z-0.865
G01 X-189.786 Y1.606 Z-0.703
G01 X-189.968 Y1.611 Z-0.629
G01 X-190.070 Y1.604 Z-0.572
G01 X-190.225 Y1.578 Z-0.516
G01 X-190.407 Y1.521 Z-0.456
G01 X-190.589 Y1.432 Z-0.412
G01 X-190.703 Y1.357 Z-0.380
G01 X-190.838 Y1.248 Z-0.366
G01 X-190.969 Y1.121 Z-0.369
G01 X-191.090 Y0.974 Z-0.374
G01 X-191.208 Y0.805 Z-0.394
G01 X-191.319 Y0.625 Z-0.451
G01 X-191.370 Y0.572 Z-0.555
G01 X-191.473 Y0.511 Z-0.828
G01 X-191.741 Y0.433 Z-1.675
G01 X-191.773 Y0.539 Z-1.566
G01 X-191.799 Y0.694 Z-1.513
G01 X-191.816 Y0.919 Z-1.522
G01 X-191.849 Y1.175 Z-1.558
G01 X-191.891 Y1.359 Z-1.617
G01 X-191.559 Y1.802 Z0.000
G01 X-191.891 Y1.359 Z-1.617
G01 X-192.045 Y1.457 Z-1.238
G01 X-192.225 Y1.545 Z-0.889
G01 X-192.385 Y1.607 Z-0.654
G01 X-192.531 Y1.647 Z-0.508
G01 X-192.788 Y1.689 Z-0.337
G01 X-192.817 Y1.693 Z-0.290
G01 X-192.858 Y1.761 Z0.000
G01 X-192.817 Y1.693 Z-0.290
G01 X-192.889 Y1.731 Z0.000
G01 X-192.824 Y1.694 Z-0.270
G01 X-192.899 Y1.691 Z0.000
G01 X-192.819 Y1.693 Z-0.284
G01 X-192.885 Y1.650 Z0.000
G01 X-192.817 Y1.693 Z-0.290
G01 X-192.800 Y1.689 Z-0.323
G01 X-192.845 Y1.614 Z0.000
G01 X-192.788 Y1.689 Z-0.337
G01 X-192.500 Y1.640 Z-0.534
G01 X-192.345 Y1.593 Z-0.705
G01 X-192.175 Y1.523 Z-0.978
G01 X-191.951 Y1.400 Z-1.458
G01 X-191.891 Y1.359 Z-1.617
G01 X-191.849 Y1.175 Z-1.558
G01 X-191.813 Y0.883 Z-1.518
G01 X-191.799 Y0.688 Z-1.513
G01 X-191.768 Y0.517 Z-1.583
G01 X-191.741 Y0.433 Z-1.675
G01 X-191.782 Y0.079 Z-1.490
G01 X-191.801 Y-0.109 Z-1.418
G01 X-191.825 Y-0.433 Z-1.331
G01 X-191.843 Y-0.882 Z-1.267
G01 X-191.860 Y-1.559 Z-1.260
G01 X-191.865 Y-2.198 Z-1.396
G01 X-191.864 Y-2.453 Z-1.550
G01 X-192.048 Y-2.583 Z-1.060
G01 X-192.230 Y-2.672 Z-0.723
G01 X-192.381 Y-2.720 Z-0.560
G01 X-192.499 Y-2.745 Z-0.481
G01 X-192.661 Y-2.770 Z-0.409
G01 X-192.802 Y-2.783 Z-0.298
G01 X-192.840 Y-2.712 Z0.000
G01 X-192.802 Y-2.783 Z-0.298
G01 X-192.834 Y-2.789 Z-0.242
G01 X-192.889 Y-2.750 Z0.000
G01 X-192.834 Y-2.789 Z-0.242
G01 X-192.905 Y-2.794 Z0.000
G01 X-192.844 Y-2.793 Z-0.212
G01 X-192.890 Y-2.832 Z0.000
G01 X-192.821 Y-2.789 Z-0.270
G01 X-192.845 Y-2.859 Z0.000
G01 X-192.821 Y-2.789 Z-0.270
G01 X-192.661 Y-2.770 Z-0.409
G01 X-192.482 Y-2.742 Z-0.491
G01 X-192.353 Y-2.713 Z-0.585
G01 X-192.220 Y-2.668 Z-0.738
G01 X-192.048 Y-2.583 Z-1.060
G01 X-191.864 Y-2.453 Z-1.550
G01 X-191.622 Y-2.620 Z-0.930
G01 X-191.452 Y-2.701 Z-0.632
G01 X-191.297 Y-2.747 Z-0.462
G01 X-191.134 Y-2.778 Z-0.369
G01 X-190.949 Y-2.802 Z-0.328
G01 X-190.901 Y-2.805 Z-0.281
G01 X-190.853 Y-2.871 Z0.000
G01 X-190.882 Y-2.821 Z-0.208
G01 X-190.831 Y-2.847 Z0.000
G01 X-190.889 Y-2.813 Z-0.242
G01 X-190.823 Y-2.814 Z0.000
G01 X-190.901 Y-2.805 Z-0.281
G01 X-190.831 Y-2.773 Z0.000
G01 X-190.898 Y-2.802 Z-0.264
G01 X-190.854 Y-2.742 Z0.000
G01 X-190.901 Y-2.805 Z-0.281
G01 X-190.966 Y-2.799 Z-0.337
G01 X-191.151 Y-2.775 Z-0.376
G01 X-191.328 Y-2.739 Z-0.490
G01 X-191.511 Y-2.676 Z-0.722
G01 X-191.711 Y-2.565 Z-1.135
G01 X-191.864 Y-2.453 Z-1.550
G01 X-191.865 Y-2.198 Z-1.396
G01 X-191.860 Y-1.559 Z-1.260
G01 X-191.841 Y-0.765 Z-1.275
G01 X-191.824 Y-0.414 Z-1.336
G01 X-191.799 Y-0.086 Z-1.426
G01 X-191.768 Y0.225 Z-1.555
G01 X-191.741 Y0.433 Z-1.675
G00 Z5.000
G00 X-186.491 Y-0.146  F3000.0
G01 Z-1.636 F500.0 M3
G01 X-186.489 Y-0.005 Z-1.534 F1500.0
G01 X-186.443 Y0.191 Z-1.469
G01 X-186.385 Y0.383 Z-1.379
G01 X-186.311 Y0.573 Z-1.270
G01 X-186.218 Y0.762 Z-1.145
G01 X-186.149 Y0.883 Z-1.044
G01 X-185.938 Y1.173 Z-0.826
G01 X-185.698 Y1.408 Z-0.667
G01 X-185.464 Y1.570 Z-0.548
G01 X-185.357 Y1.626 Z-0.513
G01 X-185.233 Y1.681 Z-0.449
G01 X-185.008 Y1.745 Z-0.383
G01 X-184.789 Y1.762 Z-0.353
G01 X-184.579 Y1.744 Z-0.360
G01 X-184.366 Y1.689 Z-0.405
G01 X-184.133 Y1.579 Z-0.494
G01 X-183.950 Y1.451 Z-0.597
G01 X-183.738 Y1.248 Z-0.755
G01 X-183.578 Y1.034 Z-0.935
G01 X-183.451 Y0.786 Z-1.152
G01 X-183.377 Y0.553 Z-1.348
G01 X-183.346 Y0.287 Z-1.558
G01 X-183.350 Y0.210 Z-1.622
G01 X-183.486 Y0.113 Z-1.272
G01 X-183.668 Y0.013 Z-0.914
G01 X-183.819 Y-0.044 Z-0.712
G01 X-183.956 Y-0.080 Z-0.592
G01 X-184.096 Y-0.104 Z-0.513
G01 X-184.247 Y-0.119 Z-0.467
G01 X-184.702 Y-0.140 Z-0.427
G01 X-185.382 Y-0.146 Z-0.462
G01 X-186.082 Y-0.143 Z-0.529
G01 X-186.152 Y-0.143 Z-0.598
G01 X-186.240 Y-0.144 Z-0.806
G01 X-186.491 Y-0.146 Z-1.636
G00 Z5.000
G00 X-186.526 Y-0.423  F3000.0
G01 Z-1.657 F500.0 M3
G01 X-186.534 Y-0.746 Z-1.640 F1500.0
G01 X-186.527 Y-0.854 Z-1.647
G01 X-186.506 Y-1.049 Z-1.629
G01 X-186.473 Y-1.234 Z-1.597
G01 X-186.425 Y-1.408 Z-1.565
G01 X-186.285 Y-1.734 Z-1.479
G01 X-186.145 Y-1.953 Z-1.392
G01 X-186.017 Y-2.114 Z-1.320
G01 X-185.873 Y-2.261 Z-1.245
G01 X-185.682 Y-2.417 Z-1.150
G01 X-185.532 Y-2.513 Z-1.071
G01 X-185.370 Y-2.594 Z-0.989
G01 X-185.196 Y-2.659 Z-0.906
G01 X-185.008 Y-2.706 Z-0.827
G01 X-184.808 Y-2.734 Z-0.755
G01 X-184.673 Y-2.739 Z-0.704
G01 X-184.490 Y-2.735 Z-0.662
G01 X-184.258 Y-2.705 Z-0.621
G01 X-184.138 Y-2.677 Z-0.591
G01 X-183.968 Y-2.625 Z-0.572
G01 X-183.760 Y-2.536 Z-0.556
G01 X-183.643 Y-2.472 Z-0.537
G01 X-183.497 Y-2.379 Z-0.527
G01 X-183.360 Y-2.270 Z-0.528
G01 X-183.205 Y-2.125 Z-0.471
G01 X-183.095 Y-2.002 Z-0.381
G01 X-182.985 Y-2.021 Z0.000
G01 X-183.095 Y-2.002 Z-0.381
G01 X-183.071 Y-1.950 Z-0.247
G01 X-183.012 Y-1.915 Z0.000
G01 X-183.071 Y-1.950 Z-0.247
G01 X-183.041 Y-1.888 Z0.000
G01 X-183.071 Y-1.946 Z-0.235
G01 X-183.079 Y-1.880 Z0.000
G01 X-183.071 Y-1.950 Z-0.247
G01 X-183.096 Y-2.003 Z-0.382
G01 X-183.206 Y-2.127 Z-0.472
G01 X-183.360 Y-2.270 Z-0.528
G01 X-183.497 Y-2.379 Z-0.527
G01 X-183.655 Y-2.479 Z-0.538
G01 X-183.817 Y-2.563 Z-0.553
G01 X-184.003 Y-2.638 Z-0.581
G01 X-184.154 Y-2.681 Z-0.594
G01 X-184.329 Y-2.717 Z-0.625
G01 X-184.527 Y-2.738 Z-0.675
G01 X-184.694 Y-2.739 Z-0.709
G01 X-184.877 Y-2.727 Z-0.771
G01 X-185.058 Y-2.696 Z-0.842
G01 X-185.236 Y-2.646 Z-0.920
G01 X-185.410 Y-2.576 Z-1.004
G01 X-185.579 Y-2.485 Z-1.090
G01 X-185.742 Y-2.372 Z-1.175
G01 X-185.896 Y-2.240 Z-1.256
G01 X-186.039 Y-2.089 Z-1.333
G01 X-186.191 Y-1.888 Z-1.424
G01 X-186.285 Y-1.734 Z-1.479
G01 X-186.425 Y-1.408 Z-1.565
G01 X-186.493 Y-1.133 Z-1.606
G01 X-186.506 Y-1.049 Z-1.629
G01 X-186.527 Y-0.854 Z-1.647
G01 X-186.535 Y-0.707 Z-1.643
G01 X-186.526 Y-0.423 Z-1.657
G01 X-186.503 Y-0.191 Z-1.631
G01 X-186.491 Y-0.146 Z-1.636
G01 X-186.240 Y-0.144 Z-0.806
G01 X-186.152 Y-0.143 Z-0.598
G01 X-186.079 Y-0.143 Z-0.529
G01 X-185.379 Y-0.146 Z-0.462
G01 X-184.694 Y-0.140 Z-0.427
G01 X-184.233 Y-0.118 Z-0.470
G01 X-184.077 Y-0.101 Z-0.522
G01 X-183.928 Y-0.073 Z-0.612
G01 X-183.770 Y-0.028 Z-0.769
G01 X-183.591 Y0.051 Z-1.049
G01 X-183.363 Y0.200 Z-1.585
G01 X-183.350 Y0.210 Z-1.622
G01 X-183.075 Y-0.035 Z-0.656
G01 X-182.930 Y-0.168 Z0.000
G01 X-183.075 Y-0.035 Z-0.656
G01 X-183.350 Y0.210 Z-1.622
G01 X-183.354 Y0.413 Z-1.462
G01 X-183.382 Y0.569 Z-1.335
G01 X-183.451 Y0.786 Z-1.152
G01 X-183.605 Y1.074 Z-0.899
G01 X-183.770 Y1.284 Z-0.731
G01 X-183.950 Y1.451 Z-0.597
G01 X-184.133 Y1.579 Z-0.494
G01 X-184.366 Y1.689 Z-0.405
G01 X-184.579 Y1.744 Z-0.360
G01 X-184.794 Y1.763 Z-0.353
G01 X-185.032 Y1.740 Z-0.387
G01 X-185.256 Y1.672 Z-0.457
G01 X-185.357 Y1.626 Z-0.513
G01 X-185.485 Y1.558 Z-0.559
G01 X-185.716 Y1.393 Z-0.675
G01 X-185.938 Y1.173 Z-0.826
G01 X-186.149 Y0.883 Z-1.044
G01 X-186.218 Y0.762 Z-1.145
G01 X-186.338 Y0.511 Z-1.297
G01 X-186.385 Y0.383 Z-1.379
G01 X-186.443 Y0.191 Z-1.469
G01 X-186.489 Y-0.005 Z-1.534
G01 X-186.491 Y-0.146 Z-1.636
G01 X-186.513 Y-0.266 Z-1.633
G01 X-186.526 Y-0.423 Z-1.657
G00 Z5.000
G00 X-181.718 Y-0.959  F3000.0
G01 Z-1.773 F500.0 M3
G01 X-181.683 Y-1.126 Z-1.758 F1500.0
G01 X-181.576 Y-1.448 Z-1.688
G01 X-181.503 Y-1.608 Z-1.631
G01 X-181.297 Y-1.945 Z-1.470
G01 X-181.126 Y-2.151 Z-1.345
G01 X-180.964 Y-2.307 Z-1.227
G01 X-180.791 Y-2.439 Z-1.099
G01 X-180.618 Y-2.540 Z-0.969
G01 X-180.441 Y-2.617 Z-0.844
G01 X-180.263 Y-2.671 Z-0.733
G01 X-180.077 Y-2.705 Z-0.637
G01 X-179.888 Y-2.717 Z-0.563
G01 X-179.707 Y-2.708 Z-0.513
G01 X-179.502 Y-2.673 Z-0.472
G01 X-179.299 Y-2.607 Z-0.457
G01 X-179.078 Y-2.494 Z-0.454
G01 X-178.962 Y-2.412 Z-0.458
G01 X-178.842 Y-2.314 Z-0.441
G01 X-178.673 Y-2.136 Z-0.417
G01 X-178.637 Y-2.090 Z-0.430
G01 X-178.532 Y-1.928 Z-0.412
G01 X-178.495 Y-1.859 Z-0.431
G01 X-178.432 Y-1.703 Z-0.419
G01 X-178.413 Y-1.631 Z-0.427
G01 X-178.385 Y-1.485 Z-0.405
G01 X-178.366 Y-1.390 Z-0.345
G01 X-178.278 Y-1.351 Z0.000
G01 X-178.354 Y-1.378 Z-0.295
G01 X-178.297 Y-1.320 Z0.000
G01 X-178.354 Y-1.378 Z-0.295
G01 X-178.327 Y-1.302 Z0.000
G01 X-178.366 Y-1.390 Z-0.345
G01 X-178.370 Y-1.296 Z0.000
G01 X-178.367 Y-1.392 Z-0.350
G01 X-178.413 Y-1.306 Z0.000
G01 X-178.370 Y-1.388 Z-0.334
G01 X-178.446 Y-1.336 Z0.000
G01 X-178.367 Y-1.398 Z-0.356
G01 X-178.389 Y-1.514 Z-0.414
G01 X-178.413 Y-1.631 Z-0.427
G01 X-178.447 Y-1.747 Z-0.426
G01 X-178.495 Y-1.859 Z-0.431
G01 X-178.543 Y-1.946 Z-0.410
G01 X-178.637 Y-2.090 Z-0.430
G01 X-178.686 Y-2.151 Z-0.416
G01 X-178.867 Y-2.337 Z-0.440
G01 X-178.962 Y-2.412 Z-0.458
G01 X-179.090 Y-2.501 Z-0.457
G01 X-179.299 Y-2.607 Z-0.457
G01 X-179.502 Y-2.673 Z-0.472
G01 X-179.755 Y-2.712 Z-0.518
G01 X-179.933 Y-2.715 Z-0.574
G01 X-180.111 Y-2.700 Z-0.650
G01 X-180.290 Y-2.665 Z-0.749
G01 X-180.469 Y-2.607 Z-0.865
G01 X-180.646 Y-2.525 Z-0.990
G01 X-180.820 Y-2.418 Z-1.118
G01 X-180.987 Y-2.286 Z-1.243
G01 X-181.148 Y-2.127 Z-1.361
G01 X-181.308 Y-1.930 Z-1.481
G01 X-181.503 Y-1.608 Z-1.631
G01 X-181.622 Y-1.329 Z-1.715
G01 X-181.693 Y-1.083 Z-1.758
G01 X-181.718 Y-0.959 Z-1.773
G01 X-181.754 Y-0.605 Z-1.763
G01 X-181.757 Y-0.398 Z-1.725
G01 X-181.748 Y-0.197 Z-1.670
G01 X-181.723 Y-0.002 Z-1.609
G01 X-181.682 Y0.219 Z-1.501
G01 X-181.637 Y0.381 Z-1.427
G01 X-181.551 Y0.628 Z-1.264
G01 X-181.487 Y0.766 Z-1.184
G01 X-181.373 Y0.982 Z-1.019
G01 X-181.263 Y1.143 Z-0.911
G01 X-181.132 Y1.308 Z-0.773
G01 X-180.986 Y1.451 Z-0.655
G01 X-180.825 Y1.573 Z-0.553
G01 X-180.646 Y1.672 Z-0.468
G01 X-180.458 Y1.739 Z-0.418
G01 X-180.355 Y1.764 Z-0.390
G01 X-180.202 Y1.788 Z-0.376
G01 X-180.037 Y1.797 Z-0.376
G01 X-179.869 Y1.785 Z-0.384
G01 X-179.707 Y1.757 Z-0.432
G01 X-179.548 Y1.706 Z-0.512
G01 X-179.391 Y1.631 Z-0.629
G01 X-179.234 Y1.531 Z-0.796
G01 X-179.036 Y1.363 Z-1.062
G01 X-178.874 Y1.178 Z-1.316
G01 X-178.794 Y1.058 Z-1.423
G01 X-178.752 Y0.971 Z-1.441
G01 X-178.729 Y0.902 Z-1.401
G01 X-178.715 Y0.830 Z-1.286
G01 X-178.709 Y0.742 Z-1.031
G01 X-178.705 Y0.751 Z-1.069
G01 X-178.681 Y0.689 Z-0.835
G01 X-178.707 Y0.798 Z-1.205
G01 X-178.716 Y0.847 Z-1.321
G01 X-178.376 Y0.730 Z0.000
G01 X-178.716 Y0.847 Z-1.321
G01 X-178.739 Y0.932 Z-1.429
G01 X-178.770 Y1.011 Z-1.440
G01 X-178.830 Y1.115 Z-1.383
G01 X-178.954 Y1.274 Z-1.176
G01 X-179.107 Y1.427 Z-0.953
G01 X-179.261 Y1.551 Z-0.765
G01 X-179.417 Y1.645 Z-0.608
G01 X-179.572 Y1.714 Z-0.496
G01 X-179.727 Y1.762 Z-0.426
G01 X-179.887 Y1.787 Z-0.381
G01 X-180.051 Y1.797 Z-0.375
G01 X-180.255 Y1.782 Z-0.387
G01 X-180.369 Y1.761 Z-0.393
G01 X-180.518 Y1.721 Z-0.424
G01 X-180.782 Y1.599 Z-0.524
G01 X-180.986 Y1.451 Z-0.655
G01 X-181.132 Y1.308 Z-0.773
G01 X-181.263 Y1.143 Z-0.911
G01 X-181.396 Y0.943 Z-1.047
G01 X-181.487 Y0.766 Z-1.184
G01 X-181.573 Y0.574 Z-1.303
G01 X-181.637 Y0.381 Z-1.427
G01 X-181.693 Y0.174 Z-1.524
G01 X-181.723 Y-0.002 Z-1.609
G01 X-181.754 Y-0.288 Z-1.688
G01 X-181.757 Y-0.398 Z-1.725
G01 X-181.754 Y-0.605 Z-1.763
G01 X-181.718 Y-0.959 Z-1.773
G00 Z5.000
G00 X-176.609 Y4.120  F3000.0
G01 Z-1.760 F500.0 M3
G01 X-176.394 Y4.364 Z-0.976 F1500.0
G01 X-176.150 Y4.651 Z0.000
G01 X-176.404 Y4.352 Z-1.015
G01 X-176.609 Y4.120 Z-1.760
G01 X-176.778 Y4.206 Z-1.350
G01 X-176.981 Y4.292 Z-0.945
G01 X-177.180 Y4.346 Z-0.657
G01 X-177.369 Y4.376 Z-0.473
G01 X-177.575 Y4.385 Z-0.322
G01 X-177.643 Y4.383 Z-0.233
G01 X-177.684 Y4.434 Z0.000
G01 X-177.643 Y4.383 Z-0.233
G01 X-177.712 Y4.391 Z0.000
G01 X-177.657 Y4.382 Z-0.191
G01 X-177.703 Y4.357 Z0.000
G01 X-177.643 Y4.383 Z-0.234
G01 X-177.678 Y4.329 Z0.000
G01 X-177.643 Y4.383 Z-0.234
G01 X-177.549 Y4.383 Z-0.346
G01 X-177.343 Y4.373 Z-0.494
G01 X-177.133 Y4.335 Z-0.717
G01 X-176.901 Y4.262 Z-1.091
G01 X-176.637 Y4.136 Z-1.685
G01 X-176.609 Y4.120 Z-1.760
G01 X-176.576 Y3.912 Z-1.622
G01 X-176.553 Y3.664 Z-1.530
G01 X-176.536 Y3.385 Z-1.489
G01 X-176.501 Y1.679 Z-1.478
G01 X-176.470 Y-0.484 Z-1.431
G01 X-176.458 Y-0.607 Z-1.468
G01 X-176.467 Y-0.765 Z-1.422
G01 X-176.466 Y-1.047 Z-1.410
G01 X-176.454 Y-1.632 Z-1.433
G01 X-176.450 Y-1.939 Z-1.503
G01 X-176.444 Y-2.082 Z-1.564
G01 X-176.446 Y-2.228 Z-1.654
G01 X-176.446 Y-2.308 Z-1.733
G01 X-176.616 Y-2.425 Z-1.299
G01 X-176.830 Y-2.546 Z-0.852
G01 X-176.942 Y-2.596 Z-0.667
G01 X-177.014 Y-2.620 Z-0.581
G01 X-177.173 Y-2.651 Z-0.467
G01 X-177.397 Y-2.671 Z-0.367
G01 X-177.478 Y-2.675 Z-0.272
G01 X-177.523 Y-2.615 Z0.000
G01 X-177.478 Y-2.675 Z-0.272
G01 X-177.548 Y-2.647 Z0.000
G01 X-177.482 Y-2.676 Z-0.261
G01 X-177.556 Y-2.686 Z0.000
G01 X-177.486 Y-2.678 Z-0.249
G01 X-177.537 Y-2.726 Z0.000
G01 X-177.478 Y-2.675 Z-0.272
G01 X-177.381 Y-2.671 Z-0.379
G01 X-177.149 Y-2.647 Z-0.481
G01 X-177.014 Y-2.620 Z-0.581
G01 X-176.942 Y-2.596 Z-0.667
G01 X-176.778 Y-2.519 Z-0.950
G01 X-176.549 Y-2.382 Z-1.460
G01 X-176.446 Y-2.308 Z-1.733
G01 X-176.184 Y-2.485 Z-1.064
G01 X-175.993 Y-2.577 Z-0.717
G01 X-175.826 Y-2.631 Z-0.511
G01 X-175.666 Y-2.659 Z-0.397
G01 X-175.439 Y-2.665 Z-0.299
G01 X-175.396 Y-2.670 Z-0.221
G01 X-175.354 Y-2.717 Z0.000
G01 X-175.396 Y-2.670 Z-0.221
G01 X-175.333 Y-2.678 Z0.000
G01 X-175.400 Y-2.668 Z-0.235
G01 X-175.343 Y-2.635 Z0.000
G01 X-175.414 Y-2.665 Z-0.265
G01 X-175.376 Y-2.604 Z0.000
G01 X-175.414 Y-2.665 Z-0.265
G01 X-175.448 Y-2.664 Z-0.306
G01 X-175.692 Y-2.657 Z-0.413
G01 X-175.866 Y-2.621 Z-0.552
G01 X-176.051 Y-2.553 Z-0.810
G01 X-176.277 Y-2.428 Z-1.280
G01 X-176.446 Y-2.308 Z-1.733
G01 X-176.446 Y-2.216 Z-1.646
G01 X-176.445 Y-2.027 Z-1.536
G01 X-176.451 Y-1.906 Z-1.493
G01 X-176.458 Y-1.517 Z-1.419
G01 X-176.467 Y-1.034 Z-1.410
G01 X-176.467 Y-0.728 Z-1.425
G01 X-176.458 Y-0.607 Z-1.468
G01 X-176.330 Y-0.606 Z-1.029
G01 X-176.179 Y-0.605 Z-0.591
G01 X-176.094 Y-0.593 Z-0.438
G01 X-176.026 Y-0.560 Z-0.386
G01 X-175.520 Y-0.188 Z-0.384
G01 X-175.445 Y-0.151 Z-0.449
G01 X-175.091 Y-0.101 Z-1.123
G01 X-174.905 Y-0.087 Z-1.542
G01 X-174.792 Y-0.163 Z-1.548
G01 X-174.693 Y-0.252 Z-1.553
G01 X-174.588 Y-0.366 Z-1.526
G01 X-174.431 Y-0.582 Z-1.494
G01 X-174.282 Y-0.863 Z-1.472
G01 X-174.166 Y-1.149 Z-1.474
G01 X-174.063 Y-1.492 Z-1.506
G01 X-173.923 Y-2.100 Z-1.600
G01 X-173.860 Y-2.283 Z-1.631
G01 X-173.836 Y-2.325 Z-1.609
G01 X-174.019 Y-2.758 Z0.000
G01 X-173.836 Y-2.325 Z-1.609
G01 X-173.582 Y-2.467 Z-1.077
G01 X-173.392 Y-2.546 Z-0.775
G01 X-173.220 Y-2.594 Z-0.595
G01 X-173.038 Y-2.623 Z-0.480
G01 X-172.831 Y-2.641 Z-0.409
G01 X-172.595 Y-2.647 Z-0.361
G01 X-172.503 Y-2.644 Z-0.265
G01 X-172.445 Y-2.692 Z0.000
G01 X-172.503 Y-2.644 Z-0.265
G01 X-172.428 Y-2.647 Z0.000
G01 X-172.501 Y-2.644 Z-0.258
G01 X-172.439 Y-2.607 Z0.000
G01 X-172.506 Y-2.644 Z-0.273
G01 X-172.470 Y-2.577 Z0.000
G01 X-172.506 Y-2.644 Z-0.273
G01 X-172.608 Y-2.645 Z-0.368
G01 X-172.843 Y-2.640 Z-0.412
G01 X-173.059 Y-2.621 Z-0.490
G01 X-173.258 Y-2.585 Z-0.628
G01 X-173.451 Y-2.525 Z-0.857
G01 X-173.642 Y-2.436 Z-1.190
G01 X-173.836 Y-2.325 Z-1.609
G01 X-173.872 Y-2.256 Z-1.633
G01 X-173.929 Y-2.081 Z-1.600
G01 X-174.081 Y-1.426 Z-1.493
G01 X-174.181 Y-1.109 Z-1.470
G01 X-174.303 Y-0.817 Z-1.473
G01 X-174.452 Y-0.551 Z-1.497
G01 X-174.588 Y-0.366 Z-1.526
G01 X-174.693 Y-0.252 Z-1.553
G01 X-174.851 Y-0.120 Z-1.545
G01 X-174.905 Y-0.087 Z-1.542
G01 X-174.921 Y0.165 Z-0.799
G01 X-174.894 Y0.300 Z-0.487
G01 X-174.879 Y0.334 Z-0.435
G01 X-174.842 Y0.385 Z-0.400
G01 X-174.650 Y0.584 Z-0.392
G01 X-174.444 Y0.813 Z-0.426
G01 X-174.279 Y1.008 Z-0.503
G01 X-174.147 Y1.190 Z-0.643
G01 X-174.060 Y1.354 Z-0.853
G01 X-174.010 Y1.494 Z-1.144
G01 X-173.710 Y1.588 Z-0.793
G01 X-173.527 Y1.631 Z-0.634
G01 X-173.352 Y1.666 Z-0.522
G01 X-172.995 Y1.712 Z-0.366
G01 X-172.915 Y1.714 Z-0.266
G01 X-172.872 Y1.655 Z0.000
G01 X-172.915 Y1.714 Z-0.266
G01 X-172.849 Y1.683 Z0.000
G01 X-172.913 Y1.714 Z-0.259
G01 X-172.841 Y1.718 Z0.000
G01 X-172.917 Y1.716 Z-0.273
G01 X-172.855 Y1.760 Z0.000
G01 X-172.931 Y1.718 Z-0.298
G01 X-172.896 Y1.791 Z0.000
G01 X-172.931 Y1.718 Z-0.298
G01 X-172.995 Y1.712 Z-0.366
G01 X-173.370 Y1.663 Z-0.532
G01 X-173.552 Y1.626 Z-0.653
G01 X-173.735 Y1.581 Z-0.818
G01 X-174.010 Y1.494 Z-1.144
G01 X-174.095 Y1.556 Z-0.916
G01 X-174.274 Y1.636 Z-0.616
G01 X-174.361 Y1.659 Z-0.530
G01 X-174.496 Y1.681 Z-0.427
G01 X-174.814 Y1.706 Z-0.290
G01 X-174.844 Y1.782 Z0.000
G01 X-174.820 Y1.708 Z-0.282
G01 X-174.887 Y1.754 Z0.000
G01 X-174.823 Y1.708 Z-0.277
G01 X-174.901 Y1.702 Z0.000
G01 X-174.831 Y1.705 Z-0.249
G01 X-174.887 Y1.664 Z0.000
G01 X-174.814 Y1.706 Z-0.290
G01 X-174.848 Y1.634 Z0.000
G01 X-174.814 Y1.706 Z-0.290
G01 X-174.496 Y1.681 Z-0.427
G01 X-174.334 Y1.654 Z-0.549
G01 X-174.169 Y1.593 Z-0.775
G01 X-174.041 Y1.518 Z-1.057
G01 X-174.010 Y1.494 Z-1.144
G01 X-174.070 Y1.333 Z-0.818
G01 X-174.172 Y1.152 Z-0.606
G01 X-174.291 Y0.994 Z-0.495
G01 X-174.450 Y0.806 Z-0.424
G01 X-174.655 Y0.578 Z-0.392
G01 X-174.842 Y0.385 Z-0.400
G01 X-174.879 Y0.334 Z-0.435
G01 X-174.914 Y0.226 Z-0.643
G01 X-174.918 Y0.056 Z-1.111
G01 X-174.905 Y-0.087 Z-1.542
G01 X-175.154 Y-0.107 Z-0.994
G01 X-175.445 Y-0.151 Z-0.449
G01 X-175.520 Y-0.188 Z-0.384
G01 X-176.026 Y-0.560 Z-0.386
G01 X-176.094 Y-0.593 Z-0.438
G01 X-176.179 Y-0.605 Z-0.591
G01 X-176.330 Y-0.606 Z-1.029
G01 X-176.458 Y-0.607 Z-1.468
G01 X-176.470 Y-0.480 Z-1.431
G01 X-176.501 Y1.679 Z-1.478
G01 X-176.537 Y3.412 Z-1.491
G01 X-176.556 Y3.706 Z-1.541
G01 X-176.585 Y3.981 Z-1.661
G01 X-176.609 Y4.120 Z-1.760
G00 Z5.000
G00 X-169.784 Y3.867  F3000.0
G01 Z-1.436 F500.0 M3
G01 X-170.025 Y3.616 Z-1.287 F1500.0
G01 X-171.096 Y2.495 Z-0.417
G01 X-171.180 Y2.407 Z-0.322
G01 X-171.219 Y2.374 Z-0.237
G01 X-171.287 Y2.375 Z0.000
G01 X-171.219 Y2.374 Z-0.237
G01 X-171.267 Y2.322 Z0.000
G01 X-171.212 Y2.377 Z-0.255
G01 X-171.210 Y2.305 Z0.000
G01 X-171.212 Y2.377 Z-0.255
G01 X-171.168 Y2.422 Z-0.342
G01 X-171.030 Y2.566 Z-0.477
G01 X-169.973 Y3.669 Z-1.323
G01 X-169.784 Y3.867 Z-1.436
G01 X-169.659 Y4.000 Z-1.430
G01 X-169.600 Y4.053 Z-1.345
G01 X-169.565 Y4.073 Z-1.271
G01 X-169.508 Y4.130 Z-1.032
G01 X-169.243 Y4.227 Z0.000
G01 X-169.508 Y4.130 Z-1.032
G01 X-169.309 Y4.334 Z0.000
G01 X-169.511 Y4.127 Z-1.045
G01 X-169.419 Y4.397 Z0.000
G01 X-169.511 Y4.127 Z-1.045
G01 X-169.579 Y4.066 Z-1.304
G01 X-169.641 Y4.020 Z-1.410
G01 X-169.660 Y3.999 Z-1.431
G01 X-169.784 Y3.867 Z-1.436
G00 Z5.000
G00 X-165.487 Y-0.742  F3000.0
G01 Z-1.770 F500.0 M3
G01 X-165.735 Y-0.579 Z-1.715 F1500.0
G01 X-166.018 Y-0.431 Z-1.669
G01 X-166.915 Y-0.015 Z-1.658
G01 X-167.177 Y0.123 Z-1.661
G01 X-167.321 Y0.232 Z-1.626
G01 X-167.414 Y0.343 Z-1.583
G01 X-167.503 Y0.498 Z-1.487
G01 X-167.564 Y0.678 Z-1.345
G01 X-167.583 Y0.783 Z-1.237
G01 X-167.594 Y0.890 Z-1.160
G01 X-167.565 Y1.134 Z-0.949
G01 X-167.496 Y1.324 Z-0.787
G01 X-167.398 Y1.482 Z-0.657
G01 X-167.276 Y1.611 Z-0.558
G01 X-167.206 Y1.670 Z-0.539
G01 X-167.135 Y1.717 Z-0.495
G01 X-166.976 Y1.803 Z-0.457
G01 X-166.803 Y1.860 Z-0.420
G01 X-166.747 Y1.873 Z-0.426
G01 X-166.617 Y1.892 Z-0.397
G01 X-166.475 Y1.904 Z-0.402
G01 X-166.412 Y1.903 Z-0.388
G01 X-166.261 Y1.889 Z-0.399
G01 X-166.138 Y1.869 Z-0.379
G01 X-166.034 Y1.841 Z-0.401
G01 X-165.858 Y1.781 Z-0.402
G01 X-165.703 Y1.703 Z-0.453
G01 X-165.543 Y1.596 Z-0.570
G01 X-165.437 Y1.520 Z-0.707
G01 X-165.350 Y1.469 Z-0.850
G01 X-165.268 Y1.428 Z-1.035
G01 X-165.113 Y0.880 Z-0.579
G01 X-165.055 Y0.627 Z-0.411
G01 X-165.041 Y0.544 Z-0.319
G01 X-165.110 Y0.490 Z0.000
G01 X-165.041 Y0.544 Z-0.319
G01 X-165.075 Y0.460 Z0.000
G01 X-165.038 Y0.532 Z-0.293
G01 X-165.036 Y0.451 Z0.000
G01 X-165.037 Y0.528 Z-0.279
G01 X-164.996 Y0.462 Z0.000
G01 X-165.039 Y0.535 Z-0.300
G01 X-164.967 Y0.495 Z0.000
G01 X-165.041 Y0.544 Z-0.319
G01 X-165.062 Y0.655 Z-0.433
G01 X-165.116 Y0.892 Z-0.588
G01 X-165.268 Y1.428 Z-1.035
G01 X-165.165 Y1.613 Z-0.587
G01 X-165.111 Y1.795 Z-0.273
G01 X-165.044 Y1.832 Z0.000
G01 X-165.111 Y1.795 Z-0.273
G01 X-165.076 Y1.862 Z0.000
G01 X-165.110 Y1.799 Z-0.259
G01 X-165.118 Y1.872 Z0.000
G01 X-165.114 Y1.788 Z-0.290
G01 X-165.162 Y1.851 Z0.000
G01 X-165.114 Y1.788 Z-0.290
G01 X-165.165 Y1.613 Z-0.587
G01 X-165.268 Y1.428 Z-1.035
G01 X-165.376 Y1.485 Z-0.804
G01 X-165.473 Y1.544 Z-0.655
G01 X-165.563 Y1.610 Z-0.551
G01 X-165.725 Y1.716 Z-0.443
G01 X-165.880 Y1.790 Z-0.397
G01 X-166.034 Y1.841 Z-0.401
G01 X-166.159 Y1.873 Z-0.379
G01 X-166.261 Y1.889 Z-0.399
G01 X-166.430 Y1.904 Z-0.390
G01 X-166.475 Y1.904 Z-0.402
G01 X-166.633 Y1.891 Z-0.398
G01 X-166.747 Y1.873 Z-0.426
G01 X-166.821 Y1.855 Z-0.421
G01 X-166.997 Y1.794 Z-0.463
G01 X-167.158 Y1.704 Z-0.505
G01 X-167.206 Y1.670 Z-0.539
G01 X-167.302 Y1.587 Z-0.573
G01 X-167.423 Y1.446 Z-0.681
G01 X-167.519 Y1.276 Z-0.831
G01 X-167.580 Y1.069 Z-1.009
G01 X-167.594 Y0.882 Z-1.164
G01 X-167.583 Y0.783 Z-1.237
G01 X-167.564 Y0.678 Z-1.345
G01 X-167.503 Y0.498 Z-1.487
G01 X-167.408 Y0.335 Z-1.586
G01 X-167.306 Y0.216 Z-1.631
G01 X-167.177 Y0.123 Z-1.661
G01 X-166.854 Y-0.046 Z-1.664
G01 X-165.988 Y-0.446 Z-1.671
G01 X-165.701 Y-0.599 Z-1.727
G01 X-165.487 Y-0.742 Z-1.770
G01 X-165.390 Y-0.832 Z-1.757
G01 X-165.282 Y-0.969 Z-1.696
G01 X-165.193 Y-1.130 Z-1.582
G01 X-165.127 Y-1.363 Z-1.378
G01 X-165.113 Y-1.591 Z-1.180
G01 X-165.142 Y-1.799 Z-1.004
G01 X-165.221 Y-2.023 Z-0.805
G01 X-165.329 Y-2.213 Z-0.654
G01 X-165.463 Y-2.367 Z-0.538
G01 X-165.539 Y-2.436 Z-0.518
G01 X-165.649 Y-2.516 Z-0.474
G01 X-165.786 Y-2.593 Z-0.428
G01 X-165.963 Y-2.661 Z-0.387
G01 X-166.029 Y-2.678 Z-0.385
G01 X-166.148 Y-2.698 Z-0.352
G01 X-166.342 Y-2.714 Z-0.354
G01 X-166.508 Y-2.699 Z-0.363
G01 X-166.612 Y-2.682 Z-0.348
G01 X-166.714 Y-2.654 Z-0.373
G01 X-166.869 Y-2.602 Z-0.385
G01 X-167.121 Y-2.475 Z-0.486
G01 X-167.389 Y-2.299 Z-0.705
G01 X-167.511 Y-2.217 Z-0.871
G01 X-167.648 Y-2.151 Z-1.117
G01 X-167.683 Y-2.140 Z-1.196
G01 X-167.782 Y-1.819 Z-0.867
G01 X-167.864 Y-1.498 Z-0.601
G01 X-167.927 Y-1.184 Z-0.385
G01 X-167.933 Y-1.125 Z-0.302
G01 X-167.874 Y-1.063 Z0.000
G01 X-167.933 Y-1.125 Z-0.302
G01 X-167.929 Y-1.038 Z0.000
G01 X-167.935 Y-1.114 Z-0.269
G01 X-167.975 Y-1.051 Z0.000
G01 X-167.933 Y-1.130 Z-0.313
G01 X-168.008 Y-1.089 Z0.000
G01 X-167.933 Y-1.130 Z-0.313
G01 X-167.927 Y-1.184 Z-0.385
G01 X-167.861 Y-1.513 Z-0.612
G01 X-167.776 Y-1.842 Z-0.889
G01 X-167.683 Y-2.140 Z-1.196
G01 X-167.774 Y-2.278 Z-0.834
G01 X-167.850 Y-2.473 Z-0.524
G01 X-167.884 Y-2.609 Z-0.324
G01 X-167.897 Y-2.641 Z-0.246
G01 X-167.958 Y-2.672 Z0.000
G01 X-167.897 Y-2.641 Z-0.246
G01 X-167.933 Y-2.701 Z0.000
G01 X-167.901 Y-2.653 Z-0.207
G01 X-167.903 Y-2.710 Z0.000
G01 X-167.894 Y-2.635 Z-0.266
G01 X-167.864 Y-2.701 Z0.000
G01 X-167.894 Y-2.635 Z-0.266
G01 X-167.870 Y-2.539 Z-0.439
G01 X-167.805 Y-2.345 Z-0.711
G01 X-167.743 Y-2.227 Z-0.957
G01 X-167.683 Y-2.140 Z-1.196
G01 X-167.587 Y-2.175 Z-0.994
G01 X-167.511 Y-2.217 Z-0.871
G01 X-167.356 Y-2.323 Z-0.672
G01 X-167.099 Y-2.488 Z-0.474
G01 X-166.869 Y-2.602 Z-0.385
G01 X-166.714 Y-2.654 Z-0.373
G01 X-166.591 Y-2.686 Z-0.348
G01 X-166.508 Y-2.699 Z-0.363
G01 X-166.323 Y-2.714 Z-0.356
G01 X-166.132 Y-2.696 Z-0.354
G01 X-166.029 Y-2.678 Z-0.385
G01 X-165.946 Y-2.656 Z-0.390
G01 X-165.768 Y-2.585 Z-0.434
G01 X-165.596 Y-2.481 Z-0.485
G01 X-165.539 Y-2.436 Z-0.518
G01 X-165.439 Y-2.342 Z-0.552
G01 X-165.306 Y-2.177 Z-0.676
G01 X-165.197 Y-1.974 Z-0.856
G01 X-165.128 Y-1.738 Z-1.059
G01 X-165.113 Y-1.502 Z-1.260
G01 X-165.148 Y-1.266 Z-1.469
G01 X-165.203 Y-1.105 Z-1.600
G01 X-165.282 Y-0.969 Z-1.696
G01 X-165.390 Y-0.832 Z-1.757
G01 X-165.487 Y-0.742 Z-1.770
G00 Z5.000
G00 X-51.710 Y-3.083  F3000.0
G01 Z-2.574 F500.0 M3
G01 X-51.419 Y-3.269 Z-1.873 F1500.0
G01 X-51.123 Y-3.417 Z-1.312
G01 X-50.940 Y-3.501 Z-1.048
G01 X-50.704 Y-3.586 Z-0.794
G01 X-50.454 Y-3.651 Z-0.618
G01 X-50.174 Y-3.698 Z-0.518
G01 X-49.853 Y-3.728 Z-0.468
G01 X-49.483 Y-3.743 Z-0.472
G01 X-49.203 Y-3.742 Z-0.503
G01 X-48.923 Y-3.726 Z-0.544
G01 X-48.593 Y-3.684 Z-0.620
G01 X-48.426 Y-3.653 Z-0.662
G01 X-48.183 Y-3.596 Z-0.751
G01 X-47.947 Y-3.523 Z-0.859
G01 X-47.717 Y-3.433 Z-0.986
G01 X-47.489 Y-3.321 Z-1.132
G01 X-47.297 Y-3.205 Z-1.277
G01 X-47.079 Y-3.058 Z-1.410
G01 X-46.934 Y-2.939 Z-1.523
G01 X-46.704 Y-2.731 Z-1.666
G01 X-46.469 Y-2.467 Z-1.847
G01 X-46.332 Y-2.291 Z-1.944
G01 X-46.205 Y-2.103 Z-2.045
G01 X-46.079 Y-1.900 Z-2.130
G01 X-45.974 Y-1.699 Z-2.226
G01 X-45.843 Y-1.412 Z-2.316
G01 X-45.794 Y-1.280 Z-2.366
G01 X-45.723 Y-1.063 Z-2.414
G01 X-45.664 Y-0.840 Z-2.450
G01 X-45.619 Y-0.606 Z-2.483
G01 X-45.582 Y-0.359 Z-2.491
G01 X-45.564 Y-0.109 Z-2.511
G01 X-45.555 Y0.184 Z-2.501
G01 X-45.576 Y0.595 Z-2.489
G01 X-45.613 Y0.877 Z-2.478
G01 X-45.682 Y1.208 Z-2.440
G01 X-45.733 Y1.387 Z-2.394
G01 X-45.777 Y1.523 Z-2.378
G01 X-45.898 Y1.828 Z-2.292
G01 X-46.049 Y2.127 Z-2.178
G01 X-46.255 Y2.454 Z-2.021
G01 X-46.472 Y2.739 Z-1.858
G01 X-46.697 Y2.986 Z-1.690
G01 X-46.781 Y3.067 Z-1.611
G01 X-46.982 Y3.244 Z-1.470
G01 X-47.101 Y3.335 Z-1.366
G01 X-47.315 Y3.480 Z-1.239
G01 X-47.440 Y3.554 Z-1.144
G01 X-47.764 Y3.718 Z-0.972
G01 X-48.166 Y3.871 Z-0.802
G01 X-48.556 Y3.974 Z-0.679
G01 X-48.967 Y4.045 Z-0.586
G01 X-49.139 Y4.065 Z-0.576
G01 X-49.402 Y4.086 Z-0.529
G01 X-49.862 Y4.098 Z-0.506
G01 X-50.527 Y4.085 Z-0.509
G01 X-50.744 Y4.073 Z-0.538
G01 X-50.858 Y4.060 Z-0.579
G01 X-50.992 Y4.024 Z-0.707
G01 X-51.157 Y3.945 Z-1.012
G01 X-51.346 Y3.813 Z-1.518
G01 X-51.613 Y3.575 Z-2.423
G01 X-51.883 Y3.786 Z-1.685
G01 X-52.111 Y3.937 Z-1.171
G01 X-52.297 Y4.030 Z-0.866
G01 X-52.445 Y4.083 Z-0.707
G01 X-52.596 Y4.122 Z-0.598
G01 X-52.758 Y4.153 Z-0.526
G01 X-53.028 Y4.189 Z-0.460
G01 X-53.093 Y4.203 Z-0.410
G01 X-53.134 Y4.308 Z0.000
G01 X-53.099 Y4.209 Z-0.385
G01 X-53.174 Y4.284 Z0.000
G01 X-53.099 Y4.209 Z-0.385
G01 X-53.198 Y4.244 Z0.000
G01 X-53.093 Y4.203 Z-0.410
G01 X-53.206 Y4.188 Z0.000
G01 X-53.109 Y4.197 Z-0.357
G01 X-53.190 Y4.141 Z0.000
G01 X-53.085 Y4.201 Z-0.424
G01 X-53.028 Y4.189 Z-0.460
G01 X-52.742 Y4.150 Z-0.531
G01 X-52.573 Y4.117 Z-0.612
G01 X-52.410 Y4.072 Z-0.739
G01 X-52.231 Y4.001 Z-0.961
G01 X-52.035 Y3.891 Z-1.326
G01 X-51.817 Y3.736 Z-1.854
G01 X-51.613 Y3.575 Z-2.423
G01 X-51.591 Y3.238 Z-2.277
G01 X-51.576 Y2.660 Z-2.109
G01 X-51.583 Y2.073 Z-2.010
G01 X-51.614 Y1.364 Z-1.975
G01 X-51.691 Y-1.162 Z-1.972
G01 X-51.709 Y-1.687 Z-1.990
G01 X-51.718 Y-2.086 Z-2.050
G01 X-51.720 Y-2.540 Z-2.193
G01 X-51.722 Y-2.766 Z-2.320
G01 X-51.713 Y-3.018 Z-2.508
G01 X-51.710 Y-3.083 Z-2.574
G01 X-51.955 Y-3.264 Z-1.904
G01 X-52.167 Y-3.393 Z-1.430
G01 X-52.425 Y-3.512 Z-0.992
G01 X-52.661 Y-3.588 Z-0.714
G01 X-52.894 Y-3.639 Z-0.554
G01 X-53.132 Y-3.669 Z-0.477
G01 X-53.473 Y-3.703 Z-0.403
G01 X-53.568 Y-3.705 Z-0.353
G01 X-53.603 Y-3.615 Z0.000
G01 X-53.568 Y-3.705 Z-0.353
G01 X-53.583 Y-3.707 Z-0.329
G01 X-53.658 Y-3.650 Z0.000
G01 X-53.583 Y-3.707 Z-0.329
G01 X-53.676 Y-3.710 Z0.000
G01 X-53.596 Y-3.711 Z-0.288
G01 X-53.663 Y-3.754 Z0.000
G01 X-53.583 Y-3.707 Z-0.330
G01 X-53.626 Y-3.786 Z0.000
G01 X-53.583 Y-3.707 Z-0.330
G01 X-53.544 Y-3.706 Z-0.373
G01 X-53.473 Y-3.703 Z-0.403
G01 X-53.124 Y-3.669 Z-0.479
G01 X-52.866 Y-3.634 Z-0.569
G01 X-52.615 Y-3.576 Z-0.759
G01 X-52.353 Y-3.483 Z-1.098
G01 X-52.067 Y-3.337 Z-1.637
G01 X-51.727 Y-3.096 Z-2.526
G01 X-51.710 Y-3.083 Z-2.574
G00 Z5.000
G01 Z-2.574 F500.0 M3
G01 X-51.715 Y-2.977 Z-2.475 F1500.0
G01 X-51.722 Y-2.704 Z-2.280
G01 X-51.722 Y-2.403 Z-2.140
G01 X-51.712 Y-1.923 Z-2.018
G01 X-51.709 Y-1.663 Z-1.988
G01 X-51.666 Y-0.313 Z-1.967
G01 X-51.613 Y1.377 Z-1.976
G01 X-51.582 Y2.108 Z-2.014
G01 X-51.576 Y2.701 Z-2.118
G01 X-51.593 Y3.283 Z-2.293
G01 X-51.613 Y3.575 Z-2.423
G01 X-51.346 Y3.813 Z-1.518
G01 X-51.157 Y3.945 Z-1.012
G01 X-50.992 Y4.024 Z-0.707
G01 X-50.858 Y4.060 Z-0.579
G01 X-50.726 Y4.074 Z-0.534
G01 X-50.518 Y4.085 Z-0.508
G01 X-49.853 Y4.098 Z-0.507
G01 X-49.389 Y4.085 Z-0.530
G01 X-49.139 Y4.065 Z-0.576
G01 X-48.951 Y4.043 Z-0.589
G01 X-48.536 Y3.970 Z-0.683
G01 X-48.130 Y3.860 Z-0.819
G01 X-47.764 Y3.718 Z-0.972
G01 X-47.440 Y3.554 Z-1.144
G01 X-47.315 Y3.480 Z-1.239
G01 X-47.061 Y3.305 Z-1.397
G01 X-46.982 Y3.244 Z-1.470
G01 X-46.748 Y3.036 Z-1.639
G01 X-46.697 Y2.986 Z-1.690
G01 X-46.448 Y2.710 Z-1.881
G01 X-46.229 Y2.418 Z-2.043
G01 X-46.021 Y2.075 Z-2.194
G01 X-45.898 Y1.828 Z-2.292
G01 X-45.777 Y1.523 Z-2.378
G01 X-45.718 Y1.335 Z-2.404
G01 X-45.682 Y1.208 Z-2.440
G01 X-45.613 Y0.877 Z-2.478
G01 X-45.569 Y0.528 Z-2.497
G01 X-45.555 Y0.124 Z-2.502
G01 X-45.564 Y-0.109 Z-2.511
G01 X-45.591 Y-0.428 Z-2.485
G01 X-45.619 Y-0.606 Z-2.483
G01 X-45.694 Y-0.963 Z-2.422
G01 X-45.723 Y-1.063 Z-2.414
G01 X-45.794 Y-1.280 Z-2.366
G01 X-45.875 Y-1.491 Z-2.296
G01 X-45.974 Y-1.699 Z-2.226
G01 X-46.110 Y-1.953 Z-2.104
G01 X-46.205 Y-2.103 Z-2.045
G01 X-46.407 Y-2.392 Z-1.880
G01 X-46.614 Y-2.634 Z-1.744
G01 X-46.767 Y-2.792 Z-1.629
G01 X-46.934 Y-2.939 Z-1.523
G01 X-47.119 Y-3.088 Z-1.384
G01 X-47.297 Y-3.205 Z-1.277
G01 X-47.520 Y-3.337 Z-1.111
G01 X-47.741 Y-3.443 Z-0.974
G01 X-48.001 Y-3.541 Z-0.838
G01 X-48.285 Y-3.622 Z-0.718
G01 X-48.440 Y-3.656 Z-0.657
G01 X-48.688 Y-3.698 Z-0.589
G01 X-48.945 Y-3.728 Z-0.539
G01 X-49.272 Y-3.744 Z-0.501
G01 X-49.492 Y-3.743 Z-0.471
G01 X-49.865 Y-3.727 Z-0.469
G01 X-50.192 Y-3.696 Z-0.522
G01 X-50.484 Y-3.644 Z-0.635
G01 X-50.745 Y-3.573 Z-0.831
G01 X-50.985 Y-3.481 Z-1.108
G01 X-51.239 Y-3.365 Z-1.511
G01 X-51.521 Y-3.208 Z-2.103
G01 X-51.710 Y-3.083 Z-2.574
G00 Z5.000
G00 X-41.436 Y3.622  F3000.0
G01 Z-1.607 F500.0 M3
G01 X-41.707 Y3.343 Z-1.440 F1500.0
G01 X-42.913 Y2.095 Z-0.466
G01 X-43.008 Y1.998 Z-0.360
G01 X-43.051 Y1.961 Z-0.265
G01 X-43.127 Y1.963 Z0.000
G01 X-43.051 Y1.961 Z-0.265
G01 X-43.106 Y1.903 Z0.000
G01 X-43.043 Y1.964 Z-0.286
G01 X-43.042 Y1.883 Z0.000
G01 X-43.043 Y1.964 Z-0.286
G01 X-42.994 Y2.014 Z-0.383
G01 X-42.839 Y2.174 Z-0.533
G01 X-41.649 Y3.401 Z-1.481
G01 X-41.436 Y3.622 Z-1.607
G01 X-41.295 Y3.770 Z-1.600
G01 X-41.228 Y3.829 Z-1.505
G01 X-41.189 Y3.851 Z-1.423
G01 X-41.100 Y3.940 Z-1.045
G01 X-41.205 Y3.844 Z-1.459
G01 X-41.274 Y3.792 Z-1.578
G01 X-41.296 Y3.769 Z-1.601
G01 X-41.436 Y3.622 Z-1.607
G00 Z5.000
G00 X-33.729 Y-3.034  F3000.0
G01 Z-2.472 F500.0 M3
G01 X-33.721 Y-3.051 Z-2.471 F1500.0
G01 X-33.909 Y-3.337 Z-1.291
G01 X-33.721 Y-3.051 Z-2.471
G01 X-33.495 Y-3.208 Z-1.974
G01 X-33.162 Y-3.390 Z-1.376
G01 X-32.798 Y-3.531 Z-0.897
G01 X-32.509 Y-3.605 Z-0.637
G01 X-32.222 Y-3.649 Z-0.482
G01 X-31.942 Y-3.667 Z-0.421
G01 X-31.885 Y-3.669 Z-0.393
G01 X-31.858 Y-3.672 Z-0.352
G01 X-31.809 Y-3.754 Z0.000
G01 X-31.858 Y-3.672 Z-0.352
G01 X-31.773 Y-3.721 Z0.000
G01 X-31.856 Y-3.673 Z-0.342
G01 X-31.761 Y-3.674 Z0.000
G01 X-31.860 Y-3.671 Z-0.357
G01 X-31.772 Y-3.627 Z0.000
G01 X-31.862 Y-3.670 Z-0.361
G01 X-31.802 Y-3.591 Z0.000
G01 X-31.862 Y-3.670 Z-0.361
G01 X-31.889 Y-3.669 Z-0.397
G01 X-31.954 Y-3.667 Z-0.426
G01 X-32.245 Y-3.647 Z-0.491
G01 X-32.544 Y-3.598 Z-0.662
G01 X-32.848 Y-3.514 Z-0.952
G01 X-33.162 Y-3.390 Z-1.376
G01 X-33.495 Y-3.208 Z-1.974
G01 X-33.721 Y-3.051 Z-2.471
G01 X-33.822 Y-2.793 Z-2.423
G01 X-33.947 Y-2.306 Z-2.327
G01 X-34.120 Y-1.449 Z-2.249
G01 X-34.196 Y-1.169 Z-2.191
G01 X-34.279 Y-0.937 Z-2.094
G01 X-34.352 Y-0.785 Z-1.999
G01 X-34.455 Y-0.615 Z-1.826
G01 X-34.667 Y-0.358 Z-1.498
G01 X-34.890 Y-0.144 Z-1.224
G01 X-35.123 Y0.030 Z-1.009
G01 X-35.275 Y0.131 Z-0.940
G01 X-35.316 Y0.169 Z-0.951
G01 X-35.353 Y0.207 Z-0.993
G01 X-35.418 Y0.286 Z-1.140
G01 X-35.459 Y0.352 Z-1.286
G01 X-35.401 Y0.417 Z-1.121
G01 X-35.309 Y0.493 Z-0.957
G01 X-35.275 Y0.516 Z-0.927
G01 X-35.193 Y0.560 Z-0.920
G01 X-34.970 Y0.655 Z-0.995
G01 X-34.661 Y0.817 Z-1.205
G01 X-34.344 Y1.023 Z-1.517
G01 X-34.101 Y1.227 Z-1.804
G01 X-33.947 Y1.410 Z-2.000
G01 X-33.810 Y1.635 Z-2.138
G01 X-33.777 Y1.706 Z-2.190
G01 X-33.714 Y1.868 Z-2.266
G01 X-33.670 Y2.024 Z-2.311
G01 X-33.647 Y2.183 Z-2.348
G01 X-33.637 Y2.443 Z-2.338
G01 X-33.656 Y2.618 Z-2.323
G01 X-33.711 Y2.861 Z-2.221
G01 X-33.818 Y3.110 Z-2.064
G01 X-33.992 Y3.379 Z-1.826
G01 X-34.177 Y3.579 Z-1.591
G01 X-34.247 Y3.640 Z-1.520
G01 X-34.491 Y3.824 Z-1.215
G01 X-34.678 Y3.931 Z-1.024
G01 X-34.883 Y4.022 Z-0.856
G01 X-35.064 Y4.083 Z-0.728
G01 X-35.266 Y4.135 Z-0.622
G01 X-35.494 Y4.176 Z-0.538
G01 X-35.700 Y4.198 Z-0.475
G01 X-35.935 Y4.211 Z-0.432
G01 X-36.186 Y4.212 Z-0.407
G01 X-36.474 Y4.204 Z-0.413
G01 X-36.778 Y4.187 Z-0.453
G01 X-37.098 Y4.160 Z-0.528
G01 X-37.428 Y4.124 Z-0.635
G01 X-37.515 Y4.103 Z-0.705
G01 X-37.624 Y4.045 Z-0.913
G01 X-37.715 Y3.968 Z-1.191
G01 X-38.045 Y3.643 Z-2.378
G01 X-38.376 Y3.865 Z-1.522
G01 X-38.588 Y3.974 Z-1.100
G01 X-38.674 Y4.008 Z-0.966
G01 X-38.854 Y4.059 Z-0.758
G01 X-39.053 Y4.096 Z-0.606
G01 X-39.290 Y4.124 Z-0.480
G01 X-39.558 Y4.144 Z-0.370
G01 X-39.637 Y4.146 Z-0.272
G01 X-39.697 Y4.194 Z0.000
G01 X-39.637 Y4.146 Z-0.272
G01 X-39.713 Y4.152 Z0.000
G01 X-39.636 Y4.146 Z-0.276
G01 X-39.705 Y4.113 Z0.000
G01 X-39.636 Y4.146 Z-0.276
G01 X-39.681 Y4.083 Z0.000
G01 X-39.636 Y4.146 Z-0.276
G01 X-39.555 Y4.144 Z-0.372
G01 X-39.279 Y4.123 Z-0.485
G01 X-39.032 Y4.093 Z-0.619
G01 X-38.808 Y4.048 Z-0.804
G01 X-38.674 Y4.008 Z-0.966
G01 X-38.461 Y3.912 Z-1.338
G01 X-38.140 Y3.713 Z-2.109
G01 X-38.045 Y3.643 Z-2.378
G01 X-38.027 Y3.488 Z-2.292
G01 X-38.010 Y3.220 Z-2.190
G01 X-38.000 Y2.896 Z-2.112
G01 X-37.998 Y2.458 Z-2.044
G01 X-37.999 Y1.244 Z-1.982
G01 X-37.994 Y0.874 Z-2.005
G01 X-37.978 Y0.440 Z-2.067
G01 X-37.969 Y0.329 Z-2.104
G01 X-37.979 Y0.209 Z-2.067
G01 X-37.992 Y-0.205 Z-2.026
G01 X-37.996 Y-0.648 Z-2.014
G01 X-37.985 Y-1.933 Z-2.013
G01 X-37.981 Y-2.285 Z-2.055
G01 X-37.987 Y-2.670 Z-2.142
G01 X-37.990 Y-2.951 Z-2.295
G01 X-37.990 Y-3.109 Z-2.441
G01 X-38.294 Y-3.317 Z-1.665
G01 X-38.480 Y-3.424 Z-1.266
G01 X-38.649 Y-3.505 Z-0.961
G01 X-38.814 Y-3.567 Z-0.730
G01 X-38.973 Y-3.607 Z-0.581
G01 X-39.142 Y-3.632 Z-0.489
G01 X-39.335 Y-3.646 Z-0.438
G01 X-39.596 Y-3.648 Z-0.403
G01 X-39.665 Y-3.644 Z-0.334
G01 X-39.710 Y-3.564 Z0.000
G01 X-39.665 Y-3.644 Z-0.334
G01 X-39.748 Y-3.597 Z0.000
G01 X-39.677 Y-3.642 Z-0.300
G01 X-39.761 Y-3.644 Z0.000
G01 X-39.671 Y-3.644 Z-0.320
G01 X-39.745 Y-3.696 Z0.000
G01 X-39.665 Y-3.644 Z-0.334
G01 X-39.653 Y-3.646 Z-0.355
G01 X-39.696 Y-3.733 Z0.000
G01 X-39.653 Y-3.646 Z-0.355
G01 X-39.596 Y-3.648 Z-0.403
G01 X-39.323 Y-3.645 Z-0.440
G01 X-39.123 Y-3.630 Z-0.497
G01 X-38.938 Y-3.600 Z-0.608
G01 X-38.766 Y-3.551 Z-0.789
G01 X-38.605 Y-3.485 Z-1.035
G01 X-38.430 Y-3.396 Z-1.367
G01 X-38.090 Y-3.182 Z-2.168
G01 X-37.990 Y-3.109 Z-2.441
G01 X-37.773 Y-3.265 Z-1.859
G01 X-37.524 Y-3.414 Z-1.303
G01 X-37.301 Y-3.515 Z-0.925
G01 X-37.100 Y-3.578 Z-0.689
G01 X-36.897 Y-3.618 Z-0.542
G01 X-36.677 Y-3.641 Z-0.456
G01 X-36.381 Y-3.649 Z-0.399
G01 X-36.321 Y-3.648 Z-0.346
G01 X-36.280 Y-3.733 Z0.000
G01 X-36.321 Y-3.648 Z-0.346
G01 X-36.299 Y-3.646 Z-0.304
G01 X-36.229 Y-3.696 Z0.000
G01 X-36.299 Y-3.646 Z-0.304
G01 X-36.213 Y-3.644 Z0.000
G01 X-36.290 Y-3.643 Z-0.276
G01 X-36.226 Y-3.600 Z0.000
G01 X-36.309 Y-3.646 Z-0.326
G01 X-36.267 Y-3.567 Z0.000
G01 X-36.321 Y-3.648 Z-0.346
G01 X-36.381 Y-3.649 Z-0.399
G01 X-36.693 Y-3.639 Z-0.461
G01 X-36.923 Y-3.613 Z-0.558
G01 X-37.145 Y-3.566 Z-0.734
G01 X-37.369 Y-3.488 Z-1.027
G01 X-37.604 Y-3.370 Z-1.467
G01 X-37.866 Y-3.201 Z-2.096
G01 X-37.990 Y-3.109 Z-2.441
G01 X-37.989 Y-2.935 Z-2.284
G01 X-37.987 Y-2.670 Z-2.142
G01 X-37.981 Y-2.259 Z-2.051
G01 X-37.985 Y-1.887 Z-2.011
G01 X-37.996 Y-0.611 Z-2.014
G01 X-37.991 Y-0.183 Z-2.027
G01 X-37.979 Y0.209 Z-2.067
G01 X-37.969 Y0.329 Z-2.104
G01 X-37.632 Y0.329 Z-0.956
G01 X-37.521 Y0.329 Z-0.669
G01 X-37.446 Y0.329 Z-0.574
G01 X-37.052 Y0.360 Z-0.500
G01 X-36.701 Y0.378 Z-0.503
G01 X-36.292 Y0.385 Z-0.601
G01 X-35.920 Y0.380 Z-0.799
G01 X-35.578 Y0.362 Z-1.113
G01 X-35.459 Y0.352 Z-1.286
G01 X-35.418 Y0.286 Z-1.140
G01 X-35.353 Y0.207 Z-0.993
G01 X-35.316 Y0.169 Z-0.951
G01 X-35.275 Y0.131 Z-0.940
G01 X-35.123 Y0.030 Z-1.009
G01 X-34.849 Y-0.180 Z-1.268
G01 X-34.623 Y-0.403 Z-1.563
G01 X-34.425 Y-0.662 Z-1.871
G01 X-34.352 Y-0.785 Z-1.999
G01 X-34.266 Y-0.969 Z-2.110
G01 X-34.196 Y-1.169 Z-2.191
G01 X-34.120 Y-1.449 Z-2.249
G01 X-33.932 Y-2.372 Z-2.335
G01 X-33.795 Y-2.873 Z-2.438
G01 X-33.729 Y-3.034 Z-2.472
G00 Z5.000
G00 X-38.045 Y3.643  F3000.0
G01 Z-2.378 F500.0 M3
G01 X-37.715 Y3.968 Z-1.191 F1500.0
G01 X-37.624 Y4.045 Z-0.913
G01 X-37.515 Y4.103 Z-0.705
G01 X-37.428 Y4.124 Z-0.635
G01 X-37.091 Y4.160 Z-0.526
G01 X-36.771 Y4.187 Z-0.452
G01 X-36.467 Y4.204 Z-0.413
G01 X-36.178 Y4.212 Z-0.407
G01 X-35.847 Y4.207 Z-0.453
G01 X-35.689 Y4.197 Z-0.478
G01 X-35.464 Y4.171 Z-0.545
G01 X-35.249 Y4.131 Z-0.631
G01 X-35.042 Y4.076 Z-0.741
G01 X-34.840 Y4.005 Z-0.884
G01 X-34.632 Y3.908 Z-1.072
G01 X-34.420 Y3.776 Z-1.306
G01 X-34.247 Y3.640 Z-1.520
G01 X-34.106 Y3.511 Z-1.684
G01 X-33.896 Y3.244 Z-1.952
G01 X-33.768 Y3.007 Z-2.133
G01 X-33.687 Y2.775 Z-2.260
G01 X-33.656 Y2.618 Z-2.323
G01 X-33.636 Y2.422 Z-2.337
G01 X-33.647 Y2.183 Z-2.348
G01 X-33.698 Y1.919 Z-2.275
G01 X-33.714 Y1.868 Z-2.266
G01 X-33.777 Y1.706 Z-2.190
G01 X-33.860 Y1.542 Z-2.085
G01 X-33.947 Y1.410 Z-2.000
G01 X-34.101 Y1.227 Z-1.804
G01 X-34.344 Y1.023 Z-1.517
G01 X-34.704 Y0.792 Z-1.169
G01 X-35.009 Y0.637 Z-0.977
G01 X-35.227 Y0.544 Z-0.915
G01 X-35.275 Y0.516 Z-0.927
G01 X-35.309 Y0.493 Z-0.957
G01 X-35.401 Y0.417 Z-1.121
G01 X-35.459 Y0.352 Z-1.286
G01 X-35.619 Y0.364 Z-1.067
G01 X-35.975 Y0.380 Z-0.760
G01 X-36.310 Y0.385 Z-0.594
G01 X-36.713 Y0.377 Z-0.502
G01 X-37.062 Y0.360 Z-0.501
G01 X-37.446 Y0.329 Z-0.574
G01 X-37.521 Y0.329 Z-0.669
G01 X-37.632 Y0.329 Z-0.956
G01 X-37.969 Y0.329 Z-2.104
G01 X-37.978 Y0.440 Z-2.067
G01 X-37.994 Y0.899 Z-2.002
G01 X-37.999 Y1.294 Z-1.981
G01 X-37.998 Y2.477 Z-2.046
G01 X-38.001 Y2.922 Z-2.117
G01 X-38.012 Y3.268 Z-2.205
G01 X-38.033 Y3.552 Z-2.324
G01 X-38.045 Y3.643 Z-2.378
G00 Z5.000
G00 X-30.061 Y0.979  F3000.0
G01 Z-1.747 F500.0 M3
G01 X-29.591 Y1.475 Z0.000 F1500.0
G01 X-30.061 Y0.979 Z-1.747
G01 X-30.299 Y1.121 Z-1.166
G01 X-30.518 Y1.204 Z-0.805
G01 X-30.724 Y1.245 Z-0.589
G01 X-30.946 Y1.262 Z-0.455
G01 X-31.200 Y1.256 Z-0.348
G01 X-31.213 Y1.260 Z-0.324
G01 X-31.255 Y1.341 Z0.000
G01 X-31.213 Y1.260 Z-0.324
G01 X-31.292 Y1.304 Z0.000
G01 X-31.211 Y1.257 Z-0.337
G01 X-31.304 Y1.255 Z0.000
G01 X-31.216 Y1.254 Z-0.319
G01 X-31.295 Y1.213 Z0.000
G01 X-31.219 Y1.251 Z-0.306
G01 X-31.267 Y1.182 Z0.000
G01 X-31.211 Y1.257 Z-0.337
G01 X-31.035 Y1.262 Z-0.427
G01 X-30.928 Y1.262 Z-0.463
G01 X-30.724 Y1.245 Z-0.589
G01 X-30.514 Y1.203 Z-0.812
G01 X-30.299 Y1.121 Z-1.166
G01 X-30.061 Y0.979 Z-1.747
G01 X-30.027 Y0.649 Z-1.615
G01 X-30.010 Y0.225 Z-1.544
G01 X-30.004 Y-0.245 Z-1.531
G01 X-30.015 Y-2.139 Z-1.607
G01 X-30.027 Y-2.892 Z-1.629
G01 X-30.027 Y-3.147 Z-1.685
G01 X-30.023 Y-3.255 Z-1.738
G01 X-30.248 Y-3.429 Z-1.104
G01 X-30.425 Y-3.527 Z-0.751
G01 X-30.546 Y-3.568 Z-0.608
G01 X-30.677 Y-3.596 Z-0.519
G01 X-31.104 Y-3.657 Z-0.433
G01 X-31.192 Y-3.674 Z-0.392
G01 X-31.229 Y-3.681 Z-0.336
G01 X-31.301 Y-3.621 Z0.000
G01 X-31.229 Y-3.681 Z-0.336
G01 X-31.322 Y-3.671 Z0.000
G01 X-31.230 Y-3.681 Z-0.332
G01 X-31.313 Y-3.719 Z0.000
G01 X-31.229 Y-3.681 Z-0.334
G01 X-31.286 Y-3.754 Z0.000
G01 X-31.229 Y-3.681 Z-0.336
G01 X-31.176 Y-3.672 Z-0.404
G01 X-31.064 Y-3.652 Z-0.438
G01 X-30.647 Y-3.590 Z-0.532
G01 X-30.504 Y-3.556 Z-0.651
G01 X-30.425 Y-3.527 Z-0.751
G01 X-30.248 Y-3.429 Z-1.104
G01 X-30.023 Y-3.255 Z-1.738
G01 X-29.771 Y-3.449 Z-1.039
G01 X-29.594 Y-3.547 Z-0.699
G01 X-29.443 Y-3.600 Z-0.522
G01 X-29.294 Y-3.638 Z-0.439
G01 X-29.162 Y-3.658 Z-0.411
G01 X-28.891 Y-3.685 Z-0.409
G01 X-28.808 Y-3.698 Z-0.374
G01 X-28.765 Y-3.711 Z-0.297
G01 X-28.714 Y-3.775 Z0.000
G01 X-28.765 Y-3.711 Z-0.297
G01 X-28.690 Y-3.745 Z0.000
G01 X-28.766 Y-3.710 Z-0.303
G01 X-28.682 Y-3.702 Z0.000
G01 X-28.776 Y-3.706 Z-0.331
G01 X-28.703 Y-3.647 Z0.000
G01 X-28.778 Y-3.705 Z-0.336
G01 X-28.813 Y-3.698 Z-0.378
G01 X-28.911 Y-3.684 Z-0.411
G01 X-29.176 Y-3.657 Z-0.412
G01 X-29.313 Y-3.634 Z-0.446
G01 X-29.462 Y-3.594 Z-0.540
G01 X-29.594 Y-3.547 Z-0.699
G01 X-29.771 Y-3.449 Z-1.039
G01 X-30.023 Y-3.255 Z-1.738
G01 X-30.028 Y-3.092 Z-1.668
G01 X-30.023 Y-2.770 Z-1.617
G01 X-30.007 Y-1.180 Z-1.577
G01 X-30.004 Y-0.230 Z-1.531
G01 X-30.010 Y0.250 Z-1.546
G01 X-30.027 Y0.649 Z-1.615
G01 X-30.061 Y0.979 Z-1.747
G00 Z5.000
G00 X-30.261 Y3.897  F3000.0
G01 Z-2.075 F500.0 M3
G01 X-30.300 Y3.930 Z-1.944 F1500.0
G01 X-30.303 Y3.935 Z-1.923
G01 X-30.271 Y3.900 Z-2.069
G01 X-30.333 Y3.867 Z-1.832
G01 X-30.271 Y3.900 Z-2.070
G01 X-30.260 Y3.897 Z-2.075
G01 X-30.219 Y3.880 Z-2.026
G01 X-30.193 Y3.840 Z-1.862
G01 X-30.220 Y3.882 Z-2.030
G01 X-30.131 Y3.906 Z-1.712
G01 X-30.232 Y3.886 Z-2.049
G01 X-30.261 Y3.897 Z-2.075
G00 Z5.000
G00 X-27.019 Y0.863  F3000.0
G01 Z-1.966 F500.0 M3
G01 X-26.845 Y1.014 Z-1.406 F1500.0
G01 X-26.715 Y1.106 Z-1.068
G01 X-26.607 Y1.166 Z-0.845
G01 X-26.523 Y1.203 Z-0.711
G01 X-26.359 Y1.250 Z-0.539
G01 X-26.103 Y1.285 Z-0.390
G01 X-26.063 Y1.285 Z-0.345
G01 X-26.017 Y1.202 Z0.000
G01 X-26.063 Y1.285 Z-0.345
G01 X-25.976 Y1.238 Z0.000
G01 X-26.043 Y1.282 Z-0.289
G01 X-25.963 Y1.280 Z0.000
G01 X-26.051 Y1.285 Z-0.316
G01 X-25.976 Y1.331 Z0.000
G01 X-26.063 Y1.285 Z-0.345
G01 X-26.016 Y1.367 Z0.000
G01 X-26.063 Y1.285 Z-0.345
G01 X-26.180 Y1.277 Z-0.444
G01 X-26.405 Y1.239 Z-0.578
G01 X-26.523 Y1.203 Z-0.711
G01 X-26.607 Y1.166 Z-0.845
G01 X-26.715 Y1.106 Z-1.068
G01 X-26.845 Y1.014 Z-1.406
G01 X-27.019 Y0.863 Z-1.966
G01 X-27.258 Y1.004 Z-1.448
G01 X-27.541 Y1.149 Z-0.920
G01 X-27.683 Y1.209 Z-0.703
G01 X-27.751 Y1.230 Z-0.626
G01 X-27.901 Y1.260 Z-0.521
G01 X-28.080 Y1.280 Z-0.451
G01 X-28.150 Y1.287 Z-0.379
G01 X-28.211 Y1.371 Z0.000
G01 X-28.150 Y1.287 Z-0.379
G01 X-28.244 Y1.333 Z0.000
G01 X-28.150 Y1.287 Z-0.378
G01 X-28.255 Y1.280 Z0.000
G01 X-28.163 Y1.280 Z-0.339
G01 X-28.246 Y1.238 Z0.000
G01 X-28.169 Y1.275 Z-0.312
G01 X-28.220 Y1.205 Z0.000
G01 X-28.150 Y1.287 Z-0.379
G01 X-28.073 Y1.280 Z-0.455
G01 X-27.875 Y1.256 Z-0.536
G01 X-27.751 Y1.230 Z-0.626
G01 X-27.683 Y1.209 Z-0.703
G01 X-27.501 Y1.130 Z-0.989
G01 X-27.208 Y0.976 Z-1.551
G01 X-27.019 Y0.863 Z-1.966
G01 X-26.939 Y0.607 Z-1.770
G01 X-26.816 Y0.276 Z-1.661
G01 X-26.508 Y-0.455 Z-1.571
G01 X-26.040 Y-1.506 Z-1.563
G01 X-25.402 Y-2.873 Z-1.600
G01 X-25.356 Y-2.959 Z-1.622
G01 X-25.346 Y-3.578 Z-0.673
G01 X-25.345 Y-3.728 Z-0.417
G01 X-25.351 Y-3.775 Z-0.281
G01 X-25.395 Y-3.838 Z0.000
G01 X-25.351 Y-3.775 Z-0.281
G01 X-25.356 Y-3.854 Z0.000
G01 X-25.347 Y-3.763 Z-0.323
G01 X-25.306 Y-3.841 Z0.000
G01 X-25.347 Y-3.763 Z-0.323
G01 X-25.342 Y-3.671 Z-0.525
G01 X-25.356 Y-2.959 Z-1.622
G01 X-25.182 Y-2.927 Z-1.083
G01 X-25.036 Y-2.870 Z-0.679
G01 X-24.951 Y-2.806 Z-0.493
G01 X-24.906 Y-2.737 Z-0.440
G01 X-24.571 Y-1.970 Z-0.433
G01 X-24.341 Y-1.421 Z-0.394
G01 X-23.929 Y-0.391 Z-0.397
G01 X-23.772 Y0.017 Z-0.442
G01 X-23.647 Y0.358 Z-0.518
G01 X-23.549 Y0.638 Z-0.647
G01 X-23.475 Y0.874 Z-0.843
G01 X-23.427 Y1.071 Z-1.156
G01 X-23.331 Y1.112 Z-0.999
G01 X-23.077 Y1.194 Z-0.689
G01 X-22.832 Y1.245 Z-0.510
G01 X-22.600 Y1.268 Z-0.422
G01 X-22.530 Y1.269 Z-0.350
G01 X-22.467 Y1.190 Z0.000
G01 X-22.510 Y1.255 Z-0.278
G01 X-22.441 Y1.221 Z0.000
G01 X-22.516 Y1.261 Z-0.307
G01 X-22.432 Y1.262 Z0.000
G01 X-22.530 Y1.269 Z-0.350
G01 X-22.444 Y1.315 Z0.000
G01 X-22.535 Y1.270 Z-0.361
G01 X-22.481 Y1.353 Z0.000
G01 X-22.535 Y1.270 Z-0.361
G01 X-22.632 Y1.266 Z-0.439
G01 X-22.861 Y1.240 Z-0.526
G01 X-23.123 Y1.181 Z-0.735
G01 X-23.401 Y1.083 Z-1.110
G01 X-23.427 Y1.071 Z-1.156
G01 X-23.622 Y1.183 Z-0.746
G01 X-23.703 Y1.216 Z-0.628
G01 X-23.868 Y1.257 Z-0.484
G01 X-24.104 Y1.277 Z-0.411
G01 X-24.140 Y1.281 Z-0.369
G01 X-24.205 Y1.359 Z0.000
G01 X-24.140 Y1.281 Z-0.369
G01 X-24.234 Y1.321 Z0.000
G01 X-24.139 Y1.279 Z-0.376
G01 X-24.243 Y1.268 Z0.000
G01 X-24.155 Y1.272 Z-0.319
G01 X-24.230 Y1.224 Z0.000
G01 X-24.143 Y1.276 Z-0.361
G01 X-24.193 Y1.191 Z0.000
G01 X-24.139 Y1.279 Z-0.376
G01 X-24.085 Y1.277 Z-0.420
G01 X-23.868 Y1.257 Z-0.484
G01 X-23.703 Y1.216 Z-0.628
G01 X-23.622 Y1.183 Z-0.746
G01 X-23.427 Y1.071 Z-1.156
G01 X-23.486 Y0.838 Z-0.802
G01 X-23.569 Y0.582 Z-0.614
G01 X-23.684 Y0.262 Z-0.489
G01 X-23.774 Y0.013 Z-0.441
G01 X-23.930 Y-0.395 Z-0.397
G01 X-24.343 Y-1.425 Z-0.394
G01 X-24.571 Y-1.970 Z-0.433
G01 X-24.906 Y-2.737 Z-0.440
G01 X-24.951 Y-2.806 Z-0.493
G01 X-25.036 Y-2.870 Z-0.679
G01 X-25.182 Y-2.927 Z-1.083
G01 X-25.356 Y-2.959 Z-1.622
G01 X-25.402 Y-2.873 Z-1.600
G01 X-26.044 Y-1.496 Z-1.563
G01 X-26.517 Y-0.436 Z-1.572
G01 X-26.830 Y0.312 Z-1.669
G01 X-26.939 Y0.607 Z-1.770
G01 X-27.019 Y0.863 Z-1.966
G00 Z5.000
G00 X-18.325 Y-3.324  F3000.0
G01 Z-1.823 F500.0 M3
G01 X-18.457 Y-3.464 Z-1.186 F1500.0
G01 X-18.325 Y-3.324 Z-1.823
G01 X-18.072 Y-3.487 Z-1.216
G01 X-17.916 Y-3.562 Z-0.919
G01 X-17.833 Y-3.594 Z-0.793
G01 X-17.629 Y-3.639 Z-0.569
G01 X-17.449 Y-3.641 Z-0.482
G01 X-17.371 Y-3.633 Z-0.480
G01 X-17.255 Y-3.612 Z-0.450
G01 X-17.181 Y-3.593 Z-0.406
G01 X-17.148 Y-3.583 Z-0.355
G01 X-17.067 Y-3.639 Z0.000
G01 X-17.148 Y-3.583 Z-0.355
G01 X-17.048 Y-3.584 Z0.000
G01 X-17.137 Y-3.578 Z-0.321
G01 X-17.057 Y-3.540 Z0.000
G01 X-17.135 Y-3.577 Z-0.313
G01 X-17.083 Y-3.508 Z0.000
G01 X-17.152 Y-3.584 Z-0.362
G01 X-17.187 Y-3.594 Z-0.413
G01 X-17.279 Y-3.616 Z-0.456
G01 X-17.371 Y-3.633 Z-0.480
G01 X-17.485 Y-3.643 Z-0.492
G01 X-17.629 Y-3.639 Z-0.569
G01 X-17.833 Y-3.594 Z-0.793
G01 X-17.916 Y-3.562 Z-0.919
G01 X-18.168 Y-3.433 Z-1.428
G01 X-18.325 Y-3.324 Z-1.823
G01 X-18.358 Y-3.171 Z-1.783
G01 X-18.389 Y-2.928 Z-1.720
G01 X-18.421 Y-2.773 Z-1.770
G01 X-18.442 Y-2.710 Z-1.821
G01 X-18.431 Y-2.601 Z-1.740
G01 X-18.412 Y-2.324 Z-1.610
G01 X-18.401 Y-2.023 Z-1.538
G01 X-18.398 Y-1.694 Z-1.517
G01 X-18.397 Y-1.157 Z-1.561
G01 X-18.407 Y-0.580 Z-1.645
G01 X-18.425 Y-0.413 Z-1.728
G01 X-18.388 Y-0.120 Z-1.604
G01 X-18.383 Y0.101 Z-1.573
G01 X-18.407 Y0.419 Z-1.574
G01 X-18.433 Y0.559 Z-1.589
G01 X-18.456 Y0.646 Z-1.573
G01 X-18.513 Y0.749 Z-1.495
G01 X-18.676 Y0.939 Z-1.225
G01 X-18.889 Y1.109 Z-0.945
G01 X-19.110 Y1.224 Z-0.717
G01 X-19.328 Y1.293 Z-0.560
G01 X-19.554 Y1.331 Z-0.469
G01 X-19.793 Y1.341 Z-0.436
G01 X-19.990 Y1.330 Z-0.441
G01 X-20.171 Y1.302 Z-0.484
G01 X-20.341 Y1.252 Z-0.561
G01 X-20.510 Y1.175 Z-0.706
G01 X-20.676 Y1.059 Z-0.923
G01 X-20.839 Y0.899 Z-1.195
G01 X-20.901 Y0.827 Z-1.323
G01 X-21.024 Y0.648 Z-1.559
G01 X-21.106 Y0.479 Z-1.708
G01 X-21.138 Y0.376 Z-1.716
G01 X-21.151 Y0.272 Z-1.652
G01 X-21.164 Y0.263 Z-1.598
G01 X-21.151 Y0.272 Z-1.652
G01 X-21.132 Y0.165 Z-1.357
G01 X-21.141 Y0.129 Z-1.228
G01 X-21.133 Y0.192 Z-1.441
G01 X-21.151 Y0.285 Z-1.668
G01 X-21.138 Y0.376 Z-1.716
G01 X-21.106 Y0.479 Z-1.708
G01 X-21.024 Y0.648 Z-1.559
G01 X-20.901 Y0.827 Z-1.323
G01 X-20.807 Y0.934 Z-1.137
G01 X-20.676 Y1.059 Z-0.923
G01 X-20.466 Y1.200 Z-0.665
G01 X-20.310 Y1.263 Z-0.541
G01 X-20.148 Y1.308 Z-0.478
G01 X-19.973 Y1.332 Z-0.439
G01 X-19.776 Y1.342 Z-0.438
G01 X-19.529 Y1.328 Z-0.476
G01 X-19.294 Y1.284 Z-0.578
G01 X-19.063 Y1.202 Z-0.755
G01 X-18.837 Y1.072 Z-1.003
G01 X-18.676 Y0.939 Z-1.225
G01 X-18.513 Y0.749 Z-1.495
G01 X-18.454 Y0.641 Z-1.576
G01 X-18.433 Y0.559 Z-1.589
G01 X-18.400 Y0.358 Z-1.571
G01 X-18.383 Y0.043 Z-1.575
G01 X-18.393 Y-0.194 Z-1.628
G01 X-18.425 Y-0.413 Z-1.728
G01 X-18.602 Y-0.421 Z-1.141
G01 X-18.789 Y-0.460 Z-0.582
G01 X-18.868 Y-0.494 Z-0.421
G01 X-18.929 Y-0.549 Z-0.364
G01 X-19.040 Y-0.649 Z-0.403
G01 X-19.095 Y-0.691 Z-0.406
G01 X-19.216 Y-0.769 Z-0.454
G01 X-19.340 Y-0.841 Z-0.479
G01 X-19.680 Y-1.009 Z-0.576
G01 X-20.105 Y-1.200 Z-0.722
G01 X-20.360 Y-1.326 Z-0.836
G01 X-20.646 Y-1.483 Z-1.022
G01 X-20.846 Y-1.620 Z-1.173
G01 X-20.954 Y-1.706 Z-1.297
G01 X-21.102 Y-1.873 Z-1.442
G01 X-21.202 Y-2.038 Z-1.531
G01 X-21.280 Y-2.222 Z-1.628
G01 X-21.323 Y-2.387 Z-1.705
G01 X-21.343 Y-2.579 Z-1.744
G01 X-21.343 Y-2.648 Z-1.762
G01 X-21.321 Y-2.844 Z-1.764
G01 X-21.290 Y-2.959 Z-1.756
G01 X-21.235 Y-3.089 Z-1.702
G01 X-21.165 Y-3.197 Z-1.634
G01 X-21.065 Y-3.311 Z-1.517
G01 X-20.890 Y-3.446 Z-1.299
G01 X-20.676 Y-3.553 Z-1.053
G01 X-20.465 Y-3.616 Z-0.860
G01 X-20.262 Y-3.641 Z-0.725
G01 X-20.040 Y-3.630 Z-0.628
G01 X-19.869 Y-3.597 Z-0.563
G01 X-19.683 Y-3.536 Z-0.511
G01 X-19.623 Y-3.511 Z-0.508
G01 X-19.507 Y-3.451 Z-0.473
G01 X-19.433 Y-3.406 Z-0.472
G01 X-19.340 Y-3.341 Z-0.445
G01 X-19.255 Y-3.273 Z-0.444
G01 X-19.186 Y-3.211 Z-0.424
G01 X-19.053 Y-3.067 Z-0.416
G01 X-18.936 Y-2.910 Z-0.430
G01 X-18.879 Y-2.848 Z-0.514
G01 X-18.772 Y-2.792 Z-0.764
G01 X-18.581 Y-2.733 Z-1.358
G01 X-18.442 Y-2.710 Z-1.821
G01 X-18.421 Y-2.773 Z-1.770
G01 X-18.386 Y-2.957 Z-1.722
G01 X-18.349 Y-3.219 Z-1.790
G01 X-18.325 Y-3.324 Z-1.823
G00 Z5.000
G00 X-18.442 Y-2.710  F3000.0
G01 Z-1.821 F500.0 M3
G01 X-18.727 Y-2.775 Z-0.895 F1500.0
G01 X-18.839 Y-2.823 Z-0.597
G01 X-18.879 Y-2.848 Z-0.514
G01 X-18.945 Y-2.923 Z-0.427
G01 X-19.062 Y-3.079 Z-0.417
G01 X-19.197 Y-3.221 Z-0.426
G01 X-19.255 Y-3.273 Z-0.444
G01 X-19.352 Y-3.350 Z-0.447
G01 X-19.433 Y-3.406 Z-0.472
G01 X-19.523 Y-3.460 Z-0.476
G01 X-19.623 Y-3.511 Z-0.508
G01 X-19.703 Y-3.544 Z-0.515
G01 X-19.892 Y-3.603 Z-0.569
G01 X-20.096 Y-3.635 Z-0.642
G01 X-20.306 Y-3.637 Z-0.748
G01 X-20.519 Y-3.603 Z-0.906
G01 X-20.744 Y-3.526 Z-1.134
G01 X-20.948 Y-3.408 Z-1.371
G01 X-21.084 Y-3.292 Z-1.533
G01 X-21.165 Y-3.197 Z-1.634
G01 X-21.240 Y-3.080 Z-1.707
G01 X-21.290 Y-2.959 Z-1.756
G01 X-21.333 Y-2.765 Z-1.760
G01 X-21.343 Y-2.648 Z-1.762
G01 X-21.323 Y-2.387 Z-1.705
G01 X-21.280 Y-2.222 Z-1.628
G01 X-21.202 Y-2.038 Z-1.531
G01 X-21.102 Y-1.873 Z-1.442
G01 X-20.954 Y-1.706 Z-1.297
G01 X-20.804 Y-1.589 Z-1.134
G01 X-20.591 Y-1.451 Z-0.977
G01 X-20.344 Y-1.318 Z-0.827
G01 X-20.064 Y-1.181 Z-0.704
G01 X-19.672 Y-1.005 Z-0.574
G01 X-19.330 Y-0.835 Z-0.476
G01 X-19.216 Y-0.769 Z-0.454
G01 X-19.079 Y-0.680 Z-0.403
G01 X-19.040 Y-0.649 Z-0.403
G01 X-18.918 Y-0.536 Z-0.367
G01 X-18.868 Y-0.494 Z-0.421
G01 X-18.789 Y-0.460 Z-0.582
G01 X-18.602 Y-0.421 Z-1.141
G01 X-18.425 Y-0.413 Z-1.728
G01 X-18.407 Y-0.580 Z-1.645
G01 X-18.397 Y-1.172 Z-1.559
G01 X-18.400 Y-1.798 Z-1.518
G01 X-18.402 Y-2.054 Z-1.543
G01 X-18.414 Y-2.367 Z-1.627
G01 X-18.437 Y-2.665 Z-1.782
G01 X-18.442 Y-2.710 Z-1.821
G00 Z5.000
G00 X26.621 Y3.083  F3000.0
G01 Z-2.135 F500.0 M3
G01 X26.641 Y2.879 Z-2.040 F1500.0
G01 X26.659 Y2.592 Z-1.943
G01 X26.681 Y1.927 Z-1.815
G01 X26.692 Y1.093 Z-1.773
G01 X26.691 Y0.552 Z-1.810
G01 X26.696 Y0.418 Z-1.838
G01 X26.719 Y0.236 Z-1.938
G01 X26.699 Y0.116 Z-1.866
G01 X26.681 Y-0.068 Z-1.806
G01 X26.670 Y-0.377 Z-1.778
G01 X26.647 Y-1.975 Z-1.766
G01 X26.626 Y-2.584 Z-1.880
G01 X26.608 Y-2.837 Z-1.978
G01 X26.597 Y-2.970 Z-2.059
G01 X26.287 Y-3.187 Z-1.262
G01 X26.118 Y-3.278 Z-0.934
G01 X25.986 Y-3.333 Z-0.746
G01 X25.861 Y-3.372 Z-0.616
G01 X25.739 Y-3.399 Z-0.532
G01 X25.320 Y-3.452 Z-0.386
G01 X25.213 Y-3.456 Z-0.314
G01 X25.178 Y-3.377 Z0.000
G01 X25.213 Y-3.456 Z-0.314
G01 X25.136 Y-3.407 Z0.000
G01 X25.201 Y-3.454 Z-0.286
G01 X25.122 Y-3.453 Z0.000
G01 X25.203 Y-3.455 Z-0.292
G01 X25.134 Y-3.499 Z0.000
G01 X25.213 Y-3.456 Z-0.314
G01 X25.171 Y-3.531 Z0.000
G01 X25.213 Y-3.456 Z-0.314
G01 X25.320 Y-3.452 Z-0.386
G01 X25.762 Y-3.394 Z-0.545
G01 X25.891 Y-3.364 Z-0.643
G01 X26.024 Y-3.318 Z-0.794
G01 X26.178 Y-3.248 Z-1.039
G01 X26.355 Y-3.144 Z-1.419
G01 X26.597 Y-2.970 Z-2.059
G01 X26.869 Y-3.192 Z-1.215
G01 X27.011 Y-3.269 Z-0.922
G01 X27.164 Y-3.323 Z-0.715
G01 X27.468 Y-3.376 Z-0.502
G01 X27.833 Y-3.407 Z-0.421
G01 X28.346 Y-3.423 Z-0.425
G01 X28.663 Y-3.418 Z-0.479
G01 X28.841 Y-3.403 Z-0.510
G01 X29.062 Y-3.368 Z-0.576
G01 X29.271 Y-3.315 Z-0.668
G01 X29.477 Y-3.234 Z-0.801
G01 X29.687 Y-3.119 Z-0.978
G01 X29.895 Y-2.965 Z-1.181
G01 X29.974 Y-2.895 Z-1.271
G01 X30.106 Y-2.761 Z-1.396
G01 X30.261 Y-2.557 Z-1.552
G01 X30.421 Y-2.270 Z-1.753
G01 X30.506 Y-2.046 Z-1.892
G01 X30.562 Y-1.796 Z-1.986
G01 X30.575 Y-1.675 Z-2.010
G01 X30.575 Y-1.434 Z-2.010
G01 X30.545 Y-1.221 Z-1.961
G01 X30.486 Y-1.018 Z-1.858
G01 X30.388 Y-0.806 Z-1.692
G01 X30.232 Y-0.575 Z-1.460
G01 X30.005 Y-0.337 Z-1.168
G01 X29.815 Y-0.183 Z-0.998
G01 X29.648 Y-0.079 Z-0.878
G01 X29.315 Y0.080 Z-0.734
G01 X29.106 Y0.155 Z-0.693
G01 X29.033 Y0.177 Z-0.692
G01 X28.957 Y0.210 Z-0.726
G01 X28.912 Y0.240 Z-0.784
G01 X28.833 Y0.307 Z-0.966
G01 X28.918 Y0.423 Z-0.681
G01 X28.947 Y0.450 Z-0.633
G01 X29.036 Y0.503 Z-0.587
G01 X29.235 Y0.593 Z-0.653
G01 X29.430 Y0.696 Z-0.771
G01 X29.595 Y0.811 Z-0.893
G01 X29.763 Y0.952 Z-1.073
G01 X29.939 Y1.142 Z-1.314
G01 X30.074 Y1.345 Z-1.529
G01 X30.163 Y1.534 Z-1.681
G01 X30.220 Y1.730 Z-1.791
G01 X30.246 Y1.896 Z-1.855
G01 X30.255 Y2.107 Z-1.885
G01 X30.231 Y2.353 Z-1.875
G01 X30.174 Y2.566 Z-1.812
G01 X30.080 Y2.767 Z-1.689
G01 X29.924 Y2.983 Z-1.485
G01 X29.746 Y3.155 Z-1.281
G01 X29.559 Y3.288 Z-1.105
G01 X29.398 Y3.375 Z-0.974
G01 X29.111 Y3.490 Z-0.762
G01 X29.020 Y3.516 Z-0.719
G01 X28.790 Y3.567 Z-0.573
G01 X28.560 Y3.598 Z-0.500
G01 X28.460 Y3.606 Z-0.453
G01 X28.115 Y3.609 Z-0.384
G01 X27.897 Y3.598 Z-0.388
G01 X27.664 Y3.576 Z-0.431
G01 X27.334 Y3.529 Z-0.548
G01 X27.153 Y3.501 Z-0.634
G01 X27.078 Y3.480 Z-0.703
G01 X26.973 Y3.422 Z-0.907
G01 X26.621 Y3.083 Z-2.135
G01 X26.290 Y3.314 Z-1.255
G01 X26.096 Y3.418 Z-0.876
G01 X25.946 Y3.471 Z-0.681
G01 X25.796 Y3.507 Z-0.552
G01 X25.630 Y3.534 Z-0.461
G01 X25.432 Y3.555 Z-0.388
G01 X25.357 Y3.562 Z-0.315
G01 X25.310 Y3.634 Z0.000
G01 X25.357 Y3.562 Z-0.315
G01 X25.280 Y3.603 Z0.000
G01 X25.358 Y3.561 Z-0.319
G01 X25.270 Y3.560 Z0.000
G01 X25.359 Y3.561 Z-0.323
G01 X25.281 Y3.519 Z0.000
G01 X25.358 Y3.560 Z-0.318
G01 X25.310 Y3.486 Z0.000
G01 X25.359 Y3.561 Z-0.323
G01 X25.456 Y3.551 Z-0.402
G01 X25.644 Y3.532 Z-0.468
G01 X25.821 Y3.502 Z-0.570
G01 X25.992 Y3.457 Z-0.732
G01 X26.175 Y3.380 Z-1.013
G01 X26.415 Y3.230 Z-1.564
G01 X26.621 Y3.083 Z-2.135
G00 Z5.000
G01 Z-2.135 F500.0 M3
G01 X26.973 Y3.422 Z-0.907 F1500.0
G01 X27.078 Y3.480 Z-0.703
G01 X27.153 Y3.501 Z-0.634
G01 X27.423 Y3.544 Z-0.509
G01 X27.673 Y3.577 Z-0.429
G01 X27.906 Y3.599 Z-0.387
G01 X28.127 Y3.609 Z-0.385
G01 X28.480 Y3.605 Z-0.460
G01 X28.560 Y3.598 Z-0.500
G01 X28.817 Y3.562 Z-0.586
G01 X29.020 Y3.516 Z-0.719
G01 X29.148 Y3.478 Z-0.786
G01 X29.463 Y3.343 Z-1.017
G01 X29.626 Y3.244 Z-1.161
G01 X29.823 Y3.087 Z-1.371
G01 X30.019 Y2.863 Z-1.605
G01 X30.133 Y2.667 Z-1.755
G01 X30.174 Y2.566 Z-1.812
G01 X30.231 Y2.353 Z-1.875
G01 X30.255 Y2.107 Z-1.885
G01 X30.246 Y1.896 Z-1.855
G01 X30.216 Y1.711 Z-1.787
G01 X30.142 Y1.486 Z-1.640
G01 X30.055 Y1.313 Z-1.490
G01 X29.919 Y1.118 Z-1.279
G01 X29.729 Y0.918 Z-1.038
G01 X29.567 Y0.790 Z-0.868
G01 X29.396 Y0.677 Z-0.745
G01 X29.218 Y0.585 Z-0.645
G01 X29.024 Y0.498 Z-0.586
G01 X28.947 Y0.450 Z-0.633
G01 X28.869 Y0.362 Z-0.816
G01 X28.833 Y0.307 Z-0.966
G01 X28.664 Y0.295 Z-0.800
G01 X28.435 Y0.280 Z-0.634
G01 X27.968 Y0.253 Z-0.451
G01 X27.468 Y0.229 Z-0.444
G01 X27.260 Y0.230 Z-0.508
G01 X27.165 Y0.240 Z-0.596
G01 X27.079 Y0.240 Z-0.768
G01 X26.719 Y0.236 Z-1.938
G01 X26.696 Y0.418 Z-1.838
G01 X26.690 Y0.590 Z-1.804
G01 X26.692 Y1.116 Z-1.773
G01 X26.681 Y1.956 Z-1.819
G01 X26.657 Y2.628 Z-1.953
G01 X26.638 Y2.919 Z-2.056
G01 X26.621 Y3.083 Z-2.135
G00 Z5.000
G00 X26.597 Y-2.970  F3000.0
G01 Z-2.059 F500.0 M3
G01 X26.612 Y-2.782 Z-1.951 F1500.0
G01 X26.628 Y-2.540 Z-1.868
G01 X26.648 Y-1.943 Z-1.765
G01 X26.671 Y-0.356 Z-1.779
G01 X26.686 Y0.008 Z-1.824
G01 X26.712 Y0.202 Z-1.914
G01 X26.719 Y0.236 Z-1.938
G01 X27.079 Y0.240 Z-0.768
G01 X27.165 Y0.240 Z-0.596
G01 X27.300 Y0.227 Z-0.487
G01 X27.481 Y0.229 Z-0.442
G01 X27.987 Y0.254 Z-0.455
G01 X28.475 Y0.284 Z-0.657
G01 X28.715 Y0.300 Z-0.845
G01 X28.833 Y0.307 Z-0.966
G01 X28.927 Y0.229 Z-0.761
G01 X28.957 Y0.210 Z-0.726
G01 X29.034 Y0.177 Z-0.692
G01 X29.123 Y0.149 Z-0.695
G01 X29.315 Y0.080 Z-0.734
G01 X29.648 Y-0.079 Z-0.878
G01 X29.854 Y-0.210 Z-1.035
G01 X30.005 Y-0.337 Z-1.168
G01 X30.232 Y-0.575 Z-1.460
G01 X30.397 Y-0.822 Z-1.704
G01 X30.495 Y-1.043 Z-1.870
G01 X30.545 Y-1.221 Z-1.961
G01 X30.575 Y-1.434 Z-2.010
G01 X30.575 Y-1.675 Z-2.010
G01 X30.562 Y-1.796 Z-1.986
G01 X30.506 Y-2.046 Z-1.892
G01 X30.421 Y-2.270 Z-1.753
G01 X30.261 Y-2.557 Z-1.552
G01 X30.104 Y-2.764 Z-1.394
G01 X29.974 Y-2.895 Z-1.271
G01 X29.824 Y-3.023 Z-1.118
G01 X29.647 Y-3.144 Z-0.947
G01 X29.442 Y-3.251 Z-0.779
G01 X29.243 Y-3.324 Z-0.654
G01 X29.043 Y-3.372 Z-0.569
G01 X28.827 Y-3.405 Z-0.506
G01 X28.593 Y-3.421 Z-0.459
G01 X28.338 Y-3.423 Z-0.425
G01 X27.820 Y-3.406 Z-0.422
G01 X27.468 Y-3.376 Z-0.502
G01 X27.164 Y-3.323 Z-0.715
G01 X27.011 Y-3.269 Z-0.922
G01 X26.869 Y-3.192 Z-1.215
G01 X26.597 Y-2.970 Z-2.059
G00 Z5.000
G00 X33.028 Y3.383  F3000.0
G01 Z-1.845 F500.0 M3
G01 X33.217 Y3.621 Z-1.117 F1500.0
G01 X33.426 Y3.908 Z-0.309
G01 X33.507 Y3.991 Z0.000
G01 X33.426 Y3.908 Z-0.309
G01 X33.196 Y3.594 Z-1.198
G01 X33.028 Y3.383 Z-1.845
G01 X32.752 Y3.493 Z-1.262
G01 X32.501 Y3.566 Z-0.864
G01 X32.323 Y3.601 Z-0.658
G01 X32.148 Y3.624 Z-0.516
G01 X31.864 Y3.643 Z-0.336
G01 X31.830 Y3.642 Z-0.293
G01 X31.787 Y3.709 Z0.000
G01 X31.830 Y3.642 Z-0.293
G01 X31.754 Y3.678 Z0.000
G01 X31.817 Y3.641 Z-0.262
G01 X31.743 Y3.637 Z0.000
G01 X31.814 Y3.640 Z-0.251
G01 X31.757 Y3.599 Z0.000
G01 X31.834 Y3.641 Z-0.301
G01 X31.797 Y3.568 Z0.000
G01 X31.834 Y3.641 Z-0.301
G01 X31.984 Y3.634 Z-0.423
G01 X32.168 Y3.622 Z-0.530
G01 X32.353 Y3.596 Z-0.688
G01 X32.547 Y3.555 Z-0.927
G01 X32.752 Y3.493 Z-1.262
G01 X33.028 Y3.383 Z-1.845
G01 X33.072 Y3.216 Z-1.698
G01 X33.108 Y3.014 Z-1.581
G01 X33.129 Y2.812 Z-1.524
G01 X33.148 Y2.204 Z-1.476
G01 X33.172 Y-0.781 Z-1.416
G01 X33.192 Y-2.115 Z-1.437
G01 X33.191 Y-2.453 Z-1.468
G01 X33.185 Y-2.714 Z-1.549
G01 X33.179 Y-2.943 Z-1.705
G01 X33.180 Y-3.009 Z-1.765
G01 X32.867 Y-3.212 Z-0.996
G01 X32.652 Y-3.315 Z-0.640
G01 X32.453 Y-3.374 Z-0.447
G01 X32.244 Y-3.416 Z-0.379
G01 X32.020 Y-3.436 Z-0.376
G01 X31.970 Y-3.437 Z-0.353
G01 X31.949 Y-3.435 Z-0.318
G01 X31.898 Y-3.365 Z0.000
G01 X31.949 Y-3.435 Z-0.318
G01 X31.871 Y-3.396 Z0.000
G01 X31.951 Y-3.437 Z-0.325
G01 X31.862 Y-3.438 Z0.000
G01 X31.952 Y-3.437 Z-0.329
G01 X31.872 Y-3.482 Z0.000
G01 X31.951 Y-3.438 Z-0.325
G01 X31.903 Y-3.513 Z0.000
G01 X31.952 Y-3.437 Z-0.329
G01 X31.975 Y-3.437 Z-0.357
G01 X32.027 Y-3.436 Z-0.378
G01 X32.264 Y-3.413 Z-0.382
G01 X32.466 Y-3.371 Z-0.453
G01 X32.652 Y-3.315 Z-0.640
G01 X32.901 Y-3.194 Z-1.061
G01 X33.180 Y-3.009 Z-1.765
G01 X33.344 Y-3.130 Z-1.322
G01 X33.550 Y-3.252 Z-0.875
G01 X33.725 Y-3.328 Z-0.617
G01 X33.895 Y-3.377 Z-0.474
G01 X34.081 Y-3.409 Z-0.393
G01 X34.329 Y-3.437 Z-0.345
G01 X34.391 Y-3.440 Z-0.293
G01 X34.437 Y-3.506 Z0.000
G01 X34.391 Y-3.440 Z-0.293
G01 X34.463 Y-3.477 Z0.000
G01 X34.391 Y-3.439 Z-0.293
G01 X34.472 Y-3.436 Z0.000
G01 X34.393 Y-3.439 Z-0.286
G01 X34.461 Y-3.397 Z0.000
G01 X34.389 Y-3.439 Z-0.297
G01 X34.428 Y-3.367 Z0.000
G01 X34.389 Y-3.439 Z-0.297
G01 X34.329 Y-3.437 Z-0.345
G01 X34.064 Y-3.407 Z-0.398
G01 X33.867 Y-3.370 Z-0.492
G01 X33.675 Y-3.308 Z-0.678
G01 X33.476 Y-3.213 Z-1.017
G01 X33.274 Y-3.081 Z-1.500
G01 X33.180 Y-3.009 Z-1.765
G01 X33.184 Y-2.762 Z-1.576
G01 X33.185 Y-2.653 Z-1.525
G01 X33.191 Y-2.422 Z-1.462
G01 X33.192 Y-2.101 Z-1.436
G01 X33.172 Y-0.774 Z-1.416
G01 X33.148 Y2.218 Z-1.477
G01 X33.129 Y2.812 Z-1.524
G01 X33.098 Y3.081 Z-1.613
G01 X33.053 Y3.294 Z-1.759
G01 X33.028 Y3.383 Z-1.845
G00 Z5.000
G00 X38.375 Y-3.053  F3000.0
G01 Z-1.629 F500.0 M3
G01 X38.257 Y-3.179 Z-1.059 F1500.0
G01 X38.375 Y-3.053 Z-1.629
G01 X38.601 Y-3.198 Z-1.086
G01 X38.815 Y-3.292 Z-0.708
G01 X38.998 Y-3.331 Z-0.509
G01 X39.159 Y-3.332 Z-0.430
G01 X39.312 Y-3.308 Z-0.407
G01 X39.399 Y-3.289 Z-0.356
G01 X39.431 Y-3.281 Z-0.301
G01 X39.500 Y-3.328 Z0.000
G01 X39.431 Y-3.281 Z-0.301
G01 X39.517 Y-3.279 Z0.000
G01 X39.443 Y-3.274 Z-0.267
G01 X39.509 Y-3.239 Z0.000
G01 X39.450 Y-3.267 Z-0.235
G01 X39.485 Y-3.211 Z0.000
G01 X39.431 Y-3.281 Z-0.301
G01 X39.385 Y-3.290 Z-0.373
G01 X39.391 Y-3.189 Z0.000
G01 X39.385 Y-3.290 Z-0.373
G01 X39.311 Y-3.309 Z-0.408
G01 X39.159 Y-3.332 Z-0.430
G01 X38.998 Y-3.331 Z-0.509
G01 X38.815 Y-3.292 Z-0.708
G01 X38.601 Y-3.198 Z-1.086
G01 X38.375 Y-3.053 Z-1.629
G01 X38.321 Y-2.751 Z-1.545
G01 X38.315 Y-2.700 Z-1.537
G01 X38.286 Y-2.562 Z-1.582
G01 X38.266 Y-2.505 Z-1.627
G01 X38.276 Y-2.408 Z-1.555
G01 X38.294 Y-2.161 Z-1.449
G01 X38.301 Y-1.891 Z-1.381
G01 X38.301 Y-1.597 Z-1.356
G01 X38.298 Y-1.117 Z-1.395
G01 X38.287 Y-0.601 Z-1.470
G01 X38.269 Y-0.452 Z-1.545
G01 X38.300 Y-0.191 Z-1.431
G01 X38.301 Y0.007 Z-1.394
G01 X38.281 Y0.291 Z-1.406
G01 X38.257 Y0.416 Z-1.420
G01 X38.236 Y0.494 Z-1.405
G01 X38.185 Y0.586 Z-1.336
G01 X38.038 Y0.754 Z-1.095
G01 X37.847 Y0.905 Z-0.844
G01 X37.648 Y1.007 Z-0.641
G01 X37.454 Y1.068 Z-0.501
G01 X37.252 Y1.100 Z-0.419
G01 X37.038 Y1.108 Z-0.389
G01 X36.862 Y1.097 Z-0.394
G01 X36.700 Y1.071 Z-0.432
G01 X36.549 Y1.026 Z-0.501
G01 X36.398 Y0.955 Z-0.631
G01 X36.250 Y0.851 Z-0.825
G01 X36.050 Y0.642 Z-1.182
G01 X35.941 Y0.482 Z-1.393
G01 X35.882 Y0.362 Z-1.505
G01 X35.852 Y0.276 Z-1.533
G01 X35.830 Y0.165 Z-1.496
G01 X35.818 Y0.137 Z-1.428
G01 X35.827 Y0.143 Z-1.466
G01 X35.854 Y0.043 Z-1.181
G01 X35.855 Y0.014 Z-1.076
G01 X35.845 Y0.069 Z-1.268
G01 X35.829 Y0.157 Z-1.486
G01 X35.832 Y0.184 Z-1.508
G01 X35.852 Y0.276 Z-1.533
G01 X35.882 Y0.362 Z-1.505
G01 X35.941 Y0.482 Z-1.393
G01 X36.050 Y0.642 Z-1.182
G01 X36.215 Y0.821 Z-0.889
G01 X36.288 Y0.880 Z-0.768
G01 X36.448 Y0.984 Z-0.588
G01 X36.576 Y1.035 Z-0.483
G01 X36.720 Y1.076 Z-0.427
G01 X36.877 Y1.098 Z-0.392
G01 X37.053 Y1.108 Z-0.391
G01 X37.274 Y1.098 Z-0.425
G01 X37.484 Y1.060 Z-0.517
G01 X37.690 Y0.988 Z-0.675
G01 X37.893 Y0.872 Z-0.896
G01 X38.038 Y0.754 Z-1.095
G01 X38.185 Y0.586 Z-1.336
G01 X38.238 Y0.489 Z-1.409
G01 X38.257 Y0.416 Z-1.420
G01 X38.287 Y0.237 Z-1.402
G01 X38.302 Y-0.044 Z-1.398
G01 X38.297 Y-0.256 Z-1.454
G01 X38.269 Y-0.452 Z-1.545
G01 X38.111 Y-0.461 Z-1.019
G01 X37.945 Y-0.496 Z-0.520
G01 X37.874 Y-0.527 Z-0.376
G01 X37.820 Y-0.577 Z-0.326
G01 X37.686 Y-0.695 Z-0.360
G01 X37.463 Y-0.834 Z-0.425
G01 X37.151 Y-0.991 Z-0.515
G01 X36.773 Y-1.165 Z-0.645
G01 X36.545 Y-1.278 Z-0.747
G01 X36.291 Y-1.421 Z-0.913
G01 X36.112 Y-1.544 Z-1.049
G01 X35.972 Y-1.664 Z-1.196
G01 X35.885 Y-1.771 Z-1.289
G01 X35.796 Y-1.919 Z-1.368
G01 X35.716 Y-2.115 Z-1.470
G01 X35.691 Y-2.232 Z-1.524
G01 X35.674 Y-2.465 Z-1.575
G01 X35.694 Y-2.640 Z-1.576
G01 X35.723 Y-2.743 Z-1.570
G01 X35.773 Y-2.858 Z-1.521
G01 X35.836 Y-2.955 Z-1.460
G01 X35.926 Y-3.057 Z-1.356
G01 X36.082 Y-3.176 Z-1.161
G01 X36.275 Y-3.270 Z-0.941
G01 X36.463 Y-3.325 Z-0.769
G01 X36.645 Y-3.346 Z-0.648
G01 X36.843 Y-3.336 Z-0.561
G01 X36.996 Y-3.306 Z-0.503
G01 X37.162 Y-3.250 Z-0.457
G01 X37.319 Y-3.173 Z-0.423
G01 X37.385 Y-3.133 Z-0.422
G01 X37.468 Y-3.074 Z-0.397
G01 X37.594 Y-2.966 Z-0.380
G01 X37.723 Y-2.827 Z-0.372
G01 X37.826 Y-2.686 Z-0.384
G01 X37.877 Y-2.631 Z-0.459
G01 X38.012 Y-2.564 Z-0.800
G01 X38.266 Y-2.505 Z-1.627
G01 X38.286 Y-2.562 Z-1.582
G01 X38.318 Y-2.726 Z-1.539
G01 X38.368 Y-3.030 Z-1.621
G01 X38.375 Y-3.053 Z-1.629
G00 Z5.000
G00 X38.266 Y-2.505  F3000.0
G01 Z-1.627 F500.0 M3
G01 X38.012 Y-2.564 Z-0.800 F1500.0
G01 X37.877 Y-2.631 Z-0.459
G01 X37.818 Y-2.698 Z-0.382
G01 X37.690 Y-2.866 Z-0.380
G01 X37.594 Y-2.966 Z-0.380
G01 X37.456 Y-3.082 Z-0.399
G01 X37.385 Y-3.133 Z-0.422
G01 X37.304 Y-3.181 Z-0.425
G01 X37.162 Y-3.250 Z-0.457
G01 X36.975 Y-3.310 Z-0.508
G01 X36.793 Y-3.341 Z-0.574
G01 X36.606 Y-3.344 Z-0.668
G01 X36.415 Y-3.315 Z-0.810
G01 X36.214 Y-3.247 Z-1.014
G01 X36.030 Y-3.142 Z-1.225
G01 X35.909 Y-3.039 Z-1.370
G01 X35.836 Y-2.955 Z-1.460
G01 X35.768 Y-2.851 Z-1.526
G01 X35.723 Y-2.743 Z-1.570
G01 X35.683 Y-2.569 Z-1.573
G01 X35.674 Y-2.465 Z-1.575
G01 X35.691 Y-2.232 Z-1.524
G01 X35.763 Y-1.993 Z-1.416
G01 X35.829 Y-1.857 Z-1.334
G01 X35.930 Y-1.711 Z-1.237
G01 X36.017 Y-1.622 Z-1.159
G01 X36.150 Y-1.516 Z-1.013
G01 X36.340 Y-1.391 Z-0.873
G01 X36.559 Y-1.271 Z-0.739
G01 X36.809 Y-1.147 Z-0.629
G01 X37.158 Y-0.988 Z-0.513
G01 X37.463 Y-0.834 Z-0.425
G01 X37.565 Y-0.774 Z-0.406
G01 X37.686 Y-0.695 Z-0.360
G01 X37.820 Y-0.577 Z-0.326
G01 X37.874 Y-0.527 Z-0.376
G01 X37.986 Y-0.484 Z-0.632
G01 X38.229 Y-0.453 Z-1.407
G01 X38.269 Y-0.452 Z-1.545
G01 X38.287 Y-0.601 Z-1.470
G01 X38.298 Y-1.131 Z-1.394
G01 X38.299 Y-1.697 Z-1.358
G01 X38.301 Y-1.919 Z-1.387
G01 X38.292 Y-2.199 Z-1.463
G01 X38.271 Y-2.465 Z-1.593
G01 X38.266 Y-2.505 Z-1.627
G00 Z5.000
G00 X40.476 Y-1.589  F3000.0
G01 Z-1.773 F500.0 M3
G01 X40.512 Y-1.755 Z-1.758 F1500.0
G01 X40.618 Y-2.078 Z-1.688
G01 X40.692 Y-2.238 Z-1.631
G01 X40.898 Y-2.574 Z-1.470
G01 X41.069 Y-2.781 Z-1.345
G01 X41.231 Y-2.936 Z-1.227
G01 X41.404 Y-3.068 Z-1.099
G01 X41.576 Y-3.169 Z-0.969
G01 X41.754 Y-3.246 Z-0.844
G01 X41.932 Y-3.300 Z-0.733
G01 X42.117 Y-3.334 Z-0.637
G01 X42.307 Y-3.346 Z-0.563
G01 X42.488 Y-3.337 Z-0.513
G01 X42.693 Y-3.303 Z-0.472
G01 X42.896 Y-3.236 Z-0.457
G01 X43.117 Y-3.124 Z-0.454
G01 X43.233 Y-3.042 Z-0.458
G01 X43.353 Y-2.944 Z-0.441
G01 X43.522 Y-2.765 Z-0.417
G01 X43.558 Y-2.720 Z-0.430
G01 X43.663 Y-2.558 Z-0.412
G01 X43.700 Y-2.488 Z-0.431
G01 X43.763 Y-2.332 Z-0.419
G01 X43.782 Y-2.260 Z-0.427
G01 X43.810 Y-2.115 Z-0.405
G01 X43.829 Y-2.019 Z-0.345
G01 X43.917 Y-1.980 Z0.000
G01 X43.841 Y-2.007 Z-0.295
G01 X43.898 Y-1.949 Z0.000
G01 X43.841 Y-2.007 Z-0.295
G01 X43.867 Y-1.931 Z0.000
G01 X43.829 Y-2.019 Z-0.345
G01 X43.824 Y-1.925 Z0.000
G01 X43.828 Y-2.021 Z-0.350
G01 X43.782 Y-1.936 Z0.000
G01 X43.825 Y-2.017 Z-0.334
G01 X43.748 Y-1.965 Z0.000
G01 X43.827 Y-2.027 Z-0.356
G01 X43.806 Y-2.143 Z-0.414
G01 X43.782 Y-2.260 Z-0.427
G01 X43.748 Y-2.376 Z-0.426
G01 X43.700 Y-2.488 Z-0.431
G01 X43.652 Y-2.576 Z-0.410
G01 X43.558 Y-2.720 Z-0.430
G01 X43.509 Y-2.780 Z-0.416
G01 X43.327 Y-2.966 Z-0.440
G01 X43.233 Y-3.042 Z-0.458
G01 X43.105 Y-3.131 Z-0.457
G01 X42.896 Y-3.236 Z-0.457
G01 X42.693 Y-3.303 Z-0.472
G01 X42.440 Y-3.342 Z-0.518
G01 X42.262 Y-3.345 Z-0.574
G01 X42.084 Y-3.329 Z-0.650
G01 X41.905 Y-3.294 Z-0.749
G01 X41.726 Y-3.236 Z-0.865
G01 X41.548 Y-3.155 Z-0.990
G01 X41.375 Y-3.048 Z-1.118
G01 X41.207 Y-2.915 Z-1.243
G01 X41.047 Y-2.757 Z-1.361
G01 X40.887 Y-2.559 Z-1.481
G01 X40.692 Y-2.238 Z-1.631
G01 X40.573 Y-1.959 Z-1.715
G01 X40.501 Y-1.712 Z-1.758
G01 X40.476 Y-1.589 Z-1.773
G01 X40.441 Y-1.234 Z-1.763
G01 X40.438 Y-1.027 Z-1.725
G01 X40.447 Y-0.827 Z-1.670
G01 X40.471 Y-0.632 Z-1.609
G01 X40.512 Y-0.410 Z-1.501
G01 X40.558 Y-0.248 Z-1.427
G01 X40.644 Y-0.002 Z-1.264
G01 X40.708 Y0.137 Z-1.184
G01 X40.822 Y0.352 Z-1.019
G01 X40.932 Y0.514 Z-0.911
G01 X41.063 Y0.679 Z-0.773
G01 X41.209 Y0.822 Z-0.655
G01 X41.370 Y0.943 Z-0.553
G01 X41.549 Y1.042 Z-0.468
G01 X41.736 Y1.110 Z-0.418
G01 X41.839 Y1.135 Z-0.390
G01 X41.993 Y1.158 Z-0.376
G01 X42.157 Y1.168 Z-0.376
G01 X42.326 Y1.156 Z-0.384
G01 X42.488 Y1.127 Z-0.432
G01 X42.647 Y1.076 Z-0.512
G01 X42.803 Y1.001 Z-0.629
G01 X42.961 Y0.902 Z-0.796
G01 X43.158 Y0.733 Z-1.062
G01 X43.321 Y0.549 Z-1.316
G01 X43.400 Y0.428 Z-1.423
G01 X43.443 Y0.342 Z-1.441
G01 X43.466 Y0.273 Z-1.401
G01 X43.480 Y0.200 Z-1.286
G01 X43.486 Y0.112 Z-1.031
G01 X43.489 Y0.122 Z-1.069
G01 X43.513 Y0.060 Z-0.835
G01 X43.487 Y0.169 Z-1.205
G01 X43.479 Y0.218 Z-1.321
G01 X43.819 Y0.101 Z0.000
G01 X43.479 Y0.218 Z-1.321
G01 X43.456 Y0.302 Z-1.429
G01 X43.425 Y0.382 Z-1.440
G01 X43.365 Y0.486 Z-1.383
G01 X43.240 Y0.644 Z-1.176
G01 X43.088 Y0.798 Z-0.953
G01 X42.934 Y0.922 Z-0.765
G01 X42.777 Y1.015 Z-0.608
G01 X42.623 Y1.085 Z-0.496
G01 X42.468 Y1.133 Z-0.426
G01 X42.308 Y1.158 Z-0.381
G01 X42.144 Y1.167 Z-0.375
G01 X41.940 Y1.152 Z-0.387
G01 X41.826 Y1.132 Z-0.393
G01 X41.677 Y1.091 Z-0.424
G01 X41.412 Y0.970 Z-0.524
G01 X41.209 Y0.822 Z-0.655
G01 X41.063 Y0.679 Z-0.773
G01 X40.932 Y0.514 Z-0.911
G01 X40.799 Y0.314 Z-1.047
G01 X40.708 Y0.137 Z-1.184
G01 X40.622 Y-0.055 Z-1.303
G01 X40.558 Y-0.248 Z-1.427
G01 X40.502 Y-0.455 Z-1.524
G01 X40.471 Y-0.632 Z-1.609
G01 X40.441 Y-0.917 Z-1.688
G01 X40.438 Y-1.027 Z-1.725
G01 X40.441 Y-1.234 Z-1.763
G01 X40.476 Y-1.589 Z-1.773
G00 Z5.000
G00 X45.586 Y3.490  F3000.0
G01 Z-1.760 F500.0 M3
G01 X45.801 Y3.735 Z-0.976 F1500.0
G01 X46.045 Y4.022 Z0.000
G01 X45.791 Y3.723 Z-1.015
G01 X45.586 Y3.490 Z-1.760
G01 X45.417 Y3.577 Z-1.350
G01 X45.214 Y3.662 Z-0.945
G01 X45.015 Y3.717 Z-0.657
G01 X44.826 Y3.747 Z-0.473
G01 X44.620 Y3.756 Z-0.322
G01 X44.552 Y3.754 Z-0.233
G01 X44.511 Y3.804 Z0.000
G01 X44.552 Y3.754 Z-0.233
G01 X44.483 Y3.762 Z0.000
G01 X44.538 Y3.752 Z-0.191
G01 X44.491 Y3.727 Z0.000
G01 X44.552 Y3.754 Z-0.234
G01 X44.517 Y3.699 Z0.000
G01 X44.552 Y3.754 Z-0.234
G01 X44.646 Y3.754 Z-0.346
G01 X44.852 Y3.744 Z-0.494
G01 X45.062 Y3.706 Z-0.717
G01 X45.294 Y3.632 Z-1.091
G01 X45.558 Y3.507 Z-1.685
G01 X45.586 Y3.490 Z-1.760
G01 X45.618 Y3.283 Z-1.622
G01 X45.642 Y3.035 Z-1.530
G01 X45.659 Y2.755 Z-1.489
G01 X45.694 Y1.050 Z-1.478
G01 X45.725 Y-1.113 Z-1.431
G01 X45.737 Y-1.236 Z-1.468
G01 X45.728 Y-1.394 Z-1.422
G01 X45.728 Y-1.677 Z-1.410
G01 X45.741 Y-2.261 Z-1.433
G01 X45.745 Y-2.569 Z-1.503
G01 X45.751 Y-2.712 Z-1.564
G01 X45.749 Y-2.857 Z-1.654
G01 X45.749 Y-2.937 Z-1.733
G01 X45.578 Y-3.055 Z-1.299
G01 X45.365 Y-3.175 Z-0.852
G01 X45.253 Y-3.226 Z-0.667
G01 X45.181 Y-3.249 Z-0.581
G01 X45.022 Y-3.281 Z-0.467
G01 X44.798 Y-3.300 Z-0.367
G01 X44.717 Y-3.305 Z-0.272
G01 X44.671 Y-3.244 Z0.000
G01 X44.717 Y-3.305 Z-0.272
G01 X44.647 Y-3.276 Z0.000
G01 X44.712 Y-3.306 Z-0.261
G01 X44.639 Y-3.315 Z0.000
G01 X44.709 Y-3.308 Z-0.249
G01 X44.657 Y-3.356 Z0.000
G01 X44.717 Y-3.305 Z-0.272
G01 X44.814 Y-3.300 Z-0.379
G01 X45.046 Y-3.277 Z-0.481
G01 X45.181 Y-3.249 Z-0.581
G01 X45.253 Y-3.226 Z-0.667
G01 X45.417 Y-3.149 Z-0.950
G01 X45.646 Y-3.011 Z-1.460
G01 X45.749 Y-2.937 Z-1.733
G01 X46.011 Y-3.115 Z-1.064
G01 X46.201 Y-3.207 Z-0.717
G01 X46.369 Y-3.261 Z-0.511
G01 X46.529 Y-3.289 Z-0.397
G01 X46.756 Y-3.295 Z-0.299
G01 X46.799 Y-3.299 Z-0.221
G01 X46.841 Y-3.346 Z0.000
G01 X46.799 Y-3.299 Z-0.221
G01 X46.862 Y-3.308 Z0.000
G01 X46.795 Y-3.297 Z-0.235
G01 X46.851 Y-3.265 Z0.000
G01 X46.780 Y-3.294 Z-0.265
G01 X46.819 Y-3.233 Z0.000
G01 X46.780 Y-3.294 Z-0.265
G01 X46.747 Y-3.294 Z-0.306
G01 X46.503 Y-3.286 Z-0.413
G01 X46.329 Y-3.250 Z-0.552
G01 X46.143 Y-3.182 Z-0.810
G01 X45.918 Y-3.058 Z-1.280
G01 X45.749 Y-2.937 Z-1.733
G01 X45.749 Y-2.845 Z-1.646
G01 X45.750 Y-2.657 Z-1.536
G01 X45.744 Y-2.536 Z-1.493
G01 X45.737 Y-2.146 Z-1.419
G01 X45.728 Y-1.663 Z-1.410
G01 X45.728 Y-1.357 Z-1.425
G01 X45.737 Y-1.236 Z-1.468
G01 X45.865 Y-1.235 Z-1.029
G01 X46.016 Y-1.234 Z-0.591
G01 X46.101 Y-1.223 Z-0.438
G01 X46.169 Y-1.190 Z-0.386
G01 X46.675 Y-0.817 Z-0.384
G01 X46.750 Y-0.780 Z-0.449
G01 X47.103 Y-0.731 Z-1.123
G01 X47.290 Y-0.716 Z-1.542
G01 X47.402 Y-0.793 Z-1.548
G01 X47.501 Y-0.881 Z-1.553
G01 X47.607 Y-0.995 Z-1.526
G01 X47.763 Y-1.211 Z-1.494
G01 X47.913 Y-1.492 Z-1.472
G01 X48.029 Y-1.778 Z-1.474
G01 X48.132 Y-2.121 Z-1.506
G01 X48.271 Y-2.729 Z-1.600
G01 X48.335 Y-2.912 Z-1.631
G01 X48.359 Y-2.955 Z-1.609
G01 X48.176 Y-3.387 Z0.000
G01 X48.359 Y-2.955 Z-1.609
G01 X48.612 Y-3.096 Z-1.077
G01 X48.803 Y-3.176 Z-0.775
G01 X48.975 Y-3.223 Z-0.595
G01 X49.157 Y-3.253 Z-0.480
G01 X49.364 Y-3.270 Z-0.409
G01 X49.600 Y-3.276 Z-0.361
G01 X49.692 Y-3.273 Z-0.265
G01 X49.750 Y-3.321 Z0.000
G01 X49.692 Y-3.273 Z-0.265
G01 X49.766 Y-3.277 Z0.000
G01 X49.694 Y-3.273 Z-0.258
G01 X49.756 Y-3.237 Z0.000
G01 X49.688 Y-3.273 Z-0.273
G01 X49.725 Y-3.207 Z0.000
G01 X49.688 Y-3.273 Z-0.273
G01 X49.587 Y-3.275 Z-0.368
G01 X49.352 Y-3.270 Z-0.412
G01 X49.136 Y-3.250 Z-0.490
G01 X48.937 Y-3.214 Z-0.628
G01 X48.744 Y-3.154 Z-0.857
G01 X48.553 Y-3.066 Z-1.190
G01 X48.359 Y-2.955 Z-1.609
G01 X48.323 Y-2.885 Z-1.633
G01 X48.266 Y-2.711 Z-1.600
G01 X48.114 Y-2.056 Z-1.493
G01 X48.014 Y-1.738 Z-1.470
G01 X47.891 Y-1.447 Z-1.473
G01 X47.743 Y-1.181 Z-1.497
G01 X47.607 Y-0.995 Z-1.526
G01 X47.501 Y-0.881 Z-1.553
