%
( jobb3 ) ( File created: Saturday August 24 2024 - 01:57 PM)
( for LinuxCNC )
( Material Size) ( X= 1300.000, Y= 200.000, Z= 20.000)
G90 (Incremental distance mode)
G17 G21 (Active Plane: XY)(Metric Mode)
G40 G49 G80(Tool Diameter, Length compensation & canned cycles OFF)
G64 P0.05 Q0.05(Path Blending)
M600
G90 (absolute distance mode)
G54 (Coordinate System)
S18000M3
G00 Z5.000
G4 P6
( V-Carve 1 )
G00 X64.244 Y95.690 Z5.000 F4000.0
G01 Z-5.154 F200.0 M3
G01 X64.130 Y96.566 Z-5.142 F2000.0
G01 X63.941 Y97.443 Z-5.106
G01 X63.726 Y98.163 Z-5.057
G01 X63.436 Y98.937 Z-4.973
G01 X63.065 Y99.729 Z-4.860
G01 X62.604 Y100.539 Z-4.718
G01 X62.280 Y101.043 Z-4.612
G01 X61.841 Y101.651 Z-4.474
G01 X61.377 Y102.211 Z-4.317
G01 X60.759 Y102.868 Z-4.098
G01 X60.113 Y103.468 Z-3.879
G01 X59.286 Y104.139 Z-3.609
G01 X58.724 Y104.544 Z-3.437
G01 X57.766 Y105.162 Z-3.166
G01 X57.098 Y105.543 Z-2.990
G01 X56.079 Y106.063 Z-2.745
G01 X55.254 Y106.434 Z-2.566
G01 X54.850 Y106.629 Z-2.503
G01 X54.390 Y106.897 Z-2.490
G01 X54.045 Y107.138 Z-2.525
G01 X53.810 Y107.326 Z-2.573
G01 X53.573 Y107.534 Z-2.646
G01 X53.323 Y107.780 Z-2.748
G01 X52.917 Y108.238 Z-2.982
G01 X52.643 Y108.594 Z-3.192
G01 X52.345 Y109.032 Z-3.472
G01 X52.696 Y109.526 Z-3.175
G01 X53.068 Y109.982 Z-2.940
G01 X53.447 Y110.384 Z-2.775
G01 X53.831 Y110.734 Z-2.677
G01 X54.102 Y110.950 Z-2.643
G01 X54.528 Y111.248 Z-2.645
G01 X54.980 Y111.514 Z-2.708
G01 X55.905 Y112.051 Z-2.908
G01 X56.701 Y112.583 Z-3.099
G01 X57.420 Y113.130 Z-3.289
G01 X58.195 Y113.805 Z-3.506
G01 X58.868 Y114.481 Z-3.704
G01 X59.491 Y115.207 Z-3.894
G01 X59.945 Y115.816 Z-4.036
G01 X60.375 Y116.473 Z-4.165
G01 X60.842 Y117.321 Z-4.303
G01 X61.227 Y118.170 Z-4.419
G01 X61.467 Y118.833 Z-4.494
G01 X61.663 Y119.489 Z-4.548
G01 X61.830 Y120.231 Z-4.592
G01 X61.925 Y120.835 Z-4.617
G01 X62.007 Y121.664 Z-4.627
G01 X62.029 Y122.507 Z-4.622
G01 X61.992 Y123.425 Z-4.602
G01 X61.893 Y124.305 Z-4.565
G01 X61.729 Y125.172 Z-4.511
G01 X61.478 Y126.092 Z-4.430
G01 X61.188 Y126.895 Z-4.340
G01 X60.823 Y127.713 Z-4.231
G01 X60.327 Y128.623 Z-4.091
G01 X59.836 Y129.386 Z-3.961
G01 X59.358 Y130.028 Z-3.834
G01 X58.812 Y130.673 Z-3.695
G01 X58.134 Y131.373 Z-3.529
G01 X57.616 Y131.849 Z-3.401
G01 X56.783 Y132.530 Z-3.209
G01 X56.270 Y132.908 Z-3.092
G01 X55.614 Y133.350 Z-2.946
G01 X54.880 Y133.799 Z-2.789
G01 X53.883 Y134.337 Z-2.595
G01 X53.199 Y134.663 Z-2.471
G01 X52.487 Y134.969 Z-2.351
G01 X51.464 Y135.349 Z-2.197
G01 X50.341 Y135.700 Z-2.046
G01 X49.108 Y136.015 Z-1.902
G01 X48.320 Y136.181 Z-1.820
G01 X47.429 Y136.343 Z-1.744
G01 X46.321 Y136.506 Z-1.666
G01 X44.775 Y136.673 Z-1.580
G01 X43.131 Y136.781 Z-1.522
G01 X41.384 Y136.831 Z-1.488
G01 X39.438 Y136.828 Z-1.491
G01 X38.327 Y136.804 Z-1.515
G01 X37.237 Y136.764 Z-1.555
G01 X36.169 Y136.707 Z-1.612
G01 X35.118 Y136.633 Z-1.685
G01 X34.085 Y136.543 Z-1.776
G01 X33.065 Y136.435 Z-1.884
G01 X31.937 Y136.289 Z-2.030
G01 X31.536 Y136.198 Z-2.121
G01 X31.164 Y136.077 Z-2.242
G01 X30.868 Y135.955 Z-2.363
G01 X30.391 Y135.713 Z-2.605
G01 X29.824 Y135.350 Z-2.969
G01 X29.502 Y135.107 Z-3.211
G01 X28.942 Y134.623 Z-3.696
G01 X28.108 Y133.797 Z-4.522
G01 X26.996 Y134.642 Z-3.677
G01 X26.117 Y135.244 Z-3.074
G01 X25.367 Y135.701 Z-2.618
G01 X24.598 Y136.101 Z-2.218
G01 X23.952 Y136.383 Z-1.936
G01 X23.095 Y136.703 Z-1.615
G01 X22.270 Y136.954 Z-1.364
G01 X21.465 Y137.148 Z-1.171
G01 X20.664 Y137.293 Z-1.025
G01 X19.853 Y137.397 Z-0.921
G01 X19.019 Y137.464 Z-0.855
G01 X18.153 Y137.496 Z-0.822
G01 X16.280 Y137.500 Z-0.819
G01 X15.462 Y138.319 Z0.000
G01 X16.280 Y137.500 Z-0.819
G01 X15.462 Y136.681 Z0.000
G01 X16.280 Y137.500 Z-0.819
G01 X18.184 Y137.496 Z-0.823
G01 X19.056 Y137.462 Z-0.857
G01 X19.897 Y137.393 Z-0.926
G01 X20.718 Y137.285 Z-1.034
G01 X21.532 Y137.134 Z-1.185
G01 X22.353 Y136.931 Z-1.387
G01 X23.196 Y136.668 Z-1.650
G01 X24.074 Y136.333 Z-1.986
G01 X24.850 Y135.978 Z-2.340
G01 X25.600 Y135.565 Z-2.753
G01 X26.438 Y135.032 Z-3.287
G01 X27.197 Y134.495 Z-3.824
G01 X28.108 Y133.797 Z-4.522
G01 X28.198 Y132.898 Z-4.432
G01 X28.283 Y131.707 Z-4.347
G01 X28.339 Y130.444 Z-4.291
G01 X28.372 Y129.093 Z-4.258
G01 X28.382 Y127.699 Z-4.248
G01 X28.382 Y111.327 
G01 X28.413 Y110.608 Z-4.278
G01 X28.443 Y110.310 Z-4.309
G01 X28.504 Y109.888 Z-4.370
G01 X28.626 Y109.292 Z-4.492
G01 X28.504 Y108.696 Z-4.370
G01 X28.443 Y108.274 Z-4.309
G01 X28.397 Y107.765 Z-4.263
G01 X28.382 Y107.257 Z-4.248
G01 X28.382 Y88.882 Z-4.248
G01 X28.372 Y87.547 Z-4.258
G01 X28.344 Y86.291 Z-4.286
G01 X28.294 Y85.101 Z-4.337
G01 X28.218 Y83.961 Z-4.412
G01 X28.108 Y82.840 Z-4.522
G01 X27.144 Y82.107 Z-3.788
G01 X26.353 Y81.558 Z-3.240
G01 X25.648 Y81.120 Z-2.802
G01 X25.153 Y80.847 Z-2.528
G01 X24.280 Y80.424 Z-2.105
G01 X23.650 Y80.158 Z-1.839
G01 X22.826 Y79.862 Z-1.543
G01 X22.269 Y79.693 Z-1.375
G01 X21.459 Y79.494 Z-1.176
G01 X20.562 Y79.331 Z-1.013
G01 X19.607 Y79.217 Z-0.899
G01 X18.678 Y79.157 Z-0.838
G01 X17.719 Y79.137 Z-0.819
G01 X16.280 Y79.137 
G01 X15.462 Y79.956 Z0.000
G01 X16.280 Y79.137 Z-0.819
G01 X15.462 Y78.319 Z0.000
G01 X16.280 Y79.137 Z-0.819
G01 X18.232 Y79.143 Z-0.824
G01 X19.190 Y79.185 Z-0.866
G01 X20.111 Y79.270 Z-0.952
G01 X21.011 Y79.406 Z-1.087
G01 X21.825 Y79.578 Z-1.259
G01 X22.364 Y79.720 Z-1.402
G01 X23.179 Y79.981 Z-1.663
G01 X23.782 Y80.211 Z-1.892
G01 X24.635 Y80.588 Z-2.269
G01 X25.407 Y80.983 Z-2.665
G01 X26.138 Y81.419 Z-3.101
G01 X26.839 Y81.888 Z-3.570
G01 X27.425 Y82.315 Z-3.996
G01 X28.108 Y82.840 Z-4.522
G01 X28.570 Y82.387 Z-4.068
G01 X29.190 Y81.851 Z-3.533
G01 X29.546 Y81.583 Z-3.265
G01 X29.949 Y81.316 Z-2.997
G01 X30.424 Y81.048 Z-2.729
G01 X30.706 Y80.914 Z-2.595
G01 X31.229 Y80.713 Z-2.394
G01 X31.736 Y80.579 Z-2.260
G01 X32.162 Y80.512 Z-2.193
G01 X33.529 Y80.365 Z-2.046
G01 X34.882 Y80.238 Z-1.919
G01 X36.223 Y80.131 Z-1.812
G01 X37.552 Y80.043 Z-1.725
G01 X38.872 Y79.976 Z-1.657
G01 X40.183 Y79.928 Z-1.609
G01 X41.487 Y79.899 Z-1.580
G01 X42.785 Y79.889 Z-1.571
G01 X43.819 Y79.897 Z-1.578
G01 X45.007 Y79.930 Z-1.604
G01 X46.191 Y79.993 Z-1.646
G01 X47.710 Y80.121 Z-1.720
G01 X48.628 Y80.229 Z-1.783
G01 X49.529 Y80.359 Z-1.857
G01 X50.481 Y80.526 Z-1.950
G01 X51.437 Y80.727 Z-2.059
G01 X52.343 Y80.951 Z-2.179
G01 X53.199 Y81.196 Z-2.307
G01 X54.004 Y81.458 Z-2.440
G01 X54.756 Y81.736 Z-2.577
G01 X55.455 Y82.023 Z-2.713
G01 X56.245 Y82.390 Z-2.880
G01 X57.222 Y82.914 Z-3.103
G01 X57.750 Y83.232 Z-3.223
G01 X58.610 Y83.815 Z-3.426
G01 X59.143 Y84.218 Z-3.552
G01 X59.809 Y84.776 Z-3.716
G01 X60.508 Y85.444 Z-3.893
G01 X61.136 Y86.132 Z-4.056
G01 X61.700 Y86.843 Z-4.206
G01 X62.208 Y87.582 Z-4.346
G01 X62.666 Y88.356 Z-4.478
G01 X63.082 Y89.183 Z-4.607
G01 X63.435 Y90.008 Z-4.729
G01 X63.716 Y90.797 Z-4.835
G01 X63.934 Y91.552 Z-4.926
G01 X64.100 Y92.300 Z-5.002
G01 X64.234 Y93.199 Z-5.073
G01 X64.297 Y94.032 Z-5.118
G01 X64.291 Y95.028 Z-5.145
G01 X64.244 Y95.690 Z-5.154
G00 Z5.000
G01 Z-5.154 F200.0 M3
G01 X64.291 Y95.028 Z-5.145 F2000.0
G01 X64.297 Y94.032 Z-5.118
G01 X64.234 Y93.199 Z-5.073
G01 X64.097 Y92.279 Z-5.000
G01 X63.899 Y91.417 Z-4.909
G01 X63.586 Y90.406 Z-4.782
G01 X63.213 Y89.470 Z-4.648
G01 X62.833 Y88.670 Z-4.526
G01 X62.407 Y87.901 Z-4.400
G01 X61.935 Y87.168 Z-4.268
G01 X61.419 Y86.474 Z-4.129
G01 X60.831 Y85.784 Z-3.975
G01 X60.168 Y85.108 Z-3.807
G01 X59.430 Y84.451 Z-3.625
G01 X58.997 Y84.103 Z-3.517
G01 X58.167 Y83.505 Z-3.322
G01 X57.618 Y83.150 Z-3.192
G01 X56.688 Y82.618 Z-2.981
G01 X56.093 Y82.315 Z-2.847
G01 X55.301 Y81.957 Z-2.681
G01 X54.498 Y81.636 Z-2.526
G01 X53.687 Y81.350 Z-2.383
G01 X52.865 Y81.095 Z-2.252
G01 X52.032 Y80.870 Z-2.133
G01 X51.186 Y80.671 Z-2.027
G01 X50.327 Y80.497 Z-1.933
G01 X49.451 Y80.346 Z-1.850
G01 X48.428 Y80.203 Z-1.770
G01 X47.332 Y80.084 Z-1.701
G01 X45.756 Y79.966 Z-1.626
G01 X44.776 Y79.921 Z-1.597
G01 X43.772 Y79.897 Z-1.578
G01 X42.739 Y79.889 Z-1.571
G01 X41.440 Y79.899 Z-1.581
G01 X40.136 Y79.929 Z-1.610
G01 X38.824 Y79.978 Z-1.659
G01 X37.503 Y80.046 Z-1.728
G01 X36.172 Y80.134 Z-1.816
G01 X34.829 Y80.242 Z-1.924
G01 X33.473 Y80.370 Z-2.052
G01 X31.916 Y80.546 Z-2.227
G01 X31.455 Y80.646 Z-2.327
G01 X31.036 Y80.780 Z-2.461
G01 X30.706 Y80.914 Z-2.595
G01 X30.175 Y81.182 Z-2.863
G01 X29.949 Y81.316 Z-2.997
G01 X29.546 Y81.583 Z-3.265
G01 X29.190 Y81.851 Z-3.533
G01 X28.570 Y82.387 Z-4.068
G01 X28.108 Y82.840 Z-4.522
G01 X28.238 Y84.216 Z-4.392
G01 X28.304 Y85.299 Z-4.326
G01 X28.348 Y86.448 Z-4.282
G01 X28.374 Y87.676 Z-4.256
G01 X28.382 Y88.938 Z-4.248
G01 X28.382 Y107.257 
G01 X28.413 Y107.976 Z-4.278
G01 X28.443 Y108.274 Z-4.309
G01 X28.504 Y108.696 Z-4.370
G01 X28.626 Y109.292 Z-4.492
G01 X29.321 Y109.292 Z-3.885
G01 X30.060 Y109.292 Z-3.278
G01 X30.460 Y109.292 Z-2.975
G01 X31.144 Y109.292 Z-2.520
G01 X31.419 Y109.292 Z-2.368
G01 X31.752 Y109.292 Z-2.217
G01 X32.101 Y109.292 Z-2.103
G01 X33.214 Y109.283 Z-1.918
G01 X34.186 Y109.266 Z-1.801
G01 X35.720 Y109.239 Z-1.673
G01 X37.904 Y109.203 Z-1.571
G01 X40.491 Y109.183 Z-1.529
G01 X42.628 Y109.165 Z-1.567
G01 X44.369 Y109.142 Z-1.675
G01 X45.903 Y109.114 Z-1.839
G01 X46.982 Y109.089 Z-1.995
G01 X48.275 Y109.062 Z-2.238
G01 X49.554 Y109.040 Z-2.543
G01 X50.819 Y109.027 Z-2.917
G01 X51.944 Y109.027 Z-3.315
G01 X52.345 Y109.032 Z-3.472
G01 X52.643 Y108.594 Z-3.192
G01 X52.917 Y108.238 Z-2.982
G01 X53.323 Y107.780 Z-2.748
G01 X53.573 Y107.534 Z-2.646
G01 X53.878 Y107.270 Z-2.557
G01 X54.317 Y106.945 Z-2.493
G01 X54.505 Y106.824 Z-2.488
G01 X54.931 Y106.587 Z-2.512
G01 X55.504 Y106.326 Z-2.617
G01 X56.602 Y105.807 Z-2.868
G01 X57.647 Y105.232 Z-3.133
G01 X58.319 Y104.816 Z-3.320
G01 X58.854 Y104.454 Z-3.477
G01 X59.717 Y103.801 Z-3.747
G01 X60.476 Y103.140 Z-4.001
G01 X61.105 Y102.509 Z-4.223
G01 X61.623 Y101.927 Z-4.398
G01 X62.035 Y101.390 Z-4.538
G01 X62.447 Y100.789 Z-4.665
G01 X62.911 Y100.015 Z-4.811
G01 X63.260 Y99.326 Z-4.923
G01 X63.590 Y98.550 Z-5.017
G01 X63.850 Y97.776 Z-5.085
G01 X64.048 Y96.980 Z-5.131
G01 X64.180 Y96.244 Z-5.147
G01 X64.244 Y95.690 Z-5.154
G00 Z5.000
G00 X62.018 Y121.919  F4000.0
G01 Z-4.630 F200.0 M3
G01 X61.967 Y121.187 Z-4.624 F2000.0
G01 X61.877 Y120.491 Z-4.603
G01 X61.742 Y119.820 Z-4.572
G01 X61.562 Y119.129 Z-4.519
G01 X61.297 Y118.353 Z-4.440
G01 X60.927 Y117.497 Z-4.332
G01 X60.569 Y116.809 Z-4.225
G01 X60.140 Y116.099 Z-4.092
G01 X59.656 Y115.418 Z-3.944
G01 X59.167 Y114.820 Z-3.799
G01 X58.544 Y114.144 Z-3.607
G01 X57.821 Y113.467 Z-3.399
G01 X57.141 Y112.909 Z-3.212
G01 X56.359 Y112.346 Z-3.015
G01 X55.445 Y111.774 Z-2.805
G01 X54.735 Y111.377 Z-2.667
G01 X54.307 Y111.101 Z-2.637
G01 X54.020 Y110.887 Z-2.650
G01 X53.617 Y110.545 Z-2.723
G01 X53.229 Y110.159 Z-2.860
G01 X52.851 Y109.722 Z-3.067
G01 X52.479 Y109.227 Z-3.350
G01 X52.345 Y109.032 Z-3.472
G01 X51.320 Y109.025 Z-3.087
G01 X50.088 Y109.033 Z-2.692
G01 X48.825 Y109.053 Z-2.360
G01 X48.038 Y109.069 Z-2.190
G01 X46.640 Y109.099 Z-1.942
G01 X45.529 Y109.118 Z-1.791
G01 X44.096 Y109.144 Z-1.653
G01 X42.580 Y109.165 Z-1.565
G01 X40.449 Y109.183 Z-1.529
G01 X37.869 Y109.204 Z-1.572
G01 X35.677 Y109.240 Z-1.676
G01 X34.135 Y109.267 Z-1.806
G01 X32.968 Y109.288 Z-1.953
G01 X32.101 Y109.292 Z-2.103
G01 X31.752 Y109.292 Z-2.217
G01 X31.419 Y109.292 Z-2.368
G01 X30.899 Y109.292 Z-2.672
G01 X30.460 Y109.292 Z-2.975
G01 X30.060 Y109.292 Z-3.278
G01 X29.321 Y109.292 Z-3.885
G01 X28.626 Y109.292 Z-4.492
G01 X28.504 Y109.888 Z-4.370
G01 X28.443 Y110.310 Z-4.309
G01 X28.397 Y110.819 Z-4.263
G01 X28.382 Y111.327 Z-4.248
G01 X28.382 Y127.763 Z-4.248
G01 X28.370 Y129.242 Z-4.260
G01 X28.333 Y130.630 Z-4.297
G01 X28.268 Y131.943 Z-4.362
G01 X28.178 Y133.123 Z-4.452
G01 X28.108 Y133.797 Z-4.522
G01 X28.942 Y134.623 Z-3.696
G01 X29.502 Y135.107 Z-3.211
G01 X29.824 Y135.350 Z-2.969
G01 X30.391 Y135.713 Z-2.605
G01 X30.868 Y135.955 Z-2.363
G01 X31.336 Y136.137 Z-2.181
G01 X31.782 Y136.258 Z-2.060
G01 X32.138 Y136.319 Z-2.000
G01 X33.137 Y136.443 Z-1.876
G01 X34.150 Y136.549 Z-1.769
G01 X35.177 Y136.638 Z-1.680
G01 X36.222 Y136.710 Z-1.608
G01 X37.287 Y136.766 Z-1.553
G01 X38.373 Y136.805 Z-1.513
G01 X39.482 Y136.829 Z-1.490
G01 X41.384 Y136.831 Z-1.488
G01 X43.131 Y136.781 Z-1.522
G01 X44.775 Y136.673 Z-1.580
G01 X46.321 Y136.506 Z-1.666
G01 X47.767 Y136.285 Z-1.775
G01 X48.400 Y136.165 Z-1.828
G01 X49.280 Y135.975 Z-1.919
G01 X50.341 Y135.700 Z-2.046
G01 X51.464 Y135.349 Z-2.197
G01 X52.648 Y134.902 Z-2.376
G01 X53.454 Y134.545 Z-2.513
G01 X54.247 Y134.150 Z-2.662
G01 X55.145 Y133.642 Z-2.848
G01 X55.731 Y133.276 Z-2.972
G01 X56.429 Y132.794 Z-3.126
G01 X57.264 Y132.148 Z-3.321
G01 X57.751 Y131.730 Z-3.434
G01 X58.367 Y131.143 Z-3.584
G01 X58.950 Y130.519 Z-3.730
G01 X59.544 Y129.789 Z-3.884
G01 X59.993 Y129.154 Z-4.000
G01 X60.447 Y128.417 Z-4.124
G01 X60.853 Y127.648 Z-4.240
G01 X61.206 Y126.848 Z-4.346
G01 X61.499 Y126.021 Z-4.437
G01 X61.729 Y125.172 Z-4.511
G01 X61.893 Y124.305 Z-4.565
G01 X61.992 Y123.425 Z-4.602
G01 X62.029 Y122.507 Z-4.622
G01 X62.018 Y121.919 Z-4.630
G00 Z5.000
G00 X81.946 Y95.111  F4000.0
G01 Z-4.259 F200.0 M3
G01 X82.177 Y93.865 Z-4.248 F2000.0
G01 X82.469 Y92.649 Z-4.217
G01 X82.800 Y91.520 Z-4.171
G01 X83.139 Y90.544 Z-4.112
G01 X83.588 Y89.420 Z-4.031
G01 X83.988 Y88.544 Z-3.951
G01 X84.473 Y87.586 Z-3.854
G01 X85.016 Y86.621 Z-3.747
G01 X85.554 Y85.758 Z-3.638
G01 X86.160 Y84.882 Z-3.512
G01 X86.829 Y84.019 Z-3.368
G01 X87.493 Y83.261 Z-3.222
G01 X88.204 Y82.542 Z-3.066
G01 X88.939 Y81.888 Z-2.905
G01 X89.697 Y81.298 Z-2.741
G01 X90.471 Y80.773 Z-2.578
G01 X91.259 Y80.312 Z-2.420
G01 X92.056 Y79.914 Z-2.268
G01 X92.858 Y79.576 Z-2.127
G01 X93.663 Y79.297 Z-1.997
G01 X94.521 Y79.061 Z-1.876
G01 X95.276 Y78.904 Z-1.778
G01 X96.084 Y78.784 Z-1.691
G01 X96.893 Y78.708 Z-1.623
G01 X97.856 Y78.681 Z-1.561
G01 X98.510 Y78.698 Z-1.524
G01 X99.121 Y78.742 Z-1.498
G01 X99.735 Y78.814 Z-1.478
G01 X100.345 Y78.914 Z-1.466
G01 X100.945 Y79.043 Z-1.461
G01 X101.536 Y79.199 Z-1.464
G01 X102.116 Y79.383 Z-1.476
G01 X102.684 Y79.595 Z-1.496
G01 X103.241 Y79.835 Z-1.524
G01 X103.785 Y80.102 Z-1.560
G01 X104.317 Y80.394 Z-1.604
G01 X105.108 Y80.894 Z-1.683
G01 X105.831 Y81.422 Z-1.777
G01 X106.301 Y81.806 Z-1.845
G01 X106.750 Y82.207 Z-1.914
G01 X107.180 Y82.625 Z-1.986
G01 X107.641 Y83.121 Z-2.071
G01 X108.113 Y83.690 Z-2.172
G01 X108.693 Y84.487 Z-2.319
G01 X109.024 Y84.996 Z-2.409
G01 X109.405 Y85.646 Z-2.523
G01 X109.909 Y86.623 Z-2.695
G01 X110.173 Y87.198 Z-2.790
G01 X110.494 Y87.976 Z-2.915
G01 X110.874 Y89.024 Z-3.081
G01 X111.275 Y90.333 Z-3.275
G01 X111.615 Y91.653 Z-3.462
G01 X111.879 Y92.910 Z-3.632
G01 X112.087 Y94.144 Z-3.782
G01 X112.241 Y95.343 Z-3.909
G01 X112.343 Y96.512 Z-4.013
G01 X112.400 Y97.656 Z-4.093
G01 X112.408 Y98.855 Z-4.153
G01 X112.349 Y100.249 Z-4.196
G01 X112.238 Y101.475 Z-4.213
G01 X112.051 Y102.801 Z-4.206
G01 X111.796 Y104.092 Z-4.173
G01 X111.490 Y105.293 Z-4.119
G01 X111.277 Y105.990 Z-4.077
G01 X111.032 Y106.715 Z-4.021
G01 X110.571 Y107.886 Z-3.914
G01 X110.054 Y109.011 Z-3.792
G01 X109.454 Y110.146 Z-3.654
G01 X108.865 Y111.118 Z-3.517
G01 X108.297 Y111.961 Z-3.389
G01 X108.011 Y112.353 Z-3.330
G01 X107.461 Y113.056 Z-3.204
G01 X106.732 Y113.887 Z-3.039
G01 X105.951 Y114.675 Z-2.861
G01 X105.326 Y115.238 Z-2.717
G01 X104.643 Y115.785 Z-2.566
G01 X103.920 Y116.297 Z-2.413
G01 X103.155 Y116.770 Z-2.259
G01 X102.238 Y117.253 Z-2.086
G01 X101.592 Y117.538 Z-1.974
G01 X100.945 Y117.790 Z-1.875
G01 X100.110 Y118.056 Z-1.762
G01 X99.135 Y118.296 Z-1.647
G01 X98.115 Y118.466 Z-1.552
G01 X97.084 Y118.565 Z-1.478
G01 X96.324 Y118.589 Z-1.438
G01 X95.631 Y118.576 Z-1.408
G01 X94.750 Y118.504 Z-1.388
G01 X94.184 Y118.425 Z-1.381
G01 X93.575 Y118.310 Z-1.382
G01 X92.893 Y118.141 Z-1.393
G01 X91.973 Y117.850 Z-1.426
G01 X91.435 Y117.647 Z-1.449
G01 X90.847 Y117.396 Z-1.480
G01 X90.165 Y117.066 Z-1.522
G01 X89.422 Y116.648 Z-1.586
G01 X88.697 Y116.166 Z-1.674
G01 X87.989 Y115.620 Z-1.785
G01 X87.302 Y115.003 Z-1.912
G01 X86.613 Y114.288 Z-2.058
G01 X85.978 Y113.527 Z-2.205
G01 X85.372 Y112.695 Z-2.359
G01 X84.809 Y111.813 Z-2.512
G01 X84.286 Y110.874 Z-2.669
G01 X83.776 Y109.805 Z-2.841
G01 X83.268 Y108.545 Z-3.038
G01 X82.818 Y107.201 Z-3.242
G01 X82.458 Y105.908 Z-3.432
G01 X82.170 Y104.648 Z-3.606
G01 X81.933 Y103.307 Z-3.774
G01 X81.752 Y101.853 Z-3.932
G01 X81.660 Y100.652 Z-4.040
G01 X81.622 Y99.322 Z-4.133
G01 X81.643 Y98.193 Z-4.190
G01 X81.709 Y97.122 Z-4.225
G01 X81.839 Y95.858 Z-4.253
G01 X81.946 Y95.111 Z-4.259
G00 Z5.000
G01 Z-4.259 F200.0 M3
G01 X81.810 Y96.098 Z-4.247 F2000.0
G01 X81.688 Y97.394 Z-4.219
G01 X81.627 Y98.753 Z-4.165
G01 X81.631 Y99.894 Z-4.098
G01 X81.685 Y101.048 Z-4.009
G01 X81.791 Y102.221 Z-3.897
G01 X81.953 Y103.444 Z-3.758
G01 X82.214 Y104.856 Z-3.576
G01 X82.533 Y106.202 Z-3.387
G01 X82.905 Y107.483 Z-3.198
G01 X83.325 Y108.697 Z-3.014
G01 X83.776 Y109.805 Z-2.841
G01 X84.290 Y110.882 Z-2.668
G01 X84.809 Y111.813 Z-2.512
G01 X85.453 Y112.814 Z-2.337
G01 X86.070 Y113.644 Z-2.182
G01 X86.688 Y114.372 Z-2.040
G01 X87.358 Y115.057 Z-1.901
G01 X88.050 Y115.670 Z-1.775
G01 X88.762 Y116.212 Z-1.665
G01 X89.490 Y116.688 Z-1.579
G01 X90.237 Y117.103 Z-1.518
G01 X90.925 Y117.432 Z-1.476
G01 X91.612 Y117.717 Z-1.439
G01 X92.517 Y118.030 Z-1.406
G01 X93.067 Y118.188 Z-1.391
G01 X93.670 Y118.330 Z-1.381
G01 X94.357 Y118.452 Z-1.380
G01 X95.045 Y118.536 Z-1.390
G01 X95.896 Y118.584 Z-1.422
G01 X96.474 Y118.588 Z-1.447
G01 X97.084 Y118.565 Z-1.478
G01 X98.115 Y118.466 Z-1.552
G01 X99.135 Y118.296 Z-1.647
G01 X100.110 Y118.056 Z-1.762
G01 X101.058 Y117.750 Z-1.893
G01 X101.934 Y117.392 Z-2.036
G01 X102.755 Y116.991 Z-2.182
G01 X103.626 Y116.488 Z-2.350
G01 X104.287 Y116.047 Z-2.488
G01 X104.989 Y115.516 Z-2.642
G01 X105.653 Y114.950 Z-2.793
G01 X106.283 Y114.350 Z-2.940
G01 X106.870 Y113.737 Z-3.071
G01 X107.591 Y112.893 Z-3.231
G01 X108.200 Y112.096 Z-3.367
G01 X108.540 Y111.612 Z-3.449
G01 X109.050 Y110.827 Z-3.563
G01 X109.567 Y109.942 Z-3.678
G01 X110.128 Y108.861 Z-3.810
G01 X110.635 Y107.733 Z-3.929
G01 X111.086 Y106.561 Z-4.032
G01 X111.429 Y105.499 Z-4.105
G01 X111.761 Y104.241 Z-4.167
G01 X111.989 Y103.156 Z-4.202
G01 X112.111 Y102.422 Z-4.214
G01 X112.238 Y101.475 Z-4.213
G01 X112.358 Y100.117 Z-4.194
G01 X112.409 Y98.731 Z-4.148
G01 X112.388 Y97.316 Z-4.069
G01 X112.296 Y95.888 Z-3.958
G01 X112.172 Y94.747 Z-3.847
G01 X111.991 Y93.532 Z-3.709
G01 X111.753 Y92.280 Z-3.549
G01 X111.452 Y90.991 Z-3.370
G01 X111.071 Y89.634 Z-3.171
G01 X110.654 Y88.399 Z-2.985
G01 X110.421 Y87.790 Z-2.887
G01 X110.107 Y87.050 Z-2.764
G01 X109.630 Y86.065 Z-2.599
G01 X109.336 Y85.521 Z-2.502
G01 X108.925 Y84.840 Z-2.380
G01 X108.344 Y83.994 Z-2.230
G01 X107.977 Y83.519 Z-2.143
G01 X107.545 Y83.013 Z-2.052
G01 X107.064 Y82.510 Z-1.964
G01 X106.589 Y82.060 Z-1.887
G01 X105.831 Y81.422 Z-1.777
G01 X105.108 Y80.894 Z-1.683
G01 X104.317 Y80.394 Z-1.604
G01 X103.554 Y79.984 Z-1.541
G01 X103.020 Y79.736 Z-1.509
G01 X102.479 Y79.515 Z-1.485
G01 X101.929 Y79.321 Z-1.469
G01 X101.370 Y79.152 Z-1.461
G01 X100.803 Y79.010 Z-1.460
G01 X100.225 Y78.893 Z-1.466
G01 X99.638 Y78.801 Z-1.480
G01 X99.040 Y78.735 Z-1.500
G01 X98.417 Y78.694 Z-1.528
G01 X97.591 Y78.682 Z-1.574
G01 X96.576 Y78.732 Z-1.652
G01 X95.953 Y78.800 Z-1.704
G01 X95.138 Y78.930 Z-1.794
G01 X94.325 Y79.109 Z-1.901
G01 X93.514 Y79.344 Z-2.020
G01 X92.691 Y79.641 Z-2.156
G01 X91.845 Y80.013 Z-2.309
G01 X91.048 Y80.429 Z-2.463
G01 X90.297 Y80.884 Z-2.616
G01 X89.557 Y81.401 Z-2.771
G01 X88.808 Y81.999 Z-2.933
G01 X88.082 Y82.659 Z-3.093
G01 X87.381 Y83.381 Z-3.247
G01 X86.711 Y84.164 Z-3.393
G01 X86.041 Y85.045 Z-3.538
G01 X85.482 Y85.869 Z-3.652
G01 X84.927 Y86.773 Z-3.764
G01 X84.410 Y87.706 Z-3.867
G01 X83.903 Y88.720 Z-3.970
G01 X83.489 Y89.657 Z-4.048
G01 X83.038 Y90.819 Z-4.132
G01 X82.739 Y91.714 Z-4.179
G01 X82.434 Y92.778 Z-4.222
G01 X82.177 Y93.865 Z-4.248
G01 X81.946 Y95.111 Z-4.259
G00 Z5.000
G00 X132.265 Y135.771  F4000.0
G01 Z-4.215 F200.0 M3
G01 X132.456 Y134.737 Z-4.023 F2000.0
G01 X132.564 Y133.943 Z-3.915
G01 X132.630 Y133.302 Z-3.849
G01 X132.679 Y132.617 Z-3.800
G01 X132.745 Y130.967 Z-3.735
G01 X132.768 Y129.917 Z-3.712
G01 X132.797 Y127.414 Z-3.682
G01 X132.807 Y124.292 Z-3.673
G01 X132.807 Y86.532 Z-3.682
G01 X132.806 Y85.522 Z-3.714
G01 X132.805 Y84.646 Z-3.768
G01 X132.804 Y83.809 Z-3.848
G01 X132.802 Y82.990 Z-3.962
G01 X132.802 Y82.391 Z-4.073
G01 X131.802 Y81.626 Z-3.308
G01 X131.142 Y81.173 Z-2.855
G01 X130.278 Y80.644 Z-2.326
G01 X129.631 Y80.294 Z-1.976
G01 X128.862 Y79.935 Z-1.617
G01 X128.296 Y79.714 Z-1.395
G01 X127.591 Y79.493 Z-1.174
G01 X127.026 Y79.364 Z-1.045
G01 X126.584 Y79.292 Z-0.973
G01 X126.117 Y79.235 Z-0.916
G01 X125.070 Y79.157 Z-0.838
G01 X123.965 Y79.122 Z-0.804
G01 X123.161 Y79.912 Z0.000
G01 X123.965 Y79.122 Z-0.804
G01 X123.161 Y78.319 Z0.000
G01 X123.965 Y79.122 Z-0.804
G01 X125.107 Y79.159 Z-0.840
G01 X126.117 Y79.235 Z-0.916
G01 X126.669 Y79.304 Z-0.985
G01 X127.145 Y79.387 Z-1.069
G01 X127.591 Y79.493 Z-1.174
G01 X128.296 Y79.714 Z-1.395
G01 X128.862 Y79.935 Z-1.617
G01 X129.631 Y80.294 Z-1.976
G01 X130.278 Y80.644 Z-2.326
G01 X131.142 Y81.173 Z-2.855
G01 X131.802 Y81.626 Z-3.308
G01 X132.802 Y82.391 Z-4.073
G01 X133.796 Y81.632 Z-3.314
G01 X134.470 Y81.174 Z-2.856
G01 X135.329 Y80.661 Z-2.342
G01 X136.000 Y80.312 Z-1.994
G01 X136.785 Y79.964 Z-1.645
G01 X137.357 Y79.752 Z-1.433
G01 X138.109 Y79.524 Z-1.205
G01 X138.708 Y79.389 Z-1.071
G01 X139.196 Y79.310 Z-0.992
G01 X139.716 Y79.248 Z-0.929
G01 X140.276 Y79.199 Z-0.880
G01 X141.546 Y79.135 Z-0.817
G01 X142.226 Y79.121 Z-0.802
G01 X143.028 Y78.319 Z0.000
G01 X142.226 Y79.121 Z-0.802
G01 X143.028 Y79.912 Z0.000
G01 X142.226 Y79.121 Z-0.802
G01 X140.848 Y79.163 Z-0.845
G01 X140.229 Y79.202 Z-0.884
G01 X139.653 Y79.254 Z-0.936
G01 X139.111 Y79.323 Z-1.004
G01 X138.588 Y79.413 Z-1.094
G01 X138.109 Y79.524 Z-1.205
G01 X137.357 Y79.752 Z-1.433
G01 X136.785 Y79.964 Z-1.645
G01 X136.000 Y80.312 Z-1.994
G01 X135.329 Y80.661 Z-2.342
G01 X134.470 Y81.174 Z-2.856
G01 X133.796 Y81.632 Z-3.314
G01 X132.802 Y82.391 Z-4.073
G01 X132.802 Y83.211 Z-3.927
G01 X132.804 Y83.970 Z-3.830
G01 X132.805 Y84.775 Z-3.758
G01 X132.806 Y85.628 Z-3.710
G01 X132.807 Y87.478 Z-3.673
G01 X132.807 Y124.315 Z-3.673
G01 X132.797 Y127.478 Z-3.683
G01 X132.766 Y129.995 Z-3.713
G01 X132.711 Y131.974 Z-3.769
G01 X132.667 Y132.822 Z-3.813
G01 X132.607 Y133.557 Z-3.873
G01 X132.492 Y134.501 Z-3.988
G01 X132.350 Y135.351 Z-4.130
G01 X132.265 Y135.771 Z-4.215
G01 X134.816 Y139.576 Z-1.663
G01 X136.480 Y141.239 Z0.000
G01 X134.816 Y139.576 Z-1.663
G01 X134.488 Y141.239 Z0.000
G01 X134.816 Y139.576 Z-1.663
G01 X132.265 Y135.771 Z-4.215
G01 X131.195 Y136.158 Z-3.451
G01 X130.455 Y136.380 Z-2.964
G01 X129.762 Y136.545 Z-2.549
G01 X128.927 Y136.680 Z-2.107
G01 X128.258 Y136.735 Z-1.802
G01 X127.599 Y136.743 Z-1.545
G01 X127.082 Y136.713 Z-1.376
G01 X126.382 Y136.625 Z-1.192
G01 X125.674 Y136.482 Z-1.056
G01 X124.927 Y136.280 Z-0.959
G01 X124.137 Y136.023 Z-0.897
G01 X123.603 Y135.828 Z-0.875
G01 X122.409 Y136.283 Z0.000
G01 X123.603 Y135.828 Z-0.875
G01 X123.161 Y134.735 Z0.000
G01 X123.603 Y135.828 Z-0.875
G01 X124.579 Y136.171 Z-0.927
G01 X125.362 Y136.403 Z-1.010
G01 X126.121 Y136.578 Z-1.136
G01 X126.833 Y136.688 Z-1.305
G01 X127.453 Y136.737 Z-1.494
G01 X128.013 Y136.744 Z-1.701
G01 X128.703 Y136.704 Z-2.000
G01 X129.493 Y136.596 Z-2.399
G01 X130.159 Y136.456 Z-2.782
G01 X130.869 Y136.261 Z-3.231
G01 X131.620 Y136.013 Z-3.746
G01 X132.265 Y135.771 Z-4.215
G00 Z5.000
G00 X157.442 Y135.771  F4000.0
G01 Z-4.215 F200.0 M3
G01 X157.633 Y134.737 Z-4.023 F2000.0
G01 X157.741 Y133.943 Z-3.915
G01 X157.807 Y133.302 Z-3.849
G01 X157.856 Y132.617 Z-3.800
G01 X157.922 Y130.967 Z-3.735
G01 X157.945 Y129.917 Z-3.712
G01 X157.974 Y127.414 Z-3.682
G01 X157.984 Y124.292 Z-3.673
G01 X157.984 Y86.532 Z-3.682
G01 X157.983 Y85.522 Z-3.714
G01 X157.982 Y84.646 Z-3.768
G01 X157.981 Y83.809 Z-3.848
G01 X157.979 Y82.990 Z-3.962
G01 X157.979 Y82.391 Z-4.073
G01 X156.979 Y81.626 Z-3.308
G01 X156.319 Y81.173 Z-2.855
G01 X155.455 Y80.644 Z-2.326
G01 X154.808 Y80.294 Z-1.976
G01 X154.039 Y79.935 Z-1.617
G01 X153.473 Y79.714 Z-1.395
G01 X152.768 Y79.493 Z-1.174
G01 X152.203 Y79.364 Z-1.045
G01 X151.761 Y79.292 Z-0.973
G01 X151.294 Y79.235 Z-0.916
G01 X150.247 Y79.157 Z-0.838
G01 X149.142 Y79.122 Z-0.804
G01 X148.338 Y79.912 Z0.000
G01 X149.142 Y79.122 Z-0.804
G01 X148.338 Y78.319 Z0.000
G01 X149.142 Y79.122 Z-0.804
G01 X150.284 Y79.159 Z-0.840
G01 X151.294 Y79.235 Z-0.916
G01 X151.846 Y79.304 Z-0.985
G01 X152.322 Y79.387 Z-1.069
G01 X152.768 Y79.493 Z-1.174
G01 X153.473 Y79.714 Z-1.395
G01 X154.039 Y79.935 Z-1.617
G01 X154.808 Y80.294 Z-1.976
G01 X155.455 Y80.644 Z-2.326
G01 X156.319 Y81.173 Z-2.855
G01 X156.979 Y81.626 Z-3.308
G01 X157.979 Y82.391 Z-4.073
G01 X158.973 Y81.632 Z-3.314
G01 X159.647 Y81.174 Z-2.856
G01 X160.506 Y80.661 Z-2.342
G01 X161.177 Y80.312 Z-1.994
G01 X161.962 Y79.964 Z-1.645
G01 X162.534 Y79.752 Z-1.433
G01 X163.286 Y79.524 Z-1.205
G01 X163.885 Y79.389 Z-1.071
G01 X164.373 Y79.310 Z-0.992
G01 X164.893 Y79.248 Z-0.929
G01 X165.453 Y79.199 Z-0.880
G01 X166.723 Y79.135 Z-0.817
G01 X167.403 Y79.121 Z-0.802
G01 X168.205 Y78.319 Z0.000
G01 X167.403 Y79.121 Z-0.802
G01 X168.205 Y79.912 Z0.000
G01 X167.403 Y79.121 Z-0.802
G01 X166.025 Y79.163 Z-0.845
G01 X165.406 Y79.202 Z-0.884
G01 X164.830 Y79.254 Z-0.936
G01 X164.288 Y79.323 Z-1.004
G01 X163.765 Y79.413 Z-1.094
G01 X163.286 Y79.524 Z-1.205
G01 X162.534 Y79.752 Z-1.433
G01 X161.962 Y79.964 Z-1.645
G01 X161.177 Y80.312 Z-1.994
G01 X160.506 Y80.661 Z-2.342
G01 X159.647 Y81.174 Z-2.856
G01 X158.973 Y81.632 Z-3.314
G01 X157.979 Y82.391 Z-4.073
G01 X157.979 Y83.211 Z-3.927
G01 X157.981 Y83.970 Z-3.830
G01 X157.982 Y84.775 Z-3.758
G01 X157.983 Y85.628 Z-3.710
G01 X157.984 Y87.478 Z-3.673
G01 X157.984 Y124.315 Z-3.673
G01 X157.974 Y127.478 Z-3.683
G01 X157.943 Y129.995 Z-3.713
G01 X157.888 Y131.974 Z-3.769
G01 X157.844 Y132.822 Z-3.813
G01 X157.784 Y133.557 Z-3.873
G01 X157.669 Y134.501 Z-3.988
G01 X157.527 Y135.351 Z-4.130
G01 X157.442 Y135.771 Z-4.215
G01 X159.993 Y139.576 Z-1.663
G01 X161.657 Y141.239 Z0.000
G01 X159.993 Y139.576 Z-1.663
G01 X159.665 Y141.239 Z0.000
G01 X159.993 Y139.576 Z-1.663
G01 X157.442 Y135.771 Z-4.215
G01 X156.372 Y136.158 Z-3.451
G01 X155.632 Y136.380 Z-2.964
G01 X154.939 Y136.545 Z-2.549
G01 X154.104 Y136.680 Z-2.107
G01 X153.435 Y136.735 Z-1.802
G01 X152.776 Y136.743 Z-1.545
G01 X152.259 Y136.713 Z-1.376
G01 X151.559 Y136.625 Z-1.192
G01 X150.851 Y136.482 Z-1.056
G01 X150.104 Y136.280 Z-0.959
G01 X149.314 Y136.023 Z-0.897
G01 X148.779 Y135.828 Z-0.875
G01 X147.586 Y136.283 Z0.000
G01 X148.779 Y135.828 Z-0.875
G01 X148.338 Y134.735 Z0.000
G01 X148.779 Y135.828 Z-0.875
G01 X149.756 Y136.171 Z-0.927
G01 X150.539 Y136.403 Z-1.010
G01 X151.298 Y136.578 Z-1.136
G01 X152.010 Y136.688 Z-1.305
G01 X152.630 Y136.737 Z-1.494
G01 X153.190 Y136.744 Z-1.701
G01 X153.880 Y136.704 Z-2.000
G01 X154.670 Y136.596 Z-2.399
G01 X155.336 Y136.456 Z-2.782
G01 X156.046 Y136.261 Z-3.231
G01 X156.797 Y136.013 Z-3.746
G01 X157.442 Y135.771 Z-4.215
G00 Z5.000
G00 X205.845 Y136.755  F4000.0
G01 Z-4.479 F200.0 M3
G01 X205.850 Y136.716 Z-4.454 F2000.0
G01 X205.769 Y136.513 Z-4.245
G01 X205.850 Y136.716 Z-4.454
G01 X205.959 Y136.453 Z-4.184
G01 X205.850 Y136.716 Z-4.454
G01 X205.848 Y136.746 Z-4.475
G01 X206.022 Y136.675 Z-4.296
G01 X205.848 Y136.746 Z-4.475
G01 X205.845 Y136.755 Z-4.479
G01 X205.874 Y136.784 Z-4.450
G01 X206.102 Y136.880 Z-4.214
G01 X205.874 Y136.784 Z-4.450
G01 X205.970 Y137.011 Z-4.214
G01 X205.858 Y136.768 Z-4.467
G01 X205.845 Y136.755 Z-4.479
G01 X205.799 Y136.785 Z-4.447
G01 X205.706 Y136.990 Z-4.230
G01 X205.799 Y136.785 Z-4.447
G01 X205.574 Y136.880 Z-4.214
G01 X205.819 Y136.765 Z-4.468
G01 X205.603 Y136.679 Z-4.245
G01 X205.819 Y136.765 Z-4.468
G01 X205.845 Y136.755 Z-4.479
G00 Z5.000
G00 X205.286 Y114.529  F4000.0
G01 Z-4.246 F200.0 M3
G01 X207.904 Y118.415 Z-1.629 F2000.0
G01 X209.533 Y120.044 Z0.000
G01 X207.904 Y118.415 Z-1.629
G01 X207.586 Y120.044 Z0.000
G01 X207.904 Y118.415 Z-1.629
G01 X205.286 Y114.529 Z-4.246
G01 X204.480 Y114.828 Z-3.665
G01 X203.772 Y115.055 Z-3.189
G01 X203.104 Y115.233 Z-2.773
G01 X202.477 Y115.362 Z-2.418
G01 X201.918 Y115.444 Z-2.132
G01 X201.223 Y115.498 Z-1.820
G01 X200.555 Y115.499 Z-1.568
G01 X200.036 Y115.465 Z-1.404
G01 X199.319 Y115.372 Z-1.221
G01 X198.584 Y115.225 Z-1.081
G01 X197.809 Y115.023 Z-0.976
G01 X196.998 Y114.771 Z-0.905
G01 X196.507 Y114.600 Z-0.879
G01 X195.373 Y115.088 Z0.000
G01 X196.507 Y114.600 Z-0.879
G01 X195.993 Y113.496 Z0.000
G01 X196.507 Y114.600 Z-0.879
G01 X197.448 Y114.916 Z-0.940
G01 X198.254 Y115.144 Z-1.031
G01 X199.038 Y115.321 Z-1.162
G01 X199.774 Y115.437 Z-1.332
G01 X200.410 Y115.492 Z-1.520
G01 X200.977 Y115.504 Z-1.722
G01 X201.674 Y115.469 Z-2.017
G01 X202.165 Y115.412 Z-2.254
G01 X202.735 Y115.314 Z-2.560
G01 X203.384 Y115.163 Z-2.943
G01 X204.078 Y114.962 Z-3.390
G01 X204.814 Y114.709 Z-3.901
G01 X205.286 Y114.529 Z-4.246
G01 X205.448 Y113.698 Z-4.085
G01 X205.563 Y112.917 Z-3.970
G01 X205.634 Y112.279 Z-3.898
G01 X205.695 Y111.516 Z-3.838
G01 X205.776 Y109.825 Z-3.756
G01 X205.832 Y107.478 Z-3.701
G01 X205.848 Y106.134 Z-3.685
G01 X205.860 Y103.097 Z-3.673
G01 X205.860 Y86.531 Z-3.682
G01 X205.858 Y85.519 Z-3.715
G01 X205.856 Y84.636 Z-3.770
G01 X205.853 Y83.789 Z-3.853
G01 X205.850 Y82.961 Z-3.971
G01 X205.847 Y82.396 Z-4.077
G01 X205.124 Y81.836 Z-3.517
G01 X204.402 Y81.325 Z-3.007
G01 X203.614 Y80.827 Z-2.509
G01 X202.785 Y80.364 Z-2.046
G01 X202.172 Y80.066 Z-1.747
G01 X201.429 Y79.759 Z-1.440
G01 X200.892 Y79.577 Z-1.258
G01 X200.462 Y79.457 Z-1.139
G01 X200.025 Y79.363 Z-1.044
G01 X199.574 Y79.291 Z-0.972
G01 X199.094 Y79.234 Z-0.916
G01 X198.006 Y79.157 Z-0.838
G01 X196.795 Y79.121 Z-0.803
G01 X195.993 Y79.912 Z0.000
G01 X196.795 Y79.121 Z-0.803
G01 X195.993 Y78.319 Z0.000
G01 X196.795 Y79.121 Z-0.803
G01 X198.042 Y79.158 Z-0.840
G01 X199.094 Y79.234 Z-0.916
G01 X199.660 Y79.303 Z-0.984
G01 X200.147 Y79.387 Z-1.068
G01 X200.599 Y79.492 Z-1.174
G01 X201.303 Y79.713 Z-1.394
G01 X201.865 Y79.931 Z-1.612
G01 X202.633 Y80.287 Z-1.968
G01 X203.272 Y80.629 Z-2.310
G01 X204.136 Y81.150 Z-2.831
G01 X204.798 Y81.598 Z-3.280
G01 X205.586 Y82.189 Z-3.870
G01 X205.847 Y82.396 Z-4.077
G01 X206.845 Y81.631 Z-3.312
G01 X207.511 Y81.175 Z-2.856
G01 X208.364 Y80.659 Z-2.340
G01 X209.021 Y80.311 Z-1.992
G01 X209.793 Y79.959 Z-1.640
G01 X210.359 Y79.742 Z-1.424
G01 X211.086 Y79.516 Z-1.198
G01 X211.666 Y79.383 Z-1.064
G01 X212.130 Y79.305 Z-0.986
G01 X212.618 Y79.244 Z-0.925
G01 X213.670 Y79.162 Z-0.844
G01 X214.880 Y79.122 Z-0.803
G01 X215.683 Y78.319 Z0.000
G01 X214.880 Y79.122 Z-0.803
G01 X215.683 Y79.912 Z0.000
G01 X214.880 Y79.122 Z-0.803
G01 X213.670 Y79.162 Z-0.844
G01 X212.618 Y79.244 Z-0.925
G01 X212.043 Y79.318 Z-0.999
G01 X211.547 Y79.407 Z-1.088
G01 X211.086 Y79.516 Z-1.198
G01 X210.359 Y79.742 Z-1.424
G01 X209.793 Y79.959 Z-1.640
G01 X209.021 Y80.311 Z-1.992
G01 X208.364 Y80.659 Z-2.340
G01 X207.511 Y81.175 Z-2.856
G01 X206.845 Y81.631 Z-3.312
G01 X205.847 Y82.396 Z-4.077
G01 X205.851 Y83.204 Z-3.931
G01 X205.854 Y83.966 Z-3.833
G01 X205.856 Y84.766 Z-3.760
G01 X205.859 Y85.624 Z-3.710
G01 X205.860 Y87.443 Z-3.673
G01 X205.860 Y103.128 Z-3.673
G01 X205.847 Y106.193 Z-3.686
G01 X205.807 Y108.738 Z-3.725
G01 X205.736 Y110.806 Z-3.797
G01 X205.681 Y111.712 Z-3.851
G01 X205.605 Y112.567 Z-3.927
G01 X205.487 Y113.453 Z-4.045
G01 X205.337 Y114.291 Z-4.196
G01 X205.286 Y114.529 Z-4.246
G00 Z5.000
G00 X264.408 Y95.780  F4000.0
G01 Z-4.106 F200.0 M3
G01 X265.128 Y95.269 Z-4.105 F2000.0
G01 X266.014 Y94.556 Z-4.091
G01 X266.701 Y93.911 Z-4.066
G01 X267.204 Y93.361 Z-4.039
G01 X267.729 Y92.678 Z-3.994
G01 X268.163 Y91.984 Z-3.932
G01 X268.510 Y91.277 Z-3.852
G01 X268.750 Y90.646 Z-3.765
G01 X268.953 Y89.927 Z-3.655
G01 X269.062 Y89.388 Z-3.567
G01 X269.137 Y88.861 Z-3.479
G01 X269.185 Y88.329 Z-3.390
G01 X269.204 Y87.800 Z-3.301
G01 X269.194 Y87.276 Z-3.210
G01 X269.127 Y86.501 Z-3.070
G01 X268.992 Y85.726 Z-2.912
G01 X268.791 Y84.976 Z-2.747
G01 X268.540 Y84.288 Z-2.590
G01 X268.221 Y83.613 Z-2.424
G01 X267.831 Y82.943 Z-2.259
G01 X267.360 Y82.286 Z-2.093
G01 X266.821 Y81.654 Z-1.939
G01 X266.241 Y81.078 Z-1.806
G01 X265.842 Y80.730 Z-1.730
G01 X265.237 Y80.262 Z-1.630
G01 X264.526 Y79.795 Z-1.536
G01 X263.852 Y79.430 Z-1.463
G01 X263.127 Y79.108 Z-1.405
G01 X262.380 Y78.847 Z-1.361
G01 X261.610 Y78.646 Z-1.331
G01 X260.789 Y78.498 Z-1.314
G01 X259.973 Y78.415 Z-1.304
G01 X259.091 Y78.386 Z-1.306
G01 X258.017 Y78.427 Z-1.316
G01 X257.276 Y78.496 Z-1.337
G01 X256.194 Y78.659 Z-1.385
G01 X255.331 Y78.841 Z-1.447
G01 X254.316 Y79.114 Z-1.542
G01 X253.277 Y79.457 Z-1.670
G01 X252.196 Y79.885 Z-1.838
G01 X251.017 Y80.430 Z-2.062
G01 X250.337 Y80.774 Z-2.217
G01 X249.619 Y81.134 Z-2.421
G01 X248.852 Y81.507 Z-2.689
G01 X248.140 Y81.836 Z-2.987
G01 X247.722 Y83.003 Z-2.570
G01 X247.453 Y83.841 Z-2.301
G01 X247.069 Y85.193 Z-1.916
G01 X246.869 Y85.991 Z-1.717
G01 X246.554 Y87.440 Z-1.402
G01 X246.289 Y88.922 Z-1.136
G01 X246.068 Y90.449 Z-0.916
G01 X245.960 Y91.361 Z-0.808
G01 X246.612 Y92.168 Z0.000
G01 X245.960 Y91.361 Z-0.808
G01 X245.152 Y92.168 Z0.000
G01 X245.960 Y91.361 Z-0.808
G01 X246.072 Y90.421 Z-0.919
G01 X246.295 Y88.883 Z-1.143
G01 X246.564 Y87.388 Z-1.412
G01 X246.869 Y85.991 Z-1.717
G01 X247.069 Y85.193 Z-1.916
G01 X247.453 Y83.841 Z-2.301
G01 X247.722 Y83.003 Z-2.570
G01 X248.140 Y81.836 Z-2.987
G01 X247.605 Y81.259 Z-2.453
G01 X247.252 Y80.824 Z-2.100
G01 X246.859 Y80.267 Z-1.706
G01 X246.563 Y79.766 Z-1.411
G01 X246.341 Y79.309 Z-1.188
G01 X246.129 Y78.765 Z-0.977
G01 X246.088 Y78.635 Z-0.936
G01 X245.152 Y77.699 Z0.000
G01 X246.088 Y78.635 Z-0.936
G01 X246.303 Y78.226 Z-0.527
G01 X246.612 Y77.699 Z0.000
G01 X246.243 Y78.335 Z-0.636
G01 X246.088 Y78.635 Z-0.936
G01 X246.273 Y79.151 Z-1.121
G01 X246.458 Y79.561 Z-1.305
G01 X246.698 Y80.007 Z-1.546
G01 X247.018 Y80.505 Z-1.866
G01 X247.443 Y81.063 Z-2.291
G01 X247.768 Y81.441 Z-2.616
G01 X248.140 Y81.836 Z-2.987
G01 X249.081 Y81.395 Z-2.601
G01 X249.801 Y81.043 Z-2.365
G01 X250.482 Y80.702 Z-2.181
G01 X251.609 Y80.148 Z-1.943
G01 X252.217 Y79.876 Z-1.834
G01 X253.289 Y79.453 Z-1.668
G01 X254.316 Y79.114 Z-1.542
G01 X255.331 Y78.841 Z-1.447
G01 X256.319 Y78.636 Z-1.379
G01 X257.365 Y78.486 Z-1.333
G01 X258.201 Y78.415 Z-1.315
G01 X259.228 Y78.387 Z-1.304
G01 X260.078 Y78.422 Z-1.305
G01 X260.873 Y78.509 Z-1.315
G01 X261.670 Y78.659 Z-1.333
G01 X262.483 Y78.878 Z-1.368
G01 X263.193 Y79.134 Z-1.409
G01 X263.920 Y79.463 Z-1.469
G01 X264.624 Y79.855 Z-1.546
G01 X265.237 Y80.262 Z-1.630
G01 X265.938 Y80.809 Z-1.747
G01 X266.535 Y81.360 Z-1.869
G01 X267.096 Y81.963 Z-2.013
G01 X267.612 Y82.624 Z-2.178
G01 X268.010 Y83.235 Z-2.331
G01 X268.338 Y83.842 Z-2.483
G01 X268.642 Y84.548 Z-2.649
G01 X268.881 Y85.278 Z-2.815
G01 X269.020 Y85.862 Z-2.940
G01 X269.127 Y86.501 Z-3.070
G01 X269.194 Y87.276 Z-3.210
G01 X269.201 Y87.969 Z-3.330
G01 X269.171 Y88.505 Z-3.419
G01 X269.113 Y89.043 Z-3.508
G01 X269.007 Y89.682 Z-3.617
G01 X268.811 Y90.456 Z-3.737
G01 X268.557 Y91.166 Z-3.836
G01 X268.285 Y91.754 Z-3.908
G01 X267.883 Y92.448 Z-3.975
G01 X267.385 Y93.139 Z-4.027
G01 X266.828 Y93.779 Z-4.060
G01 X266.283 Y94.316 Z-4.083
G01 X265.728 Y94.796 Z-4.099
G01 X264.941 Y95.405 Z-4.103
G01 X264.068 Y96.006 Z-4.098
G01 X263.639 Y96.281 Z-4.095
G01 X262.796 Y96.789 Z-4.072
G01 X261.549 Y97.474 Z-4.025
G01 X260.180 Y98.188 Z-3.981
G01 X258.698 Y98.941 Z-3.953
G01 X255.431 Y100.573 Z-3.914
G01 X254.324 Y101.157 Z-3.891
G01 X253.228 Y101.783 Z-3.869
G01 X252.220 Y102.414 Z-3.849
G01 X251.413 Y102.973 Z-3.829
G01 X250.604 Y103.611 Z-3.800
G01 X250.063 Y104.109 Z-3.765
G01 X249.611 Y104.615 Z-3.707
G01 X249.193 Y105.180 Z-3.614
G01 X248.871 Y105.722 Z-3.514
G01 X248.552 Y106.377 Z-3.381
G01 X248.334 Y106.935 Z-3.266
G01 X248.128 Y107.588 Z-3.128
G01 X247.956 Y108.311 Z-2.980
G01 X247.832 Y109.091 Z-2.827
G01 X247.768 Y109.894 Z-2.677
G01 X247.771 Y110.696 Z-2.529
G01 X247.840 Y111.473 Z-2.380
G01 X247.970 Y112.235 Z-2.228
G01 X248.155 Y112.937 Z-2.090
G01 X248.388 Y113.561 Z-1.972
G01 X248.718 Y114.240 Z-1.856
G01 X249.062 Y114.800 Z-1.767
G01 X249.575 Y115.486 Z-1.673
G01 X250.079 Y116.034 Z-1.604
G01 X250.662 Y116.569 Z-1.544
G01 X251.153 Y116.954 Z-1.495
G01 X251.736 Y117.345 Z-1.446
G01 X252.412 Y117.720 Z-1.402
G01 X253.119 Y118.032 Z-1.365
G01 X253.855 Y118.286 Z-1.338
G01 X254.701 Y118.497 Z-1.316
G01 X255.486 Y118.631 Z-1.307
G01 X256.299 Y118.709 Z-1.302
G01 X257.272 Y118.737 Z-1.307
G01 X258.218 Y118.696 Z-1.305
G01 X259.247 Y118.575 Z-1.304
G01 X260.239 Y118.388 Z-1.316
G01 X261.226 Y118.131 Z-1.350
G01 X262.186 Y117.812 Z-1.411
G01 X263.131 Y117.438 Z-1.514
G01 X263.724 Y117.176 Z-1.607
G01 X264.637 Y116.750 Z-1.807
G01 X265.369 Y116.394 Z-2.025
G01 X265.971 Y116.110 Z-2.256
G01 X266.799 Y115.757 Z-2.653
G01 X266.880 Y115.725 Z-2.697
G01 X267.270 Y114.505 Z-2.307
G01 X267.627 Y113.189 Z-1.949
G01 X267.954 Y111.775 Z-1.623
G01 X268.234 Y110.359 Z-1.343
G01 X268.490 Y108.856 Z-1.087
G01 X268.751 Y107.065 Z-0.826
G01 X268.117 Y106.239 Z0.000
G01 X268.751 Y107.065 Z-0.826
G01 X269.577 Y106.239 Z0.000
G01 X268.751 Y107.065 Z-0.826
G01 X268.486 Y108.881 Z-1.091
G01 X268.228 Y110.395 Z-1.349
G01 X267.943 Y111.825 Z-1.633
G01 X267.627 Y113.189 Z-1.949
G01 X267.270 Y114.505 Z-2.307
G01 X266.880 Y115.725 Z-2.697
G01 X267.316 Y116.262 Z-2.261
G01 X267.759 Y116.899 Z-1.818
G01 X268.091 Y117.492 Z-1.486
G01 X268.363 Y118.142 Z-1.214
G01 X268.519 Y118.615 Z-1.058
G01 X268.665 Y119.132 Z-0.912
G01 X269.577 Y120.044 Z0.000
G01 X268.665 Y119.132 Z-0.912
G01 X268.117 Y120.044 Z0.000
G01 X268.665 Y119.132 Z-0.912
G01 X268.488 Y118.513 Z-1.089
G01 X268.292 Y117.953 Z-1.285
G01 X268.091 Y117.492 Z-1.486
G01 X267.759 Y116.899 Z-1.818
G01 X267.316 Y116.262 Z-2.261
G01 X266.880 Y115.725 Z-2.697
G01 X266.157 Y116.028 Z-2.336
G01 X265.572 Y116.298 Z-2.096
G01 X265.046 Y116.554 Z-1.923
G01 X264.529 Y116.801 Z-1.779
G01 X263.602 Y117.232 Z-1.585
G01 X262.659 Y117.631 Z-1.455
G01 X261.709 Y117.980 Z-1.376
G01 X260.736 Y118.267 Z-1.329
G01 X259.735 Y118.493 Z-1.309
G01 X258.727 Y118.646 Z-1.303
G01 X257.824 Y118.722 Z-1.308
G01 X257.055 Y118.736 Z-1.303
G01 X256.053 Y118.690 Z-1.306
G01 X255.384 Y118.616 Z-1.307
G01 X254.591 Y118.474 Z-1.318
G01 X253.826 Y118.277 Z-1.340
G01 X253.119 Y118.032 Z-1.365
G01 X252.412 Y117.720 Z-1.402
G01 X251.736 Y117.345 Z-1.446
G01 X251.153 Y116.954 Z-1.495
G01 X250.499 Y116.429 Z-1.558
G01 X249.920 Y115.871 Z-1.626
G01 X249.493 Y115.383 Z-1.685
G01 X249.062 Y114.800 Z-1.767
G01 X248.710 Y114.225 Z-1.858
G01 X248.437 Y113.673 Z-1.952
G01 X248.251 Y113.211 Z-2.036
G01 X248.060 Y112.611 Z-2.152
G01 X247.931 Y112.049 Z-2.268
G01 X247.818 Y111.288 Z-2.416
G01 X247.765 Y110.479 Z-2.568
G01 X247.780 Y109.662 Z-2.720
G01 X247.869 Y108.811 Z-2.882
G01 X248.036 Y107.944 Z-3.054
G01 X248.246 Y107.189 Z-3.210
G01 X248.552 Y106.377 Z-3.381
G01 X248.932 Y105.609 Z-3.537
G01 X249.327 Y104.982 Z-3.647
G01 X249.758 Y104.440 Z-3.730
G01 X250.077 Y104.095 Z-3.767
G01 X250.604 Y103.611 Z-3.800
G01 X251.430 Y102.961 Z-3.829
G01 X252.470 Y102.254 Z-3.850
G01 X253.416 Y101.673 Z-3.871
G01 X254.434 Y101.097 Z-3.893
G01 X255.677 Y100.445 Z-3.921
G01 X258.763 Y98.908 Z-3.954
G01 X260.258 Y98.148 Z-3.983
G01 X261.842 Y97.317 Z-4.038
G01 X262.915 Y96.719 Z-4.074
G01 X263.930 Y96.096 Z-4.096
G01 X264.408 Y95.780 Z-4.106
G00 Z5.000
G00 X286.113 Y118.842  F4000.0
G01 Z-4.304 F200.0 M3
G01 X286.495 Y119.827 Z-3.923 F2000.0
G01 X286.865 Y120.837 Z-3.552
G01 X287.215 Y121.841 Z-3.203
G01 X287.545 Y122.843 Z-2.872
G01 X287.857 Y123.844 Z-2.560
G01 X288.166 Y124.895 Z-2.252
G01 X288.495 Y126.178 Z-1.923
G01 X288.858 Y127.765 Z-1.560
G01 X289.259 Y129.663 Z-1.159
G01 X289.595 Y131.345 Z-0.823
G01 X290.418 Y132.168 Z0.000
G01 X289.595 Y131.345 Z-0.823
G01 X289.046 Y132.168 Z0.000
G01 X289.595 Y131.345 Z-0.823
G01 X289.253 Y129.637 Z-1.164
G01 X288.662 Y126.890 Z-1.756
G01 X288.309 Y125.430 Z-2.109
G01 X288.133 Y124.777 Z-2.285
G01 X287.833 Y123.763 Z-2.585
G01 X287.515 Y122.749 Z-2.903
G01 X287.178 Y121.734 Z-3.239
G01 X286.821 Y120.714 Z-3.596
G01 X286.442 Y119.689 Z-3.975
G01 X286.113 Y118.842 Z-4.304
G01 X285.308 Y118.801 Z-3.754
G01 X284.573 Y118.710 Z-3.297
G01 X284.107 Y118.624 Z-3.038
G01 X283.487 Y118.460 Z-2.733
G01 X283.117 Y118.334 Z-2.582
G01 X281.650 Y117.800 Z-2.047
G01 X280.789 Y117.511 Z-1.759
G01 X279.962 Y117.253 Z-1.501
G01 X279.168 Y117.025 Z-1.272
G01 X278.404 Y116.824 Z-1.072
G01 X277.582 Y116.634 Z-0.882
G01 X276.701 Y117.212 Z0.000
G01 X277.582 Y116.634 Z-0.882
G01 X276.701 Y115.752 Z0.000
G01 X277.582 Y116.634 Z-0.882
G01 X278.459 Y116.838 Z-1.086
G01 X279.229 Y117.041 Z-1.289
G01 X280.030 Y117.274 Z-1.521
G01 X280.863 Y117.535 Z-1.783
G01 X281.730 Y117.827 Z-2.075
G01 X283.117 Y118.334 Z-2.582
G01 X283.590 Y118.491 Z-2.779
G01 X284.107 Y118.624 Z-3.038
G01 X284.720 Y118.732 Z-3.384
G01 X285.308 Y118.801 Z-3.754
G01 X286.113 Y118.842 Z-4.304
G01 X286.310 Y118.379 Z-4.135
G01 X286.540 Y117.836 Z-4.008
G01 X286.767 Y117.301 Z-3.965
G01 X286.767 Y116.836 Z-3.808
G01 X286.767 Y116.290 Z-3.690
G01 X286.767 Y115.752 Z-3.650
G01 X286.768 Y89.401 Z-3.651
G01 X286.781 Y88.301 Z-3.661
G01 X286.827 Y87.249 Z-3.684
G01 X286.918 Y86.235 Z-3.714
G01 X287.067 Y85.221 Z-3.755
G01 X287.260 Y84.367 Z-3.788
G01 X287.433 Y83.810 Z-3.807
G01 X287.652 Y83.296 Z-3.803
G01 X287.903 Y82.852 Z-3.777
G01 X288.182 Y82.467 Z-3.729
G01 X288.524 Y82.095 Z-3.656
G01 X288.908 Y81.762 Z-3.565
G01 X289.274 Y81.487 Z-3.478
G01 X289.804 Y81.162 Z-3.350
G01 X290.284 Y80.930 Z-3.224
G01 X290.678 Y80.782 Z-3.117
G01 X291.143 Y80.650 Z-2.988
G01 X291.787 Y80.532 Z-2.802
G01 X292.433 Y80.482 Z-2.615
G01 X293.009 Y80.496 Z-2.449
G01 X293.663 Y80.573 Z-2.263
G01 X294.342 Y80.718 Z-2.073
G01 X295.028 Y80.930 Z-1.885
G01 X295.705 Y81.205 Z-1.712
G01 X296.302 Y81.511 Z-1.561
G01 X296.819 Y81.831 Z-1.435
G01 X297.402 Y82.263 Z-1.297
G01 X297.956 Y82.751 Z-1.163
G01 X298.365 Y83.170 Z-1.073
G01 X298.668 Y83.521 Z-1.009
G01 X298.958 Y83.896 Z-0.953
G01 X299.233 Y84.296 Z-0.905
G01 X299.493 Y84.721 Z-0.867
G01 X299.737 Y85.168 Z-0.838
G01 X299.923 Y85.551 Z-0.821
G01 X301.126 Y86.372 Z0.000
G01 X299.923 Y85.551 Z-0.821
G01 X299.400 Y86.372 Z0.000
G01 X299.923 Y85.551 Z-0.821
G01 X299.697 Y85.092 Z-0.841
G01 X299.451 Y84.649 Z-0.872
G01 X299.185 Y84.224 Z-0.912
G01 X298.898 Y83.815 Z-0.963
G01 X298.587 Y83.423 Z-1.024
G01 X298.250 Y83.046 Z-1.096
G01 X297.730 Y82.542 Z-1.219
G01 X297.137 Y82.057 Z-1.358
G01 X296.731 Y81.772 Z-1.457
G01 X296.302 Y81.511 Z-1.561
G01 X295.705 Y81.205 Z-1.712
G01 X294.960 Y80.904 Z-1.904
G01 X294.281 Y80.703 Z-2.090
G01 X293.625 Y80.567 Z-2.274
G01 X292.949 Y80.494 Z-2.467
G01 X292.433 Y80.482 Z-2.615
G01 X291.787 Y80.532 Z-2.802
G01 X291.143 Y80.650 Z-2.988
G01 X290.615 Y80.803 Z-3.136
G01 X290.068 Y81.025 Z-3.280
G01 X289.540 Y81.314 Z-3.414
G01 X289.005 Y81.685 Z-3.544
G01 X288.650 Y81.979 Z-3.625
G01 X288.278 Y82.355 Z-3.709
G01 X287.964 Y82.760 Z-3.766
G01 X287.707 Y83.188 Z-3.797
G01 X287.502 Y83.630 Z-3.807
G01 X287.314 Y84.171 Z-3.797
G01 X287.189 Y84.643 Z-3.779
G01 X287.015 Y85.527 Z-3.741
G01 X286.892 Y86.462 Z-3.707
G01 X286.809 Y87.542 Z-3.679
G01 X286.776 Y88.521 Z-3.659
G01 X286.767 Y89.469 Z-3.650
G01 X286.767 Y115.752 
G01 X286.767 Y116.290 Z-3.690
G01 X286.767 Y116.836 Z-3.808
G01 X286.767 Y117.301 Z-3.965
G01 X287.435 Y117.301 Z-3.361
G01 X288.137 Y117.301 Z-2.757
G01 X288.513 Y117.301 Z-2.455
G01 X289.149 Y117.301 Z-2.002
G01 X289.404 Y117.301 Z-1.851
G01 X289.717 Y117.301 Z-1.700
G01 X290.074 Y117.301 Z-1.586
G01 X290.418 Y117.301 Z-1.549
G01 X298.338 Y117.301 
G01 X299.887 Y115.752 Z0.000
G01 X298.338 Y117.301 Z-1.549
G01 X299.887 Y118.850 Z0.000
G01 X298.338 Y117.301 Z-1.549
G01 X290.418 Y117.301 
G01 X290.074 Y117.301 Z-1.586
G01 X289.717 Y117.301 Z-1.700
G01 X289.404 Y117.301 Z-1.851
G01 X288.922 Y117.301 Z-2.153
G01 X288.513 Y117.301 Z-2.455
G01 X288.137 Y117.301 Z-2.757
G01 X287.435 Y117.301 Z-3.361
G01 X286.767 Y117.301 Z-3.965
G01 X286.540 Y117.836 Z-4.008
G01 X286.310 Y118.379 Z-4.135
G01 X286.113 Y118.842 Z-4.304
G00 Z5.000
G00 X333.680 Y107.991  F4000.0
G01 Z-4.407 F200.0 M3
G01 X334.637 Y107.243 Z-3.659 F2000.0
G01 X335.334 Y106.663 Z-3.079
G01 X336.081 Y106.013 Z-2.429
G01 X336.881 Y105.287 Z-1.703
G01 X337.736 Y104.479 Z-0.895
G01 X338.648 Y103.584 Z0.000
G01 X337.736 Y104.479 Z-0.895
G01 X336.881 Y105.287 Z-1.703
G01 X336.081 Y106.013 Z-2.429
G01 X335.334 Y106.663 Z-3.079
G01 X334.637 Y107.243 Z-3.659
G01 X333.680 Y107.991 Z-4.407
G01 X333.497 Y108.869 Z-4.316
G01 X333.354 Y109.431 Z-4.243
G01 X333.105 Y110.240 Z-4.121
G01 X332.806 Y111.050 Z-3.983
G01 X332.461 Y111.814 Z-3.833
G01 X332.036 Y112.602 Z-3.672
G01 X331.659 Y113.189 Z-3.546
G01 X331.110 Y113.925 Z-3.382
G01 X330.521 Y114.608 Z-3.220
G01 X329.893 Y115.233 Z-3.056
G01 X329.232 Y115.801 Z-2.895
G01 X328.541 Y116.307 Z-2.733
G01 X327.741 Y116.805 Z-2.560
G01 X327.092 Y117.147 Z-2.423
G01 X326.349 Y117.480 Z-2.276
G01 X325.603 Y117.760 Z-2.135
G01 X324.862 Y117.990 Z-2.003
G01 X324.125 Y118.171 Z-1.883
G01 X323.395 Y118.307 Z-1.775
G01 X322.673 Y118.399 Z-1.680
G01 X321.957 Y118.451 Z-1.603
G01 X321.246 Y118.464 Z-1.540
G01 X320.360 Y118.420 Z-1.479
G01 X319.493 Y118.320 Z-1.431
G01 X318.562 Y118.143 Z-1.396
G01 X317.825 Y117.949 Z-1.383
G01 X317.013 Y117.678 Z-1.377
G01 X316.120 Y117.300 Z-1.387
G01 X315.504 Y116.991 Z-1.406
G01 X314.677 Y116.504 Z-1.437
G01 X314.085 Y116.103 Z-1.470
G01 X313.348 Y115.539 Z-1.515
G01 X312.764 Y115.034 Z-1.560
G01 X312.063 Y114.347 Z-1.622
G01 X311.550 Y113.779 Z-1.683
G01 X310.908 Y112.971 Z-1.773
G01 X310.475 Y112.351 Z-1.851
G01 X309.947 Y111.487 Z-1.956
G01 X309.588 Y110.816 Z-2.041
G01 X309.212 Y110.007 Z-2.142
G01 X308.830 Y109.041 Z-2.256
G01 X308.583 Y108.313 Z-2.345
G01 X308.329 Y107.425 Z-2.448
G01 X308.097 Y106.435 Z-2.558
G01 X308.015 Y105.894 Z-2.636
G01 X307.992 Y105.547 Z-2.715
G01 X308.000 Y105.175 Z-2.814
G01 X308.024 Y104.867 Z-2.913
G01 X307.920 Y104.559 Z-2.888
G01 X307.825 Y104.169 Z-2.874
G01 X307.733 Y103.573 Z-2.905
G01 X307.644 Y102.341 Z-3.010
G01 X307.603 Y101.148 Z-3.104
G01 X307.606 Y99.974 Z-3.194
G01 X307.651 Y98.818 Z-3.283
G01 X307.736 Y97.680 Z-3.373
G01 X307.863 Y96.560 Z-3.466
G01 X308.033 Y95.457 Z-3.558
G01 X308.249 Y94.371 Z-3.652
G01 X308.556 Y93.151 Z-3.760
G01 X308.827 Y92.259 Z-3.835
G01 X309.197 Y91.236 Z-3.920
G01 X309.620 Y90.238 Z-4.000
G01 X310.099 Y89.267 Z-4.076
G01 X310.639 Y88.332 Z-4.138
G01 X311.105 Y87.620 Z-4.181
G01 X311.743 Y86.753 Z-4.227
G01 X312.416 Y85.958 Z-4.254
G01 X313.105 Y85.230 Z-4.269
G01 X313.980 Y84.410 Z-4.275
G01 X314.746 Y83.777 Z-4.271
G01 X315.545 Y83.199 Z-4.255
G01 X316.373 Y82.677 Z-4.227
G01 X317.230 Y82.219 Z-4.184
G01 X318.111 Y81.822 Z-4.129
G01 X319.012 Y81.494 Z-4.058
G01 X319.928 Y81.228 Z-3.980
G01 X320.854 Y81.027 Z-3.892
G01 X321.785 Y80.887 Z-3.799
G01 X322.719 Y80.802 Z-3.706
G01 X323.652 Y80.781 Z-3.603
G01 X324.584 Y80.818 Z-3.495
G01 X325.476 Y80.917 Z-3.376
G01 X326.355 Y81.071 Z-3.249
G01 X327.266 Y81.300 Z-3.094
G01 X328.092 Y81.567 Z-2.946
G01 X328.931 Y81.907 Z-2.776
G01 X329.454 Y82.154 Z-2.666
G01 X329.961 Y82.419 Z-2.556
G01 X330.451 Y82.703 Z-2.447
G01 X331.037 Y83.081 Z-2.313
G01 X331.817 Y83.652 Z-2.127
G01 X332.588 Y84.293 Z-1.951
G01 X333.377 Y85.032 Z-1.781
G01 X333.876 Y85.561 Z-1.679
G01 X334.535 Y86.345 Z-1.549
G01 X334.875 Y86.795 Z-1.488
G01 X335.225 Y87.294 Z-1.426
G01 X335.797 Y88.211 Z-1.321
G01 X336.313 Y89.158 Z-1.227
G01 X336.661 Y89.885 Z-1.154
G01 X336.917 Y90.470 Z-1.098
G01 X337.179 Y91.133 Z-1.032
G01 X337.591 Y92.336 Z-0.905
G01 X337.694 Y92.679 Z-0.869
G01 X338.648 Y93.097 Z0.000
G01 X337.694 Y92.679 Z-0.869
G01 X337.276 Y93.982 Z0.000
G01 X337.694 Y92.679 Z-0.869
G01 X337.376 Y91.682 Z-0.975
G01 X337.147 Y91.051 Z-1.039
G01 X336.904 Y90.440 Z-1.100
G01 X336.625 Y89.804 Z-1.163
G01 X336.114 Y88.777 Z-1.263
G01 X335.614 Y87.903 Z-1.357
G01 X335.170 Y87.213 Z-1.435
G01 X334.806 Y86.700 Z-1.501
G01 X334.182 Y85.912 Z-1.616
G01 X333.757 Y85.431 Z-1.701
G01 X333.045 Y84.711 Z-1.850
G01 X332.240 Y83.992 Z-2.031
G01 X331.639 Y83.515 Z-2.171
G01 X330.839 Y82.950 Z-2.356
G01 X330.361 Y82.649 Z-2.466
G01 X329.849 Y82.357 Z-2.582
G01 X329.259 Y82.057 Z-2.710
G01 X328.392 Y81.682 Z-2.884
G01 X327.513 Y81.372 Z-3.053
G01 X326.682 Y81.146 Z-3.193
G01 X325.771 Y80.961 Z-3.337
G01 X325.182 Y80.878 Z-3.420
G01 X324.388 Y80.806 Z-3.518
G01 X323.446 Y80.780 Z-3.627
G01 X322.504 Y80.818 Z-3.727
G01 X321.564 Y80.915 Z-3.822
G01 X320.628 Y81.069 Z-3.915
G01 X319.702 Y81.288 Z-3.999
G01 X318.752 Y81.580 Z-4.082
G01 X317.893 Y81.914 Z-4.142
G01 X317.018 Y82.323 Z-4.197
G01 X316.176 Y82.795 Z-4.234
G01 X315.360 Y83.324 Z-4.261
G01 X314.577 Y83.911 Z-4.272
G01 X313.768 Y84.597 Z-4.277
G01 X313.105 Y85.230 Z-4.269
G01 X312.416 Y85.958 Z-4.254
G01 X311.741 Y86.756 Z-4.227
G01 X311.105 Y87.620 Z-4.181
G01 X310.639 Y88.332 Z-4.138
G01 X310.098 Y89.267 Z-4.076
G01 X309.620 Y90.238 Z-4.000
G01 X309.197 Y91.236 Z-3.920
G01 X308.770 Y92.439 Z-3.819
G01 X308.467 Y93.477 Z-3.729
G01 X308.214 Y94.535 Z-3.637
G01 X308.006 Y95.610 Z-3.546
G01 X307.809 Y96.988 Z-3.434
G01 X307.703 Y98.055 Z-3.347
G01 X307.630 Y99.227 Z-3.255
G01 X307.600 Y100.366 Z-3.168
G01 X307.609 Y101.469 Z-3.082
G01 X307.654 Y102.538 Z-2.996
G01 X307.754 Y103.749 Z-2.890
G01 X307.825 Y104.169 Z-2.874
G01 X307.920 Y104.559 Z-2.888
G01 X308.024 Y104.867 Z-2.913
G01 X308.979 Y104.867 Z-2.098
G01 X309.538 Y104.867 Z-1.691
G01 X309.888 Y104.867 Z-1.487
G01 X310.118 Y104.867 Z-1.385
G01 X310.458 Y104.867 Z-1.296
G01 X310.639 Y104.867 Z-1.283
G01 X329.400 Y104.867 
G01 X329.743 Y104.890 Z-1.306
G01 X330.086 Y104.959 Z-1.375
G01 X330.370 Y105.051 Z-1.467
G01 X330.772 Y105.234 Z-1.650
G01 X331.081 Y105.418 Z-1.833
G01 X331.341 Y105.601 Z-2.017
G01 X331.777 Y105.968 Z-2.384
G01 X332.144 Y106.335 Z-2.751
G01 X333.680 Y107.991 Z-4.407
G00 Z5.000
G01 Z-4.407 F200.0 M3
G01 X331.967 Y106.151 Z-2.567 F2000.0
G01 X331.570 Y105.784 Z-2.200
G01 X331.341 Y105.601 Z-2.017
G01 X331.081 Y105.418 Z-1.833
G01 X330.772 Y105.234 Z-1.650
G01 X330.370 Y105.051 Z-1.467
G01 X330.086 Y104.959 Z-1.375
G01 X329.743 Y104.890 Z-1.306
G01 X329.400 Y104.867 Z-1.283
G01 X310.639 Y104.867 
G01 X310.382 Y104.867 Z-1.309
G01 X310.118 Y104.867 Z-1.385
G01 X309.702 Y104.867 Z-1.589
G01 X309.245 Y104.867 Z-1.894
G01 X308.487 Y104.867 Z-2.505
G01 X308.024 Y104.867 Z-2.913
G01 X308.000 Y105.175 Z-2.814
G01 X307.992 Y105.547 Z-2.715
G01 X308.015 Y105.894 Z-2.636
G01 X308.097 Y106.435 Z-2.558
G01 X308.329 Y107.425 Z-2.448
G01 X308.638 Y108.480 Z-2.323
G01 X308.877 Y109.174 Z-2.242
G01 X309.212 Y110.007 Z-2.142
G01 X309.646 Y110.928 Z-2.025
G01 X310.009 Y111.597 Z-1.944
G01 X310.556 Y112.471 Z-1.834
G01 X310.990 Y113.082 Z-1.762
G01 X311.550 Y113.779 Z-1.683
G01 X312.142 Y114.431 Z-1.615
G01 X312.764 Y115.034 Z-1.560
G01 X313.412 Y115.592 Z-1.512
G01 X314.228 Y116.204 Z-1.459
G01 X314.782 Y116.571 Z-1.434
G01 X315.593 Y117.037 Z-1.401
G01 X316.253 Y117.362 Z-1.387
G01 X317.080 Y117.702 Z-1.377
G01 X317.825 Y117.949 Z-1.383
G01 X318.648 Y118.162 Z-1.400
G01 X319.582 Y118.332 Z-1.434
G01 X320.360 Y118.420 Z-1.479
G01 X321.363 Y118.464 Z-1.549
G01 X322.152 Y118.442 Z-1.625
G01 X322.799 Y118.386 Z-1.696
G01 X323.526 Y118.286 Z-1.793
G01 X324.259 Y118.141 Z-1.904
G01 X324.997 Y117.951 Z-2.027
G01 X325.935 Y117.642 Z-2.201
G01 X326.569 Y117.388 Z-2.321
G01 X327.254 Y117.067 Z-2.456
G01 X327.995 Y116.656 Z-2.612
G01 X328.713 Y116.189 Z-2.773
G01 X329.402 Y115.662 Z-2.935
G01 X330.059 Y115.077 Z-3.099
G01 X330.678 Y114.435 Z-3.262
G01 X331.257 Y113.739 Z-3.425
G01 X331.822 Y112.944 Z-3.597
G01 X332.213 Y112.291 Z-3.735
G01 X332.578 Y111.571 Z-3.884
G01 X332.876 Y110.870 Z-4.014
G01 X333.191 Y109.980 Z-4.164
G01 X333.402 Y109.245 Z-4.266
G01 X333.625 Y108.291 Z-4.379
G01 X333.680 Y107.991 Z-4.407
G00 Z5.000
G00 X351.132 Y104.281  F4000.0
G01 Z-3.892 F200.0 M3
G01 X351.265 Y103.267 Z-3.874 F2000.0
G01 X351.465 Y102.291 Z-3.824
G01 X351.636 Y101.648 Z-3.770
G01 X351.961 Y100.683 Z-3.665
G01 X352.226 Y100.032 Z-3.574
G01 X352.578 Y99.294 Z-3.453
G01 X353.038 Y98.480 Z-3.295
G01 X353.441 Y97.863 Z-3.153
G01 X353.930 Y97.209 Z-2.983
G01 X354.450 Y96.597 Z-2.807
G01 X354.996 Y96.028 Z-2.627
G01 X355.570 Y95.493 Z-2.445
G01 X356.137 Y95.006 Z-2.282
G01 X356.465 Y94.682 Z-2.236
G01 X356.662 Y94.459 Z-2.238
G01 X356.455 Y93.925 Z-1.773
G01 X356.268 Y93.444 Z-1.424
G01 X356.187 Y93.236 Z-1.308
G01 X356.076 Y92.985 Z-1.194
G01 X355.994 Y92.836 Z-1.137
G01 X355.783 Y92.537 Z-1.057
G01 X355.560 Y92.305 Z-1.040
G01 X354.620 Y91.429 Z-1.098
G01 X353.865 Y90.645 Z-1.189
G01 X353.302 Y89.979 Z-1.303
G01 X352.772 Y89.264 Z-1.461
G01 X352.322 Y88.570 Z-1.641
G01 X351.948 Y87.881 Z-1.847
G01 X351.681 Y87.265 Z-2.058
G01 X351.535 Y86.846 Z-2.217
G01 X351.400 Y86.335 Z-2.426
G01 X351.316 Y85.812 Z-2.647
G01 X351.278 Y85.276 Z-2.880
G01 X351.285 Y84.700 Z-3.143
G01 X351.342 Y84.114 Z-3.416
G01 X351.446 Y83.630 Z-3.633
G01 X351.460 Y83.591 Z-3.648
G01 X351.334 Y83.554 Z-3.521
G01 X351.460 Y83.591 Z-3.648
G01 X351.753 Y83.277 Z-3.641
G01 X352.230 Y82.860 Z-3.619
G01 X352.727 Y82.495 Z-3.610
G01 X353.297 Y82.140 Z-3.622
G01 X353.735 Y81.897 Z-3.648
G01 X353.566 Y80.825 Z-2.656
G01 X353.501 Y80.376 Z-2.264
G01 X353.430 Y79.891 Z-1.871
G01 X353.391 Y79.621 Z-1.675
G01 X353.317 Y79.141 Z-1.388
G01 X353.213 Y78.753 Z-1.205
G01 X353.101 Y78.481 Z-1.107
G01 X352.961 Y78.229 Z-1.049
G01 X352.756 Y77.961 Z-1.030
G01 X351.728 Y76.784 Z-1.100
G01 X350.878 Y75.745 Z-1.202
G01 X350.108 Y74.732 Z-1.344
G01 X349.458 Y73.791 Z-1.517
G01 X349.093 Y73.214 Z-1.645
G01 X348.799 Y72.693 Z-1.765
G01 X348.537 Y72.157 Z-1.887
G01 X348.290 Y71.606 Z-2.031
G01 X348.062 Y71.033 Z-2.197
G01 X347.860 Y70.440 Z-2.382
G01 X347.661 Y69.704 Z-2.637
G01 X347.521 Y68.967 Z-2.918
G01 X347.444 Y68.273 Z-3.200
G01 X347.431 Y67.865 Z-3.361
G01 X347.450 Y67.494 Z-3.498
G01 X347.500 Y67.222 Z-3.581
G01 X347.648 Y66.960 Z-3.578
G01 X347.978 Y66.519 Z-3.538
G01 X348.393 Y66.069 Z-3.478
G01 X348.990 Y65.524 Z-3.396
G01 X349.678 Y64.995 Z-3.318
G01 X350.383 Y64.525 Z-3.254
G01 X351.194 Y64.054 Z-3.196
G01 X351.924 Y63.683 Z-3.153
G01 X352.675 Y63.342 Z-3.113
G01 X353.790 Y62.907 Z-3.063
G01 X354.947 Y62.534 Z-3.008
G01 X356.182 Y62.210 Z-2.960
G01 X357.030 Y62.028 Z-2.926
G01 X357.904 Y61.872 Z-2.891
G01 X358.803 Y61.740 Z-2.855
G01 X359.728 Y61.634 Z-2.817
G01 X360.680 Y61.553 Z-2.778
G01 X361.651 Y61.498 Z-2.736
G01 X362.928 Y61.465 Z-2.680
G01 X364.538 Y61.486 Z-2.596
G01 X365.623 Y61.538 Z-2.533
G01 X366.660 Y61.618 Z-2.465
G01 X367.704 Y61.732 Z-2.389
G01 X368.828 Y61.897 Z-2.298
G01 X369.928 Y62.103 Z-2.200
G01 X371.282 Y62.424 Z-2.065
G01 X372.186 Y62.682 Z-1.973
G01 X373.089 Y62.981 Z-1.879
G01 X374.109 Y63.377 Z-1.770
G01 X375.122 Y63.834 Z-1.660
G01 X376.045 Y64.321 Z-1.568
G01 X376.516 Y64.595 Z-1.522
G01 X377.096 Y64.967 Z-1.470
G01 X377.871 Y65.522 Z-1.417
G01 X378.733 Y66.226 Z-1.371
G01 X379.520 Y66.955 Z-1.334
G01 X379.962 Y67.409 Z-1.319
G01 X380.338 Y67.828 Z-1.310
G01 X380.688 Y68.252 Z-1.305
G01 X381.072 Y68.772 Z-1.305
G01 X381.416 Y69.297 Z-1.312
G01 X381.817 Y70.019 Z-1.329
G01 X382.032 Y70.481 Z-1.350
G01 X382.219 Y70.952 Z-1.376
G01 X382.376 Y71.433 Z-1.408
G01 X382.511 Y71.960 Z-1.449
G01 X382.608 Y72.492 Z-1.496
G01 X382.679 Y73.207 Z-1.563
G01 X382.687 Y73.700 Z-1.619
G01 X382.641 Y74.350 Z-1.706
G01 X382.537 Y74.972 Z-1.810
G01 X382.390 Y75.518 Z-1.912
G01 X382.185 Y76.065 Z-2.031
G01 X381.941 Y76.565 Z-2.153
G01 X381.618 Y77.088 Z-2.289
G01 X381.254 Y77.558 Z-2.421
G01 X380.852 Y77.984 Z-2.549
G01 X380.406 Y78.378 Z-2.672
G01 X379.883 Y78.761 Z-2.801
G01 X379.384 Y79.067 Z-2.914
G01 X378.838 Y79.347 Z-3.024
G01 X378.040 Y79.681 Z-3.152
G01 X377.369 Y79.901 Z-3.240
G01 X376.717 Y80.075 Z-3.302
G01 X375.802 Y80.264 Z-3.359
G01 X374.857 Y80.401 Z-3.393
G01 X373.296 Y80.551 Z-3.410
G01 X370.853 Y80.692 Z-3.427
G01 X367.457 Y80.818 Z-3.445
G01 X363.120 Y80.977 Z-3.414
G01 X361.128 Y81.068 Z-3.384
G01 X359.284 Y81.175 Z-3.355
G01 X357.732 Y81.295 Z-3.337
G01 X356.779 Y81.397 Z-3.338
G01 X355.663 Y81.565 Z-3.375
G01 X354.879 Y81.716 Z-3.425
G01 X354.487 Y81.791 Z-3.473
G01 X353.875 Y81.881 Z-3.608
G01 X353.735 Y81.897 Z-3.648
G01 X352.973 Y82.334 Z-3.614
G01 X352.545 Y82.619 Z-3.610
G01 X351.962 Y83.082 Z-3.629
G01 X351.510 Y83.529 Z-3.649
G01 X351.460 Y83.591 Z-3.648
G01 X351.377 Y83.906 Z-3.511
G01 X351.298 Y84.474 Z-3.249
G01 X351.276 Y84.935 Z-3.035
G01 X351.290 Y85.499 Z-2.781
G01 X351.349 Y86.043 Z-2.546
G01 X351.455 Y86.559 Z-2.331
G01 X351.596 Y87.038 Z-2.144
G01 X351.878 Y87.735 Z-1.897
G01 X352.197 Y88.352 Z-1.701
G01 X352.595 Y89.002 Z-1.524
G01 X352.911 Y89.458 Z-1.419
G01 X353.302 Y89.979 Z-1.303
G01 X353.865 Y90.645 Z-1.189
G01 X354.587 Y91.397 Z-1.102
G01 X355.447 Y92.204 Z-1.044
G01 X355.731 Y92.477 Z-1.048
G01 X355.871 Y92.652 Z-1.081
G01 X355.994 Y92.836 Z-1.137
G01 X356.076 Y92.985 Z-1.194
G01 X356.187 Y93.236 Z-1.308
G01 X356.336 Y93.619 Z-1.540
G01 X356.561 Y94.200 Z-2.005
G01 X356.662 Y94.459 Z-2.238
G01 X357.045 Y94.313 Z-2.056
G01 X357.465 Y94.114 Z-1.902
G01 X358.248 Y93.703 Z-1.703
G01 X358.984 Y93.369 Z-1.542
G01 X359.849 Y93.049 Z-1.387
G01 X360.400 Y92.881 Z-1.308
G01 X361.275 Y92.677 Z-1.207
G01 X361.821 Y92.583 Z-1.161
G01 X362.721 Y92.488 Z-1.107
G01 X363.270 Y92.462 Z-1.089
G01 X364.230 Y92.474 Z-1.078
G01 X365.147 Y92.550 Z-1.096
G01 X365.981 Y92.679 Z-1.137
G01 X366.492 Y92.787 Z-1.177
G01 X367.358 Y93.034 Z-1.266
G01 X368.148 Y93.329 Z-1.373
G01 X368.650 Y93.552 Z-1.457
G01 X369.421 Y93.960 Z-1.602
G01 X369.917 Y94.264 Z-1.709
G01 X370.408 Y94.602 Z-1.825
G01 X371.085 Y95.138 Z-1.996
G01 X371.602 Y95.613 Z-2.145
G01 X372.006 Y96.033 Z-2.273
G01 X372.396 Y96.483 Z-2.407
G01 X372.769 Y96.963 Z-2.545
G01 X373.124 Y97.473 Z-2.686
G01 X373.462 Y98.012 Z-2.830
G01 X373.780 Y98.579 Z-2.976
G01 X374.177 Y99.392 Z-3.176
G01 X374.383 Y99.878 Z-3.284
G01 X374.592 Y100.442 Z-3.398
G01 X374.851 Y101.285 Z-3.552
G01 X374.981 Y101.811 Z-3.630
G01 X375.140 Y102.660 Z-3.737
G01 X375.250 Y103.596 Z-3.819
G01 X375.296 Y104.576 Z-3.869
G01 X375.283 Y105.576 Z-3.887
G01 X375.225 Y106.495 Z-3.885
G01 X375.128 Y107.342 Z-3.866
G01 X374.997 Y108.124 Z-3.829
G01 X374.834 Y108.850 Z-3.774
G01 X374.615 Y109.602 Z-3.691
G01 X374.306 Y110.436 Z-3.566
G01 X373.938 Y111.233 Z-3.409
G01 X373.820 Y111.485 Z-3.368
G01 X373.607 Y112.020 Z-3.322
G01 X373.402 Y112.681 Z-3.344
G01 X373.279 Y113.208 Z-3.422
G01 X373.200 Y113.687 Z-3.530
G01 X373.597 Y114.011 Z-3.201
G01 X374.077 Y114.357 Z-2.855
G01 X374.354 Y114.530 Z-2.683
G01 X374.846 Y114.789 Z-2.423
G01 X375.264 Y114.962 Z-2.250
G01 X375.528 Y115.048 Z-2.164
G01 X375.871 Y115.135 Z-2.078
G01 X376.286 Y115.200 Z-2.013
G01 X376.701 Y115.221 Z-1.991
G01 X382.779 Y115.222 Z-1.984
G01 X382.904 Y115.222 Z-1.979
G01 X383.611 Y114.512 Z-1.232
G01 X383.925 Y114.175 Z-0.853
G01 X384.186 Y113.976 Z-0.539
G01 X383.925 Y114.175 Z-0.853
G01 X383.611 Y114.512 Z-1.232
G01 X382.904 Y115.222 Z-1.979
G01 X383.391 Y115.711 Z-1.476
G01 X383.606 Y115.937 Z-1.234
G01 X383.886 Y116.285 Z-0.857
G01 X383.981 Y116.409 Z-0.711
G01 X383.793 Y116.161 Z-0.997
G01 X383.606 Y115.937 Z-1.234
G01 X382.988 Y115.301 Z-1.898
G01 X382.904 Y115.222 Z-1.979
G01 X381.957 Y115.221 Z-1.991
G01 X376.701 Y115.221 
G01 X376.286 Y115.200 Z-2.013
G01 X375.871 Y115.135 Z-2.078
G01 X375.528 Y115.048 Z-2.164
G01 X375.042 Y114.876 Z-2.337
G01 X374.669 Y114.703 Z-2.510
G01 X374.354 Y114.530 Z-2.683
G01 X373.827 Y114.184 Z-3.028
G01 X373.382 Y113.838 Z-3.374
G01 X373.200 Y113.687 Z-3.530
G01 X372.914 Y113.891 Z-3.354
G01 X372.484 Y114.237 Z-3.108
G01 X372.242 Y114.449 Z-2.990
G01 X371.860 Y114.829 Z-2.828
G01 X371.313 Y115.393 Z-2.640
G01 X370.639 Y116.014 Z-2.422
G01 X370.140 Y116.427 Z-2.264
G01 X369.677 Y116.774 Z-2.126
G01 X369.211 Y117.093 Z-1.995
G01 X368.742 Y117.384 Z-1.871
G01 X368.271 Y117.647 Z-1.755
G01 X367.729 Y117.915 Z-1.632
G01 X366.942 Y118.246 Z-1.473
G01 X366.386 Y118.438 Z-1.377
G01 X365.916 Y118.578 Z-1.307
G01 X365.339 Y118.716 Z-1.234
G01 X364.496 Y118.864 Z-1.147
G01 X363.598 Y118.952 Z-1.088
G01 X362.613 Y118.975 Z-1.055
G01 X361.647 Y118.923 Z-1.052
G01 X360.757 Y118.802 Z-1.076
G01 X359.948 Y118.627 Z-1.124
G01 X359.409 Y118.475 Z-1.172
G01 X358.600 Y118.183 Z-1.262
G01 X357.826 Y117.830 Z-1.373
G01 X357.339 Y117.570 Z-1.456
G01 X356.581 Y117.096 Z-1.600
G01 X356.107 Y116.756 Z-1.702
G01 X355.685 Y116.423 Z-1.800
G01 X355.177 Y115.972 Z-1.929
G01 X354.700 Y115.493 Z-2.063
G01 X354.090 Y114.786 Z-2.254
G01 X353.724 Y114.304 Z-2.385
G01 X353.373 Y113.794 Z-2.520
G01 X353.039 Y113.256 Z-2.660
G01 X352.722 Y112.691 Z-2.804
G01 X352.424 Y112.099 Z-2.949
G01 X352.150 Y111.480 Z-3.093
G01 X351.813 Y110.591 Z-3.285
G01 X351.648 Y110.071 Z-3.385
G01 X351.485 Y109.470 Z-3.488
G01 X351.287 Y108.538 Z-3.629
G01 X351.203 Y108.013 Z-3.692
G01 X351.119 Y107.249 Z-3.768
G01 X351.065 Y106.278 Z-3.837
G01 X351.066 Y105.322 Z-3.878
G01 X351.132 Y104.281 Z-3.892
G00 Z5.000
G01 Z-3.892 F200.0 M3
G01 X351.065 Y105.339 Z-3.877 F2000.0
G01 X351.068 Y106.387 Z-3.831
G01 X351.128 Y107.350 Z-3.759
G01 X351.218 Y108.113 Z-3.680
G01 X351.386 Y109.046 Z-3.557
G01 X351.511 Y109.576 Z-3.471
G01 X351.710 Y110.273 Z-3.345
G01 X352.005 Y111.120 Z-3.175
G01 X352.224 Y111.658 Z-3.054
G01 X352.476 Y112.209 Z-2.924
G01 X352.780 Y112.800 Z-2.777
G01 X353.102 Y113.364 Z-2.633
G01 X353.444 Y113.903 Z-2.493
G01 X353.836 Y114.459 Z-2.346
G01 X354.253 Y114.989 Z-2.202
G01 X354.700 Y115.493 Z-2.063
G01 X355.272 Y116.061 Z-1.901
G01 X355.769 Y116.491 Z-1.779
G01 X356.225 Y116.845 Z-1.678
G01 X356.925 Y117.321 Z-1.532
G01 X357.407 Y117.609 Z-1.444
G01 X358.177 Y117.999 Z-1.319
G01 X358.707 Y118.226 Z-1.250
G01 X359.518 Y118.508 Z-1.160
G01 X360.319 Y118.715 Z-1.099
G01 X360.904 Y118.827 Z-1.072
G01 X361.703 Y118.928 Z-1.052
G01 X362.613 Y118.975 Z-1.055
G01 X363.537 Y118.956 Z-1.085
G01 X364.083 Y118.914 Z-1.117
G01 X364.971 Y118.788 Z-1.191
G01 X365.519 Y118.676 Z-1.253
G01 X365.994 Y118.556 Z-1.318
G01 X366.578 Y118.376 Z-1.411
G01 X367.329 Y118.092 Z-1.547
G01 X367.889 Y117.839 Z-1.666
G01 X368.361 Y117.598 Z-1.776
G01 X368.832 Y117.330 Z-1.894
G01 X369.301 Y117.034 Z-2.020
G01 X369.766 Y116.710 Z-2.153
G01 X370.240 Y116.348 Z-2.295
G01 X370.835 Y115.841 Z-2.483
G01 X371.445 Y115.263 Z-2.686
G01 X371.975 Y114.710 Z-2.871
G01 X372.242 Y114.449 Z-2.990
G01 X372.612 Y114.130 Z-3.177
G01 X372.914 Y113.891 Z-3.354
G01 X373.200 Y113.687 Z-3.530
G01 X373.279 Y113.208 Z-3.422
G01 X373.402 Y112.681 Z-3.344
G01 X373.607 Y112.020 Z-3.322
G01 X373.820 Y111.485 Z-3.368
G01 X374.281 Y110.496 Z-3.556
G01 X374.528 Y109.858 Z-3.659
G01 X374.740 Y109.195 Z-3.741
G01 X374.920 Y108.494 Z-3.803
G01 X375.073 Y107.711 Z-3.850
G01 X375.196 Y106.795 Z-3.879
G01 X375.271 Y105.858 Z-3.886
G01 X375.298 Y104.903 Z-3.875
G01 X375.273 Y103.933 Z-3.838
G01 X375.203 Y103.124 Z-3.781
G01 X375.061 Y102.201 Z-3.684
G01 X374.956 Y101.701 Z-3.615
G01 X374.718 Y100.823 Z-3.472
G01 X374.553 Y100.327 Z-3.376
G01 X374.300 Y99.678 Z-3.238
G01 X373.943 Y98.894 Z-3.057
G01 X373.677 Y98.386 Z-2.929
G01 X373.376 Y97.868 Z-2.793
G01 X373.041 Y97.346 Z-2.653
G01 X372.679 Y96.840 Z-2.512
G01 X372.290 Y96.354 Z-2.371
G01 X371.871 Y95.885 Z-2.231
G01 X371.419 Y95.436 Z-2.093
G01 X370.931 Y95.008 Z-1.957
G01 X370.256 Y94.495 Z-1.787
G01 X369.842 Y94.215 Z-1.693
G01 X369.074 Y93.768 Z-1.533
G01 X368.575 Y93.517 Z-1.444
G01 X367.791 Y93.187 Z-1.322
G01 X367.236 Y92.994 Z-1.253
G01 X366.420 Y92.771 Z-1.171
G01 X365.538 Y92.602 Z-1.112
G01 X364.637 Y92.500 Z-1.082
G01 X363.708 Y92.460 Z-1.080
G01 X363.206 Y92.464 Z-1.092
G01 X362.300 Y92.524 Z-1.129
G01 X361.753 Y92.593 Z-1.166
G01 X360.872 Y92.762 Z-1.249
G01 X360.323 Y92.902 Z-1.318
G01 X359.457 Y93.185 Z-1.453
G01 X358.899 Y93.405 Z-1.559
G01 X358.035 Y93.809 Z-1.752
G01 X357.465 Y94.114 Z-1.902
G01 X357.045 Y94.313 Z-2.056
G01 X356.662 Y94.459 Z-2.238
G01 X356.465 Y94.682 Z-2.236
G01 X356.137 Y95.006 Z-2.282
G01 X355.246 Y95.789 Z-2.549
G01 X354.650 Y96.382 Z-2.743
G01 X354.120 Y96.979 Z-2.921
G01 X353.648 Y97.577 Z-3.083
G01 X353.230 Y98.178 Z-3.228
G01 X352.857 Y98.784 Z-3.358
G01 X352.509 Y99.430 Z-3.477
G01 X352.153 Y100.204 Z-3.598
G01 X351.841 Y101.010 Z-3.703
G01 X351.546 Y101.969 Z-3.799
G01 X351.324 Y102.939 Z-3.861
G01 X351.170 Y103.938 Z-3.891
G01 X351.132 Y104.281 Z-3.892
G00 Z5.000
G00 X353.735 Y81.897  F4000.0
G01 Z-3.648 F200.0 M3
G01 X354.243 Y81.831 Z-3.518 F2000.0
G01 X354.487 Y81.791 Z-3.473
G01 X355.074 Y81.676 Z-3.410
G01 X356.268 Y81.466 Z-3.353
G01 X356.986 Y81.372 Z-3.335
G01 X357.969 Y81.274 Z-3.337
G01 X359.377 Y81.169 Z-3.357
G01 X361.174 Y81.066 Z-3.385
G01 X365.215 Y80.895 Z-3.434
G01 X367.547 Y80.816 Z-3.445
G01 X371.574 Y80.658 Z-3.419
G01 X373.296 Y80.551 Z-3.410
G01 X374.596 Y80.431 Z-3.395
G01 X375.645 Y80.290 Z-3.368
G01 X376.373 Y80.152 Z-3.329
G01 X377.134 Y79.970 Z-3.262
G01 X377.980 Y79.703 Z-3.162
G01 X378.557 Y79.472 Z-3.075
G01 X379.151 Y79.193 Z-2.961
G01 X379.651 Y78.910 Z-2.855
G01 X380.167 Y78.562 Z-2.734
G01 X380.636 Y78.184 Z-2.610
G01 X381.080 Y77.753 Z-2.478
G01 X381.440 Y77.329 Z-2.356
G01 X381.786 Y76.831 Z-2.220
G01 X382.088 Y76.281 Z-2.083
G01 X382.250 Y75.909 Z-1.996
G01 X382.463 Y75.276 Z-1.865
G01 X382.607 Y74.609 Z-1.749
G01 X382.677 Y73.967 Z-1.653
G01 X382.683 Y73.311 Z-1.574
G01 X382.648 Y72.819 Z-1.524
G01 X382.579 Y72.314 Z-1.477
G01 X382.477 Y71.819 Z-1.436
G01 X382.346 Y71.334 Z-1.400
G01 X382.185 Y70.859 Z-1.371
G01 X381.979 Y70.358 Z-1.346
G01 X381.718 Y69.827 Z-1.325
G01 X381.305 Y69.121 Z-1.306
G01 X380.966 Y68.624 Z-1.302
G01 X380.645 Y68.199 Z-1.305
G01 X380.257 Y67.735 Z-1.313
G01 X379.560 Y66.995 Z-1.333
G01 X378.733 Y66.226 Z-1.371
G01 X377.871 Y65.522 Z-1.417
G01 X377.027 Y64.920 Z-1.476
G01 X376.424 Y64.540 Z-1.530
G01 X375.569 Y64.061 Z-1.615
G01 X374.595 Y63.587 Z-1.717
G01 X373.687 Y63.208 Z-1.810
G01 X372.920 Y62.923 Z-1.894
G01 X372.057 Y62.641 Z-1.988
G01 X371.004 Y62.350 Z-2.097
G01 X369.928 Y62.103 Z-2.200
G01 X368.573 Y61.857 Z-2.316
G01 X367.604 Y61.721 Z-2.396
G01 X366.554 Y61.608 Z-2.474
G01 X365.376 Y61.522 Z-2.551
G01 X364.168 Y61.474 Z-2.619
G01 X362.928 Y61.465 Z-2.680
G01 X361.369 Y61.512 Z-2.746
G01 X360.381 Y61.576 Z-2.788
G01 X359.417 Y61.667 Z-2.827
G01 X358.476 Y61.785 Z-2.865
G01 X357.559 Y61.930 Z-2.902
G01 X356.666 Y62.103 Z-2.937
G01 X355.795 Y62.304 Z-2.973
G01 X354.947 Y62.534 Z-3.008
G01 X353.790 Y62.907 Z-3.063
G01 X353.042 Y63.190 Z-3.098
G01 X352.319 Y63.498 Z-3.135
G01 X351.621 Y63.831 Z-3.174
G01 X350.947 Y64.190 Z-3.215
G01 X350.206 Y64.637 Z-3.268
G01 X349.523 Y65.108 Z-3.332
G01 X348.990 Y65.524 Z-3.396
G01 X348.393 Y66.069 Z-3.478
G01 X347.978 Y66.519 Z-3.538
G01 X347.648 Y66.960 Z-3.578
G01 X347.493 Y67.239 Z-3.578
G01 X347.444 Y67.578 Z-3.469
G01 X347.437 Y68.139 Z-3.252
G01 X347.484 Y68.706 Z-3.023
G01 X347.613 Y69.484 Z-2.719
G01 X347.782 Y70.174 Z-2.471
G01 X347.919 Y70.624 Z-2.323
G01 X348.134 Y71.223 Z-2.142
G01 X348.350 Y71.744 Z-1.993
G01 X348.592 Y72.274 Z-1.859
G01 X348.850 Y72.792 Z-1.744
G01 X349.143 Y73.295 Z-1.626
G01 X349.751 Y74.228 Z-1.432
G01 X350.484 Y75.236 Z-1.268
G01 X351.316 Y76.289 Z-1.143
G01 X352.206 Y77.340 Z-1.061
G01 X352.791 Y78.002 Z-1.029
G01 X352.961 Y78.229 Z-1.049
G01 X353.112 Y78.505 Z-1.114
G01 X353.213 Y78.753 Z-1.205
G01 X353.317 Y79.141 Z-1.388
G01 X353.391 Y79.621 Z-1.675
G01 X353.430 Y79.891 Z-1.871
G01 X353.501 Y80.376 Z-2.264
G01 X353.629 Y81.256 Z-3.048
G01 X353.735 Y81.897 Z-3.648
G00 Z5.000
G00 X419.211 Y107.991  F4000.0
G01 Z-4.407 F200.0 M3
G01 X420.168 Y107.243 Z-3.659 F2000.0
G01 X420.865 Y106.663 Z-3.079
G01 X421.612 Y106.013 Z-2.429
G01 X422.412 Y105.287 Z-1.703
G01 X423.267 Y104.479 Z-0.895
G01 X424.179 Y103.584 Z0.000
G01 X423.267 Y104.479 Z-0.895
G01 X422.412 Y105.287 Z-1.703
G01 X421.612 Y106.013 Z-2.429
G01 X420.865 Y106.663 Z-3.079
G01 X420.168 Y107.243 Z-3.659
G01 X419.211 Y107.991 Z-4.407
G01 X419.028 Y108.869 Z-4.316
G01 X418.885 Y109.431 Z-4.243
G01 X418.636 Y110.240 Z-4.121
G01 X418.337 Y111.050 Z-3.983
G01 X417.992 Y111.814 Z-3.833
G01 X417.567 Y112.602 Z-3.672
G01 X417.190 Y113.189 Z-3.546
G01 X416.641 Y113.925 Z-3.382
G01 X416.052 Y114.608 Z-3.220
G01 X415.424 Y115.233 Z-3.056
G01 X414.763 Y115.801 Z-2.895
G01 X414.072 Y116.307 Z-2.733
G01 X413.272 Y116.805 Z-2.560
G01 X412.623 Y117.147 Z-2.423
G01 X411.880 Y117.480 Z-2.276
G01 X411.134 Y117.760 Z-2.135
G01 X410.392 Y117.990 Z-2.003
G01 X409.656 Y118.171 Z-1.883
G01 X408.926 Y118.307 Z-1.775
G01 X408.204 Y118.399 Z-1.680
G01 X407.488 Y118.451 Z-1.603
G01 X406.777 Y118.464 Z-1.540
G01 X405.891 Y118.420 Z-1.479
G01 X405.024 Y118.320 Z-1.431
G01 X404.093 Y118.143 Z-1.396
G01 X403.356 Y117.949 Z-1.383
G01 X402.544 Y117.678 Z-1.377
G01 X401.651 Y117.300 Z-1.387
G01 X401.035 Y116.991 Z-1.406
G01 X400.208 Y116.504 Z-1.437
G01 X399.616 Y116.103 Z-1.470
G01 X398.879 Y115.539 Z-1.515
G01 X398.295 Y115.034 Z-1.560
G01 X397.594 Y114.347 Z-1.622
G01 X397.081 Y113.779 Z-1.683
G01 X396.439 Y112.971 Z-1.773
G01 X396.006 Y112.351 Z-1.851
G01 X395.478 Y111.487 Z-1.956
G01 X395.119 Y110.816 Z-2.041
G01 X394.743 Y110.007 Z-2.142
G01 X394.361 Y109.041 Z-2.256
G01 X394.114 Y108.313 Z-2.345
G01 X393.860 Y107.425 Z-2.448
G01 X393.628 Y106.435 Z-2.558
G01 X393.546 Y105.894 Z-2.636
G01 X393.523 Y105.547 Z-2.715
G01 X393.531 Y105.175 Z-2.814
G01 X393.555 Y104.867 Z-2.913
G01 X393.451 Y104.559 Z-2.888
G01 X393.356 Y104.169 Z-2.874
G01 X393.264 Y103.573 Z-2.905
G01 X393.175 Y102.341 Z-3.010
G01 X393.134 Y101.148 Z-3.104
G01 X393.137 Y99.974 Z-3.194
G01 X393.182 Y98.818 Z-3.283
G01 X393.267 Y97.680 Z-3.373
G01 X393.394 Y96.560 Z-3.466
G01 X393.564 Y95.457 Z-3.558
G01 X393.780 Y94.371 Z-3.652
G01 X394.087 Y93.151 Z-3.760
G01 X394.358 Y92.259 Z-3.835
G01 X394.728 Y91.236 Z-3.920
G01 X395.151 Y90.238 Z-4.000
G01 X395.630 Y89.267 Z-4.076
G01 X396.170 Y88.332 Z-4.138
G01 X396.636 Y87.620 Z-4.181
G01 X397.274 Y86.753 Z-4.227
G01 X397.947 Y85.958 Z-4.254
G01 X398.636 Y85.230 Z-4.269
G01 X399.511 Y84.410 Z-4.275
G01 X400.277 Y83.777 Z-4.271
G01 X401.076 Y83.199 Z-4.255
G01 X401.904 Y82.677 Z-4.227
G01 X402.761 Y82.219 Z-4.184
G01 X403.642 Y81.822 Z-4.129
G01 X404.543 Y81.494 Z-4.058
G01 X405.459 Y81.228 Z-3.980
G01 X406.385 Y81.027 Z-3.892
G01 X407.316 Y80.887 Z-3.799
G01 X408.249 Y80.802 Z-3.706
G01 X409.183 Y80.781 Z-3.603
G01 X410.115 Y80.818 Z-3.495
G01 X411.007 Y80.917 Z-3.376
G01 X411.886 Y81.071 Z-3.249
G01 X412.797 Y81.300 Z-3.094
G01 X413.623 Y81.567 Z-2.946
G01 X414.462 Y81.907 Z-2.776
G01 X414.985 Y82.154 Z-2.666
G01 X415.492 Y82.419 Z-2.556
G01 X415.982 Y82.703 Z-2.447
G01 X416.568 Y83.081 Z-2.313
G01 X417.348 Y83.652 Z-2.127
G01 X418.119 Y84.293 Z-1.951
G01 X418.908 Y85.032 Z-1.781
G01 X419.407 Y85.561 Z-1.679
G01 X420.066 Y86.345 Z-1.549
G01 X420.406 Y86.795 Z-1.488
G01 X420.756 Y87.294 Z-1.426
G01 X421.328 Y88.211 Z-1.321
G01 X421.844 Y89.158 Z-1.227
G01 X422.192 Y89.885 Z-1.154
G01 X422.448 Y90.470 Z-1.098
G01 X422.710 Y91.133 Z-1.032
G01 X423.122 Y92.336 Z-0.905
G01 X423.225 Y92.679 Z-0.869
G01 X424.179 Y93.097 Z0.000
G01 X423.225 Y92.679 Z-0.869
G01 X422.807 Y93.982 Z0.000
G01 X423.225 Y92.679 Z-0.869
G01 X422.907 Y91.682 Z-0.975
G01 X422.678 Y91.051 Z-1.039
G01 X422.435 Y90.440 Z-1.100
G01 X422.156 Y89.804 Z-1.163
G01 X421.645 Y88.777 Z-1.263
G01 X421.145 Y87.903 Z-1.357
G01 X420.701 Y87.213 Z-1.435
G01 X420.337 Y86.700 Z-1.501
G01 X419.713 Y85.912 Z-1.616
G01 X419.288 Y85.431 Z-1.701
G01 X418.576 Y84.711 Z-1.850
G01 X417.771 Y83.992 Z-2.031
G01 X417.170 Y83.515 Z-2.171
G01 X416.370 Y82.950 Z-2.356
G01 X415.892 Y82.649 Z-2.466
G01 X415.380 Y82.357 Z-2.582
G01 X414.790 Y82.057 Z-2.710
G01 X413.923 Y81.682 Z-2.884
G01 X413.044 Y81.372 Z-3.053
G01 X412.213 Y81.146 Z-3.193
G01 X411.302 Y80.961 Z-3.337
G01 X410.713 Y80.878 Z-3.420
G01 X409.919 Y80.806 Z-3.518
G01 X408.977 Y80.780 Z-3.627
G01 X408.035 Y80.818 Z-3.727
G01 X407.095 Y80.915 Z-3.822
G01 X406.159 Y81.069 Z-3.915
G01 X405.233 Y81.288 Z-3.999
G01 X404.283 Y81.580 Z-4.082
G01 X403.424 Y81.914 Z-4.142
G01 X402.549 Y82.323 Z-4.197
G01 X401.707 Y82.795 Z-4.234
G01 X400.891 Y83.324 Z-4.261
G01 X400.108 Y83.911 Z-4.272
G01 X399.299 Y84.597 Z-4.277
G01 X398.636 Y85.230 Z-4.269
G01 X397.947 Y85.958 Z-4.254
G01 X397.272 Y86.756 Z-4.227
G01 X396.636 Y87.620 Z-4.181
G01 X396.170 Y88.332 Z-4.138
G01 X395.629 Y89.267 Z-4.076
G01 X395.151 Y90.238 Z-4.000
G01 X394.728 Y91.236 Z-3.920
G01 X394.301 Y92.439 Z-3.819
G01 X393.998 Y93.477 Z-3.729
G01 X393.745 Y94.535 Z-3.637
G01 X393.537 Y95.610 Z-3.546
G01 X393.340 Y96.988 Z-3.434
G01 X393.234 Y98.055 Z-3.347
G01 X393.161 Y99.227 Z-3.255
G01 X393.131 Y100.366 Z-3.168
G01 X393.140 Y101.469 Z-3.082
G01 X393.185 Y102.538 Z-2.996
G01 X393.285 Y103.749 Z-2.890
G01 X393.356 Y104.169 Z-2.874
G01 X393.451 Y104.559 Z-2.888
G01 X393.555 Y104.867 Z-2.913
G01 X394.510 Y104.867 Z-2.098
G01 X395.069 Y104.867 Z-1.691
G01 X395.419 Y104.867 Z-1.487
G01 X395.649 Y104.867 Z-1.385
G01 X395.989 Y104.867 Z-1.296
G01 X396.170 Y104.867 Z-1.283
G01 X414.931 Y104.867 
G01 X415.274 Y104.890 Z-1.306
G01 X415.617 Y104.959 Z-1.375
G01 X415.901 Y105.051 Z-1.467
G01 X416.303 Y105.234 Z-1.650
G01 X416.612 Y105.418 Z-1.833
G01 X416.871 Y105.601 Z-2.017
G01 X417.308 Y105.968 Z-2.384
G01 X417.675 Y106.335 Z-2.751
G01 X419.211 Y107.991 Z-4.407
G00 Z5.000
G01 Z-4.407 F200.0 M3
G01 X417.498 Y106.151 Z-2.567 F2000.0
G01 X417.101 Y105.784 Z-2.200
G01 X416.871 Y105.601 Z-2.017
G01 X416.612 Y105.418 Z-1.833
G01 X416.303 Y105.234 Z-1.650
G01 X415.901 Y105.051 Z-1.467
G01 X415.617 Y104.959 Z-1.375
G01 X415.274 Y104.890 Z-1.306
G01 X414.931 Y104.867 Z-1.283
G01 X396.170 Y104.867 
G01 X395.913 Y104.867 Z-1.309
G01 X395.649 Y104.867 Z-1.385
G01 X395.233 Y104.867 Z-1.589
G01 X394.776 Y104.867 Z-1.894
G01 X394.018 Y104.867 Z-2.505
G01 X393.555 Y104.867 Z-2.913
G01 X393.531 Y105.175 Z-2.814
G01 X393.523 Y105.547 Z-2.715
G01 X393.546 Y105.894 Z-2.636
G01 X393.628 Y106.435 Z-2.558
G01 X393.860 Y107.425 Z-2.448
G01 X394.169 Y108.480 Z-2.323
G01 X394.408 Y109.174 Z-2.242
G01 X394.743 Y110.007 Z-2.142
G01 X395.177 Y110.928 Z-2.025
G01 X395.540 Y111.597 Z-1.944
G01 X396.087 Y112.471 Z-1.834
G01 X396.521 Y113.082 Z-1.762
G01 X397.081 Y113.779 Z-1.683
G01 X397.673 Y114.431 Z-1.615
G01 X398.295 Y115.034 Z-1.560
G01 X398.943 Y115.592 Z-1.512
G01 X399.759 Y116.204 Z-1.459
G01 X400.313 Y116.571 Z-1.434
G01 X401.124 Y117.037 Z-1.401
G01 X401.784 Y117.362 Z-1.387
G01 X402.611 Y117.702 Z-1.377
G01 X403.356 Y117.949 Z-1.383
G01 X404.179 Y118.162 Z-1.400
G01 X405.113 Y118.332 Z-1.434
G01 X405.891 Y118.420 Z-1.479
G01 X406.894 Y118.464 Z-1.549
G01 X407.683 Y118.442 Z-1.625
G01 X408.330 Y118.386 Z-1.696
G01 X409.057 Y118.286 Z-1.793
G01 X409.790 Y118.141 Z-1.904
G01 X410.528 Y117.951 Z-2.027
G01 X411.466 Y117.642 Z-2.201
G01 X412.100 Y117.388 Z-2.321
G01 X412.785 Y117.067 Z-2.456
G01 X413.526 Y116.656 Z-2.612
G01 X414.244 Y116.189 Z-2.773
G01 X414.933 Y115.662 Z-2.935
G01 X415.590 Y115.077 Z-3.099
G01 X416.209 Y114.435 Z-3.262
G01 X416.787 Y113.739 Z-3.425
G01 X417.353 Y112.944 Z-3.597
G01 X417.744 Y112.291 Z-3.735
G01 X418.109 Y111.571 Z-3.884
G01 X418.407 Y110.870 Z-4.014
G01 X418.722 Y109.980 Z-4.164
G01 X418.933 Y109.245 Z-4.266
G01 X419.156 Y108.291 Z-4.379
G01 X419.211 Y107.991 Z-4.407
G00 Z5.000
G00 X485.623 Y92.790  F4000.0
G01 Z-4.866 F200.0 M3
G01 X486.142 Y92.323 Z-4.860 F2000.0
G01 X486.833 Y91.627 Z-4.838
G01 X487.476 Y90.894 Z-4.806
G01 X488.059 Y90.122 Z-4.757
G01 X488.585 Y89.318 Z-4.699
G01 X489.046 Y88.483 Z-4.628
G01 X489.432 Y87.653 Z-4.551
G01 X489.743 Y86.831 Z-4.464
G01 X489.993 Y85.997 Z-4.365
G01 X490.185 Y85.157 Z-4.259
G01 X490.314 Y84.313 Z-4.143
G01 X490.388 Y83.472 Z-4.028
G01 X490.406 Y82.637 Z-3.915
G01 X490.365 Y81.812 Z-3.798
G01 X490.273 Y81.035 Z-3.687
G01 X490.122 Y80.219 Z-3.568
G01 X489.972 Y79.618 Z-3.475
G01 X489.789 Y79.015 Z-3.378
G01 X489.569 Y78.410 Z-3.279
G01 X489.310 Y77.802 Z-3.178
G01 X489.009 Y77.192 Z-3.075
G01 X488.665 Y76.579 Z-2.973
G01 X488.275 Y75.966 Z-2.872
G01 X487.723 Y75.208 Z-2.747
G01 X487.230 Y74.609 Z-2.654
G01 X486.807 Y74.143 Z-2.585
G01 X486.287 Y73.627 Z-2.508
G01 X485.715 Y73.115 Z-2.428
G01 X484.894 Y72.470 Z-2.319
G01 X484.348 Y72.089 Z-2.253
G01 X483.787 Y71.737 Z-2.193
G01 X483.145 Y71.379 Z-2.129
G01 X482.427 Y71.030 Z-2.065
G01 X481.506 Y70.651 Z-1.990
G01 X480.788 Y70.403 Z-1.942
G01 X480.084 Y70.197 Z-1.901
G01 X479.240 Y69.997 Z-1.859
G01 X478.172 Y69.806 Z-1.810
G01 X477.464 Y69.713 Z-1.787
G01 X476.531 Y69.632 Z-1.760
G01 X475.352 Y69.588 Z-1.729
G01 X474.023 Y69.606 Z-1.708
G01 X473.175 Y69.651 Z-1.703
G01 X472.040 Y69.761 Z-1.696
G01 X470.844 Y69.941 Z-1.694
G01 X470.195 Y70.075 Z-1.688
G01 X469.006 Y70.379 Z-1.675
G01 X467.864 Y70.727 Z-1.683
G01 X466.701 Y71.128 Z-1.722
G01 X465.508 Y71.586 Z-1.800
G01 X464.401 Y72.048 Z-1.912
G01 X463.287 Y72.545 Z-2.063
G01 X462.043 Y73.130 Z-2.295
G01 X461.095 Y73.586 Z-2.526
G01 X460.257 Y73.989 Z-2.780
G01 X459.491 Y74.331 Z-3.070
G01 X458.638 Y74.669 Z-3.466
G01 X458.246 Y75.757 Z-3.074
G01 X457.875 Y76.918 Z-2.703
G01 X457.559 Y78.052 Z-2.387
G01 X457.282 Y79.209 Z-2.110
G01 X457.032 Y80.413 Z-1.860
G01 X456.913 Y81.056 Z-1.741
G01 X456.697 Y82.347 Z-1.525
G01 X456.499 Y83.711 Z-1.327
G01 X456.317 Y85.154 Z-1.145
G01 X456.149 Y86.681 Z-0.977
G01 X456.068 Y87.533 Z-0.896
G01 X456.809 Y88.429 Z0.000
G01 X456.068 Y87.533 Z-0.896
G01 X455.172 Y88.429 Z0.000
G01 X456.068 Y87.533 Z-0.896
G01 X456.152 Y86.652 Z-0.980
G01 X456.321 Y85.116 Z-1.149
G01 X456.506 Y83.661 Z-1.334
G01 X456.707 Y82.281 Z-1.535
G01 X456.924 Y80.992 Z-1.752
G01 X457.166 Y79.747 Z-1.994
G01 X457.435 Y78.549 Z-2.263
G01 X457.739 Y77.387 Z-2.567
G01 X458.088 Y76.231 Z-2.916
G01 X458.499 Y75.041 Z-3.327
G01 X458.638 Y74.669 Z-3.466
G01 X458.122 Y74.051 Z-2.950
G01 X457.734 Y73.534 Z-2.562
G01 X457.405 Y73.044 Z-2.233
G01 X457.014 Y72.369 Z-1.842
G01 X456.713 Y71.727 Z-1.541
G01 X456.488 Y71.106 Z-1.316
G01 X456.377 Y70.704 Z-1.205
G01 X456.222 Y69.959 Z-1.050
G01 X456.092 Y69.031 Z-0.920
G01 X456.063 Y68.745 Z-0.891
G01 X455.172 Y67.854 Z0.000
G01 X456.063 Y68.745 Z-0.891
G01 X456.809 Y67.854 Z0.000
G01 X456.063 Y68.745 Z-0.891
G01 X456.152 Y69.506 Z-0.980
G01 X456.287 Y70.303 Z-1.115
G01 X456.410 Y70.832 Z-1.238
G01 X456.546 Y71.284 Z-1.374
G01 X456.713 Y71.727 Z-1.541
G01 X457.014 Y72.369 Z-1.842
G01 X457.405 Y73.044 Z-2.233
G01 X457.907 Y73.771 Z-2.735
G01 X458.320 Y74.297 Z-3.148
G01 X458.638 Y74.669 Z-3.466
G01 X459.491 Y74.331 Z-3.070
G01 X460.257 Y73.989 Z-2.780
G01 X461.172 Y73.548 Z-2.504
G01 X462.255 Y73.027 Z-2.250
G01 X463.343 Y72.520 Z-2.054
G01 X464.450 Y72.027 Z-1.906
G01 X465.596 Y71.551 Z-1.793
G01 X466.751 Y71.109 Z-1.720
G01 X467.914 Y70.710 Z-1.682
G01 X469.091 Y70.356 Z-1.675
G01 X470.287 Y70.054 Z-1.688
G01 X470.941 Y69.924 Z-1.695
G01 X472.130 Y69.751 Z-1.695
G01 X473.387 Y69.638 Z-1.702
G01 X474.670 Y69.589 Z-1.717
G01 X475.571 Y69.591 Z-1.736
G01 X476.789 Y69.651 Z-1.764
G01 X477.558 Y69.724 Z-1.789
G01 X478.367 Y69.835 Z-1.820
G01 X479.240 Y69.997 Z-1.859
G01 X480.239 Y70.241 Z-1.908
G01 X480.896 Y70.437 Z-1.950
G01 X481.677 Y70.715 Z-2.006
G01 X482.427 Y71.030 Z-2.065
G01 X483.312 Y71.469 Z-2.143
G01 X483.889 Y71.798 Z-2.203
G01 X484.490 Y72.182 Z-2.272
G01 X485.116 Y72.634 Z-2.350
G01 X485.897 Y73.273 Z-2.450
G01 X486.450 Y73.784 Z-2.529
G01 X486.896 Y74.239 Z-2.599
G01 X487.352 Y74.749 Z-2.678
G01 X487.836 Y75.354 Z-2.773
G01 X488.376 Y76.120 Z-2.895
G01 X488.799 Y76.810 Z-3.009
G01 X489.107 Y77.385 Z-3.106
G01 X489.388 Y77.981 Z-3.205
G01 X489.638 Y78.595 Z-3.307
G01 X489.856 Y79.228 Z-3.410
G01 X490.040 Y79.878 Z-3.513
G01 X490.188 Y80.543 Z-3.614
G01 X490.326 Y81.422 Z-3.746
G01 X490.385 Y82.074 Z-3.836
G01 X490.405 Y82.902 Z-3.950
G01 X490.371 Y83.737 Z-4.065
G01 X490.281 Y84.575 Z-4.180
G01 X490.132 Y85.410 Z-4.290
G01 X489.927 Y86.241 Z-4.395
G01 X489.662 Y87.062 Z-4.490
G01 X489.325 Y87.897 Z-4.574
G01 X488.913 Y88.742 Z-4.652
G01 X488.436 Y89.557 Z-4.716
G01 X487.897 Y90.351 Z-4.775
G01 X487.310 Y91.091 Z-4.815
G01 X486.666 Y91.805 Z-4.846
G01 X485.970 Y92.481 Z-4.860
G01 X485.228 Y93.121 Z-4.863
G01 X484.388 Y93.768 Z-4.856
G01 X483.505 Y94.381 Z-4.852
G01 X481.971 Y95.362 Z-4.850
G01 X480.819 Y96.062 Z-4.851
G01 X478.028 Y97.687 Z-4.845
G01 X472.698 Y100.660 Z-4.803
G01 X471.021 Y101.616 Z-4.788
G01 X469.450 Y102.538 Z-4.774
G01 X467.354 Y103.833 Z-4.759
G01 X465.813 Y104.843 Z-4.752
G01 X464.604 Y105.693 Z-4.735
G01 X463.795 Y106.305 Z-4.716
G01 X462.899 Y107.043 Z-4.681
G01 X462.341 Y107.544 Z-4.644
G01 X461.698 Y108.177 Z-4.589
G01 X461.106 Y108.824 Z-4.525
G01 X460.506 Y109.563 Z-4.448
G01 X460.083 Y110.162 Z-4.377
G01 X459.700 Y110.782 Z-4.298
G01 X459.514 Y111.114 Z-4.257
G01 X459.217 Y111.718 Z-4.173
G01 X459.004 Y112.223 Z-4.104
G01 X458.746 Y112.945 Z-3.995
G01 X458.600 Y113.443 Z-3.923
G01 X458.414 Y114.276 Z-3.801
G01 X458.308 Y114.953 Z-3.706
G01 X458.232 Y115.790 Z-3.592
G01 X458.217 Y116.637 Z-3.484
G01 X458.263 Y117.439 Z-3.377
G01 X458.321 Y117.941 Z-3.313
G01 X458.424 Y118.558 Z-3.230
G01 X458.560 Y119.161 Z-3.148
G01 X458.727 Y119.751 Z-3.066
G01 X458.924 Y120.326 Z-2.986
G01 X459.151 Y120.884 Z-2.907
G01 X459.404 Y121.424 Z-2.831
G01 X459.682 Y121.948 Z-2.758
G01 X459.984 Y122.454 Z-2.688
G01 X460.349 Y123.000 Z-2.615
G01 X460.941 Y123.773 Z-2.511
G01 X461.406 Y124.308 Z-2.444
G01 X461.810 Y124.734 Z-2.393
G01 X462.263 Y125.170 Z-2.340
G01 X462.806 Y125.643 Z-2.279
G01 X463.564 Y126.228 Z-2.195
G01 X464.162 Y126.633 Z-2.136
G01 X464.683 Y126.950 Z-2.088
G01 X465.214 Y127.242 Z-2.044
G01 X465.876 Y127.560 Z-1.994
G01 X466.777 Y127.925 Z-1.930
G01 X467.436 Y128.146 Z-1.893
G01 X468.033 Y128.317 Z-1.865
G01 X468.807 Y128.496 Z-1.834
G01 X469.793 Y128.664 Z-1.801
G01 X470.434 Y128.741 Z-1.788
G01 X471.286 Y128.803 Z-1.777
G01 X472.280 Y128.826 Z-1.769
G01 X473.407 Y128.786 Z-1.767
G01 X474.526 Y128.676 Z-1.767
G01 X475.637 Y128.499 Z-1.773
G01 X476.739 Y128.257 Z-1.786
G01 X477.865 Y127.942 Z-1.809
G01 X479.065 Y127.530 Z-1.845
G01 X480.280 Y127.034 Z-1.896
G01 X481.532 Y126.441 Z-1.965
G01 X482.713 Y125.826 Z-2.075
G01 X483.742 Y125.282 Z-2.242
G01 X484.283 Y125.000 Z-2.364
G01 X484.832 Y124.725 Z-2.516
G01 X485.405 Y124.456 Z-2.709
G01 X486.188 Y124.125 Z-3.034
G01 X487.033 Y123.810 Z-3.449
G01 X487.349 Y122.929 Z-3.132
G01 X487.743 Y121.718 Z-2.739
G01 X488.084 Y120.527 Z-2.398
G01 X488.382 Y119.336 Z-2.100
G01 X488.645 Y118.123 Z-1.837
G01 X488.876 Y116.880 Z-1.606
G01 X489.082 Y115.581 Z-1.399
G01 X489.260 Y114.255 Z-1.221
G01 X489.416 Y112.876 Z-1.066
G01 X489.549 Y111.439 Z-0.933
G01 X489.602 Y110.725 Z-0.880
G01 X488.845 Y109.845 Z0.000
G01 X489.602 Y110.725 Z-0.880
G01 X490.482 Y109.845 Z0.000
G01 X489.602 Y110.725 Z-0.880
G01 X489.546 Y111.473 Z-0.936
G01 X489.411 Y112.918 Z-1.071
G01 X489.254 Y114.308 Z-1.228
G01 X489.075 Y115.631 Z-1.407
G01 X488.869 Y116.923 Z-1.613
G01 X488.634 Y118.177 Z-1.848
G01 X488.366 Y119.404 Z-2.115
G01 X488.062 Y120.610 Z-2.420
G01 X487.713 Y121.814 Z-2.769
G01 X487.311 Y123.040 Z-3.171
G01 X487.033 Y123.810 Z-3.449
G01 X487.670 Y124.633 Z-2.811
G01 X488.174 Y125.389 Z-2.308
G01 X488.568 Y126.095 Z-1.913
G01 X488.863 Y126.735 Z-1.619
G01 X489.031 Y127.182 Z-1.451
G01 X489.164 Y127.608 Z-1.318
G01 X489.353 Y128.389 Z-1.129
G01 X489.520 Y129.348 Z-0.962
G01 X489.565 Y129.681 Z-0.916
G01 X490.482 Y130.597 Z0.000
G01 X489.565 Y129.681 Z-0.916
G01 X488.845 Y130.597 Z0.000
G01 X489.565 Y129.681 Z-0.916
G01 X489.442 Y128.859 Z-1.040
G01 X489.274 Y128.032 Z-1.208
G01 X489.124 Y127.473 Z-1.358
G01 X488.965 Y126.998 Z-1.516
G01 X488.776 Y126.533 Z-1.705
G01 X488.439 Y125.850 Z-2.042
G01 X488.022 Y125.148 Z-2.460
G01 X487.484 Y124.379 Z-2.998
G01 X487.033 Y123.810 Z-3.449
G01 X486.188 Y124.125 Z-3.034
G01 X485.405 Y124.456 Z-2.709
G01 X484.630 Y124.823 Z-2.457
G01 X483.778 Y125.263 Z-2.250
G01 X483.148 Y125.597 Z-2.137
G01 X482.155 Y126.123 Z-2.017
G01 X480.892 Y126.754 Z-1.928
G01 X479.670 Y127.292 Z-1.869
G01 X478.463 Y127.746 Z-1.825
G01 X477.272 Y128.117 Z-1.796
G01 X476.099 Y128.406 Z-1.778
G01 X474.947 Y128.617 Z-1.770
G01 X473.817 Y128.754 Z-1.768
G01 X472.709 Y128.820 Z-1.769
G01 X471.578 Y128.815 Z-1.771
G01 X470.403 Y128.738 Z-1.788
G01 X469.608 Y128.638 Z-1.808
G01 X468.598 Y128.451 Z-1.839
G01 X467.926 Y128.288 Z-1.869
G01 X467.287 Y128.100 Z-1.903
G01 X466.568 Y127.847 Z-1.947
G01 X465.665 Y127.462 Z-2.007
G01 X465.123 Y127.193 Z-2.051
G01 X464.572 Y126.887 Z-2.100
G01 X463.959 Y126.502 Z-2.158
G01 X463.371 Y126.087 Z-2.218
G01 X462.607 Y125.473 Z-2.298
G01 X462.159 Y125.072 Z-2.350
G01 X461.732 Y124.656 Z-2.403
G01 X461.244 Y124.129 Z-2.469
G01 X460.655 Y123.413 Z-2.558
G01 X460.230 Y122.827 Z-2.636
G01 X459.907 Y122.329 Z-2.705
G01 X459.607 Y121.814 Z-2.777
G01 X459.330 Y121.279 Z-2.853
G01 X459.072 Y120.703 Z-2.935
G01 X458.851 Y120.128 Z-3.016
G01 X458.665 Y119.553 Z-3.096
G01 X458.513 Y118.977 Z-3.175
G01 X458.390 Y118.385 Z-3.255
G01 X458.299 Y117.781 Z-3.334
G01 X458.229 Y116.949 Z-3.441
G01 X458.220 Y116.035 Z-3.562
G01 X458.270 Y115.286 Z-3.660
G01 X458.384 Y114.450 Z-3.775
G01 X458.520 Y113.773 Z-3.873
G01 X458.649 Y113.271 Z-3.947
G01 X458.831 Y112.690 Z-4.033
G01 X459.077 Y112.044 Z-4.126
G01 X459.245 Y111.657 Z-4.183
G01 X459.531 Y111.083 Z-4.260
G01 X459.812 Y110.591 Z-4.327
G01 X460.230 Y109.947 Z-4.402
G01 X460.711 Y109.300 Z-4.474
G01 X461.349 Y108.548 Z-4.556
G01 X461.825 Y108.045 Z-4.603
G01 X462.454 Y107.441 Z-4.651
G01 X463.143 Y106.836 Z-4.690
G01 X463.887 Y106.233 Z-4.719
G01 X464.898 Y105.480 Z-4.742
G01 X466.452 Y104.417 Z-4.754
G01 X468.431 Y103.158 Z-4.766
G01 X469.525 Y102.494 Z-4.774
G01 X471.826 Y101.152 Z-4.791
G01 X478.086 Y97.654 Z-4.845
G01 X480.886 Y96.022 Z-4.851
G01 X482.423 Y95.081 Z-4.852
G01 X483.900 Y94.112 Z-4.849
G01 X484.603 Y93.607 Z-4.856
G01 X485.393 Y92.984 Z-4.863
G01 X485.623 Y92.790 Z-4.866
G00 Z5.000
G00 X509.832 Y126.674  F4000.0
G01 Z-4.233 F200.0 M3
G01 X510.022 Y125.665 Z-4.044 F2000.0
G01 X510.132 Y124.876 Z-3.933
G01 X510.203 Y124.222 Z-3.863
G01 X510.256 Y123.518 Z-3.810
G01 X510.326 Y121.836 Z-3.739
G01 X510.351 Y120.768 Z-3.715
G01 X510.383 Y118.230 Z-3.683
G01 X510.393 Y115.066 Z-3.673
G01 X510.393 Y102.500 
G01 X510.424 Y101.825 Z-3.704
G01 X510.455 Y101.546 Z-3.735
G01 X510.517 Y101.150 Z-3.797
G01 X510.455 Y100.755 Z-3.735
G01 X510.409 Y100.278 Z-3.688
G01 X510.393 Y99.801 Z-3.673
G01 X510.392 Y77.304 Z-3.683
G01 X510.384 Y75.685 Z-3.744
G01 X510.372 Y74.595 Z-3.833
G01 X510.361 Y73.792 Z-3.935
G01 X510.355 Y73.253 Z-4.027
G01 X509.465 Y72.570 Z-3.344
G01 X508.814 Y72.120 Z-2.894
G01 X508.002 Y71.620 Z-2.394
G01 X507.364 Y71.274 Z-2.048
G01 X506.648 Y70.940 Z-1.715
G01 X506.069 Y70.720 Z-1.494
G01 X505.419 Y70.528 Z-1.302
G01 X504.786 Y70.383 Z-1.157
G01 X504.234 Y70.281 Z-1.056
G01 X503.669 Y70.199 Z-0.973
G01 X503.087 Y70.133 Z-0.908
G01 X502.484 Y70.084 Z-0.858
G01 X501.333 Y70.033 Z-0.807
G01 X500.526 Y70.819 Z0.000
G01 X501.333 Y70.033 Z-0.807
G01 X500.526 Y69.226 Z0.000
G01 X501.333 Y70.033 Z-0.807
G01 X502.484 Y70.084 Z-0.858
G01 X503.143 Y70.139 Z-0.913
G01 X503.735 Y70.207 Z-0.982
G01 X504.313 Y70.295 Z-1.069
G01 X504.884 Y70.403 Z-1.178
G01 X505.668 Y70.594 Z-1.368
G01 X506.226 Y70.775 Z-1.549
G01 X506.917 Y71.058 Z-1.832
G01 X507.534 Y71.362 Z-2.136
G01 X508.312 Y71.804 Z-2.578
G01 X509.094 Y72.308 Z-3.082
G01 X509.798 Y72.817 Z-3.591
G01 X510.355 Y73.253 Z-4.027
G01 X511.026 Y72.714 Z-3.488
G01 X511.728 Y72.203 Z-2.977
G01 X512.384 Y71.785 Z-2.559
G01 X513.107 Y71.389 Z-2.163
G01 X513.868 Y71.038 Z-1.812
G01 X514.446 Y70.813 Z-1.588
G01 X515.204 Y70.568 Z-1.342
G01 X515.750 Y70.421 Z-1.196
G01 X516.243 Y70.315 Z-1.089
G01 X516.751 Y70.231 Z-1.005
G01 X517.288 Y70.164 Z-0.938
G01 X517.861 Y70.112 Z-0.886
G01 X519.111 Y70.045 Z-0.819
G01 X519.812 Y70.028 Z-0.803
G01 X520.615 Y69.226 Z0.000
G01 X519.812 Y70.028 Z-0.803
G01 X520.615 Y70.819 Z0.000
G01 X519.812 Y70.028 Z-0.803
G01 X518.440 Y70.074 Z-0.848
G01 X517.813 Y70.115 Z-0.890
G01 X517.225 Y70.171 Z-0.945
G01 X516.668 Y70.243 Z-1.017
G01 X516.130 Y70.337 Z-1.111
G01 X515.640 Y70.448 Z-1.223
G01 X514.869 Y70.670 Z-1.444
G01 X514.323 Y70.858 Z-1.633
G01 X513.570 Y71.168 Z-1.942
G01 X512.904 Y71.494 Z-2.268
G01 X512.104 Y71.956 Z-2.730
G01 X511.406 Y72.430 Z-3.204
G01 X510.613 Y73.041 Z-3.815
G01 X510.355 Y73.253 Z-4.027
G01 X510.368 Y74.143 Z-3.886
G01 X510.377 Y74.893 Z-3.803
G01 X510.387 Y76.332 Z-3.711
G01 X510.392 Y77.440 Z-3.680
G01 X510.393 Y99.801 Z-3.673
G01 X510.424 Y100.476 Z-3.704
G01 X510.455 Y100.755 Z-3.735
G01 X510.517 Y101.150 Z-3.797
G01 X511.530 Y101.150 Z-2.872
G01 X512.355 Y101.150 Z-2.179
G01 X512.963 Y101.159 Z-1.736
G01 X513.460 Y101.218 Z-1.418
G01 X513.847 Y101.314 Z-1.206
G01 X514.106 Y101.413 Z-1.088
G01 X514.309 Y101.513 Z-1.017
G01 X514.532 Y101.657 Z-0.963
G01 X514.759 Y101.857 Z-0.946
G01 X515.997 Y103.091 Z-1.014
G01 X516.461 Y103.528 Z-1.043
G01 X517.180 Y104.176 Z-1.108
G01 X517.828 Y104.718 Z-1.174
G01 X518.486 Y105.232 Z-1.261
G01 X519.116 Y105.680 Z-1.358
G01 X519.720 Y106.074 Z-1.464
G01 X520.422 Y106.496 Z-1.600
G01 X521.357 Y106.988 Z-1.786
G01 X522.234 Y107.374 Z-1.963
G01 X522.899 Y107.608 Z-2.093
G01 X523.581 Y107.799 Z-2.221
G01 X524.272 Y107.947 Z-2.351
G01 X524.960 Y108.050 Z-2.480
G01 X525.655 Y108.106 Z-2.610
G01 X526.357 Y108.111 Z-2.739
G01 X527.077 Y108.061 Z-2.871
G01 X527.774 Y107.952 Z-2.996
G01 X528.525 Y107.769 Z-3.133
G01 X529.177 Y107.548 Z-3.249
G01 X529.788 Y107.280 Z-3.355
G01 X530.420 Y106.923 Z-3.457
G01 X530.991 Y106.514 Z-3.539
G01 X531.505 Y106.056 Z-3.603
G01 X531.961 Y105.550 Z-3.644
G01 X532.263 Y105.147 Z-3.660
G01 X532.621 Y104.587 Z-3.670
G01 X532.979 Y103.907 Z-3.674
G01 X533.292 Y103.184 Z-3.675
G01 X533.563 Y102.402 Z-3.675
G01 X533.765 Y101.682 Z-3.683
G01 X533.964 Y100.604 Z-3.680
G01 X534.095 Y99.584 Z-3.676
G01 X534.197 Y98.456 Z-3.674
G01 X534.276 Y97.209 Z-3.672
G01 X534.331 Y95.837 Z-3.672
G01 X534.364 Y94.334 Z-3.672
G01 X534.376 Y92.708 Z-3.673
G01 X534.379 Y77.335 Z-3.681
G01 X534.408 Y75.543 Z-3.739
G01 X534.442 Y74.330 Z-3.837
G01 X534.459 Y73.481 Z-3.960
G01 X534.456 Y73.236 Z-4.010
G01 X533.644 Y72.633 Z-3.407
G01 X533.015 Y72.202 Z-2.976
G01 X532.416 Y71.822 Z-2.596
G01 X531.845 Y71.491 Z-2.265
G01 X531.300 Y71.204 Z-1.979
G01 X530.780 Y70.959 Z-1.734
G01 X530.282 Y70.752 Z-1.526
G01 X529.765 Y70.566 Z-1.340
G01 X529.241 Y70.413 Z-1.187
G01 X528.724 Y70.297 Z-1.071
G01 X528.197 Y70.207 Z-0.981
G01 X527.647 Y70.137 Z-0.912
G01 X527.065 Y70.086 Z-0.860
G01 X526.445 Y70.050 Z-0.824
G01 X525.780 Y70.029 Z-0.803
G01 X524.951 Y70.022 Z-0.796
G01 X524.154 Y70.819 Z0.000
G01 X524.951 Y70.022 Z-0.796
G01 X524.154 Y69.226 Z0.000
G01 X524.951 Y70.022 Z-0.796
G01 X525.816 Y70.030 Z-0.804
G01 X526.488 Y70.052 Z-0.826
G01 X527.119 Y70.090 Z-0.864
G01 X527.716 Y70.145 Z-0.919
G01 X528.286 Y70.220 Z-0.994
G01 X528.843 Y70.321 Z-1.095
G01 X529.400 Y70.456 Z-1.230
G01 X529.931 Y70.622 Z-1.396
G01 X530.427 Y70.810 Z-1.584
G01 X530.942 Y71.032 Z-1.807
G01 X531.478 Y71.294 Z-2.069
G01 X532.038 Y71.599 Z-2.373
G01 X532.624 Y71.950 Z-2.724
G01 X533.236 Y72.349 Z-3.124
G01 X533.876 Y72.801 Z-3.575
G01 X534.456 Y73.236 Z-4.010
G01 X535.539 Y72.407 Z-3.181
G01 X536.185 Y71.964 Z-2.739
G01 X536.959 Y71.493 Z-2.267
G01 X537.593 Y71.158 Z-1.933
G01 X538.306 Y70.840 Z-1.614
G01 X538.836 Y70.640 Z-1.414
G01 X539.531 Y70.425 Z-1.199
G01 X540.103 Y70.291 Z-1.065
G01 X540.562 Y70.213 Z-0.987
G01 X541.045 Y70.151 Z-0.926
G01 X542.081 Y70.069 Z-0.844
G01 X543.262 Y70.029 Z-0.804
G01 X544.066 Y69.226 Z0.000
G01 X543.262 Y70.029 Z-0.804
G01 X544.066 Y70.819 Z0.000
G01 X543.262 Y70.029 Z-0.804
G01 X542.081 Y70.069 Z-0.844
G01 X541.045 Y70.151 Z-0.926
G01 X540.474 Y70.226 Z-1.000
G01 X539.981 Y70.316 Z-1.090
G01 X539.531 Y70.425 Z-1.199
G01 X538.836 Y70.640 Z-1.414
G01 X538.306 Y70.840 Z-1.614
G01 X537.593 Y71.158 Z-1.933
G01 X536.959 Y71.493 Z-2.267
G01 X536.185 Y71.964 Z-2.739
G01 X535.237 Y72.628 Z-3.402
G01 X534.456 Y73.236 Z-4.010
G01 X534.448 Y73.984 Z-3.880
G01 X534.427 Y74.776 Z-3.793
G01 X534.406 Y75.606 Z-3.736
G01 X534.378 Y77.422 Z-3.680
G01 X534.375 Y92.746 Z-3.672
G01 X534.362 Y94.472 Z-3.673
G01 X534.324 Y96.066 Z-3.674
G01 X534.260 Y97.500 Z-3.675
G01 X534.173 Y98.770 Z-3.677
G01 X534.063 Y99.869 Z-3.680
G01 X533.935 Y100.800 Z-3.682
G01 X533.733 Y101.814 Z-3.684
G01 X533.467 Y102.700 Z-3.674
G01 X533.152 Y103.524 Z-3.676
G01 X532.860 Y104.150 Z-3.673
G01 X532.472 Y104.833 Z-3.666
G01 X532.114 Y105.357 Z-3.651
G01 X531.659 Y105.899 Z-3.618
G01 X531.155 Y106.377 Z-3.561
G01 X530.615 Y106.791 Z-3.488
G01 X530.217 Y107.046 Z-3.427
G01 X529.602 Y107.368 Z-3.324
G01 X528.922 Y107.642 Z-3.204
G01 X528.231 Y107.850 Z-3.079
G01 X527.535 Y107.995 Z-2.952
G01 X526.842 Y108.082 Z-2.827
G01 X526.153 Y108.115 Z-2.701
G01 X525.387 Y108.091 Z-2.563
G01 X524.781 Y108.029 Z-2.449
G01 X524.122 Y107.920 Z-2.324
G01 X523.440 Y107.763 Z-2.194
G01 X522.773 Y107.568 Z-2.069
G01 X522.123 Y107.330 Z-1.941
G01 X521.357 Y106.988 Z-1.786
G01 X520.422 Y106.496 Z-1.600
G01 X519.406 Y105.874 Z-1.412
G01 X519.046 Y105.632 Z-1.346
G01 X518.317 Y105.105 Z-1.240
G01 X517.776 Y104.675 Z-1.168
G01 X517.113 Y104.117 Z-1.101
G01 X516.429 Y103.498 Z-1.040
G01 X515.717 Y102.821 Z-0.992
G01 X514.729 Y101.827 Z-0.945
G01 X514.532 Y101.657 Z-0.963
G01 X514.309 Y101.513 Z-1.017
G01 X514.077 Y101.400 Z-1.100
G01 X513.847 Y101.314 Z-1.206
G01 X513.460 Y101.218 Z-1.418
G01 X512.963 Y101.159 Z-1.736
G01 X512.355 Y101.150 Z-2.179
G01 X511.530 Y101.150 Z-2.872
G01 X510.517 Y101.150 Z-3.797
G01 X510.455 Y101.546 Z-3.735
G01 X510.409 Y102.023 Z-3.688
G01 X510.393 Y102.500 Z-3.673
G01 X510.393 Y115.091 Z-3.673
G01 X510.382 Y118.298 Z-3.684
G01 X510.350 Y120.851 Z-3.716
G01 X510.290 Y122.865 Z-3.776
G01 X510.242 Y123.734 Z-3.824
G01 X510.177 Y124.483 Z-3.889
G01 X510.057 Y125.434 Z-4.009
G01 X509.913 Y126.279 Z-4.153
G01 X509.832 Y126.674 Z-4.233
G01 X512.365 Y130.445 Z-1.701
G01 X514.066 Y132.146 Z0.000
G01 X512.365 Y130.445 Z-1.701
G01 X512.030 Y132.146 Z0.000
G01 X512.365 Y130.445 Z-1.701
G01 X509.832 Y126.674 Z-4.233
G01 X508.739 Y127.070 Z-3.454
G01 X508.001 Y127.291 Z-2.970
G01 X507.309 Y127.456 Z-2.555
G01 X506.717 Y127.559 Z-2.236
G01 X505.973 Y127.637 Z-1.882
G01 X505.348 Y127.655 Z-1.629
G01 X504.693 Y127.628 Z-1.406
G01 X504.209 Y127.577 Z-1.270
G01 X503.486 Y127.456 Z-1.108
G01 X502.806 Y127.291 Z-1.004
G01 X502.077 Y127.072 Z-0.931
G01 X501.031 Y126.713 Z-0.867
G01 X499.907 Y127.190 Z0.000
G01 X501.031 Y126.713 Z-0.867
G01 X500.526 Y125.642 Z0.000
G01 X501.031 Y126.713 Z-0.867
G01 X502.139 Y127.091 Z-0.936
G01 X502.882 Y127.312 Z-1.013
G01 X503.571 Y127.473 Z-1.124
G01 X504.309 Y127.590 Z-1.296
G01 X504.951 Y127.644 Z-1.488
G01 X505.519 Y127.654 Z-1.694
G01 X506.225 Y127.617 Z-1.996
G01 X506.717 Y127.559 Z-2.236
G01 X507.309 Y127.456 Z-2.555
G01 X508.001 Y127.291 Z-2.970
G01 X508.739 Y127.070 Z-3.454
G01 X509.832 Y126.674 Z-4.233
G00 Z5.000
G00 X579.931 Y73.483  F4000.0
G01 Z-4.228 F200.0 M3
G01 X577.365 Y69.649 Z-1.662 F2000.0
G01 X575.703 Y67.987 Z0.000
G01 X577.365 Y69.649 Z-1.662
G01 X577.694 Y67.987 Z0.000
G01 X577.365 Y69.649 Z-1.662
G01 X579.931 Y73.483 Z-4.228
G01 X581.024 Y73.097 Z-3.455
G01 X581.757 Y72.882 Z-2.977
G01 X582.440 Y72.722 Z-2.568
G01 X583.280 Y72.585 Z-2.121
G01 X583.929 Y72.524 Z-1.818
G01 X584.593 Y72.508 Z-1.549
G01 X585.116 Y72.530 Z-1.371
G01 X585.712 Y72.597 Z-1.205
G01 X586.139 Y72.672 Z-1.112
G01 X586.962 Y72.866 Z-0.977
G01 X587.793 Y73.113 Z-0.889
G01 X588.728 Y73.447 Z-0.841
G01 X589.818 Y72.987 Z0.000
G01 X588.728 Y73.447 Z-0.841
G01 X589.199 Y74.535 Z0.000
G01 X588.728 Y73.447 Z-0.841
G01 X587.793 Y73.113 Z-0.889
G01 X586.905 Y72.850 Z-0.984
G01 X586.139 Y72.672 Z-1.112
G01 X585.472 Y72.565 Z-1.267
G01 X584.984 Y72.522 Z-1.413
G01 X584.348 Y72.508 Z-1.643
G01 X583.743 Y72.537 Z-1.901
G01 X583.010 Y72.621 Z-2.258
G01 X582.440 Y72.722 Z-2.568
G01 X581.757 Y72.882 Z-2.977
G01 X581.024 Y73.097 Z-3.455
G01 X579.931 Y73.483 Z-4.228
G01 X579.733 Y74.508 Z-4.030
G01 X579.616 Y75.316 Z-3.913
G01 X579.544 Y75.976 Z-3.841
G01 X579.490 Y76.680 Z-3.788
G01 X579.419 Y77.328 Z-3.792
G01 X579.323 Y77.876 Z-3.848
G01 X579.375 Y78.362 Z-3.762
G01 X579.401 Y78.837 Z-3.714
G01 X579.396 Y79.438 Z-3.692
G01 X579.364 Y81.999 Z-3.661
G01 X579.353 Y85.199 Z-3.650
G01 X579.353 Y102.233 Z-3.651
G01 X579.338 Y103.259 Z-3.666
G01 X579.295 Y104.258 Z-3.709
G01 X579.219 Y105.244 Z-3.784
G01 X579.147 Y105.900 Z-3.857
G01 X583.004 Y109.757 Z0.000
G01 X579.147 Y105.900 Z-3.857
G01 X578.244 Y106.568 Z-3.189
G01 X577.550 Y107.035 Z-2.721
G01 X576.878 Y107.439 Z-2.318
G01 X576.313 Y107.738 Z-2.019
G01 X575.706 Y108.014 Z-1.743
G01 X575.188 Y108.210 Z-1.547
G01 X574.494 Y108.418 Z-1.339
G01 X573.806 Y108.572 Z-1.184
G01 X573.430 Y108.640 Z-1.117
G01 X572.708 Y108.742 Z-1.015
G01 X571.933 Y108.821 Z-0.936
G01 X571.095 Y108.879 Z-0.878
G01 X570.034 Y108.921 Z-0.836
G01 X569.199 Y109.757 Z0.000
G01 X570.034 Y108.921 Z-0.836
G01 X569.199 Y108.119 Z0.000
G01 X570.034 Y108.921 Z-0.836
G01 X571.142 Y108.876 Z-0.880
G01 X571.995 Y108.816 Z-0.941
G01 X572.791 Y108.732 Z-1.025
G01 X573.513 Y108.626 Z-1.131
G01 X574.232 Y108.482 Z-1.275
G01 X574.953 Y108.287 Z-1.470
G01 X575.550 Y108.077 Z-1.680
G01 X576.085 Y107.847 Z-1.909
G01 X576.712 Y107.530 Z-2.226
G01 X577.293 Y107.195 Z-2.561
G01 X577.989 Y106.746 Z-3.011
G01 X578.821 Y106.149 Z-3.608
G01 X579.147 Y105.900 Z-3.857
G01 X579.246 Y104.953 Z-3.758
G01 X579.308 Y104.019 Z-3.695
G01 X579.343 Y103.061 Z-3.661
G01 X579.353 Y102.146 Z-3.650
G01 X579.353 Y85.175 Z-3.650
G01 X579.364 Y81.932 Z-3.661
G01 X579.401 Y79.181 Z-3.698
G01 X579.394 Y78.643 Z-3.730
G01 X579.368 Y78.277 Z-3.775
G01 X579.323 Y77.876 Z-3.848
G01 X578.227 Y77.876 Z-2.842
G01 X577.332 Y77.876 Z-2.088
G01 X576.709 Y77.868 Z-1.641
G01 X576.234 Y77.810 Z-1.348
G01 X575.859 Y77.714 Z-1.153
G01 X575.604 Y77.612 Z-1.046
G01 X575.314 Y77.453 Z-0.964
G01 X575.062 Y77.254 Z-0.937
G01 X573.696 Y75.929 Z-1.024
G01 X572.551 Y74.900 Z-1.126
G01 X571.869 Y74.335 Z-1.202
G01 X571.204 Y73.817 Z-1.295
G01 X570.567 Y73.362 Z-1.394
G01 X569.959 Y72.958 Z-1.503
G01 X569.080 Y72.424 Z-1.672
G01 X568.133 Y71.920 Z-1.862
G01 X567.360 Y71.576 Z-2.025
G01 X566.731 Y71.349 Z-2.151
G01 X566.099 Y71.171 Z-2.273
G01 X565.481 Y71.041 Z-2.394
G01 X564.656 Y70.928 Z-2.549
G01 X563.982 Y70.886 Z-2.675
G01 X563.687 Y70.880 Z-2.733
G01 X562.874 Y70.916 Z-2.878
G01 X562.409 Y70.966 Z-2.964
G01 X561.628 Y71.102 Z-3.109
G01 X561.018 Y71.260 Z-3.219
G01 X560.297 Y71.513 Z-3.342
G01 X559.626 Y71.826 Z-3.443
G01 X559.018 Y72.191 Z-3.520
G01 X558.441 Y72.613 Z-3.570
G01 X557.875 Y73.135 Z-3.615
G01 X557.450 Y73.614 Z-3.648
G01 X557.062 Y74.139 Z-3.677
G01 X556.712 Y74.712 Z-3.700
G01 X556.440 Y75.262 Z-3.708
G01 X556.201 Y75.853 Z-3.708
G01 X556.002 Y76.459 Z-3.701
G01 X555.838 Y77.080 Z-3.690
G01 X555.700 Y77.715 Z-3.679
G01 X555.584 Y78.365 Z-3.670
G01 X555.472 Y79.168 Z-3.663
G01 X555.354 Y80.424 Z-3.655
G01 X555.282 Y81.899 Z-3.659
G01 X555.260 Y83.803 Z-3.673
G01 X555.254 Y102.740 Z-3.679
G01 X555.211 Y104.098 Z-3.723
G01 X555.151 Y105.003 Z-3.782
G01 X555.061 Y105.885 Z-3.872
G01 X558.933 Y109.757 Z0.000
G01 X555.061 Y105.885 Z-3.872
G01 X554.473 Y106.331 Z-3.426
G01 X553.762 Y106.822 Z-2.934
G01 X553.152 Y107.198 Z-2.559
G01 X552.344 Y107.631 Z-2.126
G01 X551.722 Y107.919 Z-1.838
G01 X550.964 Y108.216 Z-1.541
G01 X550.428 Y108.392 Z-1.365
G01 X549.680 Y108.593 Z-1.164
G01 X549.099 Y108.709 Z-1.048
G01 X548.608 Y108.780 Z-0.977
G01 X548.081 Y108.835 Z-0.921
G01 X546.928 Y108.907 Z-0.849
G01 X545.548 Y108.938 Z-0.819
G01 X544.730 Y109.757 Z0.000
G01 X545.548 Y108.938 Z-0.819
G01 X544.730 Y108.119 Z0.000
G01 X545.548 Y108.938 Z-0.819
G01 X546.928 Y108.907 Z-0.849
G01 X548.081 Y108.835 Z-0.921
G01 X548.685 Y108.770 Z-0.987
G01 X549.207 Y108.690 Z-1.066
G01 X549.680 Y108.593 Z-1.164
G01 X550.428 Y108.392 Z-1.365
G01 X550.964 Y108.216 Z-1.541
G01 X551.722 Y107.919 Z-1.838
G01 X552.344 Y107.631 Z-2.126
G01 X553.152 Y107.198 Z-2.559
G01 X553.762 Y106.822 Z-2.934
G01 X554.473 Y106.331 Z-3.426
G01 X555.061 Y105.885 Z-3.872
G01 X555.168 Y104.796 Z-3.765
G01 X555.235 Y103.515 Z-3.698
G01 X555.260 Y101.881 Z-3.673
G01 X555.268 Y82.492 Z-3.666
G01 X555.315 Y81.056 Z-3.656
G01 X555.416 Y79.703 Z-3.657
G01 X555.506 Y78.907 Z-3.663
G01 X555.606 Y78.226 Z-3.673
G01 X555.754 Y77.441 Z-3.687
