%
( jobb1 ) ( File created: Saturday August 24 2024 - 11:28 AM)
( for LinuxCNC )
( Material Size) ( X= 1300.000, Y= 200.000, Z= 20.000)
G90 (Incremental distance mode)
G17 G21 (Active Plane: XY)(Metric Mode)
G40 G49 G80(Tool Diameter, Length compensation & canned cycles OFF)
G64 P0.05 Q0.05(Path Blending)
M600
T3 M06 (TOOL USE End Mill 0.125 inch)
G90 (absolute distance mode)
G54 (Coordinate System)
S18000M3
G00 Z5.000
G4 P6
( V-Carve 1 [Clear 1] )
G00 X43.009 Y121.028 Z5.000 F4800.0
G01 Z-3.000 F1500.0 M3
G01 X42.585 Y120.137  F2400.0
G01 X42.153 Y119.152 
G01 X41.753 Y118.156 
G01 X41.386 Y117.149 
G01 X41.050 Y116.130 
G01 X40.746 Y115.099 
G01 X40.474 Y114.055 
G01 X40.234 Y112.998 
G01 X40.025 Y111.927 
G01 X39.848 Y110.842 
G01 X39.703 Y109.743 
G01 X39.590 Y108.629 
G01 X39.508 Y107.499 
G01 X39.459 Y106.354 
G01 X39.443 Y105.201 
G01 X39.468 Y103.756 
G01 X39.542 Y102.350 
G01 X39.665 Y100.975 
G01 X39.836 Y99.631 
G01 X40.054 Y98.317 
G01 X40.325 Y97.008 
G01 X40.632 Y95.776 
G01 X40.991 Y94.547 
G01 X41.398 Y93.345 
G01 X41.851 Y92.167 
G01 X42.351 Y91.014 
G01 X42.899 Y89.885 
G01 X43.495 Y88.777 
G01 X44.231 Y87.547 
G01 X43.795 Y88.676 
G01 X43.425 Y89.738 
G01 X43.083 Y90.818 
G01 X42.770 Y91.915 
G01 X42.486 Y93.029 
G01 X42.230 Y94.161 
G01 X42.003 Y95.309 
G01 X41.802 Y96.474 
G01 X41.630 Y97.656 
G01 X41.484 Y98.854 
G01 X41.366 Y100.068 
G01 X41.274 Y101.299 
G01 X41.209 Y102.546 
G01 X41.170 Y103.810 
G01 X41.157 Y105.087 
G01 X41.171 Y106.605 
G01 X41.211 Y108.093 
G01 X41.279 Y109.556 
G01 X41.374 Y110.993 
G01 X41.496 Y112.406 
G01 X41.647 Y113.793 
G01 X41.826 Y115.154 
G01 X42.033 Y116.491 
G01 X42.269 Y117.803 
G01 X42.535 Y119.090 
G01 X42.831 Y120.351 
G01 X43.009 Y121.028 
G00 Z5.000
G00 X396.524 Y109.561  F4800.0
G01 Z-3.000 F1500.0 M3
G01 X408.571 Y109.561  F2400.0
G01 X407.949 Y109.979 
G01 X407.596 Y110.178 
G01 X407.233 Y110.359 
G01 X406.855 Y110.522 
G01 X406.459 Y110.669 
G01 X406.040 Y110.800 
G01 X405.596 Y110.915 
G01 X405.123 Y111.012 
G01 X404.619 Y111.091 
G01 X404.080 Y111.150 
G01 X403.506 Y111.187 
G01 X402.905 Y111.199 
G01 X402.142 Y111.182 
G01 X401.426 Y111.132 
G01 X400.747 Y111.051 
G01 X400.104 Y110.941 
G01 X399.492 Y110.804 
G01 X398.908 Y110.640 
G01 X398.348 Y110.449 
G01 X397.807 Y110.231 
G01 X397.282 Y109.986 
G01 X396.769 Y109.710 
G01 X396.524 Y109.561 
G01 X393.020 Y108.301  
G01 X411.541 Y108.301  
G01 X411.221 Y108.735 
G01 X410.900 Y109.121 
G01 X410.547 Y109.502 
G01 X410.169 Y109.871 
G01 X409.783 Y110.212 
G01 X409.394 Y110.522 
G01 X408.999 Y110.804 
G01 X408.598 Y111.060 
G01 X408.187 Y111.292 
G01 X407.763 Y111.502 
G01 X407.324 Y111.692 
G01 X406.866 Y111.862 
G01 X406.386 Y112.012 
G01 X405.881 Y112.143 
G01 X405.348 Y112.253 
G01 X404.785 Y112.341 
G01 X404.189 Y112.406 
G01 X403.559 Y112.446 
G01 X402.903 Y112.460 
G01 X402.084 Y112.441 
G01 X401.307 Y112.387 
G01 X400.567 Y112.298 
G01 X399.859 Y112.178 
G01 X399.183 Y112.026 
G01 X398.534 Y111.843 
G01 X397.909 Y111.631 
G01 X397.305 Y111.387 
G01 X396.717 Y111.113 
G01 X396.143 Y110.804 
G01 X395.579 Y110.461 
G01 X395.023 Y110.080 
G01 X394.473 Y109.658 
G01 X393.927 Y109.192 
G01 X393.385 Y108.680 
G01 X393.020 Y108.301 
G01 X390.427 Y107.041  
G01 X413.664 Y107.041  
G01 X413.415 Y107.590 
G01 X413.149 Y108.102 
G01 X412.861 Y108.591 
G01 X412.549 Y109.061 
G01 X412.212 Y109.514 
G01 X411.847 Y109.953 
G01 X411.450 Y110.382 
G01 X411.027 Y110.795 
G01 X410.593 Y111.178 
G01 X410.153 Y111.528 
G01 X409.705 Y111.848 
G01 X409.247 Y112.140 
G01 X408.777 Y112.405 
G01 X408.294 Y112.646 
G01 X407.794 Y112.862 
G01 X407.274 Y113.055 
G01 X406.732 Y113.224 
G01 X406.166 Y113.370 
G01 X405.573 Y113.493 
G01 X404.950 Y113.590 
G01 X404.297 Y113.661 
G01 X403.612 Y113.705 
G01 X402.902 Y113.720 
G01 X402.025 Y113.700 
G01 X401.189 Y113.641 
G01 X400.386 Y113.546 
G01 X399.615 Y113.414 
G01 X398.874 Y113.248 
G01 X398.160 Y113.047 
G01 X397.471 Y112.812 
G01 X396.802 Y112.543 
G01 X396.152 Y112.239 
G01 X395.517 Y111.898 
G01 X394.894 Y111.519 
G01 X394.283 Y111.100 
G01 X393.680 Y110.638 
G01 X393.085 Y110.130 
G01 X392.497 Y109.575 
G01 X391.650 Y108.673 
G01 X391.143 Y108.054 
G01 X390.667 Y107.403 
G01 X390.427 Y107.041 
G01 X388.288 Y105.780  
G01 X415.423 Y105.781  
G01 X415.285 Y106.269 
G01 X415.065 Y106.922 
G01 X414.819 Y107.545 
G01 X414.548 Y108.142 
G01 X414.252 Y108.712 
G01 X413.929 Y109.260 
G01 X413.580 Y109.786 
G01 X413.202 Y110.294 
G01 X412.795 Y110.784 
G01 X412.353 Y111.261 
G01 X411.884 Y111.718 
G01 X411.403 Y112.144 
G01 X410.912 Y112.535 
G01 X410.410 Y112.893 
G01 X409.896 Y113.221 
G01 X409.368 Y113.519 
G01 X408.824 Y113.789 
G01 X408.263 Y114.031 
G01 X407.682 Y114.247 
G01 X407.078 Y114.436 
G01 X406.451 Y114.598 
G01 X405.797 Y114.733 
G01 X405.116 Y114.839 
G01 X404.406 Y114.917 
G01 X403.666 Y114.964 
G01 X402.901 Y114.980 
G01 X401.967 Y114.959 
G01 X401.070 Y114.896 
G01 X400.205 Y114.793 
G01 X399.371 Y114.651 
G01 X398.566 Y114.470 
G01 X397.787 Y114.251 
G01 X397.032 Y113.994 
G01 X396.300 Y113.699 
G01 X395.586 Y113.366 
G01 X394.891 Y112.992 
G01 X394.210 Y112.578 
G01 X393.543 Y112.120 
G01 X392.888 Y111.617 
G01 X392.244 Y111.068 
G01 X391.610 Y110.471 
G01 X390.971 Y109.805 
G01 X390.417 Y109.166 
G01 X389.883 Y108.475 
G01 X389.384 Y107.750 
G01 X388.919 Y106.988 
G01 X388.487 Y106.187 
G01 X388.288 Y105.780 
G00 Z5.000
G00 X396.702 Y109.611  F4800.0
G01 Z-6.000 F1500.0 M3
G01 X408.415 Y109.611  F2400.0
G01 X407.923 Y109.936 
G01 X407.573 Y110.134 
G01 X407.212 Y110.313 
G01 X406.836 Y110.476 
G01 X406.442 Y110.622 
G01 X406.026 Y110.752 
G01 X405.585 Y110.866 
G01 X405.114 Y110.963 
G01 X404.612 Y111.042 
G01 X404.076 Y111.100 
G01 X403.504 Y111.137 
G01 X402.905 Y111.149 
G01 X402.144 Y111.132 
G01 X401.430 Y111.082 
G01 X400.754 Y111.001 
G01 X400.113 Y110.892 
G01 X399.504 Y110.755 
G01 X398.922 Y110.592 
G01 X398.365 Y110.402 
G01 X397.827 Y110.186 
G01 X397.305 Y109.941 
G01 X396.702 Y109.611 
G01 X393.114 Y108.341  
G01 X411.464 Y108.341  
G01 X411.190 Y108.710 
G01 X410.870 Y109.095 
G01 X410.518 Y109.474 
G01 X410.142 Y109.842 
G01 X409.757 Y110.182 
G01 X409.370 Y110.490 
G01 X408.977 Y110.771 
G01 X408.577 Y111.025 
G01 X408.168 Y111.256 
G01 X407.747 Y111.466 
G01 X407.309 Y111.655 
G01 X406.853 Y111.824 
G01 X406.375 Y111.974 
G01 X405.872 Y112.104 
G01 X405.341 Y112.213 
G01 X404.779 Y112.301 
G01 X404.185 Y112.366 
G01 X403.557 Y112.406 
G01 X402.904 Y112.420 
G01 X402.085 Y112.401 
G01 X401.311 Y112.347 
G01 X400.572 Y112.259 
G01 X399.867 Y112.138 
G01 X399.193 Y111.987 
G01 X398.546 Y111.805 
G01 X397.923 Y111.593 
G01 X397.321 Y111.351 
G01 X396.735 Y111.077 
G01 X396.163 Y110.770 
G01 X395.601 Y110.427 
G01 X395.047 Y110.047 
G01 X394.498 Y109.627 
G01 X393.954 Y109.162 
G01 X393.413 Y108.652 
G01 X393.114 Y108.341 
G00 Z5.000
G00 X399.601 Y110.035  F4800.0
G01 Z-3.000 F1500.0 M3
G01 X400.301 Y110.035  F2400.0
G01 X399.783 Y110.049 
G01 X399.601 Y110.035 
G01 X395.287 Y108.775  
G01 X404.247 Y108.775  
G01 X403.980 Y109.183 
G01 X403.748 Y109.479 
G01 X403.499 Y109.751 
G01 X403.231 Y110.005 
G01 X402.938 Y110.242 
G01 X402.608 Y110.473 
G01 X402.252 Y110.688 
G01 X401.903 Y110.868 
G01 X401.569 Y111.012 
G01 X401.250 Y111.124 
G01 X400.939 Y111.208 
G01 X400.632 Y111.266 
G01 X400.322 Y111.301 
G01 X399.721 Y111.308 
G01 X399.185 Y111.254 
G01 X398.681 Y111.151 
G01 X398.193 Y110.997 
G01 X397.705 Y110.784 
G01 X397.205 Y110.505 
G01 X396.686 Y110.145 
G01 X396.145 Y109.694 
G01 X395.633 Y109.187 
G01 X395.287 Y108.775 
G00 Z5.000
G00 X510.236 Y93.725  F4800.0
G01 Z-3.000 F1500.0 M3
G01 X510.155 Y94.405  F2400.0
G01 X510.026 Y95.120 
G01 X509.855 Y95.829 
G01 X509.639 Y96.533 
G01 X509.378 Y97.237 
G01 X509.243 Y97.557 
G01 X508.880 Y98.326 
G01 X508.522 Y98.985 
G01 X508.110 Y99.651 
G01 X507.660 Y100.295 
G01 X507.190 Y100.892 
G01 X506.633 Y101.525 
G01 X506.054 Y102.114 
G01 X505.429 Y102.687 
G01 X504.752 Y103.246 
G01 X503.934 Y103.856 
G01 X502.883 Y104.580 
G01 X501.608 Y105.405 
G01 X500.116 Y106.324 
G01 X498.415 Y107.330 
G01 X496.507 Y108.422 
G01 X494.396 Y109.596 
G01 X490.575 Y111.668 
G01 X487.753 Y113.252 
G01 X485.190 Y114.768 
G01 X484.004 Y115.502 
G01 X482.880 Y116.221 
G01 X481.818 Y116.927 
G01 X480.816 Y117.621 
G01 X479.874 Y118.304 
G01 X478.989 Y118.980 
G01 X478.159 Y119.651 
G01 X477.383 Y120.321 
G01 X476.658 Y120.998 
G01 X475.981 Y121.689 
G01 X475.392 Y122.359 
G01 X474.802 Y123.107 
G01 X475.171 Y122.354 
G01 X475.562 Y121.681 
G01 X475.984 Y121.040 
G01 X476.456 Y120.404 
G01 X476.980 Y119.770 
G01 X477.558 Y119.139 
G01 X478.193 Y118.510 
G01 X478.886 Y117.886 
G01 X479.641 Y117.263 
G01 X480.525 Y116.594 
G01 X481.598 Y115.834 
G01 X482.855 Y114.991 
G01 X484.290 Y114.071 
G01 X485.901 Y113.077 
G01 X487.684 Y112.013 
G01 X489.636 Y110.879 
G01 X495.855 Y107.354 
G01 X499.124 Y105.442 
G01 X500.449 Y104.638 
G01 X501.582 Y103.925 
G01 X502.544 Y103.286 
G01 X503.328 Y102.721 
G01 X504.228 Y102.008 
G01 X505.076 Y101.273 
G01 X505.879 Y100.507 
G01 X506.635 Y99.711 
G01 X507.342 Y98.881 
G01 X507.997 Y98.018 
G01 X508.596 Y97.121 
G01 X509.128 Y96.206 
G01 X509.589 Y95.297 
G01 X509.990 Y94.384 
G01 X510.236 Y93.725 
G00 Z5.000
G00 X588.400 Y109.209  F4800.0
G01 Z-3.000 F1500.0 M3
G01 X588.655 Y109.209  F2400.0
G01 X588.517 Y109.696 
G01 X588.276 Y110.405 
G01 X588.400 Y109.209 
G00 Z5.000
G00 X673.787 Y106.544  F4800.0
G01 Z-3.000 F1500.0 M3
G01 X674.592 Y106.395  F2400.0
G01 X675.233 Y106.325 
G01 X675.818 Y106.304 
G01 X676.697 Y106.334 
G01 X677.367 Y106.408 
G01 X677.841 Y106.502 
G01 X677.616 Y106.857 
G01 X677.108 Y106.947 
G01 X676.294 Y107.010 
G01 X675.589 Y107.007 
G01 X674.977 Y106.959 
G01 X674.392 Y106.850 
G01 X674.050 Y106.728 
G01 X673.805 Y106.561 
G01 X673.787 Y106.544 
G01 X672.800 Y105.492  
G01 X673.612 Y105.291  
G01 X674.413 Y105.148 
G01 X675.141 Y105.068 
G01 X675.818 Y105.044 
G01 X676.789 Y105.077 
G01 X677.558 Y105.163 
G01 X678.128 Y105.274 
G01 X678.660 Y105.440 
G01 X678.968 Y105.597 
G01 X679.230 Y105.826 
G01 X679.335 Y105.939 
G01 X679.311 Y106.519 
G01 X679.302 Y106.599 
G02 X678.444 Y107.931 I12.254 J8.836
G01 X677.982 Y108.067  
G01 X677.272 Y108.197 
G01 X676.674 Y108.254 
G01 X675.996 Y108.275 
G01 X675.158 Y108.244 
G01 X674.532 Y108.167 
G01 X674.068 Y108.068 
G01 X673.605 Y107.911 
G01 X673.291 Y107.746 
G01 X672.980 Y107.513 
G01 X672.562 Y107.096 
G01 X672.317 Y106.766 
G01 X672.266 Y106.632 
G01 X672.234 Y106.187 
G01 X672.269 Y105.875 
G01 X672.331 Y105.761 
G01 X672.624 Y105.581 
G01 X672.800 Y105.492 
G01 X672.348 Y104.308  
G01 X673.349 Y104.059  
G01 X674.233 Y103.900 
G01 X675.050 Y103.811 
G01 X675.817 Y103.783 
G01 X676.880 Y103.820 
G01 X677.750 Y103.917 
G01 X678.427 Y104.050 
G01 X678.933 Y104.197 
G01 X679.438 Y104.413 
G01 X679.768 Y104.620 
G01 X680.128 Y104.942 
G01 X680.429 Y105.288 
G01 X680.550 Y105.496 
G01 X680.592 Y105.795 
G01 X680.582 Y106.443 
G01 X680.524 Y106.947 
G01 X680.490 Y107.110 
G01 X680.428 Y107.194 
G02 X679.330 Y108.932 I11.128 J8.242
G01 X678.739 Y109.162  
G01 X678.019 Y109.349 
G01 X677.436 Y109.446 
G01 X676.754 Y109.512 
G01 X675.994 Y109.535 
G01 X675.057 Y109.500 
G01 X674.322 Y109.410 
G01 X673.745 Y109.286 
G01 X673.295 Y109.144 
G01 X672.774 Y108.904 
G01 X672.315 Y108.598 
G01 X671.974 Y108.302 
G01 X671.612 Y107.924 
G01 X671.286 Y107.496 
G01 X671.135 Y107.219 
G01 X671.031 Y106.882 
G01 X670.980 Y106.450 
G01 X670.981 Y106.004 
G01 X671.037 Y105.605 
G01 X671.151 Y105.286 
G01 X671.330 Y104.985 
G01 X671.511 Y104.803 
G01 X671.909 Y104.536 
G01 X672.348 Y104.308 
G01 X671.803 Y103.171  
G01 X671.895 Y103.124  
G01 X673.086 Y102.826 
G01 X674.054 Y102.653 
G01 X674.959 Y102.555 
G01 X675.817 Y102.523 
G01 X676.415 Y102.534 
G01 X676.972 Y102.564 
G01 X677.941 Y102.671 
G01 X678.726 Y102.826 
G01 X679.345 Y103.006 
G01 X679.825 Y103.199 
G01 X680.205 Y103.398 
G01 X680.523 Y103.611 
G01 X680.839 Y103.876 
G01 X681.198 Y104.240 
G01 X681.531 Y104.666 
G01 X681.688 Y104.949 
G01 X681.775 Y105.197 
G01 X681.838 Y105.561 
G01 X681.853 Y106.247 
G01 X681.794 Y106.984 
G01 X681.707 Y107.439 
G01 X681.612 Y107.712 
G01 X681.441 Y107.944 
G02 X680.265 Y109.870 I10.115 J7.492
G01 X679.620 Y110.181  
G01 X679.127 Y110.361 
G01 X678.575 Y110.517 
G01 X677.946 Y110.644 
G01 X677.229 Y110.738 
G01 X676.412 Y110.789 
G01 X675.441 Y110.785 
G01 X674.514 Y110.711 
G01 X673.750 Y110.583 
G01 X673.124 Y110.418 
G01 X672.606 Y110.225 
G01 X672.159 Y110.004 
G01 X671.744 Y109.743 
G01 X671.330 Y109.419 
G01 X670.871 Y108.981 
G01 X670.488 Y108.543 
G01 X670.225 Y108.176 
G01 X669.981 Y107.725 
G01 X669.833 Y107.295 
G01 X669.738 Y106.745 
G01 X669.716 Y106.078 
G01 X669.768 Y105.528 
G01 X669.866 Y105.117 
G01 X670.014 Y104.742 
G01 X670.234 Y104.353 
G01 X670.498 Y104.025 
G01 X670.798 Y103.761 
G01 X671.285 Y103.441 
G01 X671.803 Y103.171 
G01 X671.233 Y102.048  
G01 X671.437 Y101.942  
G01 X672.273 Y101.721 
G01 X673.357 Y101.489 
G01 X674.378 Y101.342 
G01 X675.344 Y101.272 
G01 X676.459 Y101.274 
G01 X677.063 Y101.307 
G01 X677.621 Y101.358 
G01 X678.133 Y101.426 
G01 X679.025 Y101.601 
G01 X679.757 Y101.815 
G01 X680.354 Y102.055 
G01 X680.849 Y102.315 
G01 X681.279 Y102.602 
G01 X681.695 Y102.950 
G01 X682.136 Y103.398 
G01 X682.462 Y103.798 
G01 X682.685 Y104.137 
G01 X682.898 Y104.578 
G01 X683.033 Y105.043 
G01 X683.092 Y105.436 
G01 X683.117 Y105.984 
G01 X683.073 Y106.897 
G01 X682.968 Y107.583 
G01 X682.845 Y108.025 
G01 X682.705 Y108.340 
G01 X682.453 Y108.693 
G02 X681.240 Y110.756 I9.103 J6.742
G01 X680.639 Y111.099  
G01 X680.099 Y111.346 
G01 X679.515 Y111.560 
G01 X678.871 Y111.741 
G01 X678.153 Y111.887 
G01 X677.350 Y111.992 
G01 X676.451 Y112.049 
G01 X675.391 Y112.044 
G01 X674.855 Y112.012 
G01 X674.360 Y111.962 
G01 X673.484 Y111.815 
G01 X672.742 Y111.619 
G01 X672.106 Y111.382 
G01 X671.543 Y111.104 
G01 X671.019 Y110.775 
G01 X670.505 Y110.372 
G01 X669.961 Y109.852 
G01 X669.500 Y109.326 
G01 X669.164 Y108.857 
G01 X668.922 Y108.433 
G01 X668.745 Y108.029 
G01 X668.612 Y107.610 
G01 X668.517 Y107.137 
G01 X668.462 Y106.572 
G01 X668.456 Y106.038 
G01 X668.500 Y105.484 
G01 X668.586 Y105.018 
G01 X668.709 Y104.602 
G01 X668.877 Y104.199 
G01 X669.105 Y103.780 
G01 X669.339 Y103.440 
G01 X669.691 Y103.051 
G01 X670.031 Y102.761 
G01 X670.480 Y102.453 
G01 X670.859 Y102.237 
G01 X671.233 Y102.048 
G01 X670.663 Y100.924  
G01 X670.977 Y100.757  
G01 X671.970 Y100.498 
G01 X673.135 Y100.249 
G01 X674.242 Y100.089 
G01 X675.299 Y100.012 
G01 X675.816 Y100.003 
G01 X676.504 Y100.015 
G01 X677.155 Y100.050 
G01 X677.761 Y100.106 
G01 X678.324 Y100.180 
G01 X678.845 Y100.271 
G01 X679.324 Y100.377 
G01 X679.765 Y100.495 
G01 X680.541 Y100.763 
G01 X681.199 Y101.067 
G01 X681.771 Y101.406 
G01 X682.288 Y101.794 
G01 X682.823 Y102.289 
G01 X683.292 Y102.811 
G01 X683.638 Y103.282 
G01 X683.890 Y103.713 
G01 X684.075 Y104.126 
G01 X684.213 Y104.556 
G01 X684.312 Y105.039 
G01 X684.369 Y105.610 
G01 X684.372 Y106.328 
G01 X684.327 Y107.024 
G01 X684.248 Y107.603 
G01 X684.091 Y108.269 
G01 X683.917 Y108.734 
G01 X683.738 Y109.067 
G01 X683.466 Y109.443 
G02 X682.243 Y111.611 I8.090 J5.992
G01 X681.511 Y112.062  
G01 X680.899 Y112.373 
G01 X680.247 Y112.640 
G01 X679.544 Y112.868 
G01 X678.774 Y113.054 
G01 X677.927 Y113.195 
G01 X676.992 Y113.285 
G01 X675.986 Y113.316 
G01 X675.341 Y113.303 
G01 X674.754 Y113.269 
G01 X674.206 Y113.213 
G01 X673.694 Y113.139 
G01 X673.218 Y113.047 
G01 X672.774 Y112.941 
G01 X672.360 Y112.820 
G01 X671.972 Y112.686 
G01 X671.260 Y112.379 
G01 X670.607 Y112.014 
G01 X669.986 Y111.577 
G01 X669.680 Y111.325 
G01 X669.365 Y111.038 
G01 X668.763 Y110.410 
G01 X668.293 Y109.817 
G01 X667.938 Y109.265 
G01 X667.672 Y108.736 
G01 X667.472 Y108.204 
G01 X667.325 Y107.634 
G01 X667.229 Y106.991 
G01 X667.193 Y106.207 
G01 X667.226 Y105.534 
G01 X667.319 Y104.915 
G01 X667.462 Y104.359 
G01 X667.660 Y103.830 
G01 X667.927 Y103.298 
G01 X668.237 Y102.810 
G01 X668.569 Y102.398 
G01 X668.958 Y102.013 
G01 X669.435 Y101.634 
G01 X670.037 Y101.251 
G01 X670.663 Y100.924 
G01 X670.092 Y99.801  
G01 X670.517 Y99.570  
G01 X671.667 Y99.274 
G01 X672.297 Y99.129 
G01 X672.913 Y99.008 
G01 X673.516 Y98.911 
G01 X674.106 Y98.836 
G01 X674.685 Y98.784 
G01 X675.253 Y98.753 
G01 X675.815 Y98.743 
G01 X676.549 Y98.755 
G01 X677.247 Y98.793 
G01 X677.902 Y98.853 
G01 X678.516 Y98.934 
G01 X679.089 Y99.035 
G01 X679.623 Y99.153 
G01 X680.120 Y99.286 
G01 X680.582 Y99.433 
G01 X681.011 Y99.594 
G01 X681.412 Y99.766 
G01 X681.786 Y99.951 
G01 X682.138 Y100.148 
G01 X682.471 Y100.358 
G01 X682.789 Y100.584 
G01 X683.096 Y100.826 
G01 X683.406 Y101.100 
G01 X684.013 Y101.716 
G01 X684.495 Y102.308 
G01 X684.862 Y102.866 
G01 X685.140 Y103.405 
G01 X685.349 Y103.950 
G01 X685.502 Y104.533 
G01 X685.601 Y105.187 
G01 X685.638 Y105.973 
G01 X685.612 Y106.773 
G01 X685.539 Y107.499 
G01 X685.431 Y108.117 
G01 X685.297 Y108.636 
G01 X685.064 Y109.257 
G01 X684.801 Y109.744 
G01 X684.478 Y110.193 
G02 X683.265 Y112.462 I7.078 J5.242
G01 X682.125 Y113.162  
G01 X681.424 Y113.518 
G01 X680.681 Y113.824 
G01 X679.886 Y114.081 
G01 X679.026 Y114.289 
G01 X678.090 Y114.444 
G01 X677.072 Y114.542 
G01 X675.984 Y114.576 
G01 X675.292 Y114.563 
G01 X674.653 Y114.525 
G01 X674.052 Y114.464 
G01 X673.485 Y114.381 
G01 X672.952 Y114.279 
G01 X672.451 Y114.159 
G01 X671.978 Y114.021 
G01 X671.531 Y113.867 
G01 X671.107 Y113.696 
G01 X670.702 Y113.509 
G01 X670.313 Y113.304 
G01 X669.936 Y113.081 
G01 X669.570 Y112.837 
G01 X669.210 Y112.570 
G01 X668.855 Y112.278 
G01 X668.495 Y111.950 
G01 X668.139 Y111.595 
G01 X667.813 Y111.239 
G01 X667.524 Y110.890 
G01 X667.267 Y110.550 
G01 X667.042 Y110.217 
G01 X666.669 Y109.565 
G01 X666.385 Y108.916 
G01 X666.172 Y108.241 
G01 X666.024 Y107.509 
G01 X665.975 Y107.113 
G01 X665.944 Y106.693 
G01 X665.937 Y105.957 
G01 X666.002 Y105.154 
G01 X666.135 Y104.431 
G01 X666.334 Y103.760 
G01 X666.604 Y103.111 
G01 X666.956 Y102.462 
G01 X667.348 Y101.895 
G01 X667.788 Y101.389 
G01 X668.303 Y100.915 
G01 X668.925 Y100.456 
G01 X669.683 Y100.008 
G01 X670.092 Y99.801 
G01 X669.522 Y98.677  
G01 X670.055 Y98.379  
G01 X670.568 Y98.262 
G01 X671.364 Y98.051 
G01 X672.034 Y97.897 
G01 X672.691 Y97.768 
G01 X673.337 Y97.664 
G01 X673.970 Y97.584 
G01 X674.593 Y97.527 
G01 X675.207 Y97.493 
G01 X675.815 Y97.482 
G01 X676.594 Y97.496 
G01 X677.338 Y97.536 
G01 X678.042 Y97.601 
G01 X678.707 Y97.689 
G01 X679.333 Y97.798 
G01 X679.922 Y97.928 
G01 X680.475 Y98.077 
G01 X680.994 Y98.242 
G01 X681.482 Y98.424 
G01 X681.940 Y98.622 
G01 X682.373 Y98.836 
G01 X682.782 Y99.065 
G01 X683.172 Y99.311 
G01 X683.545 Y99.575 
G01 X683.904 Y99.858 
G01 X684.262 Y100.174 
G01 X684.620 Y100.521 
G01 X684.952 Y100.875 
G01 X685.248 Y101.222 
G01 X685.512 Y101.562 
G01 X685.745 Y101.898 
G01 X685.951 Y102.230 
G01 X686.132 Y102.560 
G01 X686.429 Y103.224 
G01 X686.651 Y103.914 
G01 X686.736 Y104.279 
G01 X686.805 Y104.660 
G01 X686.855 Y105.062 
G01 X686.886 Y105.487 
G01 X686.891 Y106.409 
G01 X686.835 Y107.276 
G01 X686.730 Y108.040 
G01 X686.586 Y108.705 
G01 X686.411 Y109.280 
G01 X686.211 Y109.780 
G01 X685.986 Y110.218 
G01 X685.735 Y110.614 
G01 X685.491 Y110.943 
G02 X684.308 Y113.331 I6.065 J4.492
G01 X683.622 Y113.720  
G01 X683.122 Y114.040 
G01 X682.349 Y114.471 
G01 X681.538 Y114.842 
G01 X680.679 Y115.157 
G01 X679.761 Y115.416 
G01 X678.775 Y115.616 
G01 X677.713 Y115.755 
G01 X676.569 Y115.827 
G01 X675.981 Y115.836 
G01 X675.242 Y115.822 
G01 X674.552 Y115.781 
G01 X673.897 Y115.715 
G01 X673.276 Y115.624 
G01 X672.686 Y115.511 
G01 X672.127 Y115.377 
G01 X671.596 Y115.222 
G01 X671.090 Y115.047 
G01 X670.607 Y114.853 
G01 X670.144 Y114.639 
G01 X669.698 Y114.404 
G01 X669.266 Y114.148 
G01 X668.845 Y113.868 
G01 X668.434 Y113.563 
G01 X668.030 Y113.231 
G01 X667.625 Y112.862 
G01 X667.229 Y112.466 
G01 X666.864 Y112.067 
G01 X666.536 Y111.673 
G01 X666.242 Y111.283 
G01 X665.981 Y110.897 
G01 X665.749 Y110.514 
G01 X665.543 Y110.132 
G01 X665.363 Y109.747 
G01 X665.205 Y109.359 
G01 X665.068 Y108.963 
G01 X664.951 Y108.556 
G01 X664.854 Y108.134 
G01 X664.777 Y107.695 
G01 X664.721 Y107.236 
G01 X664.686 Y106.753 
G01 X664.678 Y105.917 
G01 X664.718 Y105.288 
G01 X664.796 Y104.697 
G01 X664.979 Y103.867 
G01 X665.243 Y103.080 
G01 X665.594 Y102.311 
G01 X666.034 Y101.565 
G01 X666.352 Y101.122 
G01 X666.699 Y100.709 
G01 X667.079 Y100.317 
G01 X667.501 Y99.943 
G01 X667.973 Y99.581 
G01 X668.502 Y99.232 
G01 X669.095 Y98.894 
G01 X669.522 Y98.677 
G01 X668.952 Y97.554  
G01 X669.591 Y97.181  
G01 X670.245 Y97.044 
G01 X671.061 Y96.828 
G01 X671.771 Y96.664 
G01 X672.470 Y96.527 
G01 X673.157 Y96.416 
G01 X673.834 Y96.331 
G01 X674.502 Y96.270 
G01 X675.161 Y96.234 
G01 X675.814 Y96.222 
G01 X676.639 Y96.237 
G01 X677.430 Y96.279 
G01 X678.183 Y96.348 
G01 X678.899 Y96.443 
G01 X679.578 Y96.562 
G01 X680.221 Y96.704 
G01 X680.830 Y96.867 
G01 X681.407 Y97.051 
G01 X681.952 Y97.255 
G01 X682.469 Y97.478 
G01 X682.960 Y97.720 
G01 X683.427 Y97.982 
G01 X683.873 Y98.263 
G01 X684.300 Y98.566 
G01 X684.711 Y98.891 
G01 X685.118 Y99.249 
G01 X685.518 Y99.637 
G01 X685.890 Y100.033 
G01 X686.226 Y100.427 
G01 X686.528 Y100.817 
G01 X686.798 Y101.206 
G01 X687.039 Y101.594 
G01 X687.253 Y101.983 
G01 X687.441 Y102.375 
G01 X687.606 Y102.772 
G01 X687.748 Y103.178 
G01 X687.870 Y103.594 
G01 X687.971 Y104.024 
G01 X688.051 Y104.471 
G01 X688.109 Y104.937 
G01 X688.145 Y105.425 
G01 X688.158 Y105.963 
G01 X688.127 Y106.938 
G01 X688.036 Y107.842 
G01 X687.894 Y108.651 
G01 X687.708 Y109.370 
G01 X687.483 Y110.009 
G01 X687.223 Y110.580 
G01 X686.928 Y111.097 
G01 X686.503 Y111.693 
G02 X685.385 Y114.229 I5.053 J3.742
G02 X684.300 Y114.782 I2.299 J5.852
G01 X683.779 Y115.115  
G01 X682.919 Y115.595 
G01 X682.017 Y116.008 
G01 X681.067 Y116.356 
G01 X680.058 Y116.641 
G01 X678.982 Y116.859 
G01 X677.834 Y117.010 
G01 X676.608 Y117.087 
G01 X675.979 Y117.097 
G01 X675.193 Y117.081 
G01 X674.451 Y117.037 
G01 X673.743 Y116.965 
G01 X673.066 Y116.867 
G01 X672.420 Y116.743 
G01 X671.803 Y116.595 
G01 X671.214 Y116.423 
G01 X670.649 Y116.228 
G01 X670.107 Y116.010 
G01 X669.586 Y115.769 
G01 X669.082 Y115.504 
G01 X668.595 Y115.215 
G01 X668.120 Y114.899 
G01 X667.658 Y114.556 
G01 X667.205 Y114.184 
G01 X666.755 Y113.774 
G01 X666.318 Y113.338 
G01 X665.914 Y112.896 
G01 X665.548 Y112.455 
G01 X665.217 Y112.016 
G01 X664.920 Y111.578 
G01 X664.654 Y111.139 
G01 X664.417 Y110.698 
G01 X664.208 Y110.253 
G01 X664.025 Y109.802 
G01 X663.866 Y109.342 
G01 X663.731 Y108.871 
G01 X663.619 Y108.385 
G01 X663.531 Y107.882 
G01 X663.466 Y107.359 
G01 X663.427 Y106.814 
G01 X663.418 Y105.876 
G01 X663.464 Y105.165 
G01 X663.553 Y104.490 
G01 X663.684 Y103.844 
G01 X663.856 Y103.222 
G01 X664.071 Y102.617 
G01 X664.330 Y102.023 
G01 X664.637 Y101.434 
G01 X664.984 Y100.868 
G01 X665.357 Y100.349 
G01 X665.763 Y99.864 
G01 X666.209 Y99.406 
G01 X666.699 Y98.971 
G01 X667.242 Y98.555 
G01 X667.842 Y98.158 
G01 X668.507 Y97.779 
G01 X668.952 Y97.554 
G01 X668.382 Y96.430  
G02 X669.121 Y95.970 I-2.275 J-4.483
G02 X669.923 Y95.826 I-0.485 J-5.004
G01 X670.758 Y95.605  
G01 X671.508 Y95.432 
G01 X672.248 Y95.287 
G01 X672.978 Y95.169 
G01 X673.699 Y95.078 
G01 X674.411 Y95.013 
G01 X675.115 Y94.975 
G01 X675.813 Y94.962 
G01 X676.684 Y94.977 
G01 X677.521 Y95.022 
G01 X678.323 Y95.096 
G01 X679.090 Y95.197 
G01 X679.822 Y95.326 
G01 X680.520 Y95.479 
G01 X681.185 Y95.658 
G01 X681.819 Y95.860 
G01 X682.422 Y96.086 
G01 X682.998 Y96.334 
G01 X683.547 Y96.605 
G01 X684.071 Y96.898 
G01 X684.573 Y97.215 
G01 X685.055 Y97.557 
G01 X685.519 Y97.923 
G01 X685.974 Y98.324 
G01 X686.416 Y98.753 
G01 X686.829 Y99.192 
G01 X687.204 Y99.632 
G01 X687.545 Y100.072 
G01 X687.852 Y100.514 
G01 X688.128 Y100.959 
G01 X688.373 Y101.407 
G01 X688.591 Y101.860 
G01 X688.783 Y102.321 
G01 X688.948 Y102.791 
G01 X689.089 Y103.273 
G01 X689.205 Y103.769 
G01 X689.297 Y104.281 
G01 X689.363 Y104.812 
G01 X689.404 Y105.364 
G01 X689.418 Y105.958 
G01 X689.384 Y107.021 
G01 X689.285 Y108.014 
G01 X689.126 Y108.918 
G01 X688.914 Y109.737 
G01 X688.653 Y110.480 
G01 X688.345 Y111.155 
G01 X687.991 Y111.774 
G01 X687.516 Y112.443 
G02 X686.535 Y115.187 I4.040 J2.992
G02 X684.979 Y115.844 I1.150 J4.894
G01 X684.436 Y116.190  
G01 X683.967 Y116.464 
G01 X683.488 Y116.719 
G01 X682.999 Y116.955 
G01 X682.497 Y117.173 
G01 X681.983 Y117.373 
G01 X681.455 Y117.555 
G01 X680.912 Y117.719 
G01 X680.354 Y117.865 
G01 X679.780 Y117.993 
G01 X679.189 Y118.102 
G01 X678.581 Y118.193 
G01 X677.955 Y118.264 
G01 X677.311 Y118.315 
G01 X676.648 Y118.346 
G01 X675.976 Y118.357 
G01 X675.143 Y118.341 
G01 X674.350 Y118.293 
G01 X673.589 Y118.216 
G01 X672.857 Y118.110 
G01 X672.155 Y117.975 
G01 X671.480 Y117.813 
G01 X670.832 Y117.624 
G01 X670.208 Y117.409 
G01 X669.607 Y117.167 
G01 X669.028 Y116.899 
G01 X668.467 Y116.604 
G01 X667.924 Y116.282 
G01 X667.396 Y115.931 
G01 X666.881 Y115.549 
G01 X666.380 Y115.136 
G01 X665.886 Y114.687 
G01 X665.408 Y114.209 
G01 X664.964 Y113.724 
G01 X664.559 Y113.238 
G01 X664.191 Y112.749 
G01 X663.859 Y112.258 
G01 X663.559 Y111.764 
G01 X663.291 Y111.264 
G01 X663.054 Y110.759 
G01 X662.845 Y110.245 
G01 X662.664 Y109.722 
G01 X662.510 Y109.186 
G01 X662.384 Y108.635 
G01 X662.284 Y108.068 
G01 X662.212 Y107.481 
G01 X662.168 Y106.874 
G01 X662.159 Y105.836 
G01 X662.210 Y105.042 
G01 X662.310 Y104.282 
G01 X662.459 Y103.550 
G01 X662.654 Y102.843 
G01 X662.899 Y102.154 
G01 X663.193 Y101.479 
G01 X663.541 Y100.813 
G01 X663.935 Y100.171 
G01 X664.361 Y99.577 
G01 X664.828 Y99.020 
G01 X665.338 Y98.495 
G01 X665.897 Y97.999 
G01 X666.510 Y97.529 
G01 X667.183 Y97.084 
G01 X667.919 Y96.665 
G01 X668.382 Y96.430 
G00 Z5.000
G00 X673.873 Y106.565  F4800.0
G01 Z-6.000 F1500.0 M3
G01 X674.598 Y106.435  F2400.0
G01 X675.236 Y106.365 
G01 X675.818 Y106.344 
G01 X676.694 Y106.374 
G01 X677.361 Y106.448 
G01 X677.777 Y106.528 
G01 X677.591 Y106.822 
G01 X677.103 Y106.908 
G01 X676.293 Y106.970 
G01 X675.591 Y106.967 
G01 X674.982 Y106.919 
G01 X674.402 Y106.811 
G01 X674.068 Y106.692 
G01 X673.873 Y106.565 
G01 X672.814 Y105.529  
G01 X673.621 Y105.330  
G01 X674.418 Y105.187 
G01 X675.144 Y105.108 
G01 X675.818 Y105.084 
G01 X676.786 Y105.117 
G01 X677.552 Y105.202 
G01 X678.119 Y105.313 
G01 X678.645 Y105.478 
G01 X678.945 Y105.630 
G01 X679.202 Y105.854 
G01 X679.295 Y105.954 
G01 X679.263 Y106.584 
G02 X678.417 Y107.898 I12.293 J8.851
G01 X677.972 Y108.028  
G01 X677.267 Y108.157 
G01 X676.671 Y108.214 
G01 X675.996 Y108.235 
G01 X675.161 Y108.204 
G01 X674.538 Y108.128 
G01 X674.079 Y108.030 
G01 X673.621 Y107.874 
G01 X673.313 Y107.712 
G01 X673.006 Y107.483 
G01 X672.592 Y107.069 
G01 X672.352 Y106.747 
G01 X672.305 Y106.624 
G01 X672.274 Y106.187 
G01 X672.310 Y105.879 
G01 X672.356 Y105.793 
G01 X672.643 Y105.616 
G01 X672.814 Y105.529 
G01 X672.363 Y104.345  
G01 X673.358 Y104.098  
G01 X674.239 Y103.940 
G01 X675.053 Y103.851 
G01 X675.817 Y103.823 
G01 X676.877 Y103.860 
G01 X677.744 Y103.957 
G01 X678.418 Y104.089 
G01 X678.919 Y104.235 
G01 X679.420 Y104.448 
G01 X679.744 Y104.652 
G01 X680.100 Y104.970 
G01 X680.396 Y105.311 
G01 X680.512 Y105.508 
G01 X680.552 Y105.797 
G01 X680.542 Y106.441 
G01 X680.485 Y106.940 
G01 X680.453 Y107.093 
G01 X680.396 Y107.170 
G02 X679.302 Y108.901 I11.160 J8.265
G01 X678.727 Y109.124  
G01 X678.011 Y109.310 
G01 X677.430 Y109.407 
G01 X676.751 Y109.472 
G01 X675.994 Y109.495 
G01 X675.060 Y109.460 
G01 X674.329 Y109.371 
G01 X673.755 Y109.248 
G01 X673.309 Y109.106 
G01 X672.793 Y108.869 
G01 X672.339 Y108.566 
G01 X672.002 Y108.273 
G01 X671.642 Y107.898 
G01 X671.320 Y107.474 
G01 X671.172 Y107.203 
G01 X671.070 Y106.874 
G01 X671.020 Y106.448 
G01 X671.021 Y106.007 
G01 X671.076 Y105.614 
G01 X671.187 Y105.304 
G01 X671.362 Y105.010 
G01 X671.537 Y104.834 
G01 X671.928 Y104.571 
G01 X672.363 Y104.345 
G01 X671.821 Y103.207  
G01 X671.909 Y103.162  
G01 X673.095 Y102.865 
G01 X674.060 Y102.693 
G01 X674.962 Y102.594 
G01 X675.817 Y102.563 
G01 X676.413 Y102.574 
G01 X676.969 Y102.603 
G01 X677.935 Y102.711 
G01 X678.717 Y102.864 
G01 X679.332 Y103.044 
G01 X679.809 Y103.235 
G01 X680.184 Y103.432 
G01 X680.500 Y103.643 
G01 X680.812 Y103.905 
G01 X681.168 Y104.266 
G01 X681.497 Y104.688 
G01 X681.652 Y104.966 
G01 X681.760 Y105.306 
G01 X681.811 Y105.735 
G01 X681.799 Y106.523 
G01 X681.726 Y107.159 
G01 X681.619 Y107.593 
G01 X681.578 Y107.691 
G01 X681.409 Y107.920 
G02 X680.235 Y109.841 I10.148 J7.515
G01 X679.604 Y110.144  
G01 X679.115 Y110.323 
G01 X678.565 Y110.478 
G01 X677.940 Y110.605 
G01 X677.225 Y110.698 
G01 X676.411 Y110.749 
G01 X675.442 Y110.745 
G01 X674.519 Y110.672 
G01 X673.758 Y110.544 
G01 X673.136 Y110.380 
G01 X672.622 Y110.188 
G01 X672.178 Y109.969 
G01 X671.767 Y109.711 
G01 X671.356 Y109.389 
G01 X670.900 Y108.953 
G01 X670.519 Y108.518 
G01 X670.259 Y108.155 
G01 X670.018 Y107.709 
G01 X669.872 Y107.285 
G01 X669.778 Y106.742 
G01 X669.756 Y106.079 
G01 X669.807 Y105.535 
G01 X669.904 Y105.129 
G01 X670.050 Y104.760 
G01 X670.268 Y104.375 
G01 X670.527 Y104.053 
G01 X670.822 Y103.793 
G01 X671.305 Y103.476 
G01 X671.821 Y103.207 
G01 X671.251 Y102.084  
G01 X671.451 Y101.979  
G01 X672.283 Y101.760 
G01 X673.364 Y101.529 
G01 X674.382 Y101.382 
G01 X675.346 Y101.312 
G01 X676.458 Y101.314 
G01 X677.060 Y101.347 
G01 X677.616 Y101.398 
G01 X678.127 Y101.465 
G01 X679.016 Y101.640 
G01 X679.744 Y101.853 
G01 X680.337 Y102.091 
G01 X680.829 Y102.349 
G01 X681.255 Y102.634 
G01 X681.668 Y102.980 
G01 X682.106 Y103.425 
G01 X682.430 Y103.821 
G01 X682.651 Y104.157 
G01 X682.861 Y104.592 
G01 X682.994 Y105.051 
G01 X683.052 Y105.440 
G01 X683.077 Y105.984 
G01 X683.033 Y106.893 
G01 X682.928 Y107.575 
G01 X682.807 Y108.011 
G01 X682.670 Y108.320 
G01 X682.421 Y108.670 
G02 X681.208 Y110.729 I9.135 J6.766
G01 X680.621 Y111.063  
G01 X680.084 Y111.309 
G01 X679.503 Y111.522 
G01 X678.862 Y111.702 
G01 X678.147 Y111.848 
G01 X677.346 Y111.952 
G01 X676.450 Y112.009 
G01 X675.393 Y112.004 
G01 X674.858 Y111.972 
G01 X674.365 Y111.922 
G01 X673.492 Y111.776 
G01 X672.754 Y111.581 
G01 X672.122 Y111.345 
G01 X671.563 Y111.069 
G01 X671.042 Y110.742 
G01 X670.531 Y110.342 
G01 X669.990 Y109.825 
G01 X669.531 Y109.301 
G01 X669.198 Y108.835 
G01 X668.957 Y108.415 
G01 X668.782 Y108.015 
G01 X668.651 Y107.600 
G01 X668.557 Y107.131 
G01 X668.502 Y106.570 
G01 X668.496 Y106.039 
G01 X668.540 Y105.489 
G01 X668.625 Y105.027 
G01 X668.747 Y104.616 
G01 X668.913 Y104.216 
G01 X669.139 Y103.801 
G01 X669.451 Y103.365 
G01 X669.821 Y102.986 
G01 X670.190 Y102.693 
G01 X670.681 Y102.381 
G01 X671.251 Y102.084 
G01 X670.681 Y100.960  
G01 X670.992 Y100.795  
G01 X671.980 Y100.536 
G01 X673.142 Y100.288 
G01 X674.246 Y100.129 
G01 X675.300 Y100.052 
G01 X675.816 Y100.043 
G01 X676.503 Y100.055 
G01 X677.152 Y100.090 
G01 X677.757 Y100.145 
G01 X678.318 Y100.220 
G01 X678.837 Y100.310 
G01 X679.315 Y100.416 
G01 X679.754 Y100.534 
G01 X680.526 Y100.800 
G01 X681.180 Y101.102 
G01 X681.748 Y101.439 
G01 X682.262 Y101.824 
G01 X682.795 Y102.318 
G01 X683.261 Y102.837 
G01 X683.604 Y103.304 
G01 X683.854 Y103.731 
G01 X684.038 Y104.141 
G01 X684.174 Y104.566 
G01 X684.273 Y105.045 
G01 X684.329 Y105.612 
G01 X684.332 Y106.326 
G01 X684.287 Y107.020 
G01 X684.208 Y107.596 
G01 X684.053 Y108.257 
G01 X683.881 Y108.718 
G01 X683.704 Y109.045 
G01 X683.434 Y109.420 
G02 X682.211 Y111.584 I8.122 J6.016
G01 X681.492 Y112.027  
G01 X680.882 Y112.336 
G01 X680.234 Y112.603 
G01 X679.533 Y112.829 
G01 X678.766 Y113.015 
G01 X677.921 Y113.155 
G01 X676.990 Y113.245 
G01 X675.986 Y113.276 
G01 X675.343 Y113.264 
G01 X674.758 Y113.229 
G01 X674.211 Y113.173 
G01 X673.701 Y113.099 
G01 X673.226 Y113.008 
G01 X672.784 Y112.902 
G01 X672.372 Y112.782 
G01 X671.622 Y112.502 
G01 X670.948 Y112.169 
G01 X670.318 Y111.773 
G01 X669.706 Y111.295 
G01 X669.392 Y111.009 
G01 X668.793 Y110.384 
G01 X668.325 Y109.794 
G01 X667.973 Y109.245 
G01 X667.708 Y108.720 
G01 X667.510 Y108.192 
G01 X667.364 Y107.626 
G01 X667.269 Y106.987 
G01 X667.233 Y106.207 
G01 X667.266 Y105.538 
G01 X667.358 Y104.923 
G01 X667.500 Y104.371 
G01 X667.697 Y103.846 
G01 X667.961 Y103.317 
G01 X668.270 Y102.833 
G01 X668.599 Y102.424 
G01 X668.984 Y102.043 
G01 X669.458 Y101.667 
G01 X670.057 Y101.286 
G01 X670.681 Y100.960 
G01 X670.110 Y99.836  
G01 X670.532 Y99.608  
G01 X671.677 Y99.313 
G01 X672.305 Y99.168 
G01 X672.920 Y99.048 
G01 X673.522 Y98.950 
G01 X674.110 Y98.876 
G01 X674.688 Y98.824 
G01 X675.254 Y98.793 
G01 X675.815 Y98.783 
G01 X676.548 Y98.795 
G01 X677.244 Y98.833 
G01 X677.897 Y98.893 
G01 X678.510 Y98.974 
G01 X679.081 Y99.074 
G01 X679.614 Y99.191 
G01 X680.109 Y99.324 
G01 X680.569 Y99.471 
G01 X680.996 Y99.631 
G01 X681.395 Y99.803 
G01 X681.767 Y99.987 
G01 X682.117 Y100.183 
G01 X682.449 Y100.392 
G01 X682.765 Y100.616 
G01 X683.070 Y100.857 
G01 X683.379 Y101.129 
G01 X683.983 Y101.743 
G01 X684.463 Y102.331 
G01 X684.828 Y102.886 
G01 X685.103 Y103.421 
G01 X685.311 Y103.963 
G01 X685.463 Y104.541 
G01 X685.561 Y105.190 
G01 X685.598 Y105.973 
G01 X685.572 Y106.770 
G01 X685.500 Y107.494 
G01 X685.392 Y108.109 
G01 X685.258 Y108.624 
G01 X685.028 Y109.240 
G01 X684.767 Y109.722 
G01 X684.446 Y110.169 
G02 X683.233 Y112.435 I7.110 J5.266
G01 X682.106 Y113.128  
G01 X681.407 Y113.482 
G01 X680.667 Y113.786 
G01 X679.875 Y114.042 
G01 X679.018 Y114.249 
G01 X678.085 Y114.405 
G01 X677.069 Y114.502 
G01 X675.984 Y114.536 
G01 X675.293 Y114.523 
G01 X674.657 Y114.485 
G01 X674.056 Y114.424 
G01 X673.492 Y114.342 
G01 X672.961 Y114.240 
G01 X672.461 Y114.120 
G01 X671.990 Y113.983 
G01 X671.545 Y113.829 
G01 X671.122 Y113.659 
G01 X670.719 Y113.473 
G01 X670.332 Y113.269 
G01 X669.958 Y113.047 
G01 X669.593 Y112.804 
G01 X669.235 Y112.539 
G01 X668.881 Y112.248 
G01 X668.523 Y111.921 
G01 X668.168 Y111.567 
G01 X667.844 Y111.212 
G01 X667.555 Y110.866 
G01 X667.300 Y110.527 
G01 X666.878 Y109.870 
G01 X666.554 Y109.226 
G01 X666.308 Y108.571 
G01 X666.129 Y107.876 
G01 X666.015 Y107.109 
G01 X665.984 Y106.691 
G01 X665.977 Y105.958 
G01 X666.042 Y105.159 
G01 X666.174 Y104.440 
G01 X666.371 Y103.773 
G01 X666.640 Y103.128 
G01 X666.991 Y102.483 
G01 X667.380 Y101.919 
G01 X667.816 Y101.417 
G01 X668.329 Y100.946 
G01 X668.947 Y100.489 
G01 X669.702 Y100.044 
G01 X670.110 Y99.836 
G01 X669.540 Y98.713  
G01 X670.070 Y98.417  
G01 X670.578 Y98.301 
G01 X671.374 Y98.090 
G01 X672.042 Y97.936 
G01 X672.698 Y97.807 
G01 X673.342 Y97.703 
G01 X673.975 Y97.623 
G01 X674.596 Y97.567 
G01 X675.208 Y97.533 
G01 X675.815 Y97.522 
G01 X676.592 Y97.536 
G01 X677.335 Y97.576 
G01 X678.038 Y97.640 
G01 X678.701 Y97.728 
G01 X679.326 Y97.838 
G01 X679.913 Y97.967 
G01 X680.464 Y98.115 
G01 X680.981 Y98.280 
G01 X681.467 Y98.462 
G01 X681.924 Y98.659 
G01 X682.354 Y98.871 
G01 X682.762 Y99.099 
G01 X683.150 Y99.344 
G01 X683.521 Y99.607 
G01 X683.878 Y99.889 
G01 X684.235 Y100.204 
G01 X684.591 Y100.549 
G01 X684.922 Y100.901 
G01 X685.217 Y101.247 
G01 X685.479 Y101.586 
G01 X685.711 Y101.920 
G01 X685.916 Y102.250 
G01 X686.254 Y102.906 
G01 X686.511 Y103.576 
G01 X686.697 Y104.287 
G01 X686.765 Y104.666 
G01 X686.815 Y105.066 
G01 X686.846 Y105.489 
G01 X686.851 Y106.407 
G01 X686.795 Y107.272 
G01 X686.691 Y108.033 
G01 X686.548 Y108.695 
G01 X686.374 Y109.267 
G01 X686.174 Y109.763 
G01 X685.952 Y110.198 
G01 X685.702 Y110.591 
G01 X685.459 Y110.919 
G02 X684.274 Y113.303 I6.097 J4.516
G01 X683.601 Y113.686  
G01 X683.101 Y114.005 
G01 X682.331 Y114.435 
G01 X681.523 Y114.805 
G01 X680.667 Y115.119 
G01 X679.752 Y115.377 
G01 X678.768 Y115.577 
G01 X677.709 Y115.715 
G01 X676.568 Y115.787 
G01 X675.981 Y115.796 
G01 X675.244 Y115.782 
G01 X674.556 Y115.741 
G01 X673.902 Y115.675 
G01 X673.282 Y115.585 
G01 X672.695 Y115.472 
G01 X672.137 Y115.338 
G01 X671.608 Y115.184 
G01 X671.104 Y115.010 
G01 X670.623 Y114.816 
G01 X670.161 Y114.603 
G01 X669.717 Y114.369 
G01 X669.287 Y114.114 
G01 X668.868 Y113.836 
G01 X668.458 Y113.532 
G01 X668.056 Y113.200 
G01 X667.653 Y112.833 
G01 X667.258 Y112.439 
G01 X666.894 Y112.041 
G01 X666.567 Y111.648 
G01 X666.275 Y111.260 
G01 X666.014 Y110.876 
G01 X665.783 Y110.494 
G01 X665.579 Y110.114 
G01 X665.399 Y109.731 
G01 X665.242 Y109.345 
G01 X665.106 Y108.951 
G01 X664.990 Y108.546 
G01 X664.893 Y108.126 
G01 X664.817 Y107.690 
G01 X664.760 Y107.232 
G01 X664.726 Y106.751 
G01 X664.718 Y105.918 
G01 X664.758 Y105.292 
G01 X664.836 Y104.704 
G01 X665.018 Y103.877 
G01 X665.280 Y103.094 
G01 X665.630 Y102.330 
G01 X666.068 Y101.587 
G01 X666.384 Y101.147 
G01 X666.728 Y100.735 
G01 X667.107 Y100.346 
G01 X667.527 Y99.974 
G01 X667.996 Y99.614 
G01 X668.523 Y99.266 
G01 X669.114 Y98.929 
G01 X669.540 Y98.713 
G00 Z5.000
G00 X675.232 Y111.542  F4800.0
G01 Z-3.000 F1500.0 M3
G01 X675.084 Y110.801  F2400.0
G01 X674.992 Y110.015 
G01 X674.939 Y109.057 
G01 X674.943 Y107.758 
G01 X674.973 Y107.040 
G01 X675.022 Y106.365 
G01 X675.088 Y105.733 
G01 X675.169 Y105.145 
G01 X675.372 Y104.099 
G01 X675.614 Y103.224 
G01 X675.880 Y102.512 
G01 X676.156 Y101.944 
G01 X676.308 Y101.686 
G01 X676.438 Y102.355 
G01 X676.528 Y103.140 
G01 X676.580 Y104.103 
G01 X676.576 Y105.410 
G01 X676.545 Y106.135 
G01 X676.496 Y106.818 
G01 X676.428 Y107.459 
G01 X676.345 Y108.058 
G01 X676.248 Y108.615 
G01 X676.016 Y109.604 
G01 X675.749 Y110.434 
G01 X675.459 Y111.116 
G01 X675.232 Y111.542 
G01 X675.085 Y113.345  
G01 X674.827 Y113.316  
G01 X674.627 Y113.157 
G01 X674.410 Y112.907 
G01 X674.255 Y112.610 
G01 X674.113 Y112.235 
G01 X673.966 Y111.697 
G01 X673.832 Y110.993 
G01 X673.730 Y110.122 
G01 X673.674 Y109.091 
G01 X673.677 Y107.723 
G01 X673.709 Y106.968 
G01 X673.761 Y106.253 
G01 X673.831 Y105.580 
G01 X673.919 Y104.948 
G01 X674.022 Y104.358 
G01 X674.139 Y103.810 
G01 X674.269 Y103.302 
G01 X674.409 Y102.834 
G01 X674.716 Y102.013 
G01 X675.047 Y101.333 
G01 X675.394 Y100.772 
G01 X675.665 Y100.418 
G01 X675.908 Y100.174 
G01 X676.074 Y100.067 
G01 X676.320 Y100.028 
G01 X676.725 Y100.044 
G01 X676.888 Y100.090 
G01 X677.077 Y100.255 
G01 X677.190 Y100.401 
G01 X677.349 Y100.751 
G01 X677.488 Y101.186 
G01 X677.627 Y101.795 
G01 X677.745 Y102.579 
G01 X677.824 Y103.532 
G01 X677.853 Y104.642 
G01 X677.842 Y105.446 
G01 X677.809 Y106.208 
G01 X677.757 Y106.930 
G01 X677.685 Y107.612 
G01 X677.596 Y108.255 
G01 X677.490 Y108.857 
G01 X677.370 Y109.419 
G01 X677.236 Y109.943 
G01 X677.091 Y110.428 
G01 X676.936 Y110.876 
G01 X676.771 Y111.288 
G01 X676.421 Y112.015 
G01 X676.047 Y112.627 
G01 X675.766 Y113.002 
G01 X675.502 Y113.261 
G01 X675.386 Y113.319 
G01 X675.085 Y113.345 
G01 X675.086 Y114.612  
G01 X674.690 Y114.583  
G01 X674.354 Y114.491 
G01 X674.050 Y114.322 
G01 X673.743 Y114.064 
G01 X673.424 Y113.706 
G01 X673.185 Y113.310 
G01 X673.002 Y112.891 
G01 X672.819 Y112.324 
G01 X672.652 Y111.603 
G01 X672.519 Y110.726 
G01 X672.431 Y109.696 
G01 X672.400 Y108.520 
G01 X672.412 Y107.688 
G01 X672.445 Y106.895 
G01 X672.500 Y106.142 
G01 X672.574 Y105.427 
G01 X672.668 Y104.752 
G01 X672.779 Y104.117 
G01 X672.906 Y103.520 
G01 X673.049 Y102.963 
G01 X673.205 Y102.443 
G01 X673.373 Y101.961 
G01 X673.552 Y101.514 
G01 X673.740 Y101.102 
G01 X673.937 Y100.722 
G01 X674.142 Y100.371 
G01 X674.355 Y100.047 
G01 X674.709 Y99.588 
G01 X675.095 Y99.204 
G01 X675.391 Y98.993 
G01 X675.649 Y98.874 
G01 X675.962 Y98.794 
G01 X676.438 Y98.759 
G01 X676.914 Y98.792 
G01 X677.233 Y98.865 
G01 X677.541 Y99.006 
G01 X677.791 Y99.188 
G01 X678.091 Y99.489 
G01 X678.287 Y99.769 
G01 X678.447 Y100.089 
G01 X678.622 Y100.558 
G01 X678.794 Y101.186 
G01 X678.942 Y101.977 
G01 X679.052 Y102.929 
G01 X679.111 Y104.037 
G01 X679.107 Y105.481 
G01 X679.073 Y106.281 
G01 X679.018 Y107.042 
G01 X678.942 Y107.766 
G01 X678.847 Y108.451 
G01 X678.733 Y109.099 
G01 X678.603 Y109.708 
G01 X678.457 Y110.281 
G01 X678.296 Y110.817 
G01 X678.122 Y111.318 
G01 X677.937 Y111.784 
G01 X677.740 Y112.217 
G01 X677.533 Y112.620 
G01 X677.317 Y112.995 
G01 X677.091 Y113.344 
G01 X676.729 Y113.824 
G01 X676.365 Y114.192 
G01 X676.091 Y114.389 
G01 X675.852 Y114.500 
G01 X675.552 Y114.576 
G01 X675.086 Y114.612 
G01 X675.086 Y115.878  
G01 X674.674 Y115.857  
G01 X674.166 Y115.763 
G01 X673.739 Y115.604 
G01 X673.320 Y115.357 
G01 X673.019 Y115.119 
G01 X672.694 Y114.802 
G01 X672.408 Y114.462 
G01 X672.172 Y114.101 
G01 X671.934 Y113.625 
G01 X671.705 Y113.018 
G01 X671.499 Y112.270 
G01 X671.329 Y111.376 
G01 X671.207 Y110.338 
G01 X671.142 Y109.158 
G01 X671.146 Y107.653 
G01 X671.181 Y106.823 
G01 X671.238 Y106.030 
G01 X671.317 Y105.275 
G01 X671.417 Y104.556 
G01 X671.536 Y103.875 
G01 X671.674 Y103.231 
G01 X671.829 Y102.624 
G01 X672.000 Y102.053 
G01 X672.187 Y101.517 
G01 X672.388 Y101.016 
G01 X672.602 Y100.547 
G01 X672.828 Y100.110 
G01 X673.067 Y99.703 
G01 X673.317 Y99.323 
G01 X673.753 Y98.757 
G01 X674.111 Y98.384 
G01 X674.444 Y98.104 
G01 X674.758 Y97.896 
G01 X675.066 Y97.742 
G01 X675.390 Y97.627 
G01 X675.755 Y97.545 
G01 X676.186 Y97.499 
G01 X676.674 Y97.498 
G01 X677.103 Y97.540 
G01 X677.624 Y97.661 
G01 X678.058 Y97.843 
G01 X678.472 Y98.110 
G01 X678.762 Y98.359 
G01 X679.055 Y98.668 
G01 X679.276 Y98.961 
G01 X679.496 Y99.344 
G01 X679.719 Y99.858 
G01 X679.931 Y100.516 
G01 X680.116 Y101.326 
G01 X680.260 Y102.287 
G01 X680.353 Y103.395 
G01 X680.385 Y104.644 
G01 X680.373 Y105.517 
G01 X680.338 Y106.353 
G01 X680.279 Y107.154 
G01 X680.199 Y107.919 
G01 X680.098 Y108.648 
G01 X679.976 Y109.341 
G01 X679.836 Y109.998 
G01 X679.677 Y110.619 
G01 X679.501 Y111.206 
G01 X679.309 Y111.759 
G01 X679.102 Y112.280 
G01 X678.881 Y112.768 
G01 X678.645 Y113.226 
G01 X678.397 Y113.656 
G01 X678.135 Y114.060 
G01 X677.692 Y114.647 
G01 X677.348 Y115.011 
G01 X677.028 Y115.283 
G01 X676.728 Y115.483 
G01 X676.433 Y115.632 
G01 X676.119 Y115.745 
G01 X675.760 Y115.826 
G01 X675.333 Y115.872 
G01 X675.086 Y115.878 
G00 Z5.000
G00 X675.240 Y111.484  F4800.0
G01 Z-6.000 F1500.0 M3
G01 X675.105 Y110.798  F2400.0
G01 X675.013 Y110.013 
G01 X674.961 Y109.056 
G01 X674.965 Y107.759 
G01 X674.995 Y107.041 
G01 X675.044 Y106.367 
G01 X675.110 Y105.735 
G01 X675.191 Y105.148 
G01 X675.393 Y104.104 
G01 X675.635 Y103.231 
G01 X675.900 Y102.520 
G01 X676.175 Y101.955 
G01 X676.300 Y101.741 
G01 X676.416 Y102.358 
G01 X676.507 Y103.142 
G01 X676.558 Y104.104 
G01 X676.554 Y105.410 
G01 X676.523 Y106.134 
G01 X676.474 Y106.816 
G01 X676.407 Y107.456 
G01 X676.323 Y108.055 
G01 X676.226 Y108.611 
G01 X675.995 Y109.598 
G01 X675.728 Y110.426 
G01 X675.439 Y111.107 
G01 X675.240 Y111.484 
G01 X675.085 Y113.317  
G01 X674.833 Y113.288  
G01 X674.646 Y113.137 
G01 X674.433 Y112.892 
G01 X674.280 Y112.599 
G01 X674.140 Y112.226 
G01 X673.993 Y111.691 
G01 X673.860 Y110.988 
G01 X673.758 Y110.120 
G01 X673.702 Y109.090 
G01 X673.705 Y107.724 
G01 X673.737 Y106.969 
G01 X673.789 Y106.256 
G01 X673.859 Y105.583 
G01 X673.946 Y104.953 
G01 X674.049 Y104.364 
G01 X674.166 Y103.816 
G01 X674.296 Y103.309 
G01 X674.436 Y102.842 
G01 X674.742 Y102.024 
G01 X675.071 Y101.346 
G01 X675.417 Y100.788 
G01 X675.686 Y100.437 
G01 X675.926 Y100.196 
G01 X676.084 Y100.093 
G01 X676.322 Y100.056 
G01 X676.721 Y100.072 
G01 X676.873 Y100.114 
G01 X677.056 Y100.274 
G01 X677.165 Y100.415 
G01 X677.323 Y100.760 
G01 X677.461 Y101.193 
G01 X677.600 Y101.801 
G01 X677.717 Y102.582 
G01 X677.796 Y103.533 
G01 X677.825 Y104.642 
G01 X677.814 Y105.445 
G01 X677.781 Y106.206 
G01 X677.729 Y106.928 
G01 X677.658 Y107.609 
G01 X677.568 Y108.250 
G01 X677.463 Y108.851 
G01 X677.343 Y109.413 
G01 X677.209 Y109.935 
G01 X677.065 Y110.419 
G01 X676.909 Y110.866 
G01 X676.574 Y111.655 
G01 X676.213 Y112.319 
G01 X675.830 Y112.878 
G01 X675.584 Y113.154 
G01 X675.416 Y113.281 
G01 X675.197 Y113.314 
G01 X675.085 Y113.317 
G00 Z5.000
G00 X889.373 Y84.080  F4800.0
G01 Z-3.000 F1500.0 M3
G01 X889.260 Y82.515  F2400.0
G01 X889.104 Y81.251 
G01 X888.893 Y80.096 
G01 X888.806 Y79.733 
G01 X889.927 Y79.733 
G01 X889.722 Y80.736 
G01 X889.616 Y81.415 
G01 X889.524 Y82.143 
G01 X889.397 Y83.574 
G01 X889.373 Y84.080 
G00 Z5.000
G00 X967.776 Y137.567  F4800.0
G01 Z-3.000 F1500.0 M3
G01 X967.876 Y137.610  F2400.0
G01 X968.092 Y137.809 
G01 X968.153 Y137.903 
G01 X968.174 Y138.099 
G01 X968.141 Y138.346 
G01 X967.997 Y138.539 
G01 X967.845 Y138.658 
G01 X967.704 Y138.686 
G01 X967.414 Y138.678 
G01 X967.339 Y138.647 
G01 X967.144 Y138.461 
G01 X967.062 Y138.322 
G01 X967.037 Y138.099 
G01 X967.067 Y137.881 
G01 X967.188 Y137.733 
G01 X967.382 Y137.588 
G01 X967.629 Y137.555 
G01 X967.776 Y137.567 
G00 Z5.000
G00 X986.258 Y137.779  F4800.0
G01 Z-3.000 F1500.0 M3
G01 X986.322 Y137.882  F2400.0
G01 X986.345 Y138.097 
G01 X986.312 Y138.346 
G01 X986.166 Y138.540 
G01 X985.996 Y138.671 
G01 X985.802 Y138.692 
G01 X985.579 Y138.662 
G01 X985.386 Y138.514 
G01 X985.237 Y138.321 
G01 X985.208 Y138.097 
G01 X985.238 Y137.881 
G01 X985.359 Y137.733 
G01 X985.553 Y137.588 
G01 X985.802 Y137.555 
G01 X986.034 Y137.584 
G01 X986.193 Y137.707 
G01 X986.258 Y137.779 
G00 Z5.000
G00 X1027.742 Y102.406  F4800.0
G01 Z-3.000 F1500.0 M3
G01 X1027.749 Y90.188  F2400.0
G01 X1027.776 Y88.823 
G01 X1027.974 Y89.359 
G01 X1028.109 Y89.800 
G01 X1028.237 Y90.292 
G01 X1028.355 Y90.836 
G01 X1028.461 Y91.432 
G01 X1028.552 Y92.081 
G01 X1028.627 Y92.782 
G01 X1028.682 Y93.537 
G01 X1028.717 Y94.343 
G01 X1028.729 Y95.199 
G01 X1028.715 Y96.213 
G01 X1028.674 Y97.171 
G01 X1028.607 Y98.071 
G01 X1028.518 Y98.912 
G01 X1028.407 Y99.693 
G01 X1028.278 Y100.414 
G01 X1028.133 Y101.077 
G01 X1027.974 Y101.681 
G01 X1027.742 Y102.406 
G01 X1026.482 Y104.993  
G01 X1026.489 Y90.174  
G01 X1026.539 Y88.102 
G01 X1026.624 Y86.700 
G01 X1026.640 Y86.555 
G01 X1026.698 Y86.506 
G01 X1027.024 Y86.450 
G01 X1027.473 Y86.427 
G01 X1027.809 Y86.447 
G01 X1027.982 Y86.638 
G01 X1028.339 Y87.141 
G01 X1028.681 Y87.753 
G01 X1029.012 Y88.517 
G01 X1029.171 Y88.964 
G01 X1029.322 Y89.458 
G01 X1029.463 Y90.000 
G01 X1029.591 Y90.592 
G01 X1029.705 Y91.234 
G01 X1029.803 Y91.926 
G01 X1029.882 Y92.670 
G01 X1029.940 Y93.463 
G01 X1029.977 Y94.307 
G01 X1029.989 Y95.199 
G01 X1029.974 Y96.249 
G01 X1029.932 Y97.245 
G01 X1029.862 Y98.184 
G01 X1029.768 Y99.067 
G01 X1029.651 Y99.892 
G01 X1029.514 Y100.660 
G01 X1029.358 Y101.372 
G01 X1029.186 Y102.027 
G01 X1029.001 Y102.627 
G01 X1028.805 Y103.174 
G01 X1028.600 Y103.670 
G01 X1028.389 Y104.118 
G01 X1028.173 Y104.522 
G01 X1027.953 Y104.886 
G01 X1027.728 Y105.215 
G01 X1027.391 Y105.640 
G01 X1027.304 Y105.733 
G01 X1026.482 Y104.993 
G01 X1025.222 Y105.530  
G01 X1025.229 Y90.160  
G01 X1025.280 Y88.049 
G01 X1025.369 Y86.588 
G01 X1025.439 Y85.990 
G01 X1025.674 Y85.724 
G01 X1026.040 Y85.419 
G01 X1026.282 Y85.315 
G01 X1026.728 Y85.217 
G01 X1027.283 Y85.170 
G01 X1027.874 Y85.184 
G01 X1028.198 Y85.242 
G01 X1028.407 Y85.326 
G01 X1028.654 Y85.511 
G01 X1028.970 Y85.855 
G01 X1029.194 Y86.153 
G01 X1029.405 Y86.468 
G01 X1029.610 Y86.814 
G01 X1029.810 Y87.194 
G01 X1030.004 Y87.611 
G01 X1030.190 Y88.069 
G01 X1030.368 Y88.569 
G01 X1030.534 Y89.115 
G01 X1030.688 Y89.707 
G01 X1030.828 Y90.347 
G01 X1030.950 Y91.035 
G01 X1031.054 Y91.772 
G01 X1031.137 Y92.557 
G01 X1031.198 Y93.390 
G01 X1031.236 Y94.272 
G01 X1031.249 Y95.199 
G01 X1031.234 Y96.285 
G01 X1031.190 Y97.318 
G01 X1031.117 Y98.297 
G01 X1031.019 Y99.222 
G01 X1030.896 Y100.092 
G01 X1030.750 Y100.906 
G01 X1030.583 Y101.666 
G01 X1030.398 Y102.372 
G01 X1030.197 Y103.025 
G01 X1029.981 Y103.627 
G01 X1029.753 Y104.179 
G01 X1029.515 Y104.684 
G01 X1029.268 Y105.146 
G01 X1029.012 Y105.568 
G01 X1028.749 Y105.954 
G01 X1028.330 Y106.481 
G01 X1027.931 Y106.873 
G01 X1027.673 Y107.053 
G01 X1027.527 Y107.087 
G01 X1027.245 Y107.067 
G01 X1026.908 Y106.968 
G01 X1026.747 Y106.902 
G01 X1026.474 Y106.683 
G01 X1026.005 Y106.273 
G01 X1025.222 Y105.530 
G01 X1023.962 Y106.056  
G01 X1023.969 Y90.145  
G01 X1024.021 Y87.997 
G01 X1024.114 Y86.475 
G01 X1024.201 Y85.746 
G01 X1024.274 Y85.497 
G01 X1024.440 Y85.219 
G01 X1024.756 Y84.858 
G01 X1025.235 Y84.443 
G01 X1025.568 Y84.244 
G01 X1025.898 Y84.115 
G01 X1026.358 Y84.001 
G01 X1026.988 Y83.923 
G01 X1027.483 Y83.906 
G01 X1028.002 Y83.931 
G01 X1028.380 Y83.989 
G01 X1028.794 Y84.116 
G01 X1029.133 Y84.292 
G01 X1029.506 Y84.582 
G01 X1029.803 Y84.886 
G01 X1030.222 Y85.424 
G01 X1030.471 Y85.796 
G01 X1030.710 Y86.198 
G01 X1030.940 Y86.634 
G01 X1031.159 Y87.108 
G01 X1031.368 Y87.620 
G01 X1031.565 Y88.175 
G01 X1031.747 Y88.772 
G01 X1031.914 Y89.415 
G01 X1032.064 Y90.103 
G01 X1032.194 Y90.837 
G01 X1032.304 Y91.617 
G01 X1032.392 Y92.444 
G01 X1032.456 Y93.317 
G01 X1032.496 Y94.236 
G01 X1032.509 Y95.199 
G01 X1032.494 Y96.320 
G01 X1032.448 Y97.391 
G01 X1032.372 Y98.410 
G01 X1032.269 Y99.377 
G01 X1032.140 Y100.291 
G01 X1031.986 Y101.152 
G01 X1031.809 Y101.961 
G01 X1031.610 Y102.718 
G01 X1031.392 Y103.424 
G01 X1031.157 Y104.080 
G01 X1030.906 Y104.688 
G01 X1030.641 Y105.251 
G01 X1030.363 Y105.770 
G01 X1030.072 Y106.250 
G01 X1029.769 Y106.694 
G01 X1029.269 Y107.322 
G01 X1028.900 Y107.698 
G01 X1028.594 Y107.955 
G01 X1028.248 Y108.175 
G01 X1027.991 Y108.280 
G01 X1027.716 Y108.335 
G01 X1027.315 Y108.344 
G01 X1027.011 Y108.306 
G01 X1026.662 Y108.217 
G01 X1026.236 Y108.054 
G01 X1026.102 Y107.990 
G01 X1025.666 Y107.650 
G01 X1025.159 Y107.207 
G01 X1024.520 Y106.608 
G01 X1023.962 Y106.056 
G01 X1022.702 Y106.575  
G01 X1022.709 Y90.131  
G01 X1022.762 Y87.945 
G01 X1022.859 Y86.363 
G01 X1022.961 Y85.522 
G01 X1023.049 Y85.175 
G01 X1023.218 Y84.794 
G01 X1023.424 Y84.474 
G01 X1023.735 Y84.101 
G01 X1023.978 Y83.859 
G01 X1024.490 Y83.426 
G01 X1024.883 Y83.179 
G01 X1025.339 Y82.974 
G01 X1025.906 Y82.807 
G01 X1026.624 Y82.690 
G01 X1027.197 Y82.651 
G01 X1027.835 Y82.654 
G01 X1028.400 Y82.712 
G01 X1028.870 Y82.812 
G01 X1029.272 Y82.949 
G01 X1029.635 Y83.124 
G01 X1029.990 Y83.351 
G01 X1030.357 Y83.652 
G01 X1030.749 Y84.053 
G01 X1030.946 Y84.290 
G01 X1031.250 Y84.695 
G01 X1031.537 Y85.123 
G01 X1031.809 Y85.582 
G01 X1032.069 Y86.075 
G01 X1032.315 Y86.604 
G01 X1032.546 Y87.172 
G01 X1032.762 Y87.780 
G01 X1032.960 Y88.430 
G01 X1033.140 Y89.122 
G01 X1033.300 Y89.858 
G01 X1033.439 Y90.638 
G01 X1033.555 Y91.463 
G01 X1033.647 Y92.331 
G01 X1033.714 Y93.244 
G01 X1033.755 Y94.200 
G01 X1033.769 Y95.199 
G01 X1033.753 Y96.356 
G01 X1033.706 Y97.465 
G01 X1033.628 Y98.524 
G01 X1033.520 Y99.532 
G01 X1033.384 Y100.490 
G01 X1033.222 Y101.398 
G01 X1033.034 Y102.256 
G01 X1032.822 Y103.064 
G01 X1032.588 Y103.822 
G01 X1032.333 Y104.533 
G01 X1032.059 Y105.197 
G01 X1031.767 Y105.817 
G01 X1031.458 Y106.395 
G01 X1031.132 Y106.932 
G01 X1030.790 Y107.434 
G01 X1030.424 Y107.910 
G01 X1029.976 Y108.410 
G01 X1029.547 Y108.808 
G01 X1029.164 Y109.095 
G01 X1028.824 Y109.296 
G01 X1028.511 Y109.434 
G01 X1028.200 Y109.528 
G01 X1027.860 Y109.588 
G01 X1027.472 Y109.609 
G01 X1027.010 Y109.581 
G01 X1026.536 Y109.491 
G01 X1026.011 Y109.324 
G01 X1025.464 Y109.081 
G01 X1025.250 Y108.931 
G01 X1024.857 Y108.617 
G01 X1024.313 Y108.141 
G01 X1023.646 Y107.516 
G01 X1022.702 Y106.575 
G01 X1021.442 Y107.086  
G01 X1021.449 Y90.117  
G01 X1021.503 Y87.893 
G01 X1021.604 Y86.250 
G01 X1021.720 Y85.299 
G01 X1021.855 Y84.771 
G01 X1022.038 Y84.331 
G01 X1022.299 Y83.883 
G01 X1022.664 Y83.408 
G01 X1023.129 Y82.927 
G01 X1023.745 Y82.409 
G01 X1024.101 Y82.174 
G01 X1024.483 Y81.969 
G01 X1024.902 Y81.792 
G01 X1025.370 Y81.643 
G01 X1025.897 Y81.523 
G01 X1026.490 Y81.437 
G01 X1027.154 Y81.391 
G01 X1027.899 Y81.395 
G01 X1028.597 Y81.466 
G01 X1029.206 Y81.598 
G01 X1029.749 Y81.782 
G01 X1030.249 Y82.023 
G01 X1030.730 Y82.331 
G01 X1031.209 Y82.723 
G01 X1031.694 Y83.220 
G01 X1031.934 Y83.507 
G01 X1032.279 Y83.966 
G01 X1032.603 Y84.450 
G01 X1032.909 Y84.966 
G01 X1033.199 Y85.516 
G01 X1033.470 Y86.101 
G01 X1033.724 Y86.724 
G01 X1033.958 Y87.385 
G01 X1034.173 Y88.087 
G01 X1034.366 Y88.830 
G01 X1034.536 Y89.614 
G01 X1034.683 Y90.440 
G01 X1034.806 Y91.308 
G01 X1034.902 Y92.218 
G01 X1034.973 Y93.171 
G01 X1035.015 Y94.165 
G01 X1035.029 Y95.199 
G01 X1035.013 Y96.392 
G01 X1034.964 Y97.538 
G01 X1034.883 Y98.637 
G01 X1034.771 Y99.687 
G01 X1034.629 Y100.690 
G01 X1034.458 Y101.644 
G01 X1034.259 Y102.550 
G01 X1034.034 Y103.409 
G01 X1033.784 Y104.221 
G01 X1033.510 Y104.986 
G01 X1033.212 Y105.707 
G01 X1032.893 Y106.384 
G01 X1032.553 Y107.019 
G01 X1032.192 Y107.615 
G01 X1031.811 Y108.173 
G01 X1031.403 Y108.704 
G01 X1030.875 Y109.293 
G01 X1030.355 Y109.775 
G01 X1029.864 Y110.144 
G01 X1029.399 Y110.418 
G01 X1028.948 Y110.617 
G01 X1028.492 Y110.755 
G01 X1028.004 Y110.840 
G01 X1027.470 Y110.870 
G01 X1026.853 Y110.832 
G01 X1026.228 Y110.713 
G01 X1025.901 Y110.620 
G01 X1025.563 Y110.502 
G01 X1025.211 Y110.357 
G01 X1024.816 Y110.166 
G01 X1024.494 Y109.940 
G01 X1024.049 Y109.584 
G01 X1023.468 Y109.075 
G01 X1022.773 Y108.424 
G01 X1021.442 Y107.086 
G00 Z5.000
G00 X1027.812 Y101.970  F4800.0
G01 Z-6.000 F1500.0 M3
G01 X1027.819 Y90.189  F2400.0
G01 X1027.836 Y89.180 
G01 X1028.041 Y89.819 
G01 X1028.169 Y90.309 
G01 X1028.286 Y90.850 
G01 X1028.392 Y91.443 
G01 X1028.483 Y92.089 
G01 X1028.557 Y92.789 
G01 X1028.613 Y93.541 
G01 X1028.647 Y94.345 
G01 X1028.659 Y95.199 
G01 X1028.645 Y96.211 
G01 X1028.604 Y97.167 
G01 X1028.537 Y98.065 
G01 X1028.448 Y98.903 
G01 X1028.338 Y99.682 
G01 X1028.209 Y100.401 
G01 X1028.065 Y101.061 
G01 X1027.812 Y101.970 
G01 X1026.542 Y104.967  
G01 X1026.549 Y90.175  
G01 X1026.599 Y88.104 
G01 X1026.684 Y86.706 
G01 X1026.697 Y86.585 
G01 X1026.762 Y86.552 
G01 X1027.166 Y86.497 
G01 X1027.643 Y86.491 
G01 X1027.781 Y86.504 
G01 X1027.935 Y86.675 
G01 X1028.288 Y87.173 
G01 X1028.627 Y87.780 
G01 X1028.956 Y88.538 
G01 X1029.114 Y88.983 
G01 X1029.264 Y89.474 
G01 X1029.404 Y90.014 
G01 X1029.532 Y90.603 
G01 X1029.646 Y91.243 
G01 X1029.744 Y91.934 
G01 X1029.822 Y92.675 
G01 X1029.880 Y93.467 
G01 X1029.917 Y94.309 
G01 X1029.929 Y95.199 
G01 X1029.914 Y96.247 
G01 X1029.872 Y97.241 
G01 X1029.802 Y98.179 
G01 X1029.709 Y99.059 
G01 X1029.592 Y99.883 
G01 X1029.455 Y100.649 
G01 X1029.300 Y101.358 
G01 X1029.129 Y102.010 
G01 X1028.944 Y102.608 
G01 X1028.749 Y103.152 
G01 X1028.546 Y103.646 
G01 X1028.336 Y104.091 
G01 X1028.121 Y104.492 
G01 X1027.902 Y104.853 
G01 X1027.679 Y105.180 
G01 X1027.299 Y105.651 
G01 X1026.542 Y104.967 
G01 X1025.272 Y105.509  
G01 X1025.279 Y90.160  
G01 X1025.330 Y88.052 
G01 X1025.419 Y86.592 
G01 X1025.487 Y86.009 
G01 X1025.708 Y85.761 
G01 X1026.066 Y85.462 
G01 X1026.298 Y85.363 
G01 X1026.735 Y85.266 
G01 X1027.285 Y85.219 
G01 X1027.869 Y85.234 
G01 X1028.184 Y85.290 
G01 X1028.382 Y85.369 
G01 X1028.620 Y85.548 
G01 X1028.931 Y85.886 
G01 X1029.153 Y86.182 
G01 X1029.362 Y86.495 
G01 X1029.566 Y86.838 
G01 X1029.765 Y87.216 
G01 X1029.958 Y87.631 
G01 X1030.144 Y88.086 
G01 X1030.320 Y88.585 
G01 X1030.486 Y89.129 
G01 X1030.640 Y89.719 
G01 X1030.778 Y90.357 
G01 X1030.901 Y91.043 
G01 X1031.004 Y91.778 
G01 X1031.087 Y92.561 
G01 X1031.149 Y93.393 
G01 X1031.186 Y94.273 
G01 X1031.199 Y95.199 
G01 X1031.184 Y96.283 
G01 X1031.140 Y97.315 
G01 X1031.068 Y98.293 
G01 X1030.969 Y99.216 
G01 X1030.846 Y100.084 
G01 X1030.701 Y100.897 
G01 X1030.535 Y101.655 
G01 X1030.350 Y102.359 
G01 X1030.149 Y103.010 
G01 X1029.935 Y103.609 
G01 X1029.708 Y104.159 
G01 X1029.471 Y104.662 
G01 X1029.224 Y105.121 
G01 X1028.970 Y105.541 
G01 X1028.708 Y105.925 
G01 X1028.293 Y106.448 
G01 X1027.899 Y106.834 
G01 X1027.629 Y107.019 
G01 X1027.476 Y107.038 
G01 X1027.255 Y107.018 
G01 X1026.926 Y106.921 
G01 X1026.773 Y106.858 
G01 X1026.039 Y106.236 
G01 X1025.272 Y105.509 
G01 X1024.002 Y106.040  
G01 X1024.009 Y90.146  
G01 X1024.061 Y87.999 
G01 X1024.154 Y86.479 
G01 X1024.241 Y85.753 
G01 X1024.311 Y85.514 
G01 X1024.473 Y85.243 
G01 X1024.784 Y84.887 
G01 X1025.259 Y84.475 
G01 X1025.586 Y84.280 
G01 X1025.910 Y84.153 
G01 X1026.365 Y84.040 
G01 X1026.990 Y83.963 
G01 X1027.483 Y83.946 
G01 X1027.998 Y83.970 
G01 X1028.371 Y84.029 
G01 X1028.779 Y84.153 
G01 X1029.111 Y84.326 
G01 X1029.479 Y84.611 
G01 X1029.773 Y84.913 
G01 X1030.189 Y85.447 
G01 X1030.437 Y85.817 
G01 X1030.675 Y86.218 
G01 X1030.904 Y86.652 
G01 X1031.123 Y87.124 
G01 X1031.331 Y87.635 
G01 X1031.527 Y88.187 
G01 X1031.709 Y88.783 
G01 X1031.875 Y89.424 
G01 X1032.025 Y90.111 
G01 X1032.155 Y90.843 
G01 X1032.265 Y91.622 
G01 X1032.352 Y92.448 
G01 X1032.417 Y93.319 
G01 X1032.456 Y94.237 
G01 X1032.469 Y95.199 
G01 X1032.454 Y96.319 
G01 X1032.408 Y97.389 
G01 X1032.333 Y98.407 
G01 X1032.230 Y99.372 
G01 X1032.100 Y100.285 
G01 X1031.947 Y101.145 
G01 X1031.770 Y101.952 
G01 X1031.572 Y102.707 
G01 X1031.354 Y103.411 
G01 X1031.120 Y104.066 
G01 X1030.870 Y104.672 
G01 X1030.605 Y105.233 
G01 X1030.328 Y105.751 
G01 X1030.039 Y106.229 
G01 X1029.737 Y106.671 
G01 X1029.239 Y107.295 
G01 X1028.873 Y107.669 
G01 X1028.442 Y108.014 
G01 X1028.141 Y108.181 
G01 X1027.899 Y108.263 
G01 X1027.596 Y108.305 
G01 X1027.172 Y108.290 
G01 X1026.854 Y108.230 
G01 X1026.474 Y108.109 
G01 X1026.123 Y107.955 
G01 X1025.691 Y107.620 
G01 X1025.186 Y107.177 
G01 X1024.548 Y106.579 
G01 X1024.002 Y106.040 
G00 Z5.000
G00 X1027.993 Y95.643  F4800.0
G01 Z-3.000 F1500.0 M3
G01 X1027.993 Y94.415  F2400.0
G01 X1028.253 Y94.957 
G01 X1028.519 Y95.672 
G01 X1028.652 Y96.126 
G01 X1027.993 Y95.643 
G01 X1026.733 Y96.311  
G01 X1026.733 Y93.261  
G02 X1028.057 Y92.313 I-10.318 J-15.820
G01 X1028.424 Y92.759  
G01 X1028.867 Y93.407 
G01 X1029.242 Y94.090 
G01 X1029.570 Y94.857 
G01 X1029.790 Y95.516 
G01 X1029.984 Y96.268 
G01 X1030.145 Y97.133 
G01 X1030.232 Y97.775 
G01 X1030.299 Y98.475 
G01 X1030.343 Y99.375 
G02 X1026.733 Y96.311 I-13.929 J12.756
G01 X1025.473 Y97.009  
G01 X1025.473 Y92.563  
G02 X1027.804 Y90.895 I-9.058 J-15.122
G01 X1028.241 Y90.929  
G01 X1028.470 Y90.986 
G01 X1028.715 Y91.182 
G01 X1029.133 Y91.628 
G01 X1029.565 Y92.184 
G01 X1029.941 Y92.747 
G01 X1030.272 Y93.334 
G01 X1030.569 Y93.963 
G01 X1030.836 Y94.654 
G01 X1031.074 Y95.425 
G01 X1031.258 Y96.202 
G01 X1031.390 Y96.937 
G01 X1031.484 Y97.631 
G01 X1031.555 Y98.381 
G01 X1031.600 Y99.188 
G01 X1031.616 Y100.063 
G01 X1031.604 Y100.799 
G01 X1031.568 Y101.490 
G01 X1031.512 Y102.122 
G01 X1031.410 Y102.866 
G02 X1025.473 Y97.009 I-14.996 J9.265
G01 X1024.213 Y97.741  
G01 X1024.213 Y91.831  
G02 X1027.181 Y89.768 I-7.798 J-14.390
G01 X1027.335 Y89.636  
G01 X1027.969 Y89.639 
G01 X1028.427 Y89.682 
G01 X1028.819 Y89.770 
G01 X1029.113 Y89.902 
G01 X1029.425 Y90.128 
G01 X1029.748 Y90.431 
G01 X1030.100 Y90.820 
G01 X1030.588 Y91.447 
G01 X1031.014 Y92.088 
G01 X1031.391 Y92.755 
G01 X1031.727 Y93.467 
G01 X1032.027 Y94.241 
G01 X1032.290 Y95.095 
G01 X1032.495 Y95.960 
G01 X1032.635 Y96.742 
G01 X1032.736 Y97.487 
G01 X1032.812 Y98.286 
G01 X1032.859 Y99.142 
G01 X1032.876 Y100.062 
G01 X1032.863 Y100.842 
G01 X1032.825 Y101.578 
G01 X1032.765 Y102.257 
G01 X1032.686 Y102.879 
G01 X1032.590 Y103.447 
G01 X1032.482 Y103.963 
G01 X1032.362 Y104.430 
G01 X1032.100 Y105.231 
G01 X1031.823 Y105.869 
G01 X1031.149 Y104.860 
G01 X1030.461 Y103.730 
G02 X1024.213 Y97.741 I-14.047 J8.401
G01 X1022.953 Y98.512  
G01 X1022.953 Y91.060  
G02 X1026.353 Y88.819 I-6.538 J-13.619
G01 X1026.824 Y88.409  
G01 X1027.626 Y88.370 
G01 X1028.345 Y88.403 
G01 X1028.843 Y88.476 
G01 X1029.205 Y88.570 
G01 X1029.621 Y88.743 
G01 X1030.059 Y89.022 
G01 X1030.433 Y89.337 
G01 X1030.940 Y89.863 
G01 X1031.437 Y90.476 
G01 X1031.935 Y91.186 
G01 X1032.375 Y91.922 
G01 X1032.765 Y92.699 
G01 X1033.111 Y93.534 
G01 X1033.415 Y94.443 
G01 X1033.673 Y95.442 
G01 X1033.880 Y96.546 
G01 X1033.988 Y97.343 
G01 X1034.069 Y98.192 
G01 X1034.119 Y99.095 
G01 X1034.136 Y100.061 
G01 X1034.123 Y100.885 
G01 X1034.082 Y101.666 
G01 X1034.018 Y102.392 
G01 X1033.932 Y103.063 
G01 X1033.829 Y103.681 
G01 X1033.709 Y104.249 
G01 X1033.576 Y104.769 
G01 X1033.432 Y105.245 
G01 X1033.278 Y105.679 
G01 X1032.945 Y106.444 
G01 X1032.578 Y107.103 
G01 X1032.164 Y107.698 
G01 X1031.908 Y108.012 
G01 X1031.436 Y107.456 
G01 X1030.675 Y106.427 
G01 X1030.085 Y105.535 
G01 X1029.380 Y104.377 
G02 X1022.953 Y98.512 I-12.965 J7.755
G01 X1021.693 Y99.329  
G01 X1021.693 Y90.243  
G02 X1025.524 Y87.870 I-5.278 J-12.802
G01 X1026.307 Y87.207  
G01 X1026.878 Y87.137 
G01 X1027.630 Y87.110 
G01 X1028.090 Y87.121 
G01 X1028.801 Y87.189 
G01 X1029.356 Y87.302 
G01 X1029.805 Y87.446 
G01 X1030.203 Y87.625 
G01 X1030.603 Y87.862 
G01 X1031.046 Y88.197 
G01 X1031.556 Y88.674 
G01 X1032.033 Y89.203 
G01 X1032.633 Y89.975 
G01 X1033.162 Y90.768 
G01 X1033.629 Y91.596 
G01 X1034.044 Y92.473 
G01 X1034.408 Y93.415 
G01 X1034.722 Y94.436 
G01 X1034.969 Y95.476 
G01 X1035.125 Y96.350 
G01 X1035.240 Y97.198 
G01 X1035.325 Y98.097 
G01 X1035.378 Y99.049 
G01 X1035.397 Y100.060 
G01 X1035.382 Y100.928 
G01 X1035.339 Y101.754 
G01 X1035.271 Y102.527 
G01 X1035.179 Y103.247 
G01 X1035.067 Y103.916 
G01 X1034.937 Y104.535 
G01 X1034.790 Y105.109 
G01 X1034.629 Y105.638 
G01 X1034.456 Y106.128 
G01 X1034.271 Y106.581 
G01 X1034.075 Y107.003 
G01 X1033.867 Y107.398 
G01 X1033.647 Y107.771 
G01 X1033.412 Y108.126 
G01 X1033.161 Y108.469 
G01 X1032.705 Y109.011 
G01 X1032.354 Y109.338 
G01 X1032.143 Y109.467 
G01 X1031.874 Y109.517 
G01 X1031.719 Y109.529 
G01 X1031.472 Y109.357 
G01 X1031.083 Y108.978 
G01 X1030.451 Y108.242 
G01 X1029.926 Y107.550 
G01 X1029.336 Y106.697 
G01 X1028.694 Y105.686 
G01 X1028.298 Y105.023 
G02 X1021.693 Y99.329 I-11.884 J7.108
G01 X1020.432 Y100.202  
G01 X1020.432 Y89.370  
G02 X1024.695 Y86.921 I-4.018 J-11.929
G01 X1025.469 Y86.261  
G01 X1025.777 Y86.033 
G01 X1026.149 Y85.955 
G01 X1026.782 Y85.881 
G01 X1027.633 Y85.850 
G01 X1028.150 Y85.862 
G01 X1028.590 Y85.894 
G01 X1029.348 Y86.006 
G01 X1029.976 Y86.170 
G01 X1030.524 Y86.380 
G01 X1031.043 Y86.650 
G01 X1031.575 Y87.008 
G01 X1032.151 Y87.493 
G01 X1032.460 Y87.796 
G01 X1033.000 Y88.395 
G01 X1033.656 Y89.238 
G01 X1034.235 Y90.109 
G01 X1034.749 Y91.017 
G01 X1035.202 Y91.977 
G01 X1035.598 Y93.002 
G01 X1035.938 Y94.106 
G01 X1036.205 Y95.234 
G01 X1036.370 Y96.154 
G01 X1036.492 Y97.054 
G01 X1036.582 Y98.003 
G01 X1036.638 Y99.002 
G01 X1036.657 Y100.060 
G01 X1036.641 Y100.972 
G01 X1036.596 Y101.842 
G01 X1036.524 Y102.662 
G01 X1036.426 Y103.430 
G01 X1036.305 Y104.150 
G01 X1036.164 Y104.821 
G01 X1036.004 Y105.448 
G01 X1035.827 Y106.032 
G01 X1035.634 Y106.576 
G01 X1035.426 Y107.085 
G01 X1035.204 Y107.562 
G01 X1034.968 Y108.012 
G01 X1034.716 Y108.439 
G01 X1034.447 Y108.847 
G01 X1034.158 Y109.240 
G01 X1033.624 Y109.873 
G01 X1033.275 Y110.212 
G01 X1032.899 Y110.494 
G01 X1032.633 Y110.629 
G01 X1032.323 Y110.722 
G01 X1031.790 Y110.787 
G01 X1031.458 Y110.787 
G01 X1031.153 Y110.656 
G01 X1030.808 Y110.441 
G01 X1030.354 Y110.035 
G01 X1029.720 Y109.339 
G01 X1029.194 Y108.678 
G01 X1028.602 Y107.860 
G01 X1027.958 Y106.886 
G01 X1027.217 Y105.670 
G02 X1020.432 Y100.202 I-10.803 J6.461
G01 X1019.173 Y101.145  
G01 X1019.173 Y88.428  
G02 X1023.866 Y85.973 I-2.758 J-10.987
G01 X1024.688 Y85.272  
G01 X1025.230 Y84.883 
G01 X1025.665 Y84.764 
G01 X1026.285 Y84.663 
G01 X1027.148 Y84.598 
G01 X1027.637 Y84.590 
G01 X1028.211 Y84.603 
G01 X1028.713 Y84.639 
G01 X1029.174 Y84.696 
G01 X1029.600 Y84.771 
G01 X1029.994 Y84.863 
G01 X1030.362 Y84.970 
G01 X1030.709 Y85.092 
G01 X1031.042 Y85.231 
G01 X1031.366 Y85.388 
G01 X1031.686 Y85.566 
G01 X1032.007 Y85.769 
G01 X1032.333 Y86.001 
G01 X1032.667 Y86.266 
G01 X1033.010 Y86.570 
G01 X1033.364 Y86.918 
G01 X1033.967 Y87.586 
G01 X1034.678 Y88.502 
G01 X1035.309 Y89.449 
G01 X1035.868 Y90.438 
G01 X1036.360 Y91.480 
G01 X1036.789 Y92.589 
G01 X1037.154 Y93.776 
G01 X1037.442 Y94.993 
G01 X1037.615 Y95.959 
G01 X1037.744 Y96.910 
G01 X1037.839 Y97.908 
G01 X1037.897 Y98.956 
G01 X1037.917 Y100.059 
G01 X1037.901 Y101.015 
G01 X1037.853 Y101.931 
G01 X1037.777 Y102.797 
G01 X1037.673 Y103.614 
G01 X1037.544 Y104.384 
G01 X1037.391 Y105.108 
G01 X1037.218 Y105.787 
G01 X1037.024 Y106.425 
G01 X1036.812 Y107.025 
G01 X1036.581 Y107.589 
G01 X1036.334 Y108.121 
G01 X1036.069 Y108.626 
G01 X1035.785 Y109.106 
G01 X1035.481 Y109.567 
G01 X1035.155 Y110.011 
G01 X1034.791 Y110.458 
G01 X1034.315 Y110.968 
G01 X1033.908 Y111.324 
G01 X1033.562 Y111.566 
G01 X1033.254 Y111.733 
G01 X1032.775 Y111.909 
G01 X1032.373 Y111.994 
G01 X1031.853 Y112.046 
G01 X1031.343 Y112.044 
G01 X1031.033 Y111.975 
G01 X1030.671 Y111.826 
G01 X1030.155 Y111.522 
G01 X1029.819 Y111.260 
G01 X1029.250 Y110.706 
G01 X1028.756 Y110.150 
G01 X1028.190 Y109.440 
G01 X1027.566 Y108.577 
G01 X1026.894 Y107.562 
G01 X1026.136 Y106.317 
G02 X1019.173 Y101.145 I-9.721 J5.814
G01 X1017.913 Y102.176  
G01 X1017.913 Y87.396  
G02 X1023.037 Y85.024 I-1.498 J-9.955
G01 X1023.908 Y84.282  
G01 X1024.447 Y83.888 
G01 X1024.694 Y83.737 
G01 X1025.120 Y83.599 
G01 X1025.740 Y83.467 
G01 X1026.590 Y83.368 
G01 X1027.640 Y83.329 
G01 X1028.271 Y83.344 
G01 X1028.835 Y83.385 
G01 X1029.361 Y83.450 
G01 X1029.852 Y83.537 
G01 X1030.313 Y83.644 
G01 X1030.748 Y83.770 
G01 X1031.161 Y83.916 
G01 X1031.560 Y84.082 
G01 X1031.947 Y84.270 
G01 X1032.329 Y84.482 
G01 X1032.709 Y84.722 
G01 X1033.091 Y84.994 
G01 X1033.477 Y85.301 
G01 X1033.869 Y85.648 
G01 X1034.268 Y86.039 
G01 X1034.934 Y86.778 
G01 X1035.455 Y87.433 
G01 X1035.937 Y88.102 
G01 X1036.592 Y89.140 
G01 X1036.987 Y89.858 
G01 X1037.349 Y90.602 
G01 X1037.679 Y91.373 
G01 X1037.979 Y92.176 
G01 X1038.248 Y93.013 
G01 X1038.485 Y93.888 
G01 X1038.679 Y94.751 
G01 X1038.860 Y95.763 
G01 X1038.996 Y96.765 
G01 X1039.095 Y97.814 
G01 X1039.156 Y98.910 
G01 X1039.177 Y100.058 
G01 X1039.160 Y101.058 
G01 X1039.111 Y102.019 
G01 X1039.030 Y102.932 
G01 X1038.920 Y103.798 
G01 X1038.782 Y104.618 
G01 X1038.619 Y105.394 
G01 X1038.431 Y106.126 
G01 X1038.221 Y106.819 
G01 X1037.989 Y107.473 
G01 X1037.737 Y108.093 
G01 X1037.464 Y108.680 
G01 X1037.170 Y109.240 
G01 X1036.854 Y109.774 
G01 X1036.516 Y110.287 
G01 X1036.152 Y110.782 
G01 X1035.750 Y111.276 
G01 X1035.191 Y111.874 
G01 X1034.684 Y112.317 
G01 X1034.224 Y112.638 
G01 X1033.789 Y112.874 
G01 X1033.345 Y113.052 
G01 X1032.849 Y113.187 
G01 X1032.259 Y113.279 
G01 X1031.512 Y113.315 
G01 X1031.089 Y113.281 
G01 X1030.646 Y113.175 
G01 X1030.258 Y113.024 
G01 X1029.788 Y112.780 
G01 X1029.307 Y112.465 
G01 X1028.795 Y112.033 
G01 X1028.333 Y111.571 
G01 X1027.791 Y110.961 
G01 X1027.186 Y110.202 
G01 X1026.529 Y109.294 
G01 X1025.830 Y108.237 
G01 X1025.054 Y106.964 
G02 X1017.913 Y102.176 I-8.640 J5.168
G01 X1016.653 Y103.327  
G01 X1016.653 Y86.245  
G02 X1022.208 Y84.075 I-0.238 J-8.804
G01 X1023.128 Y83.293  
G01 X1023.748 Y82.838 
G01 X1024.175 Y82.587 
G01 X1024.501 Y82.467 
G01 X1025.138 Y82.299 
G01 X1025.987 Y82.160 
G01 X1026.494 Y82.111 
G01 X1027.055 Y82.080 
G01 X1027.644 Y82.069 
G01 X1028.331 Y82.085 
G01 X1028.958 Y82.131 
G01 X1029.548 Y82.203 
G01 X1030.105 Y82.302 
G01 X1030.632 Y82.424 
G01 X1031.133 Y82.570 
G01 X1031.614 Y82.739 
G01 X1032.077 Y82.932 
G01 X1032.529 Y83.151 
G01 X1032.972 Y83.398 
G01 X1033.411 Y83.675 
G01 X1033.849 Y83.987 
G01 X1034.287 Y84.336 
G01 X1034.728 Y84.726 
G01 X1035.172 Y85.161 
G01 X1035.900 Y85.970 
G01 X1036.459 Y86.672 
G01 X1036.977 Y87.391 
G01 X1037.456 Y88.130 
G01 X1037.898 Y88.890 
G01 X1038.304 Y89.675 
G01 X1038.676 Y90.487 
G01 X1039.014 Y91.329 
G01 X1039.317 Y92.205 
G01 X1039.587 Y93.116 
G01 X1039.821 Y94.065 
G01 X1039.916 Y94.509 
G01 X1040.105 Y95.567 
G01 X1040.248 Y96.621 
G01 X1040.352 Y97.719 
G01 X1040.416 Y98.863 
G01 X1040.437 Y100.057 
G01 X1040.420 Y101.101 
G01 X1040.368 Y102.107 
G01 X1040.283 Y103.067 
G01 X1040.167 Y103.981 
G01 X1040.021 Y104.852 
G01 X1039.846 Y105.680 
G01 X1039.645 Y106.466 
G01 X1039.419 Y107.212 
G01 X1039.167 Y107.922 
G01 X1038.892 Y108.597 
G01 X1038.593 Y109.240 
G01 X1038.270 Y109.854 
G01 X1037.923 Y110.442 
G01 X1037.550 Y111.007 
G01 X1037.150 Y111.553 
G01 X1036.709 Y112.094 
G01 X1036.383 Y112.459 
G01 X1036.066 Y112.781 
G01 X1035.759 Y113.063 
G01 X1035.461 Y113.309 
G01 X1034.887 Y113.711 
G01 X1034.325 Y114.015 
G01 X1033.746 Y114.247 
G01 X1033.113 Y114.420 
G01 X1032.387 Y114.533 
G01 X1031.979 Y114.564 
G01 X1031.372 Y114.573 
G01 X1030.893 Y114.526 
G01 X1030.422 Y114.423 
G01 X1029.920 Y114.250 
G01 X1029.356 Y113.982 
G01 X1028.735 Y113.604 
G01 X1028.166 Y113.162 
G01 X1027.685 Y112.713 
G01 X1027.129 Y112.122 
G01 X1026.511 Y111.386 
G01 X1025.843 Y110.505 
G01 X1025.134 Y109.479 
G01 X1024.392 Y108.310 
G01 X1023.973 Y107.610 
G02 X1016.653 Y103.327 I-7.559 J4.521
G01 X1015.393 Y104.653  
G01 X1015.393 Y84.919  
G02 X1021.379 Y83.126 I1.022 J-7.478
G01 X1021.925 Y82.649  
G01 X1022.724 Y82.017 
G01 X1023.319 Y81.619 
G01 X1023.654 Y81.439 
G01 X1024.111 Y81.269 
G01 X1024.469 Y81.163 
G01 X1024.875 Y81.066 
G01 X1025.331 Y80.980 
G01 X1025.839 Y80.909 
G01 X1026.398 Y80.854 
G01 X1027.009 Y80.820 
G01 X1027.647 Y80.809 
G01 X1028.392 Y80.826 
G01 X1029.081 Y80.876 
G01 X1029.735 Y80.957 
G01 X1030.357 Y81.067 
G01 X1030.951 Y81.205 
G01 X1031.519 Y81.370 
G01 X1032.066 Y81.563 
G01 X1032.595 Y81.783 
G01 X1033.110 Y82.033 
G01 X1033.615 Y82.314 
G01 X1034.113 Y82.629 
G01 X1034.607 Y82.980 
G01 X1035.098 Y83.370 
G01 X1035.587 Y83.804 
G01 X1036.076 Y84.283 
G01 X1036.587 Y84.835 
G01 X1037.171 Y85.534 
G01 X1037.746 Y86.293 
G01 X1038.279 Y87.072 
G01 X1038.771 Y87.874 
G01 X1039.225 Y88.700 
G01 X1039.640 Y89.553 
G01 X1040.019 Y90.435 
G01 X1040.360 Y91.350 
G01 X1040.665 Y92.298 
G01 X1040.932 Y93.283 
G01 X1041.152 Y94.267 
G01 X1041.350 Y95.371 
G01 X1041.500 Y96.477 
G01 X1041.609 Y97.625 
G01 X1041.675 Y98.817 
G01 X1041.698 Y100.056 
G01 X1041.679 Y101.145 
G01 X1041.625 Y102.195 
G01 X1041.536 Y103.202 
G01 X1041.413 Y104.165 
G01 X1041.259 Y105.086 
G01 X1041.074 Y105.966 
G01 X1040.859 Y106.805 
G01 X1040.616 Y107.606 
G01 X1040.345 Y108.370 
G01 X1040.047 Y109.100 
G01 X1039.723 Y109.799 
G01 X1039.371 Y110.467 
G01 X1038.992 Y111.110 
G01 X1038.584 Y111.727 
G01 X1038.147 Y112.324 
G01 X1037.668 Y112.911 
G01 X1037.302 Y113.321 
G01 X1036.942 Y113.687 
G01 X1036.587 Y114.013 
G01 X1036.238 Y114.302 
G01 X1035.892 Y114.558 
G01 X1035.549 Y114.783 
G01 X1035.206 Y114.982 
G01 X1034.861 Y115.156 
G01 X1034.509 Y115.309 
G01 X1034.147 Y115.442 
G01 X1033.771 Y115.557 
G01 X1033.376 Y115.653 
G01 X1032.959 Y115.730 
G01 X1032.515 Y115.787 
G01 X1032.042 Y115.823 
G01 X1031.323 Y115.832 
G01 X1030.697 Y115.771 
G01 X1030.082 Y115.637 
G01 X1029.444 Y115.417 
G01 X1028.757 Y115.091 
G01 X1028.025 Y114.645 
G01 X1027.583 Y114.317 
G01 X1027.076 Y113.876 
G01 X1026.499 Y113.300 
G01 X1025.863 Y112.583 
G01 X1025.179 Y111.726 
G01 X1024.456 Y110.727 
G01 X1023.703 Y109.588 
G01 X1022.892 Y108.257 
G02 X1015.393 Y104.653 I-6.477 J3.874
G01 X1014.133 Y106.272  
G01 X1014.133 Y83.300  
G02 X1020.550 Y82.177 I2.282 J-5.859
G01 X1021.111 Y81.687  
G01 X1021.982 Y80.999 
G01 X1022.671 Y80.538 
G01 X1023.134 Y80.291 
G01 X1023.721 Y80.070 
G01 X1024.143 Y79.946 
G01 X1024.611 Y79.833 
G01 X1025.127 Y79.736 
G01 X1025.690 Y79.657 
G01 X1026.302 Y79.598 
G01 X1026.962 Y79.561 
G01 X1027.651 Y79.548 
G01 X1028.452 Y79.567 
G01 X1029.203 Y79.622 
G01 X1029.922 Y79.710 
G01 X1030.609 Y79.832 
G01 X1031.270 Y79.985 
G01 X1031.905 Y80.170 
G01 X1032.518 Y80.386 
G01 X1033.112 Y80.634 
G01 X1033.692 Y80.915 
G01 X1034.259 Y81.230 
G01 X1034.816 Y81.582 
G01 X1035.365 Y81.973 
G01 X1035.908 Y82.405 
G01 X1036.447 Y82.881 
G01 X1036.980 Y83.404 
G01 X1037.529 Y83.997 
G01 X1038.157 Y84.749 
G01 X1038.768 Y85.557 
G01 X1039.336 Y86.387 
G01 X1039.861 Y87.241 
G01 X1040.344 Y88.121 
G01 X1040.786 Y89.029 
G01 X1041.188 Y89.967 
G01 X1041.551 Y90.937 
G01 X1041.873 Y91.941 
G01 X1042.155 Y92.981 
G01 X1042.389 Y94.025 
G01 X1042.595 Y95.176 
G01 X1042.752 Y96.333 
G01 X1042.865 Y97.530 
G01 X1042.934 Y98.770 
G01 X1042.958 Y100.056 
G01 X1042.939 Y101.188 
G01 X1042.882 Y102.283 
G01 X1042.789 Y103.337 
G01 X1042.660 Y104.349 
G01 X1042.497 Y105.320 
G01 X1042.301 Y106.252 
G01 X1042.073 Y107.144 
G01 X1041.813 Y107.999 
G01 X1041.523 Y108.819 
G01 X1041.203 Y109.604 
G01 X1040.852 Y110.358 
G01 X1040.472 Y111.081 
G01 X1040.061 Y111.777 
G01 X1039.619 Y112.448 
G01 X1039.144 Y113.095 
G01 X1038.627 Y113.729 
G01 X1038.222 Y114.183 
G01 X1037.818 Y114.593 
G01 X1037.416 Y114.963 
G01 X1037.014 Y115.295 
G01 X1036.613 Y115.591 
G01 X1036.212 Y115.856 
G01 X1035.807 Y116.090 
G01 X1035.397 Y116.297 
G01 X1034.978 Y116.479 
G01 X1034.548 Y116.637 
G01 X1034.103 Y116.773 
G01 X1033.639 Y116.885 
G01 X1033.154 Y116.975 
G01 X1032.644 Y117.041 
G01 X1032.106 Y117.082 
G01 X1031.274 Y117.091 
G01 X1030.756 Y117.051 
G01 X1030.248 Y116.971 
G01 X1029.742 Y116.850 
G01 X1029.229 Y116.685 
G01 X1028.703 Y116.470 
G01 X1028.158 Y116.200 
G01 X1027.592 Y115.868 
G01 X1027.055 Y115.502 
G01 X1026.512 Y115.064 
G01 X1025.906 Y114.497 
G01 X1025.245 Y113.796 
G01 X1024.541 Y112.958 
G01 X1023.801 Y111.983 
G01 X1023.032 Y110.871 
G01 X1022.240 Y109.623 
G01 X1021.810 Y108.904 
G02 X1014.133 Y106.272 I-5.396 J3.227
G01 X1012.867 Y108.569  
G01 X1012.872 Y81.009  
G02 X1019.722 Y81.228 I3.542 J-3.568
G01 X1020.298 Y80.724  
G01 X1020.786 Y80.324 
G01 X1021.239 Y79.980 
G01 X1021.653 Y79.691 
G01 X1022.023 Y79.457 
G01 X1022.613 Y79.143 
G01 X1023.331 Y78.872 
G01 X1023.818 Y78.728 
G01 X1024.348 Y78.601 
G01 X1024.922 Y78.493 
G01 X1025.541 Y78.406 
G01 X1026.206 Y78.341 
G01 X1026.915 Y78.301 
G01 X1027.654 Y78.288 
G01 X1028.512 Y78.308 
G01 X1029.326 Y78.367 
G01 X1030.108 Y78.464 
G01 X1030.862 Y78.597 
G01 X1031.588 Y78.766 
G01 X1032.290 Y78.970 
G01 X1032.970 Y79.209 
G01 X1033.630 Y79.484 
G01 X1034.273 Y79.796 
G01 X1034.902 Y80.146 
G01 X1035.518 Y80.535 
G01 X1036.123 Y80.966 
G01 X1036.719 Y81.440 
G01 X1037.306 Y81.959 
G01 X1037.884 Y82.526 
G01 X1038.470 Y83.159 
G01 X1039.142 Y83.964 
G01 X1039.791 Y84.820 
G01 X1040.393 Y85.701 
G01 X1040.950 Y86.607 
G01 X1041.463 Y87.541 
G01 X1041.932 Y88.504 
G01 X1042.358 Y89.498 
G01 X1042.741 Y90.523 
G01 X1043.081 Y91.583 
G01 X1043.378 Y92.678 
G01 X1043.626 Y93.783 
G01 X1043.840 Y94.980 
G01 X1044.004 Y96.188 
G01 X1044.122 Y97.436 
G01 X1044.194 Y98.724 
G01 X1044.218 Y100.055 
G01 X1044.198 Y101.231 
G01 X1044.139 Y102.371 
G01 X1044.042 Y103.472 
G01 X1043.907 Y104.533 
G01 X1043.735 Y105.554 
G01 X1043.528 Y106.538 
G01 X1043.286 Y107.483 
G01 X1043.010 Y108.393 
G01 X1042.701 Y109.267 
G01 X1042.358 Y110.108 
G01 X1041.982 Y110.917 
G01 X1041.573 Y111.695 
G01 X1041.130 Y112.445 
G01 X1040.653 Y113.168 
G01 X1040.141 Y113.866 
G01 X1039.586 Y114.547 
G01 X1039.141 Y115.045 
G01 X1038.694 Y115.500 
G01 X1038.244 Y115.913 
G01 X1037.791 Y116.288 
G01 X1037.335 Y116.625 
G01 X1036.874 Y116.928 
G01 X1036.407 Y117.199 
G01 X1035.932 Y117.438 
G01 X1035.447 Y117.649 
G01 X1034.949 Y117.833 
G01 X1034.435 Y117.989 
G01 X1033.903 Y118.118 
G01 X1033.349 Y118.220 
G01 X1032.772 Y118.295 
G01 X1032.169 Y118.340 
G01 X1031.226 Y118.350 
G01 X1030.609 Y118.303 
G01 X1030.004 Y118.207 
G01 X1029.402 Y118.064 
G01 X1028.797 Y117.869 
G01 X1028.184 Y117.619 
G01 X1027.559 Y117.308 
G01 X1026.919 Y116.933 
G01 X1026.304 Y116.514 
G01 X1025.686 Y116.016 
G01 X1025.016 Y115.390 
G01 X1024.304 Y114.634 
G01 X1023.556 Y113.744 
G01 X1022.781 Y112.722 
G01 X1021.982 Y111.566 
G01 X1021.165 Y110.279 
G01 X1020.729 Y109.551 
G02 X1012.867 Y108.569 I-4.315 J2.581
G00 Z5.000
G00 X1028.032 Y95.622  F4800.0
G01 Z-6.000 F1500.0 M3
G01 X1028.032 Y94.578  F2400.0
G01 X1028.285 Y95.138 
G01 X1028.543 Y95.885 
G01 X1028.583 Y96.023 
G01 X1028.032 Y95.622 
G01 X1026.773 Y96.290  
G01 X1026.773 Y93.283  
G02 X1028.053 Y92.367 I-10.358 J-15.842
G01 X1028.510 Y92.943  
G01 X1028.932 Y93.593 
G01 X1029.292 Y94.289 
G01 X1029.533 Y94.871 
G01 X1029.751 Y95.527 
G01 X1029.945 Y96.277 
G01 X1030.105 Y97.139 
G01 X1030.193 Y97.780 
G01 X1030.259 Y98.478 
G01 X1030.301 Y99.271 
G02 X1026.773 Y96.290 I-13.887 J12.861
G01 X1025.513 Y96.987  
G01 X1025.513 Y92.586  
G02 X1027.818 Y90.936 I-9.098 J-15.145
G01 X1028.235 Y90.968  
G01 X1028.449 Y91.021 
G01 X1028.688 Y91.211 
G01 X1029.103 Y91.654 
G01 X1029.533 Y92.207 
G01 X1029.907 Y92.768 
G01 X1030.237 Y93.353 
G01 X1030.532 Y93.979 
G01 X1030.799 Y94.667 
G01 X1031.035 Y95.436 
G01 X1031.219 Y96.209 
G01 X1031.350 Y96.944 
G01 X1031.444 Y97.636 
G01 X1031.515 Y98.384 
G01 X1031.560 Y99.190 
G01 X1031.576 Y100.063 
G01 X1031.564 Y100.797 
G01 X1031.528 Y101.487 
G01 X1031.472 Y102.117 
G01 X1031.388 Y102.755 
G02 X1025.513 Y96.987 I-14.974 J9.376
G01 X1024.253 Y97.717  
G01 X1024.253 Y91.855  
G02 X1027.208 Y89.799 I-7.838 J-14.414
G01 X1027.349 Y89.676  
G01 X1027.967 Y89.679 
G01 X1028.421 Y89.722 
G01 X1028.807 Y89.808 
G01 X1029.093 Y89.937 
G01 X1029.399 Y90.159 
G01 X1029.720 Y90.459 
G01 X1030.069 Y90.845 
G01 X1030.555 Y91.471 
G01 X1030.980 Y92.108 
G01 X1031.356 Y92.773 
G01 X1031.691 Y93.482 
G01 X1031.989 Y94.254 
G01 X1032.251 Y95.106 
G01 X1032.456 Y95.968 
G01 X1032.595 Y96.748 
G01 X1032.696 Y97.491 
G01 X1032.772 Y98.289 
G01 X1032.820 Y99.143 
G01 X1032.836 Y100.062 
G01 X1032.823 Y100.841 
G01 X1032.785 Y101.575 
G01 X1032.725 Y102.252 
G01 X1032.646 Y102.873 
G01 X1032.551 Y103.440 
G01 X1032.443 Y103.954 
G01 X1032.324 Y104.419 
G01 X1032.063 Y105.217 
G01 X1031.816 Y105.789 
G01 X1031.182 Y104.838 
G01 X1030.495 Y103.709 
G02 X1024.253 Y97.717 I-14.081 J8.422
G01 X1022.993 Y98.487  
G01 X1022.993 Y91.086  
G02 X1026.379 Y88.850 I-6.578 J-13.645
G01 X1026.840 Y88.447  
G01 X1027.626 Y88.410 
G01 X1028.341 Y88.442 
G01 X1028.835 Y88.515 
G01 X1029.339 Y88.660 
G01 X1029.736 Y88.853 
G01 X1030.035 Y89.054 
G01 X1030.406 Y89.367 
G01 X1030.910 Y89.890 
G01 X1031.405 Y90.501 
G01 X1031.902 Y91.208 
G01 X1032.340 Y91.941 
G01 X1032.729 Y92.716 
G01 X1033.074 Y93.548 
G01 X1033.376 Y94.455 
G01 X1033.634 Y95.451 
G01 X1033.840 Y96.552 
G01 X1033.948 Y97.347 
G01 X1034.029 Y98.195 
G01 X1034.079 Y99.097 
G01 X1034.096 Y100.061 
G01 X1034.083 Y100.884 
G01 X1034.042 Y101.663 
G01 X1033.978 Y102.387 
G01 X1033.893 Y103.057 
G01 X1033.789 Y103.674 
G01 X1033.670 Y104.240 
G01 X1033.538 Y104.759 
G01 X1033.394 Y105.232 
G01 X1033.241 Y105.665 
G01 X1032.909 Y106.426 
G01 X1032.544 Y107.082 
G01 X1032.132 Y107.673 
G01 X1031.906 Y107.951 
G01 X1031.467 Y107.432 
G01 X1030.708 Y106.404 
G01 X1030.119 Y105.514 
G01 X1029.414 Y104.356 
G02 X1022.993 Y98.487 I-13.000 J7.775
G01 X1021.733 Y99.302  
G01 X1021.733 Y90.270  
G02 X1025.550 Y87.901 I-5.318 J-12.829
G01 X1026.324 Y87.245  
G01 X1026.881 Y87.177 
G01 X1027.630 Y87.150 
G01 X1028.088 Y87.161 
G01 X1028.795 Y87.229 
G01 X1029.346 Y87.341 
G01 X1029.791 Y87.483 
G01 X1030.184 Y87.660 
G01 X1030.580 Y87.896 
G01 X1031.020 Y88.228 
G01 X1031.528 Y88.702 
G01 X1032.003 Y89.229 
G01 X1032.601 Y89.998 
G01 X1033.128 Y90.789 
G01 X1033.594 Y91.615 
G01 X1034.007 Y92.489 
G01 X1034.370 Y93.428 
G01 X1034.684 Y94.446 
G01 X1034.929 Y95.484 
G01 X1035.085 Y96.356 
G01 X1035.200 Y97.203 
G01 X1035.285 Y98.100 
G01 X1035.338 Y99.050 
G01 X1035.357 Y100.060 
G01 X1035.342 Y100.927 
G01 X1035.299 Y101.751 
G01 X1035.231 Y102.522 
G01 X1035.140 Y103.241 
G01 X1035.028 Y103.908 
G01 X1034.898 Y104.526 
G01 X1034.751 Y105.098 
G01 X1034.591 Y105.626 
G01 X1034.418 Y106.114 
G01 X1034.234 Y106.565 
G01 X1034.039 Y106.985 
G01 X1033.832 Y107.379 
G01 X1033.613 Y107.750 
G01 X1033.380 Y108.103 
G01 X1033.130 Y108.444 
G01 X1032.676 Y108.984 
G01 X1032.330 Y109.307 
G01 X1032.130 Y109.429 
G01 X1031.870 Y109.478 
G01 X1031.719 Y109.483 
G01 X1031.499 Y109.327 
G01 X1031.113 Y108.950 
G01 X1030.482 Y108.218 
G01 X1029.958 Y107.527 
G01 X1029.370 Y106.675 
G01 X1028.729 Y105.665 
G01 X1028.333 Y105.003 
G02 X1021.733 Y99.302 I-11.918 J7.128
G01 X1020.473 Y100.174  
G01 X1020.473 Y89.399  
G02 X1024.721 Y86.952 I-4.058 J-11.958
G01 X1025.494 Y86.293  
G01 X1025.793 Y86.070 
G01 X1026.156 Y85.994 
G01 X1026.785 Y85.921 
G01 X1027.633 Y85.890 
G01 X1028.148 Y85.902 
G01 X1028.586 Y85.934 
G01 X1029.340 Y86.046 
G01 X1029.964 Y86.208 
G01 X1030.508 Y86.417 
G01 X1031.022 Y86.685 
G01 X1031.551 Y87.040 
G01 X1032.124 Y87.522 
G01 X1032.432 Y87.824 
G01 X1032.969 Y88.420 
G01 X1033.623 Y89.262 
G01 X1034.201 Y90.130 
G01 X1034.713 Y91.035 
G01 X1035.165 Y91.993 
G01 X1035.560 Y93.015 
G01 X1035.900 Y94.116 
G01 X1036.166 Y95.242 
G01 X1036.330 Y96.161 
G01 X1036.452 Y97.059 
G01 X1036.542 Y98.006 
G01 X1036.598 Y99.004 
G01 X1036.617 Y100.060 
G01 X1036.601 Y100.970 
G01 X1036.556 Y101.840 
G01 X1036.484 Y102.657 
G01 X1036.386 Y103.424 
G01 X1036.266 Y104.142 
G01 X1036.125 Y104.812 
G01 X1035.965 Y105.437 
G01 X1035.789 Y106.019 
G01 X1035.596 Y106.562 
G01 X1035.390 Y107.069 
G01 X1035.168 Y107.545 
G01 X1034.933 Y107.993 
G01 X1034.682 Y108.417 
G01 X1034.414 Y108.824 
G01 X1034.127 Y109.215 
G01 X1033.595 Y109.846 
G01 X1033.248 Y110.182 
G01 X1032.878 Y110.460 
G01 X1032.618 Y110.592 
G01 X1032.315 Y110.683 
G01 X1031.788 Y110.747 
G01 X1031.453 Y110.744 
G01 X1031.172 Y110.621 
G01 X1030.770 Y110.360 
G01 X1030.382 Y110.007 
G01 X1029.751 Y109.313 
G01 X1029.225 Y108.654 
G01 X1028.635 Y107.837 
G01 X1027.991 Y106.865 
G01 X1027.251 Y105.650 
G02 X1020.473 Y100.174 I-10.837 J6.482
G01 X1019.213 Y101.114  
G01 X1019.213 Y88.459  
G02 X1023.892 Y86.003 I-2.798 J-11.018
G01 X1024.713 Y85.303  
G01 X1025.247 Y84.919 
G01 X1025.674 Y84.803 
G01 X1026.289 Y84.703 
G01 X1027.150 Y84.638 
G01 X1027.636 Y84.630 
G01 X1028.209 Y84.643 
G01 X1028.709 Y84.679 
G01 X1029.169 Y84.736 
G01 X1029.592 Y84.811 
G01 X1029.984 Y84.902 
G01 X1030.350 Y85.008 
G01 X1030.695 Y85.130 
G01 X1031.026 Y85.268 
G01 X1031.347 Y85.424 
G01 X1031.665 Y85.600 
G01 X1031.985 Y85.802 
G01 X1032.309 Y86.033 
G01 X1032.641 Y86.297 
G01 X1032.983 Y86.600 
G01 X1033.336 Y86.945 
G01 X1033.936 Y87.612 
G01 X1034.646 Y88.525 
G01 X1035.275 Y89.470 
G01 X1035.832 Y90.456 
G01 X1036.323 Y91.496 
G01 X1036.751 Y92.602 
G01 X1037.116 Y93.786 
G01 X1037.403 Y95.000 
G01 X1037.575 Y95.965 
G01 X1037.704 Y96.914 
G01 X1037.799 Y97.911 
G01 X1037.857 Y98.958 
G01 X1037.877 Y100.059 
G01 X1037.861 Y101.014 
G01 X1037.813 Y101.928 
G01 X1037.737 Y102.792 
G01 X1037.633 Y103.608 
G01 X1037.505 Y104.376 
G01 X1037.352 Y105.098 
G01 X1037.179 Y105.776 
G01 X1036.986 Y106.413 
G01 X1036.774 Y107.011 
G01 X1036.545 Y107.573 
G01 X1036.298 Y108.104 
G01 X1036.034 Y108.606 
G01 X1035.751 Y109.085 
G01 X1035.448 Y109.544 
G01 X1035.124 Y109.986 
G01 X1034.761 Y110.432 
G01 X1034.287 Y110.939 
G01 X1033.883 Y111.292 
G01 X1033.541 Y111.532 
G01 X1033.087 Y111.762 
G01 X1032.764 Y111.870 
G01 X1032.367 Y111.954 
G01 X1031.851 Y112.006 
G01 X1031.348 Y112.005 
G01 X1031.045 Y111.937 
G01 X1030.689 Y111.790 
G01 X1030.178 Y111.489 
G01 X1029.845 Y111.229 
G01 X1029.279 Y110.679 
G01 X1028.786 Y110.124 
G01 X1028.222 Y109.416 
G01 X1027.598 Y108.554 
G01 X1026.928 Y107.540 
G01 X1026.170 Y106.296 
G02 X1019.213 Y101.114 I-9.756 J5.835
G01 X1017.953 Y102.141  
G01 X1017.953 Y87.431  
G02 X1023.063 Y85.054 I-1.538 J-9.990
G01 X1023.933 Y84.314  
G01 X1024.469 Y83.921 
G01 X1024.710 Y83.773 
G01 X1025.130 Y83.637 
G01 X1025.747 Y83.507 
G01 X1026.593 Y83.408 
G01 X1027.640 Y83.369 
G01 X1028.269 Y83.384 
G01 X1028.831 Y83.425 
G01 X1029.355 Y83.489 
G01 X1029.844 Y83.576 
G01 X1030.303 Y83.682 
G01 X1030.735 Y83.808 
G01 X1031.147 Y83.953 
G01 X1031.543 Y84.118 
G01 X1031.929 Y84.305 
G01 X1032.309 Y84.516 
G01 X1032.687 Y84.755 
G01 X1033.067 Y85.026 
G01 X1033.451 Y85.332 
G01 X1033.842 Y85.677 
G01 X1034.240 Y86.067 
G01 X1034.903 Y86.804 
G01 X1035.423 Y87.457 
G01 X1036.131 Y88.465 
G01 X1036.758 Y89.516 
G01 X1037.136 Y90.244 
G01 X1037.481 Y90.999 
G01 X1037.796 Y91.784 
G01 X1038.079 Y92.602 
G01 X1038.332 Y93.456 
G01 X1038.640 Y94.758 
G01 X1038.820 Y95.769 
G01 X1038.956 Y96.770 
G01 X1039.056 Y97.817 
G01 X1039.116 Y98.911 
G01 X1039.137 Y100.058 
G01 X1039.120 Y101.057 
G01 X1039.071 Y102.016 
G01 X1038.990 Y102.927 
G01 X1038.880 Y103.792 
G01 X1038.743 Y104.610 
G01 X1038.580 Y105.384 
G01 X1038.393 Y106.116 
G01 X1038.183 Y106.806 
G01 X1037.952 Y107.459 
G01 X1037.700 Y108.077 
G01 X1037.428 Y108.663 
G01 X1037.135 Y109.220 
G01 X1036.820 Y109.753 
G01 X1036.483 Y110.264 
G01 X1036.121 Y110.757 
G01 X1035.720 Y111.250 
G01 X1035.163 Y111.846 
G01 X1034.660 Y112.285 
G01 X1034.203 Y112.604 
G01 X1033.772 Y112.838 
G01 X1033.333 Y113.014 
G01 X1032.841 Y113.148 
G01 X1032.255 Y113.239 
G01 X1031.512 Y113.275 
G01 X1031.095 Y113.242 
G01 X1030.659 Y113.137 
G01 X1030.275 Y112.988 
G01 X1029.808 Y112.745 
G01 X1029.331 Y112.433 
G01 X1028.823 Y112.004 
G01 X1028.362 Y111.543 
G01 X1027.822 Y110.935 
G01 X1027.218 Y110.178 
G01 X1026.562 Y109.271 
G01 X1025.864 Y108.216 
G01 X1025.089 Y106.943 
G02 X1017.953 Y102.141 I-8.674 J5.188
G01 X1016.693 Y103.288  
G01 X1016.693 Y86.284  
G02 X1022.234 Y84.105 I-0.278 J-8.843
G01 X1023.152 Y83.324  
G01 X1023.771 Y82.872 
G01 X1024.191 Y82.623 
G01 X1024.514 Y82.506 
G01 X1025.147 Y82.338 
G01 X1025.992 Y82.200 
G01 X1026.497 Y82.151 
G01 X1027.057 Y82.120 
G01 X1027.643 Y82.109 
G01 X1028.329 Y82.125 
G01 X1028.954 Y82.170 
G01 X1029.542 Y82.243 
G01 X1030.097 Y82.341 
G01 X1030.622 Y82.463 
G01 X1031.121 Y82.608 
G01 X1031.599 Y82.777 
G01 X1032.061 Y82.969 
G01 X1032.510 Y83.187 
G01 X1032.952 Y83.432 
G01 X1033.389 Y83.709 
G01 X1033.825 Y84.019 
G01 X1034.262 Y84.366 
G01 X1034.701 Y84.755 
G01 X1035.144 Y85.189 
G01 X1035.870 Y85.996 
G01 X1036.427 Y86.696 
G01 X1036.944 Y87.414 
G01 X1037.422 Y88.151 
G01 X1037.863 Y88.909 
G01 X1038.268 Y89.692 
G01 X1038.639 Y90.503 
G01 X1038.976 Y91.343 
G01 X1039.279 Y92.217 
G01 X1039.548 Y93.126 
G01 X1039.782 Y94.074 
G01 X1039.876 Y94.517 
G01 X1040.065 Y95.573 
G01 X1040.208 Y96.626 
G01 X1040.312 Y97.722 
G01 X1040.376 Y98.865 
G01 X1040.397 Y100.057 
G01 X1040.380 Y101.100 
G01 X1040.328 Y102.104 
G01 X1040.243 Y103.062 
G01 X1040.127 Y103.976 
G01 X1039.981 Y104.845 
G01 X1039.807 Y105.670 
G01 X1039.607 Y106.455 
G01 X1039.380 Y107.200 
G01 X1039.130 Y107.908 
G01 X1038.855 Y108.581 
G01 X1038.557 Y109.222 
G01 X1038.235 Y109.834 
G01 X1037.889 Y110.421 
G01 X1037.517 Y110.984 
G01 X1037.118 Y111.528 
G01 X1036.679 Y112.068 
G01 X1036.354 Y112.432 
G01 X1036.039 Y112.752 
G01 X1035.733 Y113.033 
G01 X1035.436 Y113.278 
G01 X1034.866 Y113.677 
G01 X1034.308 Y113.979 
G01 X1033.734 Y114.209 
G01 X1033.104 Y114.381 
G01 X1032.383 Y114.493 
G01 X1031.977 Y114.524 
G01 X1031.373 Y114.533 
G01 X1030.899 Y114.487 
G01 X1030.433 Y114.385 
G01 X1029.935 Y114.213 
G01 X1029.375 Y113.947 
G01 X1028.758 Y113.571 
G01 X1028.192 Y113.132 
G01 X1027.713 Y112.684 
G01 X1027.159 Y112.095 
G01 X1026.542 Y111.361 
G01 X1025.875 Y110.482 
G01 X1025.167 Y109.457 
G01 X1024.426 Y108.290 
G01 X1024.007 Y107.590 
G02 X1016.693 Y103.288 I-7.593 J4.541
G01 X1015.432 Y104.608  
G01 X1015.432 Y84.965  
G02 X1021.406 Y83.156 I0.982 J-7.524
G01 X1022.372 Y82.335  
G01 X1023.072 Y81.823 
G01 X1023.542 Y81.539 
G01 X1023.791 Y81.425 
G01 X1024.479 Y81.202 
G01 X1024.883 Y81.105 
G01 X1025.338 Y81.020 
G01 X1025.843 Y80.948 
G01 X1026.401 Y80.894 
G01 X1027.010 Y80.860 
G01 X1027.647 Y80.849 
G01 X1028.390 Y80.866 
G01 X1029.077 Y80.916 
G01 X1029.729 Y80.996 
G01 X1030.349 Y81.106 
G01 X1030.941 Y81.243 
G01 X1031.507 Y81.408 
G01 X1032.051 Y81.600 
G01 X1032.578 Y81.820 
G01 X1033.092 Y82.068 
G01 X1033.595 Y82.348 
G01 X1034.091 Y82.662 
G01 X1034.583 Y83.012 
G01 X1035.072 Y83.401 
G01 X1035.560 Y83.833 
G01 X1036.048 Y84.311 
G01 X1036.557 Y84.862 
G01 X1037.140 Y85.559 
G01 X1037.713 Y86.316 
G01 X1038.245 Y87.094 
G01 X1038.737 Y87.894 
G01 X1039.189 Y88.718 
G01 X1039.604 Y89.570 
G01 X1039.981 Y90.450 
G01 X1040.322 Y91.363 
G01 X1040.626 Y92.309 
G01 X1040.893 Y93.293 
G01 X1041.113 Y94.275 
G01 X1041.310 Y95.378 
G01 X1041.460 Y96.481 
G01 X1041.569 Y97.628 
G01 X1041.635 Y98.818 
G01 X1041.658 Y100.056 
G01 X1041.639 Y101.143 
G01 X1041.585 Y102.192 
G01 X1041.496 Y103.197 
G01 X1041.374 Y104.159 
G01 X1041.219 Y105.079 
G01 X1041.035 Y105.956 
G01 X1040.820 Y106.794 
G01 X1040.578 Y107.593 
G01 X1040.308 Y108.356 
G01 X1040.011 Y109.084 
G01 X1039.687 Y109.781 
G01 X1039.336 Y110.448 
G01 X1038.958 Y111.088 
G01 X1038.551 Y111.705 
G01 X1038.115 Y112.299 
G01 X1037.638 Y112.885 
G01 X1037.273 Y113.294 
G01 X1036.914 Y113.658 
G01 X1036.561 Y113.983 
G01 X1036.213 Y114.271 
G01 X1035.869 Y114.525 
G01 X1035.528 Y114.749 
G01 X1035.187 Y114.947 
G01 X1034.844 Y115.120 
G01 X1034.494 Y115.272 
G01 X1034.134 Y115.404 
G01 X1033.760 Y115.518 
G01 X1033.368 Y115.614 
G01 X1032.953 Y115.690 
G01 X1032.511 Y115.747 
G01 X1032.040 Y115.783 
G01 X1031.324 Y115.792 
G01 X1030.703 Y115.732 
G01 X1030.093 Y115.598 
G01 X1029.459 Y115.380 
G01 X1028.776 Y115.056 
G01 X1028.047 Y114.612 
G01 X1027.608 Y114.286 
G01 X1027.103 Y113.847 
G01 X1026.528 Y113.272 
G01 X1025.893 Y112.558 
G01 X1025.211 Y111.702 
G01 X1024.489 Y110.704 
G01 X1023.736 Y109.567 
G01 X1022.926 Y108.237 
G02 X1015.432 Y104.608 I-6.512 J3.895
G00 Z5.000
G00 X1226.039 Y109.209  F4800.0
G01 Z-3.000 F1500.0 M3
G01 X1226.293 Y109.209  F2400.0
G01 X1226.156 Y109.696 
G01 X1225.914 Y110.405 
G01 X1226.039 Y109.209 
G00 Z5.000
M05
M1
( V-Carve 1 )
T1 M6( TOOL USE VBit 90 deg 22 mm )
S18000 M03
( V-Carve 1 )
( V-Carve 1 )
G00 X1226.143 Y109.323 Z5.000 F4000.0
G01 Z-5.142 F200.0 M3
G01 X1227.259 Y108.450 Z-4.268 F2000.0
G01 X1228.072 Y107.773 Z-3.592
G01 X1228.944 Y107.015 Z-2.834
G01 X1229.877 Y106.168 Z-1.986
G01 X1230.875 Y105.225 Z-1.044
G01 X1231.938 Y104.181 Z0.000
G01 X1230.875 Y105.225 Z-1.044
G01 X1229.877 Y106.168 Z-1.986
G01 X1228.944 Y107.015 Z-2.834
G01 X1228.072 Y107.773 Z-3.592
G01 X1227.259 Y108.450 Z-4.268
G01 X1226.143 Y109.323 Z-5.142
G01 X1225.929 Y110.347 Z-5.035
G01 X1225.761 Y111.003 Z-4.950
G01 X1225.471 Y111.946 Z-4.807
G01 X1225.122 Y112.892 Z-4.646
G01 X1224.720 Y113.783 Z-4.472
G01 X1224.430 Y114.340 Z-4.357
G01 X1223.974 Y115.102 Z-4.196
G01 X1223.432 Y115.875 Z-4.033
G01 X1222.994 Y116.430 Z-3.907
G01 X1222.457 Y117.043 Z-3.757
G01 X1221.918 Y117.590 Z-3.615
G01 X1221.541 Y117.938 Z-3.524
G01 X1220.953 Y118.434 Z-3.377
G01 X1220.347 Y118.887 Z-3.235
G01 X1219.509 Y119.432 Z-3.047
G01 X1218.548 Y119.962 Z-2.846
G01 X1217.589 Y120.393 Z-2.655
G01 X1216.719 Y120.720 Z-2.491
G01 X1215.854 Y120.988 Z-2.337
G01 X1214.995 Y121.199 Z-2.196
G01 X1214.144 Y121.358 Z-2.070
G01 X1213.300 Y121.465 Z-1.960
G01 X1212.465 Y121.526 Z-1.870
G01 X1211.636 Y121.541 Z-1.797
G01 X1210.603 Y121.490 Z-1.725
G01 X1209.591 Y121.374 Z-1.670
G01 X1208.605 Y121.189 Z-1.633
G01 X1207.645 Y120.941 Z-1.613
G01 X1206.698 Y120.624 Z-1.607
G01 X1205.811 Y120.255 Z-1.618
G01 X1204.937 Y119.822 Z-1.640
G01 X1204.037 Y119.296 Z-1.674
G01 X1203.281 Y118.787 Z-1.715
G01 X1202.422 Y118.129 Z-1.767
G01 X1201.740 Y117.540 Z-1.820
G01 X1200.987 Y116.808 Z-1.886
G01 X1200.324 Y116.075 Z-1.964
G01 X1199.634 Y115.214 Z-2.061
G01 X1199.069 Y114.410 Z-2.160
G01 X1198.526 Y113.530 Z-2.269
G01 X1198.035 Y112.618 Z-2.381
G01 X1197.597 Y111.676 Z-2.499
G01 X1197.149 Y110.548 Z-2.634
G01 X1196.863 Y109.699 Z-2.736
G01 X1196.571 Y108.680 Z-2.855
G01 X1196.296 Y107.508 Z-2.984
G01 X1196.232 Y107.138 Z-3.030
G01 X1196.200 Y106.877 Z-3.075
G01 X1196.173 Y106.472 Z-3.167
G01 X1196.182 Y106.037 Z-3.283
G01 X1196.210 Y105.678 Z-3.398
G01 X1196.089 Y105.318 Z-3.369
G01 X1195.978 Y104.863 Z-3.353
G01 X1195.895 Y104.374 Z-3.371
G01 X1195.767 Y102.731 Z-3.511
G01 X1195.719 Y101.339 Z-3.621
G01 X1195.723 Y99.969 Z-3.726
G01 X1195.775 Y98.621 Z-3.830
G01 X1195.874 Y97.293 Z-3.936
G01 X1196.022 Y95.986 Z-4.043
G01 X1196.221 Y94.699 Z-4.152
G01 X1196.473 Y93.433 Z-4.260
G01 X1196.831 Y92.010 Z-4.387
G01 X1197.147 Y90.968 Z-4.474
G01 X1197.578 Y89.775 Z-4.573
G01 X1197.972 Y88.832 Z-4.649
G01 X1198.218 Y88.299 Z-4.696
G01 X1198.631 Y87.478 Z-4.755
G01 X1199.124 Y86.609 Z-4.814
G01 X1199.539 Y85.951 Z-4.860
G01 X1200.029 Y85.235 Z-4.899
G01 X1200.701 Y84.360 Z-4.937
G01 X1201.335 Y83.618 Z-4.963
G01 X1201.677 Y83.244 Z-4.976
G01 X1202.300 Y82.605 Z-4.984
G01 X1203.159 Y81.811 Z-4.988
G01 X1203.989 Y81.123 Z-4.983
G01 X1204.984 Y80.399 Z-4.964
G01 X1205.721 Y79.928 Z-4.939
G01 X1206.057 Y79.729 Z-4.929
G01 X1206.951 Y79.255 Z-4.881
G01 X1207.724 Y78.900 Z-4.833
G01 X1208.727 Y78.510 Z-4.762
G01 X1209.441 Y78.281 Z-4.705
G01 X1210.180 Y78.078 Z-4.638
G01 X1211.178 Y77.865 Z-4.541
G01 X1212.007 Y77.734 Z-4.459
G01 X1213.103 Y77.621 Z-4.348
G01 X1214.202 Y77.577 Z-4.232
G01 X1214.818 Y77.586 Z-4.165
G01 X1215.530 Y77.621 Z-4.078
G01 X1216.571 Y77.736 Z-3.938
G01 X1217.281 Y77.854 Z-3.835
G01 X1218.272 Y78.075 Z-3.680
G01 X1219.195 Y78.348 Z-3.514
G01 X1219.973 Y78.629 Z-3.365
G01 X1220.602 Y78.892 Z-3.238
G01 X1221.212 Y79.179 Z-3.110
G01 X1221.803 Y79.489 Z-2.982
G01 X1222.375 Y79.820 Z-2.855
G01 X1223.058 Y80.261 Z-2.698
G01 X1223.969 Y80.927 Z-2.482
G01 X1224.464 Y81.325 Z-2.369
G01 X1225.336 Y82.100 Z-2.173
G01 X1225.856 Y82.607 Z-2.063
G01 X1226.371 Y83.154 Z-1.958
G01 X1226.932 Y83.809 Z-1.850
G01 X1227.537 Y84.594 Z-1.735
G01 X1227.945 Y85.176 Z-1.664
G01 X1228.399 Y85.886 Z-1.583
G01 X1228.982 Y86.906 Z-1.473
G01 X1229.308 Y87.541 Z-1.410
G01 X1229.621 Y88.199 Z-1.347
G01 X1229.918 Y88.882 Z-1.280
G01 X1230.224 Y89.655 Z-1.204
G01 X1230.508 Y90.452 Z-1.123
G01 X1230.825 Y91.459 Z-1.014
G01 X1231.938 Y91.947 Z0.000
G01 X1230.825 Y91.459 Z-1.014
G01 X1230.338 Y92.979 Z0.000
G01 X1230.825 Y91.459 Z-1.014
G01 X1230.454 Y90.296 Z-1.137
G01 X1230.187 Y89.559 Z-1.213
G01 X1229.904 Y88.847 Z-1.284
G01 X1229.578 Y88.105 Z-1.357
G01 X1229.214 Y87.351 Z-1.432
G01 X1228.641 Y86.295 Z-1.536
G01 X1228.254 Y85.653 Z-1.606
G01 X1227.880 Y85.082 Z-1.674
G01 X1227.456 Y84.483 Z-1.752
G01 X1226.932 Y83.809 Z-1.850
G01 X1226.232 Y83.003 Z-1.984
G01 X1225.772 Y82.522 Z-2.082
G01 X1224.940 Y81.738 Z-2.260
G01 X1224.385 Y81.261 Z-2.386
G01 X1223.761 Y80.767 Z-2.533
G01 X1222.925 Y80.172 Z-2.727
G01 X1222.270 Y79.758 Z-2.877
G01 X1221.673 Y79.416 Z-3.012
G01 X1220.985 Y79.067 Z-3.161
G01 X1220.302 Y78.761 Z-3.303
G01 X1219.325 Y78.392 Z-3.489
G01 X1218.527 Y78.145 Z-3.633
G01 X1217.596 Y77.916 Z-3.790
G01 X1216.571 Y77.736 Z-3.938
G01 X1215.528 Y77.621 Z-4.078
G01 X1214.443 Y77.578 Z-4.204
G01 X1213.345 Y77.603 Z-4.324
G01 X1212.265 Y77.701 Z-4.433
G01 X1211.748 Y77.770 Z-4.489
G01 X1210.915 Y77.914 Z-4.568
G01 X1210.098 Y78.099 Z-4.644
G01 X1209.441 Y78.281 Z-4.705
G01 X1208.727 Y78.510 Z-4.762
G01 X1207.978 Y78.793 Z-4.817
G01 X1207.362 Y79.060 Z-4.861
G01 X1206.703 Y79.377 Z-4.897
G01 X1205.951 Y79.790 Z-4.931
G01 X1205.420 Y80.114 Z-4.955
G01 X1204.769 Y80.545 Z-4.971
G01 X1203.989 Y81.123 Z-4.983
G01 X1203.159 Y81.811 Z-4.988
G01 X1202.288 Y82.616 Z-4.984
G01 X1201.481 Y83.456 Z-4.967
G01 X1201.094 Y83.890 Z-4.959
G01 X1200.547 Y84.549 Z-4.932
G01 X1199.956 Y85.337 Z-4.891
G01 X1199.539 Y85.951 Z-4.860
G01 X1199.072 Y86.697 Z-4.811
G01 X1198.515 Y87.703 Z-4.736
G01 X1198.072 Y88.611 Z-4.667
G01 X1197.829 Y89.160 Z-4.628
G01 X1197.466 Y90.064 Z-4.552
G01 X1197.080 Y91.178 Z-4.455
G01 X1196.728 Y92.390 Z-4.350
G01 X1196.432 Y93.624 Z-4.244
G01 X1196.190 Y94.879 Z-4.136
G01 X1196.000 Y96.154 Z-4.030
G01 X1195.836 Y97.730 Z-3.905
G01 X1195.751 Y99.098 Z-3.797
G01 X1195.715 Y100.427 Z-3.696
G01 X1195.726 Y101.714 Z-3.596
G01 X1195.779 Y102.961 Z-3.495
G01 X1195.895 Y104.374 Z-3.371
G01 X1195.978 Y104.863 Z-3.353
G01 X1196.089 Y105.318 Z-3.369
G01 X1196.210 Y105.678 Z-3.398
G01 X1196.751 Y105.678 Z-2.923
G01 X1197.635 Y105.678 Z-2.210
G01 X1198.168 Y105.678 Z-1.854
G01 X1198.385 Y105.678 Z-1.735
G01 X1198.653 Y105.678 Z-1.616
G01 X1198.961 Y105.678 Z-1.527
G01 X1199.261 Y105.678 Z-1.497
G01 X1221.149 Y105.678 
G01 X1221.549 Y105.705 Z-1.524
G01 X1221.949 Y105.785 Z-1.604
G01 X1222.281 Y105.892 Z-1.711
G01 X1222.535 Y105.999 Z-1.818
G01 X1222.939 Y106.213 Z-2.032
G01 X1223.413 Y106.534 Z-2.353
G01 X1223.922 Y106.962 Z-2.781
G01 X1224.351 Y107.390 Z-3.209
G01 X1226.143 Y109.323 Z-5.142
G00 Z5.000
G01 Z-5.142 F200.0 M3
G01 X1224.351 Y107.390 Z-3.209 F2000.0
G01 X1223.922 Y106.962 Z-2.781
G01 X1223.413 Y106.534 Z-2.353
G01 X1222.939 Y106.213 Z-2.032
G01 X1222.535 Y105.999 Z-1.818
G01 X1222.129 Y105.839 Z-1.658
G01 X1221.715 Y105.732 Z-1.551
G01 X1221.432 Y105.692 Z-1.510
G01 X1221.149 Y105.678 Z-1.497
G01 X1199.261 Y105.678 
G01 X1198.961 Y105.678 Z-1.527
G01 X1198.653 Y105.678 Z-1.616
G01 X1198.385 Y105.678 Z-1.735
G01 X1197.977 Y105.678 Z-1.972
G01 X1197.325 Y105.678 Z-2.448
G01 X1196.751 Y105.678 Z-2.923
G01 X1196.210 Y105.678 Z-3.398
G01 X1196.182 Y106.037 Z-3.283
G01 X1196.173 Y106.472 Z-3.167
G01 X1196.200 Y106.877 Z-3.075
G01 X1196.232 Y107.138 Z-3.030
G01 X1196.313 Y107.594 Z-2.976
G01 X1196.571 Y108.680 Z-2.855
G01 X1196.925 Y109.894 Z-2.711
G01 X1197.205 Y110.703 Z-2.616
G01 X1197.597 Y111.676 Z-2.499
G01 X1198.054 Y112.657 Z-2.376
G01 X1198.526 Y113.530 Z-2.269
G01 X1199.069 Y114.410 Z-2.160
G01 X1199.661 Y115.251 Z-2.057
G01 X1200.324 Y116.075 Z-1.964
G01 X1201.015 Y116.836 Z-1.884
G01 X1201.740 Y117.540 Z-1.820
G01 X1202.496 Y118.190 Z-1.764
G01 X1203.281 Y118.787 Z-1.715
G01 X1204.094 Y119.333 Z-1.673
G01 X1204.937 Y119.822 Z-1.640
G01 X1205.811 Y120.255 Z-1.618
G01 X1206.776 Y120.652 Z-1.606
G01 X1207.645 Y120.941 Z-1.613
G01 X1208.605 Y121.189 Z-1.633
G01 X1209.611 Y121.377 Z-1.670
G01 X1210.603 Y121.490 Z-1.725
G01 X1211.637 Y121.541 Z-1.797
G01 X1212.693 Y121.515 Z-1.896
G01 X1213.448 Y121.450 Z-1.979
G01 X1214.296 Y121.333 Z-2.092
G01 X1215.151 Y121.165 Z-2.221
G01 X1216.012 Y120.943 Z-2.365
G01 X1216.877 Y120.665 Z-2.520
G01 X1217.846 Y120.286 Z-2.708
G01 X1218.646 Y119.911 Z-2.866
G01 X1219.509 Y119.432 Z-3.047
G01 X1220.146 Y119.025 Z-3.189
G01 X1221.006 Y118.394 Z-3.390
G01 X1221.724 Y117.772 Z-3.566
G01 X1222.050 Y117.461 Z-3.653
G01 X1222.640 Y116.841 Z-3.806
G01 X1223.144 Y116.246 Z-3.946
G01 X1223.784 Y115.387 Z-4.136
G01 X1224.266 Y114.632 Z-4.297
G01 X1224.720 Y113.783 Z-4.472
G01 X1225.123 Y112.890 Z-4.647
G01 X1225.471 Y111.946 Z-4.807
G01 X1225.778 Y110.942 Z-4.957
G01 X1226.035 Y109.873 Z-5.085
G01 X1226.143 Y109.323 Z-5.142
G00 Z5.000
G00 X1249.580 Y141.733  F4000.0
G01 Z-4.917 F200.0 M3
G01 X1249.739 Y140.914 Z-4.758 F2000.0
G01 X1249.901 Y139.832 Z-4.596
G01 X1250.006 Y138.853 Z-4.491
G01 X1250.063 Y138.054 Z-4.434
G01 X1250.137 Y136.220 Z-4.360
G01 X1250.187 Y133.554 Z-4.310
G01 X1250.212 Y128.341 Z-4.285
G01 X1250.212 Y85.348 Z-4.285
G01 X1250.212 Y84.194 Z-4.297
G01 X1250.211 Y83.109 Z-4.333
G01 X1250.210 Y82.087 Z-4.396
G01 X1250.208 Y81.111 Z-4.489
G01 X1250.207 Y80.155 Z-4.622
G01 X1250.206 Y79.457 Z-4.752
G01 X1249.412 Y78.838 Z-4.133
G01 X1248.580 Y78.243 Z-3.538
G01 X1247.657 Y77.651 Z-2.946
G01 X1247.070 Y77.310 Z-2.605
G01 X1246.507 Y77.010 Z-2.305
G01 X1245.967 Y76.749 Z-2.044
G01 X1245.448 Y76.524 Z-1.819
G01 X1244.950 Y76.333 Z-1.628
G01 X1244.468 Y76.173 Z-1.468
G01 X1243.972 Y76.035 Z-1.330
G01 X1243.468 Y75.925 Z-1.220
G01 X1242.953 Y75.840 Z-1.135
G01 X1242.407 Y75.774 Z-1.069
G01 X1241.821 Y75.722 Z-1.017
G01 X1240.532 Y75.657 Z-0.952
G01 X1239.896 Y75.642 Z-0.937
G01 X1238.959 Y76.563 Z0.000
G01 X1239.896 Y75.642 Z-0.937
G01 X1238.959 Y74.705 Z0.000
G01 X1239.896 Y75.642 Z-0.937
G01 X1241.229 Y75.685 Z-0.980
G01 X1241.876 Y75.726 Z-1.021
G01 X1242.480 Y75.782 Z-1.077
G01 X1243.052 Y75.855 Z-1.150
G01 X1243.607 Y75.952 Z-1.247
G01 X1244.127 Y76.075 Z-1.370
G01 X1244.606 Y76.216 Z-1.511
G01 X1245.100 Y76.388 Z-1.683
G01 X1245.610 Y76.591 Z-1.886
G01 X1246.139 Y76.829 Z-2.124
G01 X1246.689 Y77.104 Z-2.399
G01 X1247.261 Y77.418 Z-2.713
G01 X1248.270 Y78.036 Z-3.331
G01 X1249.040 Y78.564 Z-3.859
G01 X1249.950 Y79.253 Z-4.548
G01 X1250.206 Y79.457 Z-4.752
G01 X1250.968 Y78.863 Z-4.158
G01 X1251.801 Y78.268 Z-3.563
G01 X1252.543 Y77.793 Z-3.088
G01 X1253.368 Y77.322 Z-2.617
G01 X1253.937 Y77.031 Z-2.326
