%
( jobb4 ) ( File created: Saturday August 24 2024 - 01:59 PM)
( for LinuxCNC )
( Material Size) ( X= 1300.000, Y= 200.000, Z= 20.000)
G90 (Incremental distance mode)
G17 G21 (Active Plane: XY)(Metric Mode)
G40 G49 G80(Tool Diameter, Length compensation & canned cycles OFF)
G64 P0.05 Q0.05(Path Blending)
M600
G90 (absolute distance mode)
G54 (Coordinate System)
S18000M3
G00 Z5.000
G4 P6
( V-Carve 1 )
G00 X61.733 Y88.413 Z5.000 F4000.0
G01 Z-4.866 F200.0 M3
G01 X62.253 Y87.946 Z-4.860 F2000.0
G01 X62.943 Y87.250 Z-4.838
G01 X63.586 Y86.517 Z-4.806
G01 X64.169 Y85.745 Z-4.757
G01 X64.695 Y84.941 Z-4.699
G01 X65.157 Y84.106 Z-4.628
G01 X65.542 Y83.275 Z-4.551
G01 X65.853 Y82.454 Z-4.464
G01 X66.104 Y81.620 Z-4.365
G01 X66.296 Y80.780 Z-4.259
G01 X66.424 Y79.936 Z-4.143
G01 X66.498 Y79.095 Z-4.028
G01 X66.517 Y78.260 Z-3.915
G01 X66.475 Y77.435 Z-3.798
G01 X66.384 Y76.658 Z-3.687
G01 X66.232 Y75.841 Z-3.568
G01 X66.083 Y75.241 Z-3.475
G01 X65.899 Y74.638 Z-3.378
G01 X65.679 Y74.033 Z-3.279
G01 X65.420 Y73.425 Z-3.178
G01 X65.120 Y72.815 Z-3.075
G01 X64.775 Y72.202 Z-2.973
G01 X64.385 Y71.589 Z-2.872
G01 X63.834 Y70.831 Z-2.747
G01 X63.340 Y70.232 Z-2.654
G01 X62.918 Y69.766 Z-2.585
G01 X62.398 Y69.250 Z-2.508
G01 X61.825 Y68.738 Z-2.428
G01 X61.005 Y68.093 Z-2.319
G01 X60.458 Y67.712 Z-2.253
G01 X59.897 Y67.360 Z-2.193
G01 X59.256 Y67.002 Z-2.129
G01 X58.537 Y66.653 Z-2.065
G01 X57.617 Y66.274 Z-1.990
G01 X56.898 Y66.026 Z-1.942
G01 X56.194 Y65.820 Z-1.901
G01 X55.351 Y65.620 Z-1.859
G01 X54.282 Y65.429 Z-1.810
G01 X53.574 Y65.336 Z-1.787
G01 X52.642 Y65.255 Z-1.760
G01 X51.463 Y65.211 Z-1.729
G01 X50.133 Y65.229 Z-1.708
G01 X49.286 Y65.274 Z-1.703
G01 X48.151 Y65.384 Z-1.696
G01 X46.955 Y65.564 Z-1.694
G01 X46.306 Y65.697 Z-1.688
G01 X45.117 Y66.002 Z-1.675
G01 X43.974 Y66.349 Z-1.683
G01 X42.811 Y66.751 Z-1.722
G01 X41.618 Y67.209 Z-1.800
G01 X40.512 Y67.671 Z-1.912
G01 X39.397 Y68.168 Z-2.063
G01 X38.153 Y68.753 Z-2.295
G01 X37.205 Y69.209 Z-2.526
G01 X36.368 Y69.612 Z-2.780
G01 X35.602 Y69.954 Z-3.070
G01 X34.748 Y70.292 Z-3.466
G01 X34.356 Y71.380 Z-3.074
G01 X33.985 Y72.541 Z-2.703
G01 X33.670 Y73.675 Z-2.387
G01 X33.392 Y74.832 Z-2.110
G01 X33.143 Y76.035 Z-1.860
G01 X33.023 Y76.679 Z-1.741
G01 X32.807 Y77.970 Z-1.525
G01 X32.609 Y79.334 Z-1.327
G01 X32.427 Y80.777 Z-1.145
G01 X32.260 Y82.304 Z-0.977
G01 X32.179 Y83.156 Z-0.896
G01 X32.920 Y84.052 Z0.000
G01 X32.179 Y83.156 Z-0.896
G01 X31.282 Y84.052 Z0.000
G01 X32.179 Y83.156 Z-0.896
G01 X32.263 Y82.275 Z-0.980
G01 X32.432 Y80.739 Z-1.149
G01 X32.616 Y79.284 Z-1.334
G01 X32.818 Y77.904 Z-1.535
G01 X33.035 Y76.615 Z-1.752
G01 X33.276 Y75.369 Z-1.994
G01 X33.546 Y74.172 Z-2.263
G01 X33.849 Y73.010 Z-2.567
G01 X34.199 Y71.854 Z-2.916
G01 X34.609 Y70.664 Z-3.327
G01 X34.748 Y70.292 Z-3.466
G01 X34.232 Y69.674 Z-2.950
G01 X33.844 Y69.157 Z-2.562
G01 X33.515 Y68.667 Z-2.233
G01 X33.125 Y67.992 Z-1.842
G01 X32.823 Y67.350 Z-1.541
G01 X32.599 Y66.729 Z-1.316
G01 X32.487 Y66.327 Z-1.205
G01 X32.333 Y65.582 Z-1.050
G01 X32.203 Y64.654 Z-0.920
G01 X32.173 Y64.368 Z-0.891
G01 X31.282 Y63.477 Z0.000
G01 X32.173 Y64.368 Z-0.891
G01 X32.920 Y63.477 Z0.000
G01 X32.173 Y64.368 Z-0.891
G01 X32.263 Y65.129 Z-0.980
G01 X32.397 Y65.925 Z-1.115
G01 X32.520 Y66.455 Z-1.238
G01 X32.656 Y66.907 Z-1.374
G01 X32.823 Y67.350 Z-1.541
G01 X33.125 Y67.992 Z-1.842
G01 X33.515 Y68.667 Z-2.233
G01 X34.017 Y69.394 Z-2.735
G01 X34.430 Y69.920 Z-3.148
G01 X34.748 Y70.292 Z-3.466
G01 X35.602 Y69.954 Z-3.070
G01 X36.368 Y69.612 Z-2.780
G01 X37.283 Y69.171 Z-2.504
G01 X38.365 Y68.650 Z-2.250
G01 X39.453 Y68.143 Z-2.054
G01 X40.560 Y67.650 Z-1.906
G01 X41.706 Y67.174 Z-1.793
G01 X42.862 Y66.732 Z-1.720
G01 X44.025 Y66.333 Z-1.682
G01 X45.201 Y65.979 Z-1.675
G01 X46.398 Y65.677 Z-1.688
G01 X47.052 Y65.546 Z-1.695
G01 X48.240 Y65.374 Z-1.695
G01 X49.497 Y65.261 Z-1.702
G01 X50.780 Y65.212 Z-1.717
G01 X51.681 Y65.214 Z-1.736
G01 X52.899 Y65.274 Z-1.764
G01 X53.669 Y65.347 Z-1.789
G01 X54.477 Y65.458 Z-1.820
G01 X55.351 Y65.620 Z-1.859
G01 X56.350 Y65.864 Z-1.908
G01 X57.006 Y66.060 Z-1.950
G01 X57.787 Y66.338 Z-2.006
G01 X58.537 Y66.653 Z-2.065
G01 X59.423 Y67.092 Z-2.143
G01 X59.999 Y67.421 Z-2.203
G01 X60.600 Y67.805 Z-2.272
G01 X61.227 Y68.257 Z-2.350
G01 X62.007 Y68.896 Z-2.450
G01 X62.560 Y69.407 Z-2.529
G01 X63.007 Y69.862 Z-2.599
G01 X63.462 Y70.372 Z-2.678
G01 X63.947 Y70.977 Z-2.773
G01 X64.487 Y71.743 Z-2.895
G01 X64.909 Y72.433 Z-3.009
G01 X65.218 Y73.008 Z-3.106
G01 X65.498 Y73.603 Z-3.205
G01 X65.749 Y74.218 Z-3.307
G01 X65.966 Y74.851 Z-3.410
G01 X66.150 Y75.501 Z-3.513
G01 X66.299 Y76.166 Z-3.614
G01 X66.436 Y77.044 Z-3.746
G01 X66.495 Y77.697 Z-3.836
G01 X66.516 Y78.525 Z-3.950
G01 X66.481 Y79.360 Z-4.065
G01 X66.391 Y80.198 Z-4.180
G01 X66.243 Y81.033 Z-4.290
G01 X66.037 Y81.864 Z-4.395
G01 X65.773 Y82.684 Z-4.490
G01 X65.435 Y83.520 Z-4.574
G01 X65.023 Y84.365 Z-4.652
G01 X64.546 Y85.180 Z-4.716
G01 X64.007 Y85.974 Z-4.775
G01 X63.420 Y86.714 Z-4.815
G01 X62.776 Y87.428 Z-4.846
G01 X62.080 Y88.104 Z-4.860
G01 X61.338 Y88.744 Z-4.863
G01 X60.499 Y89.391 Z-4.856
G01 X59.616 Y90.004 Z-4.852
G01 X58.081 Y90.985 Z-4.850
G01 X56.929 Y91.685 Z-4.851
G01 X54.139 Y93.310 Z-4.845
G01 X48.808 Y96.283 Z-4.803
G01 X47.132 Y97.239 Z-4.788
G01 X45.561 Y98.161 Z-4.774
G01 X43.464 Y99.456 Z-4.759
G01 X41.923 Y100.466 Z-4.752
G01 X40.715 Y101.316 Z-4.735
G01 X39.906 Y101.928 Z-4.716
G01 X39.009 Y102.666 Z-4.681
G01 X38.451 Y103.167 Z-4.644
G01 X37.809 Y103.800 Z-4.589
G01 X37.216 Y104.447 Z-4.525
G01 X36.616 Y105.186 Z-4.448
G01 X36.194 Y105.785 Z-4.377
G01 X35.810 Y106.405 Z-4.298
G01 X35.624 Y106.737 Z-4.257
G01 X35.327 Y107.341 Z-4.173
G01 X35.114 Y107.846 Z-4.104
G01 X34.857 Y108.567 Z-3.995
G01 X34.710 Y109.066 Z-3.923
G01 X34.525 Y109.899 Z-3.801
G01 X34.418 Y110.576 Z-3.706
G01 X34.343 Y111.413 Z-3.592
G01 X34.327 Y112.260 Z-3.484
G01 X34.373 Y113.062 Z-3.377
G01 X34.431 Y113.564 Z-3.313
G01 X34.534 Y114.181 Z-3.230
G01 X34.670 Y114.784 Z-3.148
G01 X34.837 Y115.374 Z-3.066
G01 X35.035 Y115.948 Z-2.986
G01 X35.261 Y116.506 Z-2.907
G01 X35.514 Y117.047 Z-2.831
G01 X35.792 Y117.571 Z-2.758
G01 X36.094 Y118.077 Z-2.688
G01 X36.459 Y118.623 Z-2.615
G01 X37.052 Y119.396 Z-2.511
G01 X37.516 Y119.931 Z-2.444
G01 X37.920 Y120.357 Z-2.393
G01 X38.374 Y120.793 Z-2.340
G01 X38.917 Y121.266 Z-2.279
G01 X39.675 Y121.851 Z-2.195
G01 X40.272 Y122.256 Z-2.136
G01 X40.793 Y122.573 Z-2.088
G01 X41.324 Y122.865 Z-2.044
G01 X41.986 Y123.183 Z-1.994
G01 X42.888 Y123.547 Z-1.930
G01 X43.547 Y123.769 Z-1.893
G01 X44.144 Y123.940 Z-1.865
G01 X44.918 Y124.119 Z-1.834
G01 X45.903 Y124.287 Z-1.801
G01 X46.545 Y124.364 Z-1.788
G01 X47.397 Y124.426 Z-1.777
G01 X48.390 Y124.449 Z-1.769
G01 X49.518 Y124.409 Z-1.767
G01 X50.637 Y124.299 Z-1.767
G01 X51.748 Y124.122 Z-1.773
G01 X52.850 Y123.880 Z-1.786
G01 X53.976 Y123.564 Z-1.809
G01 X55.175 Y123.153 Z-1.845
G01 X56.390 Y122.657 Z-1.896
G01 X57.643 Y122.064 Z-1.965
G01 X58.823 Y121.449 Z-2.075
G01 X59.853 Y120.905 Z-2.242
G01 X60.394 Y120.623 Z-2.364
G01 X60.942 Y120.348 Z-2.516
G01 X61.515 Y120.079 Z-2.709
G01 X62.299 Y119.748 Z-3.034
G01 X63.143 Y119.433 Z-3.449
G01 X63.460 Y118.552 Z-3.132
G01 X63.853 Y117.341 Z-2.739
G01 X64.195 Y116.150 Z-2.398
G01 X64.493 Y114.959 Z-2.100
G01 X64.755 Y113.746 Z-1.837
G01 X64.986 Y112.503 Z-1.606
G01 X65.193 Y111.204 Z-1.399
G01 X65.371 Y109.878 Z-1.221
G01 X65.526 Y108.499 Z-1.066
G01 X65.659 Y107.062 Z-0.933
G01 X65.712 Y106.348 Z-0.880
G01 X64.955 Y105.468 Z0.000
G01 X65.712 Y106.348 Z-0.880
G01 X66.592 Y105.468 Z0.000
G01 X65.712 Y106.348 Z-0.880
G01 X65.656 Y107.096 Z-0.936
G01 X65.522 Y108.541 Z-1.071
G01 X65.364 Y109.931 Z-1.228
G01 X65.186 Y111.254 Z-1.407
G01 X64.979 Y112.545 Z-1.613
G01 X64.744 Y113.800 Z-1.848
G01 X64.477 Y115.026 Z-2.115
G01 X64.172 Y116.233 Z-2.420
G01 X63.823 Y117.437 Z-2.769
G01 X63.421 Y118.663 Z-3.171
G01 X63.143 Y119.433 Z-3.449
G01 X63.781 Y120.255 Z-2.811
G01 X64.284 Y121.012 Z-2.308
G01 X64.679 Y121.718 Z-1.913
G01 X64.973 Y122.358 Z-1.619
G01 X65.141 Y122.805 Z-1.451
G01 X65.274 Y123.231 Z-1.318
G01 X65.463 Y124.012 Z-1.129
G01 X65.631 Y124.971 Z-0.962
G01 X65.676 Y125.304 Z-0.916
G01 X66.592 Y126.220 Z0.000
G01 X65.676 Y125.304 Z-0.916
G01 X64.955 Y126.220 Z0.000
G01 X65.676 Y125.304 Z-0.916
G01 X65.552 Y124.482 Z-1.040
G01 X65.384 Y123.655 Z-1.208
G01 X65.234 Y123.096 Z-1.358
G01 X65.076 Y122.621 Z-1.516
G01 X64.887 Y122.156 Z-1.705
G01 X64.550 Y121.473 Z-2.042
G01 X64.132 Y120.771 Z-2.460
G01 X63.594 Y120.002 Z-2.998
G01 X63.143 Y119.433 Z-3.449
G01 X62.299 Y119.748 Z-3.034
G01 X61.515 Y120.079 Z-2.709
G01 X60.741 Y120.446 Z-2.457
G01 X59.888 Y120.886 Z-2.250
G01 X59.258 Y121.220 Z-2.137
G01 X58.265 Y121.746 Z-2.017
G01 X57.003 Y122.377 Z-1.928
G01 X55.781 Y122.915 Z-1.869
G01 X54.573 Y123.369 Z-1.825
G01 X53.382 Y123.740 Z-1.796
G01 X52.210 Y124.029 Z-1.778
G01 X51.058 Y124.240 Z-1.770
G01 X49.928 Y124.377 Z-1.768
G01 X48.819 Y124.443 Z-1.769
G01 X47.688 Y124.438 Z-1.771
G01 X46.513 Y124.361 Z-1.788
G01 X45.718 Y124.261 Z-1.808
G01 X44.709 Y124.074 Z-1.839
G01 X44.036 Y123.911 Z-1.869
G01 X43.397 Y123.723 Z-1.903
G01 X42.678 Y123.470 Z-1.947
G01 X41.775 Y123.085 Z-2.007
G01 X41.233 Y122.816 Z-2.051
G01 X40.682 Y122.510 Z-2.100
G01 X40.069 Y122.125 Z-2.158
G01 X39.481 Y121.710 Z-2.218
G01 X38.717 Y121.096 Z-2.298
G01 X38.270 Y120.695 Z-2.350
G01 X37.842 Y120.279 Z-2.403
G01 X37.354 Y119.752 Z-2.469
G01 X36.765 Y119.036 Z-2.558
G01 X36.341 Y118.450 Z-2.636
G01 X36.017 Y117.952 Z-2.705
G01 X35.717 Y117.437 Z-2.777
G01 X35.441 Y116.902 Z-2.853
G01 X35.183 Y116.326 Z-2.935
G01 X34.962 Y115.751 Z-3.016
G01 X34.776 Y115.176 Z-3.096
G01 X34.623 Y114.600 Z-3.175
G01 X34.500 Y114.008 Z-3.255
G01 X34.409 Y113.404 Z-3.334
G01 X34.339 Y112.572 Z-3.441
G01 X34.331 Y111.658 Z-3.562
G01 X34.380 Y110.909 Z-3.660
G01 X34.494 Y110.073 Z-3.775
G01 X34.631 Y109.396 Z-3.873
G01 X34.759 Y108.894 Z-3.947
G01 X34.942 Y108.313 Z-4.033
G01 X35.187 Y107.667 Z-4.126
G01 X35.355 Y107.280 Z-4.183
G01 X35.641 Y106.706 Z-4.260
G01 X35.923 Y106.214 Z-4.327
G01 X36.340 Y105.570 Z-4.402
G01 X36.821 Y104.923 Z-4.474
G01 X37.459 Y104.171 Z-4.556
G01 X37.935 Y103.668 Z-4.603
G01 X38.565 Y103.064 Z-4.651
G01 X39.253 Y102.459 Z-4.690
G01 X39.997 Y101.856 Z-4.719
G01 X41.008 Y101.103 Z-4.742
G01 X42.563 Y100.040 Z-4.754
G01 X44.542 Y98.781 Z-4.766
G01 X45.635 Y98.117 Z-4.774
G01 X47.936 Y96.775 Z-4.791
G01 X54.197 Y93.277 Z-4.845
G01 X56.997 Y91.645 Z-4.851
G01 X58.534 Y90.704 Z-4.852
G01 X60.011 Y89.735 Z-4.849
G01 X60.714 Y89.230 Z-4.856
G01 X61.504 Y88.607 Z-4.863
G01 X61.733 Y88.413 Z-4.866
G00 Z5.000
G00 X85.739 Y105.372  F4000.0
G01 Z-4.304 F200.0 M3
G01 X86.120 Y106.357 Z-3.923 F2000.0
G01 X86.491 Y107.367 Z-3.552
G01 X86.841 Y108.371 Z-3.203
G01 X87.171 Y109.373 Z-2.872
G01 X87.483 Y110.374 Z-2.560
G01 X87.792 Y111.425 Z-2.252
G01 X88.121 Y112.708 Z-1.923
G01 X88.483 Y114.295 Z-1.560
G01 X88.885 Y116.193 Z-1.159
G01 X89.221 Y117.875 Z-0.823
G01 X90.043 Y118.698 Z0.000
G01 X89.221 Y117.875 Z-0.823
G01 X88.672 Y118.698 Z0.000
G01 X89.221 Y117.875 Z-0.823
G01 X88.879 Y116.167 Z-1.164
G01 X88.288 Y113.420 Z-1.756
G01 X87.935 Y111.960 Z-2.109
G01 X87.759 Y111.307 Z-2.285
G01 X87.458 Y110.293 Z-2.585
G01 X87.141 Y109.279 Z-2.903
G01 X86.804 Y108.264 Z-3.239
G01 X86.447 Y107.244 Z-3.596
G01 X86.068 Y106.219 Z-3.975
G01 X85.739 Y105.372 Z-4.304
G01 X84.934 Y105.331 Z-3.754
G01 X84.199 Y105.240 Z-3.297
G01 X83.733 Y105.154 Z-3.038
G01 X83.112 Y104.990 Z-2.733
G01 X82.743 Y104.864 Z-2.582
G01 X81.276 Y104.330 Z-2.047
G01 X80.415 Y104.041 Z-1.759
G01 X79.588 Y103.783 Z-1.501
G01 X78.794 Y103.555 Z-1.272
G01 X78.030 Y103.354 Z-1.072
G01 X77.208 Y103.164 Z-0.882
G01 X76.327 Y103.742 Z0.000
G01 X77.208 Y103.164 Z-0.882
G01 X76.327 Y102.282 Z0.000
G01 X77.208 Y103.164 Z-0.882
G01 X78.085 Y103.368 Z-1.086
G01 X78.855 Y103.571 Z-1.289
G01 X79.655 Y103.804 Z-1.521
G01 X80.489 Y104.065 Z-1.783
G01 X81.355 Y104.357 Z-2.075
G01 X82.743 Y104.864 Z-2.582
G01 X83.216 Y105.021 Z-2.779
G01 X83.733 Y105.154 Z-3.038
G01 X84.346 Y105.262 Z-3.384
G01 X84.934 Y105.331 Z-3.754
G01 X85.739 Y105.372 Z-4.304
G01 X85.935 Y104.909 Z-4.135
G01 X86.166 Y104.366 Z-4.008
G01 X86.393 Y103.831 Z-3.965
G01 X86.393 Y103.366 Z-3.808
G01 X86.393 Y102.820 Z-3.690
G01 X86.393 Y102.282 Z-3.650
G01 X86.393 Y75.931 Z-3.651
G01 X86.407 Y74.831 Z-3.661
G01 X86.453 Y73.779 Z-3.684
G01 X86.544 Y72.765 Z-3.714
G01 X86.693 Y71.751 Z-3.755
G01 X86.886 Y70.897 Z-3.788
G01 X87.058 Y70.340 Z-3.807
G01 X87.277 Y69.826 Z-3.803
G01 X87.528 Y69.382 Z-3.777
G01 X87.808 Y68.997 Z-3.729
G01 X88.150 Y68.625 Z-3.656
G01 X88.533 Y68.292 Z-3.565
G01 X88.900 Y68.017 Z-3.478
G01 X89.430 Y67.692 Z-3.350
G01 X89.910 Y67.460 Z-3.224
G01 X90.304 Y67.312 Z-3.117
G01 X90.769 Y67.180 Z-2.988
G01 X91.413 Y67.062 Z-2.802
G01 X92.059 Y67.012 Z-2.615
G01 X92.635 Y67.026 Z-2.449
G01 X93.289 Y67.103 Z-2.263
G01 X93.967 Y67.248 Z-2.073
G01 X94.654 Y67.460 Z-1.885
G01 X95.331 Y67.735 Z-1.712
G01 X95.928 Y68.041 Z-1.561
G01 X96.445 Y68.361 Z-1.435
G01 X97.027 Y68.793 Z-1.297
G01 X97.582 Y69.281 Z-1.163
G01 X97.991 Y69.700 Z-1.073
G01 X98.294 Y70.051 Z-1.009
G01 X98.584 Y70.426 Z-0.953
G01 X98.859 Y70.826 Z-0.905
G01 X99.119 Y71.251 Z-0.867
G01 X99.363 Y71.698 Z-0.838
G01 X99.549 Y72.081 Z-0.821
G01 X100.751 Y72.902 Z0.000
G01 X99.549 Y72.081 Z-0.821
G01 X99.026 Y72.902 Z0.000
G01 X99.549 Y72.081 Z-0.821
G01 X99.323 Y71.622 Z-0.841
G01 X99.077 Y71.179 Z-0.872
G01 X98.811 Y70.754 Z-0.912
G01 X98.524 Y70.345 Z-0.963
G01 X98.213 Y69.953 Z-1.024
G01 X97.876 Y69.576 Z-1.096
G01 X97.356 Y69.072 Z-1.219
G01 X96.763 Y68.587 Z-1.358
G01 X96.356 Y68.302 Z-1.457
G01 X95.928 Y68.041 Z-1.561
G01 X95.331 Y67.735 Z-1.712
G01 X94.585 Y67.434 Z-1.904
G01 X93.907 Y67.233 Z-2.090
G01 X93.251 Y67.097 Z-2.274
G01 X92.575 Y67.024 Z-2.467
G01 X92.059 Y67.012 Z-2.615
G01 X91.413 Y67.062 Z-2.802
G01 X90.769 Y67.180 Z-2.988
G01 X90.241 Y67.333 Z-3.136
G01 X89.694 Y67.555 Z-3.280
G01 X89.166 Y67.844 Z-3.414
G01 X88.631 Y68.215 Z-3.544
G01 X88.276 Y68.509 Z-3.625
G01 X87.903 Y68.885 Z-3.709
G01 X87.589 Y69.290 Z-3.766
G01 X87.333 Y69.718 Z-3.797
G01 X87.128 Y70.160 Z-3.807
G01 X86.940 Y70.701 Z-3.797
G01 X86.815 Y71.173 Z-3.779
G01 X86.641 Y72.057 Z-3.741
G01 X86.518 Y72.992 Z-3.707
G01 X86.435 Y74.072 Z-3.679
G01 X86.402 Y75.051 Z-3.659
G01 X86.393 Y75.999 Z-3.650
G01 X86.393 Y102.282 
G01 X86.393 Y102.820 Z-3.690
G01 X86.393 Y103.366 Z-3.808
G01 X86.393 Y103.831 Z-3.965
G01 X87.060 Y103.831 Z-3.361
G01 X87.763 Y103.831 Z-2.757
G01 X88.139 Y103.831 Z-2.455
G01 X88.775 Y103.831 Z-2.002
G01 X89.030 Y103.831 Z-1.851
G01 X89.343 Y103.831 Z-1.700
G01 X89.699 Y103.831 Z-1.586
G01 X90.043 Y103.831 Z-1.549
G01 X97.964 Y103.831 
G01 X99.513 Y102.282 Z0.000
G01 X97.964 Y103.831 Z-1.549
G01 X99.513 Y105.380 Z0.000
G01 X97.964 Y103.831 Z-1.549
G01 X90.043 Y103.831 
G01 X89.699 Y103.831 Z-1.586
G01 X89.343 Y103.831 Z-1.700
G01 X89.030 Y103.831 Z-1.851
G01 X88.548 Y103.831 Z-2.153
G01 X88.139 Y103.831 Z-2.455
G01 X87.763 Y103.831 Z-2.757
G01 X87.060 Y103.831 Z-3.361
G01 X86.393 Y103.831 Z-3.965
G01 X86.166 Y104.366 Z-4.008
G01 X85.935 Y104.909 Z-4.135
G01 X85.739 Y105.372 Z-4.304
G00 Z5.000
G00 X111.103 Y101.088  F4000.0
G01 Z-4.206 F200.0 M3
G01 X113.753 Y105.018 Z-1.556 F2000.0
G01 X115.309 Y106.574 Z0.000
G01 X113.753 Y105.018 Z-1.556
G01 X113.451 Y106.574 Z0.000
G01 X113.753 Y105.018 Z-1.556
G01 X111.103 Y101.088 Z-4.206
G01 X110.296 Y101.371 Z-3.641
G01 X109.568 Y101.588 Z-3.167
G01 X108.893 Y101.754 Z-2.761
G01 X108.270 Y101.872 Z-2.417
G01 X107.504 Y101.968 Z-2.041
G01 X106.770 Y102.008 Z-1.729
G01 X106.193 Y102.000 Z-1.520
G01 X105.529 Y101.948 Z-1.320
G01 X104.773 Y101.832 Z-1.144
G01 X103.888 Y101.634 Z-0.996
G01 X103.065 Y101.401 Z-0.903
G01 X102.210 Y101.118 Z-0.845
G01 X101.194 Y101.618 Z0.000
G01 X102.210 Y101.118 Z-0.845
G01 X101.636 Y100.026 Z0.000
G01 X102.210 Y101.118 Z-0.845
G01 X103.104 Y101.414 Z-0.906
G01 X103.939 Y101.647 Z-1.003
G01 X104.773 Y101.832 Z-1.144
G01 X105.529 Y101.948 Z-1.320
G01 X106.193 Y102.000 Z-1.520
G01 X106.770 Y102.008 Z-1.729
G01 X107.504 Y101.968 Z-2.041
G01 X108.270 Y101.872 Z-2.417
G01 X108.893 Y101.754 Z-2.761
G01 X109.888 Y101.498 Z-3.371
G01 X110.637 Y101.257 Z-3.875
G01 X111.103 Y101.088 Z-4.206
G01 X111.289 Y100.197 Z-4.020
G01 X111.420 Y99.348 Z-3.889
G01 X111.491 Y98.696 Z-3.818
G01 X111.540 Y98.036 Z-3.769
G01 X111.580 Y97.224 Z-3.736
G01 X111.658 Y96.520 Z-3.770
G01 X111.764 Y95.953 Z-3.851
G01 X111.852 Y95.601 Z-3.925
G01 X111.763 Y95.170 Z-3.823
G01 X111.674 Y94.534 Z-3.720
G01 X111.645 Y94.104 Z-3.682
G01 X111.650 Y92.874 Z-3.659
G01 X111.659 Y89.672 Z-3.650
G01 X111.663 Y73.444 Z-3.659
G01 X111.692 Y72.245 Z-3.700
G01 X111.742 Y70.995 Z-3.792
G01 X111.810 Y69.765 Z-3.953
G01 X111.850 Y68.967 Z-4.119
G01 X111.296 Y68.537 Z-3.688
G01 X110.657 Y68.079 Z-3.230
G01 X110.047 Y67.675 Z-2.826
G01 X109.464 Y67.323 Z-2.475
G01 X108.909 Y67.021 Z-2.172
G01 X108.379 Y66.763 Z-1.915
G01 X107.873 Y66.547 Z-1.699
G01 X107.388 Y66.368 Z-1.520
G01 X106.917 Y66.222 Z-1.373
G01 X106.327 Y66.069 Z-1.221
G01 X105.735 Y65.947 Z-1.099
G01 X105.128 Y65.850 Z-1.001
G01 X104.497 Y65.774 Z-0.925
G01 X103.836 Y65.716 Z-0.868
G01 X103.139 Y65.676 Z-0.828
G01 X102.441 Y65.654 Z-0.805
G01 X101.636 Y66.441 Z0.000
G01 X102.441 Y65.654 Z-0.805
G01 X101.636 Y64.849 Z0.000
G01 X102.441 Y65.654 Z-0.805
G01 X103.182 Y65.678 Z-0.830
G01 X103.888 Y65.720 Z-0.872
G01 X104.560 Y65.781 Z-0.932
G01 X105.207 Y65.861 Z-1.013
G01 X105.835 Y65.966 Z-1.117
G01 X106.456 Y66.100 Z-1.251
G01 X107.061 Y66.264 Z-1.415
G01 X107.546 Y66.424 Z-1.575
G01 X108.049 Y66.619 Z-1.770
G01 X108.572 Y66.853 Z-2.004
G01 X109.117 Y67.130 Z-2.281
G01 X109.686 Y67.453 Z-2.605
G01 X110.281 Y67.826 Z-2.977
G01 X110.903 Y68.251 Z-3.402
G01 X111.649 Y68.807 Z-3.958
G01 X111.850 Y68.967 Z-4.119
G01 X112.770 Y68.314 Z-3.465
G01 X113.534 Y67.819 Z-2.971
G01 X114.110 Y67.483 Z-2.634
G01 X114.656 Y67.195 Z-2.347
G01 X115.178 Y66.948 Z-2.100
G01 X115.681 Y66.735 Z-1.886
G01 X116.545 Y66.420 Z-1.572
G01 X117.131 Y66.241 Z-1.393
G01 X117.636 Y66.106 Z-1.258
G01 X118.165 Y65.987 Z-1.139
G01 X118.701 Y65.890 Z-1.042
G01 X119.252 Y65.812 Z-0.963
G01 X119.824 Y65.750 Z-0.902
G01 X120.421 Y65.703 Z-0.855
G01 X121.582 Y65.655 Z-0.806
G01 X122.389 Y64.849 Z0.000
G01 X121.582 Y65.655 Z-0.806
G01 X122.389 Y66.441 Z0.000
G01 X121.582 Y65.655 Z-0.806
G01 X120.376 Y65.706 Z-0.858
G01 X119.770 Y65.755 Z-0.907
G01 X119.186 Y65.820 Z-0.972
G01 X118.620 Y65.904 Z-1.055
G01 X118.064 Y66.008 Z-1.159
G01 X117.538 Y66.131 Z-1.282
G01 X116.652 Y66.386 Z-1.537
G01 X116.042 Y66.596 Z-1.747
G01 X115.529 Y66.797 Z-1.949
G01 X114.998 Y67.030 Z-2.182
G01 X114.446 Y67.302 Z-2.454
G01 X113.867 Y67.621 Z-2.773
G01 X113.268 Y67.987 Z-3.138
G01 X112.475 Y68.517 Z-3.669
G01 X111.850 Y68.967 Z-4.119
G01 X111.799 Y69.921 Z-3.927
G01 X111.742 Y70.995 Z-3.792
G01 X111.689 Y72.336 Z-3.694
G01 X111.663 Y73.444 Z-3.659
G01 X111.658 Y89.692 Z-3.650
G01 X111.640 Y93.742 Z-3.669
G01 X111.654 Y94.281 Z-3.694
G01 X111.718 Y94.894 Z-3.771
G01 X111.826 Y95.482 Z-3.893
G01 X111.852 Y95.601 Z-3.925
G01 X112.844 Y95.638 Z-3.065
G01 X113.357 Y95.690 Z-2.635
G01 X113.983 Y95.792 Z-2.130
G01 X114.289 Y95.860 Z-1.897
G01 X114.609 Y95.951 Z-1.663
G01 X114.947 Y96.076 Z-1.430
G01 X115.321 Y96.263 Z-1.196
G01 X115.619 Y96.462 Z-1.044
G01 X115.780 Y96.601 Z-0.979
G01 X115.949 Y96.785 Z-0.930
G01 X116.120 Y97.035 Z-0.914
G01 X116.767 Y98.072 Z-0.956
G01 X117.436 Y99.049 Z-1.011
G01 X118.119 Y99.946 Z-1.081
G01 X118.864 Y100.801 Z-1.181
G01 X119.382 Y101.306 Z-1.275
G01 X119.758 Y101.620 Z-1.362
G01 X120.284 Y101.991 Z-1.517
G01 X120.832 Y102.289 Z-1.706
G01 X121.078 Y102.403 Z-1.804
G01 X121.591 Y102.587 Z-2.019
G01 X121.939 Y102.687 Z-2.179
G01 X122.639 Y102.828 Z-2.513
G01 X123.358 Y102.904 Z-2.865
G01 X123.923 Y102.922 Z-3.138
G01 X124.646 Y102.885 Z-3.475
G01 X125.276 Y102.787 Z-3.741
G01 X125.727 Y102.667 Z-3.905
G01 X126.245 Y102.473 Z-4.060
G01 X126.546 Y102.326 Z-4.127
G01 X126.844 Y102.134 Z-4.153
G01 X127.177 Y101.861 Z-4.110
G01 X127.312 Y101.715 Z-4.050
G01 X127.435 Y101.509 Z-3.916
G01 X127.515 Y101.180 Z-3.627
G01 X127.541 Y101.110 Z-3.553
G01 X127.473 Y101.352 Z-3.784
G01 X127.417 Y101.543 Z-3.942
G01 X127.267 Y101.774 Z-4.079
G01 X127.083 Y101.943 Z-4.130
G01 X126.844 Y102.134 Z-4.153
G01 X126.546 Y102.326 Z-4.127
G01 X126.245 Y102.473 Z-4.060
G01 X125.727 Y102.667 Z-3.905
G01 X125.193 Y102.805 Z-3.708
G01 X124.578 Y102.891 Z-3.443
G01 X123.886 Y102.922 Z-3.120
G01 X123.213 Y102.893 Z-2.791
G01 X122.565 Y102.816 Z-2.475
G01 X121.877 Y102.673 Z-2.151
G01 X121.332 Y102.499 Z-1.907
G01 X121.027 Y102.380 Z-1.784
G01 X120.433 Y102.079 Z-1.564
G01 X119.950 Y101.764 Z-1.414
G01 X119.461 Y101.377 Z-1.293
G01 X118.915 Y100.853 Z-1.188
G01 X118.119 Y99.946 Z-1.081
G01 X117.436 Y99.049 Z-1.011
G01 X116.767 Y98.072 Z-0.956
G01 X116.090 Y96.985 Z-0.913
G01 X115.882 Y96.707 Z-0.946
G01 X115.780 Y96.601 Z-0.979
G01 X115.619 Y96.462 Z-1.044
G01 X115.321 Y96.263 Z-1.196
G01 X114.947 Y96.076 Z-1.430
G01 X114.609 Y95.951 Z-1.663
G01 X114.289 Y95.860 Z-1.897
G01 X113.888 Y95.774 Z-2.205
G01 X113.357 Y95.690 Z-2.635
G01 X112.844 Y95.638 Z-3.065
G01 X111.852 Y95.601 Z-3.925
G01 X111.719 Y96.170 Z-3.815
G01 X111.628 Y96.726 Z-3.753
G01 X111.569 Y97.427 Z-3.740
G01 X111.525 Y98.264 Z-3.784
G01 X111.460 Y99.013 Z-3.849
G01 X111.337 Y99.914 Z-3.972
G01 X111.164 Y100.822 Z-4.145
G01 X111.103 Y101.088 Z-4.206
G00 Z5.000
G00 X166.086 Y69.105  F4000.0
G01 Z-4.228 F200.0 M3
G01 X163.520 Y65.272 Z-1.662 F2000.0
G01 X161.858 Y63.610 Z0.000
G01 X163.520 Y65.272 Z-1.662
G01 X163.849 Y63.610 Z0.000
G01 X163.520 Y65.272 Z-1.662
G01 X166.086 Y69.105 Z-4.228
G01 X167.178 Y68.720 Z-3.455
G01 X167.912 Y68.505 Z-2.977
G01 X168.595 Y68.345 Z-2.568
G01 X169.435 Y68.208 Z-2.121
G01 X170.083 Y68.147 Z-1.818
G01 X170.748 Y68.131 Z-1.549
G01 X171.271 Y68.153 Z-1.371
G01 X171.867 Y68.220 Z-1.205
G01 X172.293 Y68.295 Z-1.112
G01 X173.117 Y68.488 Z-0.977
G01 X173.947 Y68.736 Z-0.889
G01 X174.883 Y69.070 Z-0.841
G01 X175.973 Y68.610 Z0.000
G01 X174.883 Y69.070 Z-0.841
G01 X175.353 Y70.158 Z0.000
G01 X174.883 Y69.070 Z-0.841
G01 X173.947 Y68.736 Z-0.889
G01 X173.060 Y68.473 Z-0.984
G01 X172.293 Y68.295 Z-1.112
G01 X171.627 Y68.188 Z-1.267
G01 X171.138 Y68.144 Z-1.413
G01 X170.502 Y68.131 Z-1.643
G01 X169.898 Y68.160 Z-1.901
G01 X169.164 Y68.244 Z-2.258
G01 X168.595 Y68.345 Z-2.568
G01 X167.912 Y68.505 Z-2.977
G01 X167.178 Y68.720 Z-3.455
G01 X166.086 Y69.105 Z-4.228
G01 X165.887 Y70.131 Z-4.030
G01 X165.771 Y70.939 Z-3.913
G01 X165.699 Y71.599 Z-3.841
G01 X165.644 Y72.302 Z-3.788
G01 X165.573 Y72.951 Z-3.792
G01 X165.477 Y73.499 Z-3.848
G01 X165.530 Y73.985 Z-3.762
G01 X165.556 Y74.460 Z-3.714
G01 X165.550 Y75.061 Z-3.692
G01 X165.518 Y77.622 Z-3.661
G01 X165.508 Y80.822 Z-3.650
G01 X165.508 Y97.856 Z-3.651
G01 X165.493 Y98.882 Z-3.666
G01 X165.450 Y99.880 Z-3.709
G01 X165.374 Y100.867 Z-3.784
G01 X165.302 Y101.523 Z-3.857
G01 X169.159 Y105.380 Z0.000
G01 X165.302 Y101.523 Z-3.857
G01 X164.399 Y102.191 Z-3.189
G01 X163.704 Y102.658 Z-2.721
G01 X163.032 Y103.062 Z-2.318
G01 X162.468 Y103.360 Z-2.019
G01 X161.860 Y103.637 Z-1.743
G01 X161.343 Y103.833 Z-1.547
G01 X160.648 Y104.041 Z-1.339
G01 X159.961 Y104.195 Z-1.184
G01 X159.584 Y104.262 Z-1.117
G01 X158.862 Y104.365 Z-1.015
G01 X158.088 Y104.444 Z-0.936
G01 X157.250 Y104.502 Z-0.878
G01 X156.189 Y104.544 Z-0.836
G01 X155.353 Y105.380 Z0.000
G01 X156.189 Y104.544 Z-0.836
G01 X155.353 Y103.742 Z0.000
G01 X156.189 Y104.544 Z-0.836
G01 X157.297 Y104.499 Z-0.880
G01 X158.149 Y104.439 Z-0.941
G01 X158.945 Y104.355 Z-1.025
G01 X159.667 Y104.249 Z-1.131
G01 X160.386 Y104.105 Z-1.275
G01 X161.108 Y103.909 Z-1.470
G01 X161.705 Y103.700 Z-1.680
G01 X162.239 Y103.470 Z-1.909
G01 X162.866 Y103.153 Z-2.226
G01 X163.447 Y102.818 Z-2.561
G01 X164.144 Y102.369 Z-3.011
G01 X164.976 Y101.771 Z-3.608
G01 X165.302 Y101.523 Z-3.857
G01 X165.400 Y100.576 Z-3.758
G01 X165.463 Y99.642 Z-3.695
G01 X165.498 Y98.684 Z-3.661
G01 X165.508 Y97.769 Z-3.650
G01 X165.508 Y80.798 Z-3.650
G01 X165.519 Y77.555 Z-3.661
G01 X165.556 Y74.804 Z-3.698
G01 X165.549 Y74.266 Z-3.730
G01 X165.523 Y73.900 Z-3.775
G01 X165.477 Y73.499 Z-3.848
G01 X164.382 Y73.499 Z-2.842
G01 X163.487 Y73.499 Z-2.088
G01 X162.863 Y73.491 Z-1.641
G01 X162.389 Y73.433 Z-1.348
G01 X162.014 Y73.336 Z-1.153
G01 X161.758 Y73.235 Z-1.046
G01 X161.469 Y73.076 Z-0.964
G01 X161.217 Y72.876 Z-0.937
G01 X159.851 Y71.552 Z-1.024
G01 X158.706 Y70.523 Z-1.126
G01 X158.024 Y69.958 Z-1.202
G01 X157.359 Y69.440 Z-1.295
G01 X156.721 Y68.985 Z-1.394
G01 X156.114 Y68.581 Z-1.503
G01 X155.235 Y68.047 Z-1.672
G01 X154.288 Y67.542 Z-1.862
G01 X153.515 Y67.199 Z-2.025
G01 X152.886 Y66.972 Z-2.151
G01 X152.254 Y66.794 Z-2.273
G01 X151.636 Y66.664 Z-2.394
G01 X150.811 Y66.551 Z-2.549
G01 X150.136 Y66.508 Z-2.675
G01 X149.842 Y66.503 Z-2.733
G01 X149.029 Y66.539 Z-2.878
G01 X148.564 Y66.589 Z-2.964
G01 X147.783 Y66.725 Z-3.109
G01 X147.172 Y66.883 Z-3.219
G01 X146.452 Y67.136 Z-3.342
G01 X145.781 Y67.449 Z-3.443
G01 X145.173 Y67.814 Z-3.520
G01 X144.596 Y68.236 Z-3.570
G01 X144.029 Y68.758 Z-3.615
G01 X143.605 Y69.237 Z-3.648
G01 X143.216 Y69.762 Z-3.677
G01 X142.866 Y70.334 Z-3.700
G01 X142.594 Y70.885 Z-3.708
G01 X142.355 Y71.476 Z-3.708
G01 X142.157 Y72.082 Z-3.701
G01 X141.992 Y72.703 Z-3.690
G01 X141.854 Y73.338 Z-3.679
G01 X141.738 Y73.988 Z-3.670
G01 X141.627 Y74.791 Z-3.663
G01 X141.509 Y76.047 Z-3.655
G01 X141.437 Y77.522 Z-3.659
G01 X141.415 Y79.426 Z-3.673
G01 X141.408 Y98.363 Z-3.679
G01 X141.365 Y99.721 Z-3.723
G01 X141.306 Y100.626 Z-3.782
G01 X141.216 Y101.508 Z-3.872
G01 X145.088 Y105.380 Z0.000
G01 X141.216 Y101.508 Z-3.872
G01 X140.628 Y101.954 Z-3.426
G01 X139.916 Y102.445 Z-2.934
G01 X139.307 Y102.821 Z-2.559
G01 X138.498 Y103.253 Z-2.126
G01 X137.876 Y103.541 Z-1.838
G01 X137.119 Y103.839 Z-1.541
G01 X136.583 Y104.015 Z-1.365
G01 X135.834 Y104.216 Z-1.164
G01 X135.254 Y104.332 Z-1.048
G01 X134.762 Y104.403 Z-0.977
G01 X134.236 Y104.458 Z-0.921
G01 X133.083 Y104.530 Z-0.849
G01 X131.703 Y104.561 Z-0.819
G01 X130.884 Y105.380 Z0.000
G01 X131.703 Y104.561 Z-0.819
G01 X130.884 Y103.742 Z0.000
G01 X131.703 Y104.561 Z-0.819
G01 X133.083 Y104.530 Z-0.849
G01 X134.236 Y104.458 Z-0.921
G01 X134.840 Y104.393 Z-0.987
G01 X135.361 Y104.313 Z-1.066
G01 X135.834 Y104.216 Z-1.164
G01 X136.583 Y104.015 Z-1.365
G01 X137.119 Y103.839 Z-1.541
G01 X137.876 Y103.541 Z-1.838
G01 X138.498 Y103.253 Z-2.126
G01 X139.307 Y102.821 Z-2.559
G01 X139.916 Y102.445 Z-2.934
G01 X140.628 Y101.954 Z-3.426
G01 X141.216 Y101.508 Z-3.872
G01 X141.322 Y100.419 Z-3.765
G01 X141.389 Y99.138 Z-3.698
G01 X141.415 Y97.503 Z-3.673
G01 X141.423 Y78.115 Z-3.666
G01 X141.470 Y76.679 Z-3.656
G01 X141.570 Y75.326 Z-3.657
G01 X141.661 Y74.530 Z-3.663
G01 X141.760 Y73.849 Z-3.673
G01 X141.909 Y73.064 Z-3.687
G01 X142.078 Y72.358 Z-3.700
G01 X142.254 Y71.764 Z-3.709
G01 X142.439 Y71.251 Z-3.712
G01 X142.696 Y70.667 Z-3.705
G01 X143.013 Y70.083 Z-3.690
G01 X143.386 Y69.516 Z-3.667
G01 X143.809 Y68.997 Z-3.631
G01 X144.046 Y68.741 Z-3.613
G01 X144.596 Y68.236 Z-3.570
G01 X145.173 Y67.814 Z-3.520
G01 X145.781 Y67.449 Z-3.443
G01 X146.452 Y67.136 Z-3.342
G01 X147.215 Y66.870 Z-3.211
G01 X147.789 Y66.724 Z-3.108
G01 X148.677 Y66.573 Z-2.945
G01 X149.258 Y66.521 Z-2.840
G01 X149.890 Y66.503 Z-2.723
G01 X150.431 Y66.522 Z-2.625
G01 X151.029 Y66.572 Z-2.510
G01 X151.904 Y66.716 Z-2.338
G01 X152.544 Y66.871 Z-2.213
G01 X153.178 Y67.069 Z-2.093
G01 X153.893 Y67.359 Z-1.946
G01 X154.384 Y67.591 Z-1.841
G01 X155.235 Y68.047 Z-1.672
G01 X156.272 Y68.683 Z-1.477
G01 X156.784 Y69.029 Z-1.384
G01 X157.422 Y69.487 Z-1.286
G01 X158.072 Y69.997 Z-1.196
G01 X158.744 Y70.556 Z-1.121
G01 X159.851 Y71.552 Z-1.024
G01 X161.217 Y72.876 Z-0.937
G01 X161.469 Y73.076 Z-0.964
G01 X161.758 Y73.235 Z-1.046
G01 X162.014 Y73.336 Z-1.153
G01 X162.389 Y73.433 Z-1.348
G01 X162.863 Y73.491 Z-1.641
G01 X163.487 Y73.499 Z-2.088
G01 X164.382 Y73.499 Z-2.842
G01 X165.477 Y73.499 Z-3.848
G01 X165.573 Y72.951 Z-3.792
G01 X165.644 Y72.302 Z-3.788
G01 X165.726 Y71.327 Z-3.868
G01 X165.849 Y70.371 Z-3.992
G01 X166.001 Y69.508 Z-4.143
G01 X166.086 Y69.105 Z-4.228
G00 Z5.000
G00 X186.744 Y101.066  F4000.0
G01 Z-4.229 F200.0 M3
G01 X189.381 Y104.982 Z-1.592 F2000.0
G01 X190.973 Y106.574 Z0.000
G01 X189.381 Y104.982 Z-1.592
G01 X189.070 Y106.574 Z0.000
G01 X189.381 Y104.982 Z-1.592
G01 X186.744 Y101.066 Z-4.229
G01 X186.009 Y101.340 Z-3.699
G01 X185.289 Y101.574 Z-3.211
G01 X184.608 Y101.758 Z-2.785
G01 X183.968 Y101.891 Z-2.421
G01 X183.402 Y101.974 Z-2.132
G01 X182.707 Y102.028 Z-1.820
G01 X182.039 Y102.029 Z-1.568
G01 X181.520 Y101.995 Z-1.404
G01 X180.804 Y101.902 Z-1.221
G01 X180.068 Y101.755 Z-1.081
G01 X179.297 Y101.554 Z-0.977
G01 X178.494 Y101.302 Z-0.908
G01 X178.017 Y101.135 Z-0.884
G01 X176.858 Y101.618 Z0.000
G01 X178.017 Y101.135 Z-0.884
G01 X177.521 Y100.026 Z0.000
G01 X178.017 Y101.135 Z-0.884
G01 X178.941 Y101.447 Z-0.942
G01 X179.740 Y101.675 Z-1.032
G01 X180.522 Y101.851 Z-1.162
G01 X181.258 Y101.967 Z-1.332
G01 X181.895 Y102.022 Z-1.520
G01 X182.461 Y102.034 Z-1.722
G01 X183.158 Y101.999 Z-2.017
G01 X183.649 Y101.942 Z-2.254
G01 X184.227 Y101.842 Z-2.564
G01 X184.890 Y101.686 Z-2.957
G01 X185.598 Y101.478 Z-3.417
G01 X186.349 Y101.217 Z-3.941
G01 X186.744 Y101.066 Z-4.229
G01 X186.916 Y100.161 Z-4.056
G01 X187.029 Y99.381 Z-3.944
G01 X187.097 Y98.759 Z-3.876
G01 X187.160 Y97.946 Z-3.812
G01 X187.227 Y97.285 Z-3.804
G01 X187.298 Y96.840 Z-3.837
G01 X187.256 Y96.205 Z-3.746
G01 X187.255 Y95.734 Z-3.718
G01 X187.294 Y93.928 Z-3.679
G01 X187.310 Y92.569 Z-3.663
G01 X187.322 Y89.495 Z-3.650
G01 X187.321 Y72.986 Z-3.661
G01 X187.319 Y71.986 Z-3.694
G01 X187.315 Y71.086 Z-3.750
G01 X187.310 Y70.233 Z-3.832
G01 X187.304 Y69.404 Z-3.950
G01 X187.302 Y68.893 Z-4.045
G01 X186.336 Y68.159 Z-3.310
G01 X185.666 Y67.702 Z-2.853
G01 X184.791 Y67.173 Z-2.325
G01 X184.122 Y66.820 Z-1.972
G01 X183.334 Y66.465 Z-1.616
G01 X182.757 Y66.249 Z-1.400
G01 X182.020 Y66.027 Z-1.179
G01 X181.453 Y65.902 Z-1.053
G01 X180.996 Y65.828 Z-0.979
G01 X180.514 Y65.769 Z-0.921
G01 X179.445 Y65.688 Z-0.840
G01 X178.325 Y65.652 Z-0.804
G01 X177.521 Y66.441 Z0.000
G01 X178.325 Y65.652 Z-0.804
G01 X177.521 Y64.849 Z0.000
G01 X178.325 Y65.652 Z-0.804
G01 X179.482 Y65.690 Z-0.842
G01 X180.514 Y65.769 Z-0.921
G01 X181.077 Y65.840 Z-0.991
G01 X181.563 Y65.923 Z-1.075
G01 X182.020 Y66.027 Z-1.179
G01 X182.757 Y66.249 Z-1.400
G01 X183.334 Y66.465 Z-1.616
G01 X184.122 Y66.820 Z-1.972
G01 X184.791 Y67.173 Z-2.325
G01 X185.666 Y67.702 Z-2.853
G01 X186.336 Y68.159 Z-3.310
G01 X187.302 Y68.893 Z-4.045
G01 X188.058 Y68.300 Z-3.451
G01 X188.776 Y67.789 Z-2.941
G01 X189.586 Y67.284 Z-2.436
G01 X190.382 Y66.854 Z-2.006
G01 X190.988 Y66.572 Z-1.723
G01 X191.722 Y66.284 Z-1.435
G01 X192.246 Y66.114 Z-1.266
G01 X192.686 Y65.996 Z-1.147
G01 X193.146 Y65.899 Z-1.051
G01 X193.625 Y65.826 Z-0.977
G01 X194.142 Y65.768 Z-0.919
G01 X195.298 Y65.690 Z-0.841
G01 X196.764 Y65.650 Z-0.801
G01 X197.566 Y64.849 Z0.000
G01 X196.764 Y65.650 Z-0.801
G01 X197.566 Y66.441 Z0.000
G01 X196.764 Y65.650 Z-0.801
G01 X195.298 Y65.690 Z-0.841
G01 X194.142 Y65.768 Z-0.919
G01 X193.541 Y65.837 Z-0.988
G01 X193.022 Y65.922 Z-1.074
G01 X192.553 Y66.029 Z-1.180
G01 X191.839 Y66.243 Z-1.395
G01 X191.291 Y66.446 Z-1.597
G01 X190.540 Y66.777 Z-1.929
G01 X189.903 Y67.106 Z-2.257
G01 X189.079 Y67.591 Z-2.743
G01 X188.410 Y68.042 Z-3.193
G01 X187.614 Y68.642 Z-3.794
G01 X187.302 Y68.893 Z-4.045
G01 X187.308 Y69.741 Z-3.897
G01 X187.313 Y70.506 Z-3.802
G01 X187.317 Y71.309 Z-3.733
G01 X187.320 Y72.160 Z-3.686
G01 X187.322 Y74.008 Z-3.650
G01 X187.322 Y89.524 Z-3.651
G01 X187.309 Y92.627 Z-3.663
G01 X187.270 Y95.199 Z-3.703
G01 X187.255 Y95.734 Z-3.718
G01 X187.260 Y96.296 Z-3.755
G01 X187.298 Y96.840 Z-3.837
G01 X188.444 Y96.840 Z-2.760
G01 X189.364 Y96.840 Z-1.952
G01 X189.940 Y96.845 Z-1.509
G01 X190.188 Y96.865 Z-1.335
G01 X190.598 Y96.939 Z-1.074
G01 X190.926 Y97.043 Z-0.904
G01 X191.199 Y97.176 Z-0.803
G01 X191.362 Y97.288 Z-0.765
G01 X191.568 Y97.477 Z-0.752
G01 X192.215 Y98.089 Z-0.772
G01 X192.900 Y98.704 Z-0.818
G01 X193.626 Y99.324 Z-0.888
G01 X194.395 Y99.951 Z-0.984
G01 X195.270 Y100.632 Z-1.116
G01 X196.467 Y101.506 Z-1.316
G01 X197.299 Y102.046 Z-1.464
G01 X198.157 Y102.515 Z-1.620
G01 X198.678 Y102.762 Z-1.713
G01 X199.282 Y103.013 Z-1.822
G01 X199.983 Y103.258 Z-1.951
G01 X200.783 Y103.483 Z-2.104
G01 X201.428 Y103.622 Z-2.226
G01 X201.986 Y103.712 Z-2.333
G01 X202.820 Y103.791 Z-2.497
G01 X203.693 Y103.799 Z-2.665
G01 X204.271 Y103.759 Z-2.777
G01 X205.054 Y103.643 Z-2.930
G01 X205.809 Y103.464 Z-3.077
G01 X206.580 Y103.207 Z-3.231
G01 X207.234 Y102.920 Z-3.362
G01 X207.737 Y102.649 Z-3.458
G01 X208.207 Y102.350 Z-3.543
G01 X208.702 Y101.977 Z-3.625
G01 X209.258 Y101.476 Z-3.711
G01 X209.622 Y101.091 Z-3.757
G01 X210.029 Y100.582 Z-3.796
G01 X210.412 Y100.000 Z-3.825
G01 X210.694 Y99.479 Z-3.839
G01 X211.009 Y98.768 Z-3.845
G01 X211.259 Y98.065 Z-3.844
G01 X211.521 Y97.109 Z-3.836
G01 X211.673 Y96.541 Z-3.857
G01 X211.738 Y96.327 Z-3.880
G01 X211.738 Y95.695 Z-3.774
G01 X211.773 Y95.074 Z-3.717
G01 X211.858 Y93.972 Z-3.683
G01 X211.909 Y92.863 Z-3.665
G01 X211.924 Y91.441 Z-3.650
G01 X211.924 Y72.928 Z-3.659
G01 X211.934 Y71.060 Z-3.715
G01 X211.943 Y69.897 Z-3.805
G01 X211.940 Y69.007 Z-3.930
G01 X211.935 Y68.815 Z-3.967
G01 X211.453 Y68.448 Z-3.599
G01 X210.791 Y67.984 Z-3.136
G01 X210.161 Y67.579 Z-2.731
G01 X209.562 Y67.229 Z-2.380
G01 X208.992 Y66.929 Z-2.080
G01 X208.448 Y66.673 Z-1.825
G01 X207.927 Y66.458 Z-1.610
G01 X207.426 Y66.278 Z-1.429
G01 X206.905 Y66.119 Z-1.270
G01 X206.372 Y65.989 Z-1.141
G01 X205.828 Y65.889 Z-1.040
G01 X205.257 Y65.810 Z-0.962
G01 X204.645 Y65.749 Z-0.901
G01 X203.985 Y65.703 Z-0.854
G01 X203.272 Y65.670 Z-0.822
G01 X202.483 Y65.651 Z-0.803
G01 X201.681 Y66.441 Z0.000
G01 X202.483 Y65.651 Z-0.803
G01 X201.681 Y64.849 Z0.000
G01 X202.483 Y65.651 Z-0.803
G01 X203.306 Y65.672 Z-0.823
G01 X204.028 Y65.705 Z-0.857
G01 X204.700 Y65.754 Z-0.905
G01 X205.330 Y65.819 Z-0.971
G01 X205.927 Y65.905 Z-1.057
G01 X206.510 Y66.019 Z-1.171
G01 X207.056 Y66.161 Z-1.313
G01 X207.562 Y66.324 Z-1.475
G01 X208.083 Y66.520 Z-1.671
G01 X208.624 Y66.753 Z-1.904
G01 X209.189 Y67.029 Z-2.180
G01 X209.779 Y67.352 Z-2.503
G01 X210.397 Y67.727 Z-2.878
G01 X211.045 Y68.157 Z-3.309
G01 X211.884 Y68.774 Z-3.926
G01 X211.935 Y68.815 Z-3.967
G01 X212.535 Y68.337 Z-3.488
G01 X213.237 Y67.826 Z-2.977
G01 X213.896 Y67.406 Z-2.558
G01 X214.628 Y67.007 Z-2.158
G01 X215.393 Y66.656 Z-1.808
G01 X215.974 Y66.432 Z-1.584
G01 X216.740 Y66.188 Z-1.339
G01 X217.287 Y66.043 Z-1.194
G01 X217.783 Y65.937 Z-1.088
G01 X218.294 Y65.853 Z-1.005
G01 X218.833 Y65.787 Z-0.938
G01 X219.409 Y65.734 Z-0.886
G01 X220.663 Y65.668 Z-0.819
G01 X221.365 Y65.651 Z-0.803
G01 X222.167 Y64.849 Z0.000
G01 X221.365 Y65.651 Z-0.803
G01 X222.167 Y66.441 Z0.000
G01 X221.365 Y65.651 Z-0.803
G01 X219.990 Y65.697 Z-0.848
G01 X219.361 Y65.738 Z-0.890
G01 X218.771 Y65.794 Z-0.945
G01 X218.212 Y65.865 Z-1.017
G01 X217.672 Y65.958 Z-1.110
G01 X217.180 Y66.069 Z-1.220
G01 X216.401 Y66.290 Z-1.441
G01 X215.851 Y66.477 Z-1.628
G01 X215.093 Y66.785 Z-1.937
G01 X214.421 Y67.113 Z-2.264
G01 X213.616 Y67.577 Z-2.729
G01 X212.914 Y68.052 Z-3.204
G01 X212.122 Y68.664 Z-3.815
G01 X211.935 Y68.815 Z-3.967
G01 X211.944 Y69.655 Z-3.831
G01 X211.936 Y70.978 Z-3.720
G01 X211.928 Y72.342 Z-3.669
G01 X211.924 Y74.008 Z-3.650
G01 X211.924 Y91.511 Z-3.651
G01 X211.897 Y93.259 Z-3.678
G01 X211.846 Y94.154 Z-3.687
G01 X211.752 Y95.396 Z-3.737
G01 X211.736 Y95.929 Z-3.811
G01 X211.738 Y96.327 Z-3.880
G01 X213.247 Y96.536 Z-2.462
G01 X213.883 Y96.625 Z-1.912
G01 X214.430 Y96.701 Z-1.499
G01 X214.847 Y96.766 Z-1.252
G01 X215.192 Y96.861 Z-1.087
G01 X215.499 Y96.997 Z-0.978
G01 X215.772 Y97.175 Z-0.923
G01 X215.957 Y97.337 Z-0.922
G01 X217.306 Y98.666 Z-1.052
G01 X218.295 Y99.569 Z-1.162
G01 X219.389 Y100.488 Z-1.295
G01 X220.045 Y100.987 Z-1.383
G01 X220.681 Y101.435 Z-1.480
G01 X221.440 Y101.920 Z-1.611
G01 X221.939 Y102.210 Z-1.696
G01 X222.782 Y102.642 Z-1.847
G01 X223.566 Y102.980 Z-1.984
G01 X223.940 Y103.118 Z-2.043
G01 X224.652 Y103.341 Z-2.158
G01 X225.373 Y103.521 Z-2.275
G01 X226.080 Y103.652 Z-2.389
G01 X226.771 Y103.738 Z-2.499
G01 X227.450 Y103.781 Z-2.605
G01 X228.286 Y103.774 Z-2.732
G01 X229.049 Y103.709 Z-2.852
G01 X229.647 Y103.616 Z-2.950
G01 X230.243 Y103.482 Z-3.048
G01 X230.834 Y103.305 Z-3.146
G01 X231.415 Y103.082 Z-3.242
G01 X232.006 Y102.797 Z-3.338
G01 X232.523 Y102.488 Z-3.415
G01 X233.039 Y102.120 Z-3.488
G01 X233.525 Y101.707 Z-3.553
G01 X233.994 Y101.210 Z-3.596
G01 X234.353 Y100.753 Z-3.617
G01 X234.740 Y100.170 Z-3.635
G01 X235.079 Y99.553 Z-3.654
G01 X235.426 Y98.779 Z-3.678
G01 X235.647 Y98.193 Z-3.701
G01 X235.780 Y97.765 Z-3.710
G01 X235.916 Y97.221 Z-3.712
G01 X236.108 Y96.188 Z-3.701
G01 X236.248 Y95.087 Z-3.690
G01 X236.350 Y93.812 Z-3.681
G01 X236.398 Y92.679 Z-3.675
G01 X236.415 Y91.420 Z-3.673
G01 X236.417 Y72.976 Z-3.682
G01 X236.439 Y71.271 Z-3.736
G01 X236.468 Y70.031 Z-3.832
G01 X236.481 Y69.254 Z-3.936
G01 X236.481 Y68.857 Z-4.008
G01 X235.727 Y68.293 Z-3.444
G01 X234.908 Y67.736 Z-2.888
G01 X234.341 Y67.386 Z-2.538
G01 X233.799 Y67.082 Z-2.233
G01 X233.280 Y66.820 Z-1.972
G01 X232.784 Y66.598 Z-1.750
G01 X232.309 Y66.413 Z-1.564
G01 X231.852 Y66.261 Z-1.412
G01 X231.276 Y66.099 Z-1.251
G01 X230.705 Y65.969 Z-1.120
G01 X230.133 Y65.864 Z-1.016
G01 X229.551 Y65.782 Z-0.934
G01 X228.953 Y65.721 Z-0.872
G01 X228.334 Y65.678 Z-0.830
G01 X227.689 Y65.653 Z-0.805
G01 X226.990 Y65.645 Z-0.796
G01 X226.194 Y66.441 Z0.000
G01 X226.990 Y65.645 Z-0.796
G01 X226.194 Y64.849 Z0.000
G01 X226.990 Y65.645 Z-0.796
G01 X227.733 Y65.654 Z-0.806
G01 X228.384 Y65.681 Z-0.832
G01 X229.012 Y65.726 Z-0.877
G01 X229.621 Y65.791 Z-0.943
G01 X230.218 Y65.878 Z-1.030
G01 X230.809 Y65.990 Z-1.142
G01 X231.401 Y66.132 Z-1.283
G01 X231.998 Y66.307 Z-1.458
G01 X232.470 Y66.473 Z-1.624
G01 X232.960 Y66.673 Z-1.825
G01 X233.468 Y66.912 Z-2.063
G01 X233.998 Y67.191 Z-2.342
G01 X234.551 Y67.512 Z-2.664
G01 X235.126 Y67.879 Z-3.031
G01 X236.119 Y68.579 Z-3.731
G01 X236.481 Y68.857 Z-4.008
G01 X237.441 Y68.114 Z-3.266
G01 X238.047 Y67.686 Z-2.838
G01 X238.752 Y67.257 Z-2.409
G01 X239.498 Y66.868 Z-2.020
G01 X240.093 Y66.604 Z-1.756
G01 X240.816 Y66.333 Z-1.485
G01 X241.657 Y66.079 Z-1.230
G01 X242.236 Y65.943 Z-1.094
G01 X242.717 Y65.857 Z-1.008
G01 X243.216 Y65.789 Z-0.940
G01 X243.742 Y65.735 Z-0.887
G01 X244.860 Y65.668 Z-0.820
G01 X245.389 Y65.654 Z-0.805
G01 X246.194 Y64.849 Z0.000
G01 X245.389 Y65.654 Z-0.805
G01 X246.194 Y66.441 Z0.000
G01 X245.389 Y65.654 Z-0.805
G01 X244.258 Y65.698 Z-0.849
G01 X243.689 Y65.740 Z-0.892
G01 X243.149 Y65.797 Z-0.948
G01 X242.631 Y65.871 Z-1.022
G01 X242.123 Y65.966 Z-1.118
G01 X241.657 Y66.079 Z-1.230
G01 X240.816 Y66.333 Z-1.485
G01 X240.093 Y66.604 Z-1.756
G01 X239.498 Y66.868 Z-2.020
G01 X238.752 Y67.257 Z-2.409
G01 X238.047 Y67.686 Z-2.838
G01 X237.150 Y68.331 Z-3.482
G01 X236.481 Y68.857 Z-4.008
G01 X236.473 Y69.680 Z-3.872
G01 X236.447 Y70.934 Z-3.756
G01 X236.424 Y72.387 Z-3.693
G01 X236.415 Y74.008 Z-3.673
G01 X236.414 Y91.499 Z-3.672
G01 X236.394 Y92.821 Z-3.674
G01 X236.333 Y94.075 Z-3.681
G01 X236.229 Y95.267 Z-3.691
G01 X236.074 Y96.403 Z-3.704
G01 X235.867 Y97.422 Z-3.709
G01 X235.726 Y97.942 Z-3.705
G01 X235.553 Y98.448 Z-3.689
G01 X235.358 Y98.944 Z-3.672
G01 X234.996 Y99.715 Z-3.648
G01 X234.628 Y100.354 Z-3.630
G01 X234.151 Y101.019 Z-3.607
G01 X233.680 Y101.552 Z-3.570
G01 X233.228 Y101.970 Z-3.517
G01 X232.826 Y102.283 Z-3.460
G01 X232.316 Y102.618 Z-3.384
G01 X231.767 Y102.919 Z-3.298
G01 X231.201 Y103.171 Z-3.208
G01 X230.573 Y103.391 Z-3.106
G01 X230.020 Y103.539 Z-3.014
G01 X229.422 Y103.657 Z-2.916
G01 X228.774 Y103.741 Z-2.812
G01 X228.116 Y103.782 Z-2.709
G01 X227.260 Y103.772 Z-2.572
G01 X226.543 Y103.712 Z-2.460
G01 X225.943 Y103.628 Z-2.365
G01 X225.221 Y103.485 Z-2.248
G01 X224.514 Y103.300 Z-2.134
G01 X223.824 Y103.077 Z-2.024
G01 X223.152 Y102.811 Z-1.910
G01 X222.353 Y102.430 Z-1.771
G01 X221.858 Y102.165 Z-1.682
G01 X221.234 Y101.792 Z-1.572
G01 X220.438 Y101.269 Z-1.447
G01 X219.984 Y100.942 Z-1.374
G01 X219.340 Y100.449 Z-1.288
G01 X218.295 Y99.569 Z-1.162
G01 X217.152 Y98.520 Z-1.038
G01 X215.957 Y97.337 Z-0.922
G01 X215.772 Y97.175 Z-0.923
G01 X215.499 Y96.997 Z-0.978
G01 X215.192 Y96.861 Z-1.087
G01 X214.847 Y96.766 Z-1.252
G01 X214.430 Y96.701 Z-1.499
G01 X213.883 Y96.625 Z-1.912
G01 X213.247 Y96.536 Z-2.462
G01 X211.738 Y96.327 Z-3.880
G01 X211.555 Y96.970 Z-3.836
G01 X211.314 Y97.886 Z-3.844
G01 X211.028 Y98.720 Z-3.845
G01 X210.694 Y99.479 Z-3.839
G01 X210.345 Y100.111 Z-3.820
G01 X209.955 Y100.685 Z-3.790
G01 X209.446 Y101.284 Z-3.735
G01 X209.011 Y101.710 Z-3.673
G01 X208.424 Y102.193 Z-3.581
G01 X207.974 Y102.504 Z-3.502
G01 X207.491 Y102.789 Z-3.411
G01 X206.941 Y103.058 Z-3.304
G01 X206.379 Y103.283 Z-3.192
G01 X205.747 Y103.482 Z-3.066
G01 X205.054 Y103.643 Z-2.930
G01 X204.271 Y103.759 Z-2.777
G01 X203.529 Y103.803 Z-2.632
G01 X202.820 Y103.791 Z-2.497
G01 X201.986 Y103.712 Z-2.333
G01 X201.297 Y103.598 Z-2.201
G01 X200.567 Y103.428 Z-2.061
G01 X199.728 Y103.175 Z-1.907
G01 X199.170 Y102.970 Z-1.802
G01 X198.502 Y102.682 Z-1.679
G01 X197.637 Y102.240 Z-1.527
G01 X197.130 Y101.944 Z-1.436
G01 X196.467 Y101.506 Z-1.316
G01 X195.174 Y100.560 Z-1.100
G01 X194.362 Y99.925 Z-0.979
G01 X193.594 Y99.298 Z-0.884
G01 X192.869 Y98.678 Z-0.815
G01 X192.185 Y98.061 Z-0.771
G01 X191.502 Y97.412 Z-0.752
G01 X191.297 Y97.239 Z-0.777
G01 X191.049 Y97.096 Z-0.853
G01 X190.753 Y96.983 Z-0.987
G01 X190.455 Y96.907 Z-1.161
G01 X190.188 Y96.865 Z-1.335
G01 X189.704 Y96.840 Z-1.683
G01 X189.046 Y96.840 Z-2.221
G01 X188.444 Y96.840 Z-2.760
G01 X187.298 Y96.840 Z-3.837
G01 X187.227 Y97.285 Z-3.804
G01 X187.160 Y97.946 Z-3.812
G01 X187.071 Y99.021 Z-3.902
G01 X186.954 Y99.921 Z-4.018
G01 X186.808 Y100.758 Z-4.165
G01 X186.744 Y101.066 Z-4.229
G00 Z5.000
G00 X282.188 Y96.533  F4000.0
G01 Z-4.354 F200.0 M3
G01 X281.814 Y97.176 Z-4.349 F2000.0
G01 X281.392 Y97.835 Z-4.336
G01 X280.770 Y98.692 Z-4.312
G01 X280.111 Y99.495 Z-4.284
G01 X279.603 Y100.034 Z-4.254
G01 X279.044 Y100.565 Z-4.215
G01 X278.510 Y101.007 Z-4.166
G01 X277.898 Y101.453 Z-4.103
G01 X277.314 Y101.816 Z-4.030
G01 X276.666 Y102.161 Z-3.945
G01 X276.034 Y102.439 Z-3.851
G01 X275.267 Y102.715 Z-3.735
G01 X274.704 Y102.876 Z-3.645
G01 X274.030 Y103.026 Z-3.537
G01 X273.324 Y103.139 Z-3.428
G01 X272.683 Y103.195 Z-3.321
G01 X272.013 Y103.205 Z-3.201
G01 X271.350 Y103.168 Z-3.075
G01 X270.697 Y103.087 Z-2.943
G01 X270.044 Y102.962 Z-2.805
G01 X269.353 Y102.782 Z-2.652
G01 X268.684 Y102.563 Z-2.501
G01 X267.964 Y102.272 Z-2.335
G01 X267.191 Y101.890 Z-2.147
G01 X266.782 Y101.660 Z-2.044
G01 X266.243 Y101.323 Z-1.907
G01 X265.490 Y100.793 Z-1.720
G01 X265.042 Y100.444 Z-1.610
G01 X264.596 Y100.058 Z-1.509
G01 X264.121 Y99.602 Z-1.412
G01 X263.267 Y98.690 Z-1.255
G01 X262.362 Y97.629 Z-1.086
G01 X261.439 Y96.455 Z-0.909
G01 X261.307 Y96.303 Z-0.897
G01 X261.089 Y96.112 Z-0.921
G01 X260.821 Y95.944 Z-0.996
G01 X260.551 Y95.823 Z-1.111
G01 X260.327 Y95.751 Z-1.225
G01 X259.938 Y95.669 Z-1.453
G01 X259.591 Y95.633 Z-1.681
G01 X258.959 Y95.623 Z-2.147
G01 X258.121 Y95.623 Z-2.857
G01 X257.089 Y95.623 Z-3.805
G01 X256.998 Y96.197 Z-3.737
G01 X256.943 Y96.866 Z-3.720
G01 X256.876 Y98.188 Z-3.787
G01 X256.789 Y99.122 Z-3.874
G01 X256.690 Y99.810 Z-3.973
G01 X256.530 Y100.626 Z-4.133
G01 X256.475 Y100.866 Z-4.188
G01 X259.255 Y104.990 Z-1.408
G01 X260.663 Y106.397 Z0.000
G01 X259.255 Y104.990 Z-1.408
G01 X258.982 Y106.397 Z0.000
G01 X259.255 Y104.990 Z-1.408
G01 X256.475 Y100.866 Z-4.188
G01 X255.393 Y101.234 Z-3.442
G01 X254.455 Y101.488 Z-2.855
G01 X253.628 Y101.655 Z-2.390
G01 X252.898 Y101.752 Z-2.027
G01 X252.169 Y101.795 Z-1.713
G01 X251.601 Y101.792 Z-1.504
G01 X250.832 Y101.736 Z-1.267
G01 X250.085 Y101.632 Z-1.084
G01 X249.366 Y101.489 Z-0.947
G01 X248.683 Y101.309 Z-0.857
G01 X248.312 Y101.196 Z-0.823
G01 X247.495 Y100.917 Z-0.776
G01 X246.504 Y101.353 Z0.000
G01 X247.495 Y100.917 Z-0.776
G01 X247.035 Y99.937 Z0.000
G01 X247.495 Y100.917 Z-0.776
G01 X248.361 Y101.212 Z-0.827
G01 X249.077 Y101.418 Z-0.904
G01 X249.760 Y101.573 Z-1.017
G01 X250.532 Y101.700 Z-1.188
G01 X251.321 Y101.778 Z-1.411
G01 X252.007 Y101.798 Z-1.650
G01 X252.633 Y101.774 Z-1.907
G01 X253.386 Y101.693 Z-2.265
G01 X254.174 Y101.551 Z-2.691
G01 X255.054 Y101.334 Z-3.222
G01 X256.069 Y101.012 Z-3.901
G01 X256.475 Y100.866 Z-4.188
G01 X256.641 Y100.084 Z-4.022
G01 X256.747 Y99.444 Z-3.916
G01 X256.825 Y98.801 Z-3.838
G01 X256.907 Y97.694 Z-3.756
G01 X256.951 Y96.714 Z-3.719
G01 X257.009 Y96.118 Z-3.743
G01 X257.089 Y95.623 Z-3.805
G01 X257.010 Y94.977 Z-3.711
G01 X256.985 Y94.318 Z-3.678
G01 X256.990 Y79.144 Z-3.673
G01 X257.004 Y76.821 Z-3.686
G01 X257.045 Y74.838 Z-3.727
G01 X257.123 Y73.150 Z-3.805
G01 X257.185 Y72.361 Z-3.867
G01 X257.267 Y71.627 Z-3.950
G01 X257.421 Y70.602 Z-4.103
G01 X257.532 Y70.014 Z-4.214
G01 X257.396 Y69.636 Z-4.079
G01 X257.261 Y69.188 Z-3.943
G01 X257.126 Y68.604 Z-3.808
G01 X257.058 Y68.191 Z-3.740
G01 X257.007 Y67.692 Z-3.689
G01 X256.990 Y67.194 Z-3.673
G01 X256.989 Y53.827 Z-3.682
G01 X256.990 Y52.009 Z-3.747
G01 X256.992 Y51.004 Z-3.824
G01 X256.995 Y50.182 Z-3.921
G01 X256.998 Y49.502 Z-4.034
G01 X256.166 Y48.849 Z-3.381
G01 X255.489 Y48.376 Z-2.908
G01 X254.744 Y47.919 Z-2.451
G01 X254.136 Y47.588 Z-2.120
G01 X253.465 Y47.273 Z-1.805
G01 X252.921 Y47.059 Z-1.591
G01 X252.300 Y46.861 Z-1.393
G01 X251.578 Y46.685 Z-1.217
G01 X250.992 Y46.568 Z-1.100
G01 X250.407 Y46.474 Z-1.006
G01 X249.818 Y46.400 Z-0.932
G01 X249.222 Y46.345 Z-0.877
G01 X248.615 Y46.308 Z-0.840
G01 X247.993 Y46.289 Z-0.821
G01 X247.101 Y46.287 Z-0.819
G01 X246.282 Y47.105 Z0.000
G01 X247.101 Y46.287 Z-0.819
G01 X246.282 Y45.468 Z0.000
G01 X247.101 Y46.287 Z-0.819
G01 X248.038 Y46.290 Z-0.822
G01 X248.665 Y46.311 Z-0.843
G01 X249.278 Y46.349 Z-0.881
G01 X249.881 Y46.407 Z-0.939
G01 X250.478 Y46.484 Z-1.016
G01 X251.074 Y46.583 Z-1.115
G01 X251.671 Y46.706 Z-1.238
G01 X252.300 Y46.861 Z-1.393
G01 X252.921 Y47.059 Z-1.591
G01 X253.465 Y47.273 Z-1.805
G01 X254.136 Y47.588 Z-2.120
G01 X254.744 Y47.919 Z-2.451
G01 X255.489 Y48.376 Z-2.908
G01 X256.166 Y48.849 Z-3.381
G01 X256.998 Y49.502 Z-4.034
G01 X257.950 Y48.767 Z-3.299
G01 X258.655 Y48.288 Z-2.820
G01 X259.193 Y47.964 Z-2.496
G01 X260.012 Y47.534 Z-2.066
G01 X260.657 Y47.247 Z-1.779
G01 X261.435 Y46.959 Z-1.491
G01 X261.982 Y46.792 Z-1.324
G01 X262.450 Y46.671 Z-1.203
G01 X262.947 Y46.568 Z-1.100
G01 X263.463 Y46.487 Z-1.019
G01 X264.014 Y46.423 Z-0.955
G01 X264.609 Y46.373 Z-0.905
G01 X265.955 Y46.308 Z-0.840
G01 X266.697 Y46.292 Z-0.824
G01 X267.521 Y45.468 Z0.000
G01 X266.697 Y46.292 Z-0.824
G01 X267.521 Y47.105 Z0.000
G01 X266.697 Y46.292 Z-0.824
G01 X265.218 Y46.336 Z-0.868
G01 X264.563 Y46.376 Z-0.908
G01 X263.953 Y46.430 Z-0.961
G01 X263.380 Y46.499 Z-1.031
G01 X262.831 Y46.590 Z-1.122
G01 X262.331 Y46.699 Z-1.231
G01 X261.549 Y46.922 Z-1.454
G01 X260.976 Y47.121 Z-1.653
G01 X260.191 Y47.450 Z-1.982
G01 X259.500 Y47.794 Z-2.326
G01 X258.963 Y48.099 Z-2.631
G01 X258.301 Y48.522 Z-3.054
G01 X257.578 Y49.044 Z-3.576
G01 X256.998 Y49.502 Z-4.034
G01 X256.996 Y50.492 Z-3.880
G01 X256.993 Y51.264 Z-3.800
G01 X256.989 Y52.775 Z-3.711
G01 X256.990 Y54.849 Z-3.673
G01 X256.990 Y67.194 Z-3.673
G01 X257.024 Y67.899 Z-3.706
G01 X257.058 Y68.191 Z-3.740
G01 X257.126 Y68.604 Z-3.808
G01 X257.261 Y69.188 Z-3.943
G01 X257.396 Y69.636 Z-4.079
G01 X257.532 Y70.014 Z-4.214
G01 X258.255 Y69.876 Z-3.604
G01 X258.748 Y69.770 Z-3.210
G01 X259.256 Y69.633 Z-2.816
G01 X259.572 Y69.538 Z-2.586
G01 X260.158 Y69.329 Z-2.194
G01 X260.547 Y69.152 Z-1.962
G01 X260.843 Y68.999 Z-1.814
G01 X261.192 Y68.773 Z-1.666
G01 X261.549 Y68.494 Z-1.573
G01 X261.917 Y68.135 Z-1.534
G01 X262.670 Y67.458 Z-1.499
G01 X263.191 Y67.040 Z-1.478
G01 X263.879 Y66.557 Z-1.461
G01 X264.411 Y66.238 Z-1.452
G01 X265.077 Y65.908 Z-1.430
G01 X265.693 Y65.662 Z-1.409
G01 X266.426 Y65.426 Z-1.382
G01 X267.269 Y65.221 Z-1.358
G01 X268.252 Y65.058 Z-1.338
G01 X269.210 Y64.970 Z-1.327
G01 X270.305 Y64.939 Z-1.329
G01 X271.175 Y64.969 Z-1.339
G01 X272.025 Y65.051 Z-1.358
G01 X272.833 Y65.183 Z-1.391
G01 X273.681 Y65.380 Z-1.434
G01 X274.384 Y65.594 Z-1.484
G01 X275.117 Y65.872 Z-1.546
G01 X275.967 Y66.268 Z-1.627
G01 X276.498 Y66.557 Z-1.690
G01 X277.141 Y66.962 Z-1.774
G01 X277.759 Y67.406 Z-1.862
G01 X278.511 Y68.030 Z-1.976
G01 X278.991 Y68.480 Z-2.059
G01 X279.577 Y69.092 Z-2.163
G01 X280.134 Y69.742 Z-2.269
G01 X280.664 Y70.431 Z-2.375
G01 X281.163 Y71.157 Z-2.482
G01 X281.637 Y71.917 Z-2.594
G01 X282.084 Y72.712 Z-2.711
G01 X282.501 Y73.541 Z-2.830
G01 X282.888 Y74.405 Z-2.951
G01 X283.243 Y75.303 Z-3.070
G01 X283.564 Y76.233 Z-3.188
G01 X283.849 Y77.196 Z-3.303
G01 X284.099 Y78.191 Z-3.414
G01 X284.312 Y79.216 Z-3.519
G01 X284.487 Y80.271 Z-3.618
G01 X284.624 Y81.355 Z-3.710
G01 X284.723 Y82.468 Z-3.795
G01 X284.788 Y83.726 Z-3.879
G01 X284.806 Y84.962 Z-3.952
G01 X284.780 Y86.174 Z-4.017
G01 X284.694 Y87.593 Z-4.093
G01 X284.597 Y88.574 Z-4.139
G01 X284.446 Y89.676 Z-4.187
G01 X284.243 Y90.797 Z-4.232
G01 X283.993 Y91.893 Z-4.272
G01 X283.694 Y92.963 Z-4.306
G01 X283.340 Y94.004 Z-4.329
G01 X282.935 Y95.015 Z-4.345
G01 X282.475 Y95.993 Z-4.352
G01 X282.188 Y96.533 Z-4.354
G00 Z5.000
G01 Z-4.354 F200.0 M3
G01 X282.575 Y95.794 Z-4.351 F2000.0
G01 X283.018 Y94.819 Z-4.342
G01 X283.444 Y93.719 Z-4.326
G01 X283.749 Y92.778 Z-4.300
G01 X284.037 Y91.715 Z-4.265
G01 X284.316 Y90.428 Z-4.221
G01 X284.471 Y89.517 Z-4.181
G01 X284.618 Y88.382 Z-4.128
G01 X284.722 Y87.224 Z-4.071
G01 X284.784 Y86.044 Z-4.010
G01 X284.806 Y84.840 Z-3.945
G01 X284.784 Y83.613 Z-3.872
G01 X284.699 Y82.144 Z-3.774
G01 X284.597 Y81.103 Z-3.692
G01 X284.460 Y80.085 Z-3.603
G01 X284.289 Y79.089 Z-3.507
G01 X284.073 Y78.077 Z-3.402
G01 X283.817 Y77.081 Z-3.290
G01 X283.525 Y76.118 Z-3.173
G01 X283.199 Y75.187 Z-3.055
G01 X282.839 Y74.290 Z-2.934
G01 X282.447 Y73.428 Z-2.815
G01 X282.011 Y72.574 Z-2.693
G01 X281.508 Y71.699 Z-2.566
G01 X280.954 Y70.841 Z-2.440
G01 X280.478 Y70.180 Z-2.340
G01 X279.979 Y69.553 Z-2.242
G01 X279.459 Y68.962 Z-2.144
G01 X278.914 Y68.403 Z-2.046
G01 X278.351 Y67.888 Z-1.953
G01 X277.759 Y67.406 Z-1.862
G01 X277.017 Y66.880 Z-1.754
G01 X276.411 Y66.509 Z-1.679
G01 X275.820 Y66.193 Z-1.614
G01 X275.117 Y65.872 Z-1.546
G01 X274.242 Y65.548 Z-1.471
G01 X273.623 Y65.364 Z-1.432
G01 X272.833 Y65.183 Z-1.391
G01 X271.951 Y65.042 Z-1.355
G01 X271.175 Y64.969 Z-1.339
G01 X270.154 Y64.939 Z-1.326
G01 X269.162 Y64.973 Z-1.327
G01 X268.136 Y65.073 Z-1.342
G01 X267.269 Y65.221 Z-1.358
G01 X266.426 Y65.426 Z-1.382
G01 X265.693 Y65.662 Z-1.409
G01 X265.077 Y65.908 Z-1.430
G01 X264.411 Y66.238 Z-1.452
G01 X263.879 Y66.557 Z-1.461
G01 X263.191 Y67.040 Z-1.478
G01 X262.456 Y67.641 Z-1.505
G01 X261.834 Y68.216 Z-1.540
G01 X261.453 Y68.576 Z-1.592
G01 X261.192 Y68.773 Z-1.666
G01 X260.843 Y68.999 Z-1.814
G01 X260.368 Y69.236 Z-2.064
G01 X259.957 Y69.409 Z-2.325
G01 X259.572 Y69.538 Z-2.586
G01 X259.256 Y69.633 Z-2.816
G01 X258.748 Y69.770 Z-3.210
G01 X258.255 Y69.876 Z-3.604
G01 X257.532 Y70.014 Z-4.214
G01 X257.361 Y70.969 Z-4.043
G01 X257.232 Y71.912 Z-3.914
G01 X257.164 Y72.600 Z-3.846
G01 X257.078 Y73.965 Z-3.761
G01 X257.019 Y75.855 Z-3.702
G01 X257.003 Y76.898 Z-3.685
G01 X256.990 Y79.185 Z-3.673
G01 X256.985 Y94.318 Z-3.678
G01 X257.010 Y94.977 Z-3.711
G01 X257.089 Y95.623 Z-3.805
G01 X258.121 Y95.623 Z-2.857
G01 X258.959 Y95.623 Z-2.147
G01 X259.591 Y95.633 Z-1.681
G01 X259.938 Y95.669 Z-1.453
G01 X260.327 Y95.751 Z-1.225
G01 X260.678 Y95.875 Z-1.053
G01 X260.837 Y95.953 Z-0.991
G01 X261.089 Y96.112 Z-0.921
G01 X261.307 Y96.303 Z-0.897
G01 X261.439 Y96.455 Z-0.909
G01 X262.380 Y97.651 Z-1.089
G01 X263.267 Y98.690 Z-1.255
G01 X264.158 Y99.640 Z-1.420
G01 X264.729 Y100.178 Z-1.536
G01 X265.217 Y100.585 Z-1.650
G01 X265.931 Y101.112 Z-1.831
G01 X266.362 Y101.401 Z-1.938
G01 X266.925 Y101.743 Z-2.078
G01 X267.585 Y102.094 Z-2.243
G01 X268.333 Y102.427 Z-2.422
G01 X269.074 Y102.695 Z-2.591
G01 X269.793 Y102.901 Z-2.752
G01 X270.483 Y103.050 Z-2.900
G01 X271.146 Y103.147 Z-3.037
G01 X271.787 Y103.197 Z-3.161
G01 X272.409 Y103.204 Z-3.275
G01 X273.021 Y103.171 Z-3.379
G01 X273.618 Y103.099 Z-3.475
G01 X274.244 Y102.984 Z-3.572
G01 X274.917 Y102.818 Z-3.678
G01 X275.585 Y102.608 Z-3.782
G01 X276.241 Y102.354 Z-3.883
G01 X276.881 Y102.052 Z-3.973
G01 X277.503 Y101.706 Z-4.056
G01 X278.099 Y101.313 Z-4.124
G01 X278.673 Y100.880 Z-4.183
G01 X279.217 Y100.406 Z-4.227
G01 X279.789 Y99.845 Z-4.268
G01 X280.261 Y99.321 Z-4.291
G01 X280.917 Y98.501 Z-4.319
G01 X281.522 Y97.638 Z-4.338
G01 X281.984 Y96.891 Z-4.347
G01 X282.188 Y96.533 Z-4.354
G00 Z5.000
G00 X301.623 Y122.309  F4000.0
G01 Z-4.217 F200.0 M3
G01 X301.814 Y121.300 Z-4.026 F2000.0
G01 X301.928 Y120.497 Z-3.912
G01 X301.999 Y119.842 Z-3.841
G01 X302.052 Y119.140 Z-3.788
G01 X302.123 Y117.465 Z-3.717
G01 X302.147 Y116.402 Z-3.693
G01 X302.179 Y113.877 Z-3.661
G01 X302.189 Y110.734 Z-3.650
G01 X302.189 Y98.388 
G01 X302.207 Y97.888 Z-3.668
G01 X302.258 Y97.387 Z-3.719
G01 X302.327 Y96.972 Z-3.788
G01 X302.258 Y96.558 Z-3.719
G01 X302.198 Y95.911 Z-3.659
G01 X302.189 Y95.557 Z-3.650
G01 X302.189 Y71.309 
G01 X302.210 Y70.756 Z-3.671
G01 X300.585 Y69.848 Z-2.046
G01 X298.539 Y68.742 Z0.000
G01 X300.585 Y69.848 Z-2.046
G01 X302.210 Y70.756 Z-3.671
G01 X302.571 Y70.267 Z-3.431
G01 X302.949 Y69.834 Z-3.245
G01 X303.248 Y69.547 Z-3.134
G01 X303.692 Y69.183 Z-3.022
G01 X304.509 Y68.614 Z-2.874
G01 X305.254 Y68.133 Z-2.746
G01 X306.037 Y67.669 Z-2.616
G01 X306.821 Y67.246 Z-2.493
G01 X307.606 Y66.863 Z-2.376
G01 X308.394 Y66.520 Z-2.264
G01 X309.185 Y66.217 Z-2.157
G01 X309.979 Y65.955 Z-2.056
G01 X310.776 Y65.735 Z-1.961
G01 X311.773 Y65.518 Z-1.849
G01 X312.602 Y65.390 Z-1.766
G01 X313.327 Y65.314 Z-1.701
G01 X314.049 Y65.273 Z-1.643
G01 X314.904 Y65.273 Z-1.581
G01 X315.753 Y65.321 Z-1.528
G01 X316.594 Y65.427 Z-1.490
G01 X317.420 Y65.596 Z-1.476
G01 X318.233 Y65.823 Z-1.480
G01 X319.030 Y66.108 Z-1.501
G01 X319.809 Y66.451 Z-1.541
G01 X320.648 Y66.888 Z-1.598
G01 X321.314 Y67.288 Z-1.658
G01 X322.037 Y67.781 Z-1.735
G01 X322.891 Y68.439 Z-1.834
G01 X323.504 Y68.962 Z-1.916
G01 X324.107 Y69.523 Z-2.003
G01 X324.764 Y70.190 Z-2.104
G01 X325.406 Y70.909 Z-2.216
G01 X325.755 Y71.330 Z-2.283
G01 X326.405 Y72.199 Z-2.427
G01 X326.749 Y72.701 Z-2.507
G01 X327.263 Y73.531 Z-2.643
G01 X327.759 Y74.436 Z-2.786
G01 X328.200 Y75.351 Z-2.924
G01 X328.591 Y76.278 Z-3.055
G01 X328.934 Y77.218 Z-3.178
G01 X329.233 Y78.172 Z-3.293
G01 X329.490 Y79.144 Z-3.398
G01 X329.707 Y80.135 Z-3.494
G01 X329.885 Y81.149 Z-3.581
G01 X330.025 Y82.189 Z-3.657
G01 X330.126 Y83.236 Z-3.722
G01 X330.192 Y84.359 Z-3.779
G01 X330.216 Y85.493 Z-3.828
G01 X330.197 Y86.673 Z-3.873
G01 X330.144 Y87.677 Z-3.909
G01 X330.061 Y88.652 Z-3.944
G01 X329.949 Y89.587 Z-3.978
G01 X329.809 Y90.483 Z-4.009
G01 X329.642 Y91.340 Z-4.038
G01 X329.426 Y92.246 Z-4.066
G01 X329.161 Y93.165 Z-4.093
G01 X328.854 Y94.062 Z-4.117
G01 X328.445 Y95.065 Z-4.142
G01 X328.104 Y95.782 Z-4.150
G01 X327.657 Y96.598 Z-4.155
G01 X327.164 Y97.382 Z-4.154
G01 X326.623 Y98.128 Z-4.143
G01 X326.062 Y98.808 Z-4.125
G01 X325.392 Y99.535 Z-4.103
G01 X324.905 Y100.012 Z-4.079
G01 X324.289 Y100.555 Z-4.044
G01 X323.572 Y101.117 Z-3.997
G01 X322.988 Y101.514 Z-3.947
G01 X322.303 Y101.922 Z-3.881
G01 X321.596 Y102.278 Z-3.804
G01 X320.873 Y102.580 Z-3.716
G01 X320.137 Y102.827 Z-3.620
G01 X319.392 Y103.020 Z-3.515
G01 X318.525 Y103.180 Z-3.393
G01 X317.895 Y103.251 Z-3.296
G01 X317.148 Y103.279 Z-3.172
G01 X316.396 Y103.251 Z-3.037
G01 X315.679 Y103.170 Z-2.897
G01 X314.956 Y103.038 Z-2.749
G01 X314.211 Y102.850 Z-2.590
G01 X313.246 Y102.526 Z-2.379
G01 X312.470 Y102.202 Z-2.207
G01 X311.561 Y101.748 Z-2.001
G01 X310.822 Y101.319 Z-1.840
G01 X310.024 Y100.790 Z-1.670
G01 X309.182 Y100.160 Z-1.494
G01 X308.354 Y99.445 Z-1.341
G01 X307.524 Y98.647 Z-1.196
G01 X306.683 Y97.759 Z-1.052
G01 X306.451 Y97.545 Z-1.042
G01 X306.248 Y97.399 Z-1.070
G01 X305.943 Y97.238 Z-1.155
G01 X305.628 Y97.123 Z-1.283
G01 X305.300 Y97.043 Z-1.450
G01 X305.012 Y97.000 Z-1.617
G01 X304.497 Y96.972 Z-1.951
G01 X303.889 Y96.972 Z-2.411
G01 X302.827 Y96.972 Z-3.329
G01 X302.327 Y96.972 Z-3.788
G01 X302.258 Y97.387 Z-3.719
G01 X302.198 Y98.034 Z-3.659
G01 X302.189 Y98.388 Z-3.650
G01 X302.189 Y110.758 Z-3.650
G01 X302.179 Y113.946 Z-3.661
G01 X302.146 Y116.485 Z-3.694
G01 X302.086 Y118.490 Z-3.754
G01 X302.038 Y119.355 Z-3.802
G01 X301.973 Y120.104 Z-3.867
G01 X301.851 Y121.062 Z-3.988
G01 X301.703 Y121.923 Z-4.137
G01 X301.623 Y122.309 Z-4.217
G01 X304.175 Y126.104 Z-1.665
G01 X305.840 Y127.769 Z0.000
G01 X304.175 Y126.104 Z-1.665
G01 X303.849 Y127.769 Z0.000
G01 X304.175 Y126.104 Z-1.665
G01 X301.623 Y122.309 Z-4.217
G01 X300.923 Y122.568 Z-3.713
G01 X300.170 Y122.812 Z-3.203
G01 X299.459 Y123.002 Z-2.759
G01 X298.792 Y123.138 Z-2.381
G01 X298.015 Y123.240 Z-1.994
G01 X297.326 Y123.278 Z-1.699
G01 X296.771 Y123.271 Z-1.496
G01 X296.149 Y123.221 Z-1.307
G01 X295.437 Y123.112 Z-1.140
G01 X294.641 Y122.931 Z-1.008
G01 X293.781 Y122.682 Z-0.914
G01 X292.791 Y122.341 Z-0.856
G01 X291.681 Y122.813 Z0.000
G01 X292.791 Y122.341 Z-0.856
G01 X292.300 Y121.265 Z0.000
G01 X292.791 Y122.341 Z-0.856
G01 X293.819 Y122.694 Z-0.917
G01 X294.641 Y122.931 Z-1.008
G01 X295.437 Y123.112 Z-1.140
G01 X296.149 Y123.221 Z-1.307
G01 X296.771 Y123.271 Z-1.496
G01 X297.326 Y123.278 Z-1.699
G01 X298.015 Y123.240 Z-1.994
G01 X298.792 Y123.138 Z-2.381
G01 X299.459 Y123.002 Z-2.759
G01 X300.170 Y122.812 Z-3.203
G01 X300.923 Y122.568 Z-3.713
G01 X301.623 Y122.309 Z-4.217
G00 Z5.000
G00 X327.471 Y96.907  F4000.0
G01 Z-4.159 F200.0 M3
G01 X327.817 Y96.321 Z-4.157 F2000.0
G01 X328.200 Y95.590 Z-4.147
G01 X328.583 Y94.746 Z-4.132
G01 X328.922 Y93.878 Z-4.113
G01 X329.232 Y92.939 Z-4.089
G01 X329.470 Y92.074 Z-4.061
G01 X329.683 Y91.142 Z-4.029
G01 X329.858 Y90.191 Z-3.996
G01 X329.996 Y89.221 Z-3.961
G01 X330.101 Y88.233 Z-3.925
G01 X330.171 Y87.226 Z-3.889
G01 X330.208 Y86.199 Z-3.851
G01 X330.212 Y85.154 Z-3.811
G01 X330.178 Y84.092 Z-3.764
G01 X330.081 Y82.720 Z-3.692
G01 X329.960 Y81.665 Z-3.620
G01 X329.801 Y80.639 Z-3.538
G01 X329.604 Y79.636 Z-3.447
G01 X329.368 Y78.655 Z-3.346
G01 X329.091 Y77.693 Z-3.235
G01 X328.770 Y76.746 Z-3.116
G01 X328.403 Y75.813 Z-2.989
G01 X327.987 Y74.892 Z-2.855
G01 X327.517 Y73.982 Z-2.716
G01 X326.992 Y73.084 Z-2.572
G01 X326.678 Y72.595 Z-2.490
G01 X326.088 Y71.762 Z-2.355
G01 X325.646 Y71.195 Z-2.260
G01 X325.095 Y70.552 Z-2.155
G01 X324.543 Y69.960 Z-2.065
G01 X323.996 Y69.418 Z-1.985
G01 X323.434 Y68.899 Z-1.908
G01 X322.744 Y68.319 Z-1.819
G01 X322.037 Y67.781 Z-1.735
G01 X321.213 Y67.225 Z-1.647
G01 X320.571 Y66.844 Z-1.594
G01 X319.809 Y66.451 Z-1.541
G01 X318.935 Y66.071 Z-1.496
G01 X318.233 Y65.823 Z-1.480
G01 X317.420 Y65.596 Z-1.476
G01 X316.593 Y65.426 Z-1.490
G01 X315.753 Y65.321 Z-1.528
G01 X314.768 Y65.270 Z-1.588
G01 X313.956 Y65.277 Z-1.649
G01 X313.184 Y65.325 Z-1.715
G01 X312.379 Y65.419 Z-1.791
G01 X311.576 Y65.556 Z-1.873
G01 X310.776 Y65.735 Z-1.961
G01 X309.979 Y65.955 Z-2.056
G01 X308.933 Y66.309 Z-2.187
G01 X308.098 Y66.644 Z-2.302
G01 X307.362 Y66.978 Z-2.409
G01 X306.625 Y67.348 Z-2.521
G01 X305.890 Y67.754 Z-2.639
G01 X305.155 Y68.196 Z-2.762
G01 X304.420 Y68.674 Z-2.890
G01 X303.692 Y69.183 Z-3.022
G01 X303.248 Y69.547 Z-3.134
G01 X302.949 Y69.834 Z-3.245
G01 X302.571 Y70.267 Z-3.431
G01 X302.210 Y70.756 Z-3.671
G01 X302.189 Y71.309 Z-3.650
G01 X302.189 Y95.557 
G01 X302.207 Y96.057 Z-3.668
G01 X302.258 Y96.558 Z-3.719
G01 X302.327 Y96.972 Z-3.788
G01 X303.344 Y96.972 Z-2.870
G01 X304.181 Y96.972 Z-2.181
G01 X304.746 Y96.979 Z-1.784
G01 X305.012 Y97.000 Z-1.617
G01 X305.457 Y97.077 Z-1.366
G01 X305.792 Y97.177 Z-1.212
G01 X306.128 Y97.328 Z-1.098
G01 X306.248 Y97.399 Z-1.070
G01 X306.519 Y97.601 Z-1.040
G01 X306.683 Y97.759 Z-1.052
G01 X307.611 Y98.733 Z-1.209
G01 X308.354 Y99.445 Z-1.341
G01 X309.185 Y100.163 Z-1.495
G01 X310.024 Y100.790 Z-1.670
G01 X310.911 Y101.374 Z-1.859
G01 X311.671 Y101.808 Z-2.028
G01 X312.470 Y102.202 Z-2.207
G01 X313.246 Y102.526 Z-2.379
G01 X314.016 Y102.791 Z-2.549
G01 X314.717 Y102.983 Z-2.701
G01 X315.409 Y103.126 Z-2.845
G01 X316.074 Y103.220 Z-2.976
G01 X316.714 Y103.269 Z-3.096
G01 X317.349 Y103.278 Z-3.207
G01 X318.102 Y103.232 Z-3.328
G01 X318.854 Y103.127 Z-3.438
G01 X319.683 Y102.952 Z-3.559
G01 X320.345 Y102.763 Z-3.648
G01 X321.075 Y102.501 Z-3.742
G01 X321.791 Y102.187 Z-3.827
G01 X322.486 Y101.819 Z-3.899
G01 X323.159 Y101.404 Z-3.962
G01 X323.808 Y100.940 Z-4.012
G01 X324.481 Y100.394 Z-4.057
G01 X325.035 Y99.888 Z-4.085
G01 X325.612 Y99.304 Z-4.109
G01 X326.297 Y98.533 Z-4.136
G01 X326.765 Y97.943 Z-4.147
G01 X327.290 Y97.191 Z-4.154
G01 X327.471 Y96.907 Z-4.159
G00 Z5.000
G00 X345.046 Y49.810  F4000.0
G01 Z-4.436 F200.0 M3
G01 X344.756 Y49.892 Z-4.418 F2000.0
G01 X344.437 Y50.011 Z-4.345
G01 X344.077 Y50.153 Z-4.189
G01 X343.930 Y50.222 Z-4.101
G01 X343.592 Y50.488 Z-3.743
G01 X343.501 Y50.544 Z-3.640
G01 X343.759 Y50.359 Z-3.928
G01 X343.947 Y50.213 Z-4.114
G01 X344.211 Y50.098 Z-4.256
G01 X344.524 Y49.975 Z-4.372
G01 X344.886 Y49.851 Z-4.430
G01 X345.244 Y49.764 Z-4.430
G01 X345.826 Y49.659 Z-4.366
G01 X346.503 Y49.573 Z-4.224
G01 X347.362 Y49.520 Z-3.978
G01 X348.050 Y49.520 Z-3.748
G01 X348.922 Y49.573 Z-3.432
G01 X349.734 Y49.679 Z-3.134
G01 X350.439 Y49.837 Z-2.891
G01 X351.192 Y50.091 Z-2.670
G01 X351.720 Y50.320 Z-2.534
G01 X352.304 Y50.625 Z-2.397
G01 X353.012 Y51.076 Z-2.251
G01 X353.522 Y51.462 Z-2.158
G01 X353.956 Y51.831 Z-2.084
G01 X354.381 Y52.232 Z-2.016
G01 X354.832 Y52.701 Z-1.948
G01 X355.305 Y53.256 Z-1.888
G01 X355.753 Y53.858 Z-1.846
G01 X356.301 Y54.697 Z-1.813
G01 X356.641 Y55.277 Z-1.796
G01 X357.033 Y56.010 Z-1.780
G01 X357.589 Y57.174 Z-1.765
G01 X358.256 Y58.744 Z-1.749
G01 X361.130 Y65.781 Z-1.747
G01 X361.256 Y66.147 Z-1.768
G01 X361.343 Y66.528 Z-1.832
G01 X361.385 Y66.856 Z-1.918
G01 X361.398 Y67.339 Z-2.088
G01 X361.266 Y71.976 Z-3.962
G01 X361.961 Y72.264 Z-3.427
G01 X362.321 Y72.438 Z-3.160
G01 X362.693 Y72.643 Z-2.892
G01 X363.083 Y72.888 Z-2.625
G01 X363.498 Y73.198 Z-2.357
G01 X363.722 Y73.392 Z-2.223
G01 X364.097 Y73.780 Z-2.023
G01 X364.242 Y73.960 Z-1.956
G01 X364.414 Y74.203 Z-1.889
G01 X364.592 Y74.507 Z-1.839
G01 X364.741 Y74.828 Z-1.822
G01 X374.060 Y97.759 Z-1.858
G01 X374.438 Y98.818 Z-1.907
G01 X374.735 Y99.791 Z-1.999
G01 X374.997 Y100.785 Z-2.148
G01 X375.190 Y101.606 Z-2.318
G01 X375.338 Y102.305 Z-2.522
G01 X375.423 Y102.704 Z-2.676
G01 X376.360 Y103.162 Z-2.218
G01 X377.275 Y103.568 Z-1.811
G01 X378.108 Y103.891 Z-1.488
G01 X378.766 Y104.102 Z-1.278
G01 X379.222 Y104.219 Z-1.161
G01 X379.936 Y104.358 Z-1.021
G01 X380.684 Y104.460 Z-0.919
G01 X381.113 Y104.503 Z-0.877
G01 X381.990 Y103.742 Z0.000
G01 X381.113 Y104.503 Z-0.877
G01 X381.990 Y105.380 Z0.000
G01 X381.113 Y104.503 Z-0.877
G01 X380.253 Y104.406 Z-0.973
G01 X379.504 Y104.280 Z-1.100
G01 X378.870 Y104.131 Z-1.249
G01 X378.398 Y103.990 Z-1.390
G01 X377.611 Y103.705 Z-1.675
G01 X376.746 Y103.339 Z-2.041
G01 X376.243 Y103.106 Z-2.273
G01 X375.423 Y102.704 Z-2.676
G01 X374.768 Y103.187 Z-2.192
G01 X374.349 Y103.453 Z-1.926
G01 X373.791 Y103.752 Z-1.628
G01 X373.245 Y103.988 Z-1.391
G01 X372.739 Y104.161 Z-1.218
G01 X372.253 Y104.292 Z-1.087
G01 X371.766 Y104.393 Z-0.987
G01 X371.147 Y104.475 Z-0.905
G01 X370.482 Y104.524 Z-0.856
G01 X369.632 Y104.553 Z-0.827
G01 X368.805 Y105.380 Z0.000
G01 X369.632 Y104.553 Z-0.827
G01 X368.805 Y103.742 Z0.000
G01 X369.632 Y104.553 Z-0.827
G01 X370.549 Y104.520 Z-0.859
G01 X371.225 Y104.467 Z-0.912
G01 X371.868 Y104.374 Z-1.006
G01 X372.388 Y104.259 Z-1.121
G01 X372.920 Y104.104 Z-1.275
G01 X373.484 Y103.891 Z-1.488
G01 X374.087 Y103.601 Z-1.779
G01 X374.570 Y103.320 Z-2.059
G01 X375.059 Y102.982 Z-2.398
G01 X375.423 Y102.704 Z-2.676
G01 X375.327 Y102.243 Z-2.501
G01 X375.152 Y101.425 Z-2.277
G01 X374.911 Y100.433 Z-2.089
G01 X374.689 Y99.637 Z-1.981
G01 X374.409 Y98.731 Z-1.901
G01 X374.030 Y97.681 Z-1.857
G01 X364.739 Y74.824 Z-1.822
G01 X364.522 Y74.379 Z-1.856
G01 X364.414 Y74.203 Z-1.889
G01 X364.242 Y73.960 Z-1.956
G01 X363.964 Y73.632 Z-2.090
G01 X363.722 Y73.392 Z-2.223
G01 X363.286 Y73.032 Z-2.491
G01 X363.083 Y72.888 Z-2.625
G01 X362.693 Y72.643 Z-2.892
G01 X362.321 Y72.438 Z-3.160
G01 X361.610 Y72.111 Z-3.695
G01 X361.266 Y71.976 Z-3.962
G01 X361.033 Y72.225 Z-3.859
G01 X360.628 Y72.713 Z-3.703
G01 X360.265 Y73.235 Z-3.600
G01 X360.045 Y73.605 Z-3.561
G01 X359.857 Y73.970 Z-3.548
G01 X350.018 Y94.495 Z-3.487
G01 X349.313 Y96.030 Z-3.511
G01 X348.925 Y96.938 Z-3.551
G01 X348.616 Y97.714 Z-3.605
G01 X348.243 Y98.742 Z-3.713
G01 X347.974 Y99.529 Z-3.841
G01 X347.792 Y100.082 Z-3.961
G01 X347.539 Y100.941 Z-4.191
G01 X347.488 Y101.129 Z-4.251
G01 X348.028 Y101.623 Z-3.756
G01 X348.701 Y102.183 Z-3.197
G01 X349.322 Y102.644 Z-2.735
G01 X349.896 Y103.023 Z-2.356
G01 X350.429 Y103.334 Z-2.046
G01 X350.927 Y103.589 Z-1.791
G01 X351.398 Y103.801 Z-1.579
G01 X351.874 Y103.986 Z-1.393
G01 X352.355 Y104.144 Z-1.235
G01 X352.821 Y104.269 Z-1.111
G01 X353.281 Y104.366 Z-1.014
G01 X353.743 Y104.440 Z-0.940
G01 X354.214 Y104.495 Z-0.885
G01 X354.698 Y104.532 Z-0.847
G01 X355.202 Y104.554 Z-0.825
G01 X355.818 Y104.561 Z-0.819
G01 X356.636 Y103.742 Z0.000
G01 X355.818 Y104.561 Z-0.819
G01 X356.636 Y105.380 Z0.000
G01 X355.818 Y104.561 Z-0.819
G01 X355.151 Y104.553 Z-0.827
G01 X354.639 Y104.529 Z-0.851
G01 X354.144 Y104.488 Z-0.892
G01 X353.659 Y104.428 Z-0.952
G01 X353.180 Y104.346 Z-1.033
G01 X352.698 Y104.239 Z-1.141
G01 X352.207 Y104.099 Z-1.281
G01 X351.720 Y103.929 Z-1.450
G01 X351.237 Y103.731 Z-1.648
G01 X350.730 Y103.492 Z-1.887
G01 X350.193 Y103.201 Z-2.179
G01 X349.618 Y102.845 Z-2.534
G01 X348.999 Y102.411 Z-2.969
G01 X348.333 Y101.884 Z-3.495
G01 X347.618 Y101.252 Z-4.128
G01 X347.488 Y101.129 Z-4.251
G01 X346.608 Y101.605 Z-3.774
G01 X345.323 Y102.275 Z-3.104
G01 X344.312 Y102.782 Z-2.598
G01 X343.409 Y103.206 Z-2.173
G01 X342.648 Y103.532 Z-1.847
G01 X342.037 Y103.761 Z-1.619
G01 X341.426 Y103.942 Z-1.437
G01 X340.540 Y104.150 Z-1.230
G01 X339.576 Y104.325 Z-1.054
G01 X338.664 Y104.458 Z-0.921
G01 X337.743 Y105.380 Z0.000
G01 X338.664 Y104.458 Z-0.921
G01 X337.743 Y103.742 Z0.000
G01 X338.664 Y104.458 Z-0.921
G01 X339.616 Y104.319 Z-1.061
G01 X340.603 Y104.137 Z-1.243
G01 X341.426 Y103.942 Z-1.437
G01 X342.037 Y103.761 Z-1.619
G01 X342.782 Y103.477 Z-1.903
G01 X343.557 Y103.139 Z-2.241
G01 X344.437 Y102.721 Z-2.659
G01 X345.418 Y102.227 Z-3.153
G01 X346.730 Y101.540 Z-3.839
G01 X347.488 Y101.129 Z-4.251
G01 X347.657 Y100.528 Z-4.073
G01 X347.909 Y99.725 Z-3.879
G01 X348.243 Y98.742 Z-3.713
G01 X348.616 Y97.714 Z-3.605
G01 X348.984 Y96.798 Z-3.543
G01 X349.625 Y95.336 Z-3.494
G01 X350.045 Y94.439 Z-3.487
G01 X359.857 Y73.970 Z-3.548
G01 X360.133 Y73.451 Z-3.574
G01 X360.464 Y72.937 Z-3.651
G01 X360.773 Y72.528 Z-3.755
G01 X361.033 Y72.225 Z-3.859
G01 X361.266 Y71.976 Z-3.962
G01 X361.398 Y67.115 Z-2.003
G01 X361.385 Y66.856 Z-1.918
G01 X361.343 Y66.528 Z-1.832
G01 X361.256 Y66.147 Z-1.768
G01 X361.130 Y65.780 Z-1.747
G01 X357.833 Y57.729 Z-1.755
G01 X357.284 Y56.517 Z-1.775
G01 X356.969 Y55.885 Z-1.783
G01 X356.567 Y55.148 Z-1.798
G01 X356.127 Y54.417 Z-1.820
G01 X355.580 Y53.618 Z-1.864
G01 X355.193 Y53.117 Z-1.902
G01 X354.724 Y52.583 Z-1.963
G01 X354.282 Y52.136 Z-2.030
G01 X353.825 Y51.717 Z-2.104
G01 X353.348 Y51.326 Z-2.187
G01 X352.844 Y50.962 Z-2.283
G01 X352.304 Y50.625 Z-2.397
G01 X351.685 Y50.304 Z-2.543
G01 X351.082 Y50.051 Z-2.701
G01 X350.439 Y49.837 Z-2.891
G01 X349.734 Y49.679 Z-3.134
G01 X348.841 Y49.564 Z-3.462
G01 X347.867 Y49.516 Z-3.809
G01 X347.055 Y49.531 Z-4.072
G01 X346.254 Y49.600 Z-4.284
G01 X345.819 Y49.660 Z-4.367
G01 X345.244 Y49.764 Z-4.430
G01 X345.046 Y49.810 Z-4.436
G00 Z5.000
G00 X395.258 Y101.108  F4000.0
G01 Z-4.272 F200.0 M3
G01 X395.794 Y101.657 Z-3.723 F2000.0
G01 X396.608 Y102.398 Z-2.982
G01 X397.140 Y102.825 Z-2.554
G01 X397.640 Y103.182 Z-2.197
G01 X398.108 Y103.477 Z-1.903
G01 X398.729 Y103.809 Z-1.571
G01 X399.348 Y104.074 Z-1.306
G01 X399.909 Y104.257 Z-1.123
G01 X400.294 Y104.350 Z-1.029
G01 X400.676 Y104.421 Z-0.958
G01 X401.406 Y104.509 Z-0.871
G01 X401.950 Y104.543 Z-0.837
G01 X402.787 Y103.742 Z0.000
G01 X401.950 Y104.543 Z-0.837
G01 X402.787 Y105.380 Z0.000
G01 X401.950 Y104.543 Z-0.837
G01 X401.406 Y104.509 Z-0.871
G01 X400.676 Y104.421 Z-0.958
G01 X400.174 Y104.323 Z-1.056
G01 X399.755 Y104.212 Z-1.168
G01 X399.348 Y104.074 Z-1.306
G01 X398.729 Y103.809 Z-1.571
G01 X398.108 Y103.477 Z-1.903
G01 X397.415 Y103.026 Z-2.353
G01 X396.910 Y102.646 Z-2.733
G01 X396.369 Y102.192 Z-3.188
G01 X395.794 Y101.657 Z-3.723
G01 X395.258 Y101.108 Z-4.272
G01 X393.765 Y101.846 Z-3.533
G01 X392.614 Y102.392 Z-2.988
G01 X391.568 Y102.863 Z-2.517
G01 X390.622 Y103.261 Z-2.119
G01 X389.809 Y103.574 Z-1.806
G01 X389.017 Y103.838 Z-1.542
G01 X388.356 Y104.023 Z-1.357
G01 X387.705 Y104.175 Z-1.204
G01 X387.058 Y104.299 Z-1.081
G01 X386.410 Y104.396 Z-0.983
G01 X385.754 Y104.470 Z-0.910
G01 X385.086 Y104.521 Z-0.858
G01 X384.550 Y104.545 Z-0.834
G01 X383.716 Y105.380 Z0.000
G01 X384.550 Y104.545 Z-0.834
G01 X383.716 Y103.742 Z0.000
G01 X384.550 Y104.545 Z-0.834
G01 X385.143 Y104.518 Z-0.862
G01 X385.819 Y104.464 Z-0.916
G01 X386.485 Y104.386 Z-0.993
G01 X387.145 Y104.284 Z-1.096
G01 X387.806 Y104.153 Z-1.226
G01 X388.474 Y103.992 Z-1.388
G01 X389.130 Y103.803 Z-1.576
G01 X389.922 Y103.532 Z-1.848
G01 X390.758 Y103.206 Z-2.173
G01 X391.690 Y102.809 Z-2.570
G01 X392.726 Y102.339 Z-3.040
G01 X393.871 Y101.795 Z-3.585
G01 X395.258 Y101.108 Z-4.272
G01 X395.455 Y100.591 Z-4.127
G01 X395.741 Y99.948 Z-3.980
G01 X396.069 Y99.281 Z-3.867
G01 X396.543 Y98.425 Z-3.767
G01 X397.173 Y97.401 Z-3.703
G01 X398.009 Y96.152 Z-3.682
G01 X399.441 Y94.031 Z-3.655
G01 X402.492 Y89.391 Z-3.530
G01 X402.826 Y88.947 Z-3.552
G01 X403.196 Y88.527 Z-3.618
G01 X403.530 Y88.197 Z-3.705
G01 X403.762 Y87.644 Z-3.582
G01 X403.947 Y87.275 Z-3.527
G01 X404.092 Y86.995 Z-3.513
G01 X404.303 Y86.588 Z-3.543
G01 X404.473 Y86.236 Z-3.604
G01 X404.591 Y85.959 Z-3.665
G01 X404.129 Y85.637 Z-3.167
G01 X403.378 Y85.116 Z-2.420
G01 X403.094 Y84.918 Z-2.171
G01 X402.768 Y84.691 Z-1.922
G01 X402.452 Y84.472 Z-1.736
G01 X402.310 Y84.373 Z-1.673
G01 X402.069 Y84.190 Z-1.592
G01 X401.809 Y83.946 Z-1.530
G01 X401.579 Y83.675 Z-1.510
G01 X394.337 Y74.029 Z-1.526
G01 X393.140 Y72.391 Z-1.563
G01 X392.296 Y71.186 Z-1.635
G01 X391.884 Y70.550 Z-1.707
G01 X391.579 Y70.021 Z-1.803
G01 X391.329 Y69.478 Z-1.951
G01 X391.135 Y68.928 Z-2.158
G01 X390.929 Y68.175 Z-2.487
G01 X390.808 Y67.616 Z-2.767
G01 X389.243 Y66.934 Z-2.086
G01 X388.392 Y66.594 Z-1.745
G01 X387.656 Y66.330 Z-1.481
G01 X386.827 Y66.086 Z-1.237
G01 X386.304 Y65.959 Z-1.110
G01 X385.429 Y65.794 Z-0.945
G01 X384.899 Y65.721 Z-0.873
G01 X384.026 Y66.441 Z0.000
G01 X384.899 Y65.721 Z-0.873
G01 X384.026 Y64.849 Z0.000
G01 X384.899 Y65.721 Z-0.873
G01 X385.488 Y65.803 Z-0.954
G01 X386.304 Y65.959 Z-1.110
G01 X386.827 Y66.086 Z-1.237
G01 X387.656 Y66.330 Z-1.481
G01 X388.510 Y66.639 Z-1.791
G01 X389.339 Y66.974 Z-2.126
G01 X390.808 Y67.616 Z-2.767
G01 X391.548 Y67.141 Z-2.293
G01 X392.040 Y66.867 Z-2.019
G01 X392.501 Y66.640 Z-1.791
G01 X393.263 Y66.320 Z-1.471
G01 X393.879 Y66.110 Z-1.262
G01 X394.342 Y65.984 Z-1.136
G01 X394.800 Y65.883 Z-1.035
G01 X395.261 Y65.803 Z-0.955
G01 X395.730 Y65.741 Z-0.892
G01 X396.423 Y65.681 Z-0.833
G01 X397.256 Y64.849 Z0.000
G01 X396.423 Y65.681 Z-0.833
G01 X397.256 Y66.441 Z0.000
G01 X396.423 Y65.681 Z-0.833
G01 X395.664 Y65.749 Z-0.900
G01 X395.181 Y65.816 Z-0.967
G01 X394.703 Y65.903 Z-1.054
G01 X394.225 Y66.014 Z-1.165
G01 X393.737 Y66.154 Z-1.306
G01 X393.263 Y66.320 Z-1.471
G01 X392.501 Y66.640 Z-1.791
G01 X391.823 Y66.984 Z-2.135
G01 X391.281 Y67.304 Z-2.455
G01 X390.808 Y67.616 Z-2.767
G01 X390.977 Y68.369 Z-2.397
G01 X391.135 Y68.928 Z-2.158
G01 X391.350 Y69.529 Z-1.935
G01 X391.579 Y70.021 Z-1.803
G01 X391.971 Y70.688 Z-1.687
G01 X392.296 Y71.186 Z-1.635
G01 X393.163 Y72.423 Z-1.562
G01 X394.350 Y74.047 Z-1.526
G01 X401.581 Y83.677 Z-1.510
G01 X401.809 Y83.946 Z-1.530
G01 X402.069 Y84.190 Z-1.592
G01 X402.310 Y84.373 Z-1.673
G01 X402.570 Y84.554 Z-1.798
G01 X402.768 Y84.691 Z-1.922
G01 X403.094 Y84.918 Z-2.171
G01 X403.641 Y85.298 Z-2.669
G01 X404.129 Y85.637 Z-3.167
G01 X404.591 Y85.959 Z-3.665
G01 X404.931 Y85.628 Z-3.574
G01 X405.308 Y85.206 Z-3.506
G01 X405.663 Y84.735 Z-3.484
G01 X412.340 Y75.043 Z-3.532
G01 X413.541 Y73.234 Z-3.579
G01 X414.314 Y71.993 Z-3.652
G01 X414.782 Y71.186 Z-3.735
G01 X415.151 Y70.478 Z-3.843
G01 X415.425 Y69.892 Z-3.967
G01 X415.709 Y69.167 Z-4.166
G01 X415.750 Y69.051 Z-4.203
G01 X415.202 Y68.521 Z-3.673
G01 X414.570 Y67.966 Z-3.117
G01 X413.979 Y67.506 Z-2.658
G01 X413.431 Y67.133 Z-2.284
G01 X412.923 Y66.832 Z-1.983
G01 X412.253 Y66.502 Z-1.653
G01 X411.591 Y66.245 Z-1.397
G01 X411.014 Y66.062 Z-1.214
G01 X410.538 Y65.940 Z-1.092
G01 X410.068 Y65.843 Z-0.995
G01 X409.596 Y65.769 Z-0.920
G01 X409.116 Y65.713 Z-0.864
G01 X408.427 Y65.665 Z-0.817
G01 X407.610 Y66.441 Z0.000
G01 X408.427 Y65.665 Z-0.817
G01 X407.610 Y64.849 Z0.000
G01 X408.427 Y65.665 Z-0.817
G01 X409.183 Y65.719 Z-0.871
G01 X409.674 Y65.780 Z-0.931
G01 X410.161 Y65.861 Z-1.012
G01 X410.649 Y65.966 Z-1.118
G01 X411.144 Y66.100 Z-1.252
G01 X411.846 Y66.336 Z-1.487
G01 X412.451 Y66.592 Z-1.743
G01 X412.923 Y66.832 Z-1.983
G01 X413.431 Y67.133 Z-2.284
G01 X413.979 Y67.506 Z-2.658
G01 X414.570 Y67.966 Z-3.117
G01 X415.202 Y68.521 Z-3.673
G01 X415.750 Y69.051 Z-4.203
G01 X416.985 Y68.439 Z-3.590
G01 X418.199 Y67.856 Z-3.008
G01 X419.281 Y67.359 Z-2.511
G01 X420.240 Y66.945 Z-2.096
G01 X421.044 Y66.627 Z-1.778
G01 X421.809 Y66.368 Z-1.519
G01 X422.406 Y66.200 Z-1.351
G01 X422.998 Y66.059 Z-1.210
G01 X423.589 Y65.942 Z-1.093
G01 X424.184 Y65.846 Z-0.998
G01 X424.790 Y65.770 Z-0.921
G01 X425.409 Y65.712 Z-0.863
G01 X425.894 Y65.680 Z-0.831
G01 X426.725 Y64.849 Z0.000
G01 X425.894 Y65.680 Z-0.831
G01 X426.725 Y66.441 Z0.000
G01 X425.894 Y65.680 Z-0.831
G01 X425.358 Y65.716 Z-0.867
G01 X424.731 Y65.777 Z-0.928
G01 X424.116 Y65.856 Z-1.008
G01 X423.508 Y65.957 Z-1.108
G01 X422.903 Y66.080 Z-1.231
G01 X422.295 Y66.229 Z-1.381
G01 X421.432 Y66.488 Z-1.640
G01 X420.925 Y66.672 Z-1.823
G01 X420.108 Y67.000 Z-2.151
G01 X419.170 Y67.409 Z-2.560
G01 X418.101 Y67.903 Z-3.054
G01 X416.895 Y68.483 Z-3.634
G01 X415.750 Y69.051 Z-4.203
G01 X415.528 Y69.647 Z-4.028
G01 X415.356 Y70.048 Z-3.931
G01 X414.958 Y70.858 Z-3.780
G01 X414.512 Y71.661 Z-3.682
G01 X413.968 Y72.561 Z-3.612
G01 X412.929 Y74.168 Z-3.548
G01 X411.625 Y76.085 Z-3.524
G01 X405.647 Y84.757 Z-3.483
G01 X405.308 Y85.206 Z-3.506
G01 X404.931 Y85.628 Z-3.574
G01 X404.591 Y85.959 Z-3.665
G01 X404.473 Y86.236 Z-3.604
G01 X404.241 Y86.707 Z-3.528
G01 X404.092 Y86.995 Z-3.513
G01 X403.887 Y87.392 Z-3.541
G01 X403.669 Y87.851 Z-3.623
G01 X403.530 Y88.197 Z-3.705
G01 X403.992 Y88.498 Z-3.222
G01 X404.744 Y88.988 Z-2.496
G01 X405.028 Y89.173 Z-2.255
G01 X405.354 Y89.385 Z-2.013
G01 X405.548 Y89.511 Z-1.892
G01 X405.928 Y89.762 Z-1.719
G01 X406.263 Y90.035 Z-1.614
G01 X406.466 Y90.240 Z-1.575
G01 X406.664 Y90.484 Z-1.562
G01 X410.804 Y96.124 Z-1.627
G01 X412.073 Y97.910 Z-1.689
G01 X412.641 Y98.737 Z-1.748
G01 X413.118 Y99.464 Z-1.825
G01 X413.628 Y100.295 Z-1.963
G01 X413.885 Y100.774 Z-2.076
G01 X414.151 Y101.351 Z-2.256
G01 X414.349 Y101.885 Z-2.462
G01 X414.571 Y102.594 Z-2.786
G01 X416.054 Y103.206 Z-2.173
G01 X417.004 Y103.562 Z-1.817
G01 X417.869 Y103.850 Z-1.530
G01 X418.446 Y104.011 Z-1.368
G01 X419.013 Y104.149 Z-1.231
G01 X419.574 Y104.264 Z-1.115
G01 X420.132 Y104.359 Z-1.020
G01 X420.691 Y104.436 Z-0.944
G01 X421.571 Y104.517 Z-0.862
G01 X422.433 Y103.742 Z0.000
G01 X421.571 Y104.517 Z-0.862
G01 X422.433 Y105.380 Z0.000
G01 X421.571 Y104.517 Z-0.862
G01 X420.630 Y104.428 Z-0.951
G01 X420.063 Y104.349 Z-1.031
G01 X419.496 Y104.250 Z-1.130
G01 X418.926 Y104.129 Z-1.250
G01 X418.348 Y103.985 Z-1.394
G01 X417.717 Y103.803 Z-1.577
G01 X416.875 Y103.516 Z-1.864
G01 X415.935 Y103.160 Z-2.220
G01 X414.571 Y102.594 Z-2.786
G01 X413.939 Y103.064 Z-2.315
G01 X413.262 Y103.491 Z-1.889
G01 X412.663 Y103.803 Z-1.577
G01 X412.049 Y104.063 Z-1.317
G01 X411.505 Y104.242 Z-1.137
G01 X411.121 Y104.339 Z-1.040
G01 X410.742 Y104.414 Z-0.966
G01 X410.034 Y104.506 Z-0.874
G01 X409.556 Y104.540 Z-0.840
G01 X408.716 Y105.380 Z0.000
G01 X409.556 Y104.540 Z-0.840
G01 X408.716 Y103.742 Z0.000
G01 X409.556 Y104.540 Z-0.840
G01 X410.034 Y104.506 Z-0.874
G01 X410.742 Y104.414 Z-0.966
G01 X411.239 Y104.312 Z-1.068
G01 X411.651 Y104.199 Z-1.181
G01 X412.049 Y104.063 Z-1.317
G01 X412.663 Y103.803 Z-1.577
G01 X413.262 Y103.491 Z-1.889
G01 X413.939 Y103.064 Z-2.315
G01 X414.571 Y102.594 Z-2.786
G01 X414.328 Y101.827 Z-2.438
G01 X414.087 Y101.199 Z-2.204
G01 X413.797 Y100.607 Z-2.031
G01 X413.429 Y99.957 Z-1.901
G01 X413.044 Y99.348 Z-1.810
G01 X412.297 Y98.238 Z-1.709
G01 X411.423 Y96.987 Z-1.649
G01 X410.023 Y95.056 Z-1.612
G01 X406.647 Y90.462 Z-1.561
G01 X406.384 Y90.153 Z-1.588
G01 X406.079 Y89.877 Z-1.666
G01 X405.794 Y89.671 Z-1.771
G01 X405.548 Y89.511 Z-1.892
G01 X405.354 Y89.385 Z-2.013
G01 X405.028 Y89.173 Z-2.255
G01 X404.481 Y88.817 Z-2.738
G01 X403.992 Y88.498 Z-3.222
G01 X403.530 Y88.197 Z-3.705
G01 X403.196 Y88.527 Z-3.618
G01 X402.826 Y88.947 Z-3.552
G01 X402.402 Y89.525 Z-3.532
G01 X399.441 Y94.031 Z-3.655
G01 X397.580 Y96.781 Z-3.686
G01 X396.887 Y97.853 Z-3.725
G01 X396.385 Y98.703 Z-3.795
G01 X396.069 Y99.281 Z-3.867
G01 X395.707 Y100.023 Z-3.996
G01 X395.455 Y100.591 Z-4.127
G01 X395.258 Y101.108 Z-4.272
G00 Z5.000
G00 X460.519 Y94.521  F4000.0
G01 Z-4.407 F200.0 M3
G01 X461.476 Y93.773 Z-3.659 F2000.0
G01 X462.172 Y93.193 Z-3.079
G01 X462.920 Y92.543 Z-2.429
G01 X463.720 Y91.817 Z-1.703
G01 X464.574 Y91.009 Z-0.895
G01 X465.486 Y90.114 Z0.000
G01 X464.574 Y91.009 Z-0.895
G01 X463.720 Y91.817 Z-1.703
G01 X462.920 Y92.543 Z-2.429
G01 X462.172 Y93.193 Z-3.079
G01 X461.476 Y93.773 Z-3.659
G01 X460.519 Y94.521 Z-4.407
G01 X460.335 Y95.399 Z-4.316
G01 X460.192 Y95.961 Z-4.243
G01 X459.943 Y96.770 Z-4.121
G01 X459.644 Y97.580 Z-3.983
G01 X459.299 Y98.344 Z-3.833
G01 X458.874 Y99.132 Z-3.672
G01 X458.497 Y99.719 Z-3.546
G01 X457.948 Y100.455 Z-3.382
G01 X457.359 Y101.138 Z-3.220
G01 X456.731 Y101.763 Z-3.056
G01 X456.070 Y102.331 Z-2.895
G01 X455.379 Y102.837 Z-2.733
G01 X454.579 Y103.335 Z-2.560
G01 X453.931 Y103.677 Z-2.423
G01 X453.187 Y104.010 Z-2.276
G01 X452.442 Y104.290 Z-2.135
G01 X451.700 Y104.520 Z-2.003
G01 X450.963 Y104.701 Z-1.883
G01 X450.234 Y104.837 Z-1.775
G01 X449.511 Y104.929 Z-1.680
G01 X448.795 Y104.981 Z-1.603
G01 X448.084 Y104.994 Z-1.540
G01 X447.198 Y104.950 Z-1.479
G01 X446.332 Y104.850 Z-1.431
G01 X445.400 Y104.673 Z-1.396
G01 X444.664 Y104.479 Z-1.383
G01 X443.851 Y104.208 Z-1.377
G01 X442.959 Y103.830 Z-1.387
G01 X442.343 Y103.521 Z-1.406
G01 X441.515 Y103.034 Z-1.437
G01 X440.923 Y102.633 Z-1.470
G01 X440.186 Y102.069 Z-1.515
G01 X439.602 Y101.564 Z-1.560
G01 X438.901 Y100.877 Z-1.622
G01 X438.388 Y100.309 Z-1.683
G01 X437.746 Y99.501 Z-1.773
G01 X437.313 Y98.881 Z-1.851
G01 X436.785 Y98.017 Z-1.956
G01 X436.426 Y97.346 Z-2.041
G01 X436.051 Y96.537 Z-2.142
G01 X435.668 Y95.571 Z-2.256
G01 X435.422 Y94.843 Z-2.345
G01 X435.168 Y93.955 Z-2.448
G01 X434.935 Y92.965 Z-2.558
G01 X434.854 Y92.424 Z-2.636
G01 X434.830 Y92.077 Z-2.715
G01 X434.838 Y91.705 Z-2.814
G01 X434.862 Y91.397 Z-2.913
G01 X434.759 Y91.089 Z-2.888
G01 X434.663 Y90.699 Z-2.874
G01 X434.572 Y90.103 Z-2.905
G01 X434.482 Y88.871 Z-3.010
G01 X434.441 Y87.678 Z-3.104
G01 X434.445 Y86.504 Z-3.194
G01 X434.489 Y85.348 Z-3.283
G01 X434.574 Y84.210 Z-3.373
G01 X434.701 Y83.090 Z-3.466
G01 X434.871 Y81.987 Z-3.558
G01 X435.087 Y80.901 Z-3.652
G01 X435.394 Y79.681 Z-3.760
G01 X435.665 Y78.789 Z-3.835
G01 X436.035 Y77.766 Z-3.920
G01 X436.458 Y76.768 Z-4.000
G01 X436.937 Y75.797 Z-4.076
G01 X437.477 Y74.862 Z-4.138
G01 X437.943 Y74.150 Z-4.181
G01 X438.582 Y73.283 Z-4.227
G01 X439.254 Y72.488 Z-4.254
G01 X439.943 Y71.760 Z-4.269
G01 X440.818 Y70.940 Z-4.275
G01 X441.584 Y70.307 Z-4.271
G01 X442.383 Y69.729 Z-4.255
G01 X443.211 Y69.207 Z-4.227
G01 X444.068 Y68.749 Z-4.184
G01 X444.949 Y68.352 Z-4.129
G01 X445.850 Y68.024 Z-4.058
G01 X446.766 Y67.758 Z-3.980
G01 X447.692 Y67.557 Z-3.892
G01 X448.623 Y67.417 Z-3.799
G01 X449.557 Y67.332 Z-3.706
G01 X450.490 Y67.311 Z-3.603
G01 X451.422 Y67.348 Z-3.495
G01 X452.314 Y67.447 Z-3.376
G01 X453.193 Y67.601 Z-3.249
G01 X454.104 Y67.830 Z-3.094
G01 X454.930 Y68.097 Z-2.946
G01 X455.769 Y68.437 Z-2.776
G01 X456.293 Y68.684 Z-2.666
G01 X456.799 Y68.949 Z-2.556
G01 X457.289 Y69.233 Z-2.447
G01 X457.875 Y69.611 Z-2.313
G01 X458.655 Y70.182 Z-2.127
G01 X459.427 Y70.823 Z-1.951
G01 X460.215 Y71.562 Z-1.781
G01 X460.714 Y72.091 Z-1.679
G01 X461.373 Y72.875 Z-1.549
G01 X461.714 Y73.325 Z-1.488
G01 X462.063 Y73.824 Z-1.426
G01 X462.636 Y74.741 Z-1.321
G01 X463.151 Y75.688 Z-1.227
G01 X463.500 Y76.415 Z-1.154
G01 X463.755 Y77.000 Z-1.098
G01 X464.017 Y77.663 Z-1.032
G01 X464.429 Y78.866 Z-0.905
G01 X464.532 Y79.209 Z-0.869
G01 X465.486 Y79.627 Z0.000
G01 X464.532 Y79.209 Z-0.869
G01 X464.114 Y80.512 Z0.000
G01 X464.532 Y79.209 Z-0.869
G01 X464.214 Y78.212 Z-0.975
G01 X463.985 Y77.581 Z-1.039
G01 X463.742 Y76.970 Z-1.100
G01 X463.463 Y76.334 Z-1.163
G01 X462.952 Y75.307 Z-1.263
G01 X462.453 Y74.433 Z-1.357
G01 X462.008 Y73.743 Z-1.435
G01 X461.645 Y73.230 Z-1.501
G01 X461.020 Y72.442 Z-1.616
G01 X460.595 Y71.961 Z-1.701
G01 X459.883 Y71.241 Z-1.850
G01 X459.078 Y70.522 Z-2.031
G01 X458.477 Y70.045 Z-2.171
G01 X457.677 Y69.480 Z-2.356
G01 X457.199 Y69.179 Z-2.466
G01 X456.687 Y68.887 Z-2.582
G01 X456.098 Y68.587 Z-2.710
G01 X455.230 Y68.212 Z-2.884
G01 X454.351 Y67.902 Z-3.053
G01 X453.520 Y67.676 Z-3.193
G01 X452.610 Y67.491 Z-3.337
G01 X452.020 Y67.408 Z-3.420
G01 X451.226 Y67.336 Z-3.518
G01 X450.284 Y67.310 Z-3.627
G01 X449.342 Y67.348 Z-3.727
G01 X448.402 Y67.445 Z-3.822
G01 X447.466 Y67.599 Z-3.915
G01 X446.540 Y67.818 Z-3.999
G01 X445.590 Y68.110 Z-4.082
G01 X444.732 Y68.444 Z-4.142
G01 X443.856 Y68.853 Z-4.197
G01 X443.014 Y69.325 Z-4.234
G01 X442.198 Y69.854 Z-4.261
G01 X441.415 Y70.441 Z-4.272
G01 X440.606 Y71.127 Z-4.277
G01 X439.943 Y71.760 Z-4.269
G01 X439.254 Y72.488 Z-4.254
G01 X438.579 Y73.286 Z-4.227
G01 X437.943 Y74.150 Z-4.181
G01 X437.477 Y74.862 Z-4.138
G01 X436.937 Y75.797 Z-4.076
G01 X436.458 Y76.768 Z-4.000
G01 X436.035 Y77.766 Z-3.920
G01 X435.608 Y78.969 Z-3.819
G01 X435.306 Y80.007 Z-3.729
G01 X435.052 Y81.065 Z-3.637
G01 X434.845 Y82.140 Z-3.546
G01 X434.647 Y83.518 Z-3.434
G01 X434.541 Y84.585 Z-3.347
G01 X434.468 Y85.757 Z-3.255
G01 X434.438 Y86.896 Z-3.168
G01 X434.447 Y87.999 Z-3.082
G01 X434.493 Y89.068 Z-2.996
G01 X434.592 Y90.279 Z-2.890
G01 X434.663 Y90.699 Z-2.874
G01 X434.759 Y91.089 Z-2.888
G01 X434.862 Y91.397 Z-2.913
G01 X435.817 Y91.397 Z-2.098
G01 X436.376 Y91.397 Z-1.691
G01 X436.726 Y91.397 Z-1.487
G01 X436.956 Y91.397 Z-1.385
G01 X437.296 Y91.397 Z-1.296
G01 X437.477 Y91.397 Z-1.283
G01 X456.238 Y91.397 
G01 X456.581 Y91.420 Z-1.306
G01 X456.924 Y91.489 Z-1.375
G01 X457.208 Y91.581 Z-1.467
G01 X457.610 Y91.764 Z-1.650
G01 X457.919 Y91.948 Z-1.833
G01 X458.179 Y92.131 Z-2.017
G01 X458.615 Y92.498 Z-2.384
G01 X458.983 Y92.865 Z-2.751
G01 X460.519 Y94.521 Z-4.407
G00 Z5.000
G01 Z-4.407 F200.0 M3
G01 X458.805 Y92.681 Z-2.567 F2000.0
G01 X458.408 Y92.314 Z-2.200
G01 X458.179 Y92.131 Z-2.017
G01 X457.919 Y91.948 Z-1.833
G01 X457.610 Y91.764 Z-1.650
G01 X457.208 Y91.581 Z-1.467
G01 X456.924 Y91.489 Z-1.375
G01 X456.581 Y91.420 Z-1.306
G01 X456.238 Y91.397 Z-1.283
G01 X437.477 Y91.397 
G01 X437.220 Y91.397 Z-1.309
G01 X436.956 Y91.397 Z-1.385
G01 X436.540 Y91.397 Z-1.589
G01 X436.084 Y91.397 Z-1.894
G01 X435.325 Y91.397 Z-2.505
G01 X434.862 Y91.397 Z-2.913
G01 X434.838 Y91.705 Z-2.814
G01 X434.830 Y92.077 Z-2.715
G01 X434.854 Y92.424 Z-2.636
G01 X434.935 Y92.965 Z-2.558
G01 X435.168 Y93.955 Z-2.448
G01 X435.476 Y95.010 Z-2.323
G01 X435.715 Y95.704 Z-2.242
G01 X436.051 Y96.537 Z-2.142
G01 X436.484 Y97.458 Z-2.025
G01 X436.847 Y98.127 Z-1.944
G01 X437.394 Y99.001 Z-1.834
G01 X437.828 Y99.612 Z-1.762
G01 X438.388 Y100.309 Z-1.683
G01 X438.980 Y100.961 Z-1.615
G01 X439.602 Y101.564 Z-1.560
G01 X440.250 Y102.122 Z-1.512
G01 X441.066 Y102.734 Z-1.459
G01 X441.620 Y103.101 Z-1.434
G01 X442.431 Y103.567 Z-1.401
G01 X443.091 Y103.892 Z-1.387
G01 X443.918 Y104.232 Z-1.377
G01 X444.664 Y104.479 Z-1.383
G01 X445.486 Y104.692 Z-1.400
G01 X446.421 Y104.862 Z-1.434
G01 X447.198 Y104.950 Z-1.479
G01 X448.201 Y104.994 Z-1.549
G01 X448.990 Y104.972 Z-1.625
G01 X449.638 Y104.916 Z-1.696
G01 X450.364 Y104.816 Z-1.793
G01 X451.097 Y104.671 Z-1.904
G01 X451.835 Y104.481 Z-2.027
G01 X452.773 Y104.172 Z-2.201
G01 X453.407 Y103.918 Z-2.321
G01 X454.092 Y103.597 Z-2.456
G01 X454.833 Y103.186 Z-2.612
G01 X455.551 Y102.719 Z-2.773
G01 X456.240 Y102.192 Z-2.935
G01 X456.897 Y101.607 Z-3.099
G01 X457.517 Y100.965 Z-3.262
G01 X458.095 Y100.269 Z-3.425
G01 X458.660 Y99.474 Z-3.597
G01 X459.051 Y98.821 Z-3.735
G01 X459.417 Y98.101 Z-3.884
G01 X459.714 Y97.400 Z-4.014
G01 X460.029 Y96.510 Z-4.164
G01 X460.241 Y95.775 Z-4.266
G01 X460.463 Y94.821 Z-4.379
G01 X460.519 Y94.521 Z-4.407
G00 Z5.000
G00 X477.773 Y122.309  F4000.0
G01 Z-4.217 F200.0 M3
G01 X477.965 Y121.300 Z-4.026 F2000.0
G01 X478.079 Y120.497 Z-3.912
G01 X478.149 Y119.842 Z-3.841
G01 X478.203 Y119.140 Z-3.788
G01 X478.273 Y117.465 Z-3.717
G01 X478.298 Y116.402 Z-3.693
G01 X478.330 Y113.877 Z-3.661
G01 X478.340 Y110.734 Z-3.650
G01 X478.340 Y98.388 
G01 X478.357 Y97.888 Z-3.668
G01 X478.409 Y97.387 Z-3.719
G01 X478.477 Y96.972 Z-3.788
G01 X478.409 Y96.558 Z-3.719
G01 X478.349 Y95.911 Z-3.659
G01 X478.340 Y95.557 Z-3.650
G01 X478.340 Y71.309 
G01 X478.361 Y70.756 Z-3.671
G01 X476.736 Y69.848 Z-2.046
G01 X474.689 Y68.742 Z0.000
G01 X476.736 Y69.848 Z-2.046
G01 X478.361 Y70.756 Z-3.671
G01 X478.721 Y70.267 Z-3.431
G01 X479.099 Y69.834 Z-3.245
G01 X479.398 Y69.547 Z-3.134
G01 X479.842 Y69.183 Z-3.022
G01 X480.659 Y68.614 Z-2.874
G01 X481.405 Y68.133 Z-2.746
G01 X482.188 Y67.669 Z-2.616
G01 X482.972 Y67.246 Z-2.493
G01 X483.757 Y66.863 Z-2.376
G01 X484.545 Y66.520 Z-2.264
G01 X485.335 Y66.217 Z-2.157
G01 X486.129 Y65.955 Z-2.056
G01 X486.926 Y65.735 Z-1.961
G01 X487.924 Y65.518 Z-1.849
G01 X488.752 Y65.390 Z-1.766
G01 X489.477 Y65.314 Z-1.701
G01 X490.200 Y65.273 Z-1.643
G01 X491.054 Y65.273 Z-1.581
G01 X491.903 Y65.321 Z-1.528
G01 X492.745 Y65.427 Z-1.490
G01 X493.570 Y65.596 Z-1.476
G01 X494.383 Y65.823 Z-1.480
G01 X495.181 Y66.108 Z-1.501
G01 X495.960 Y66.451 Z-1.541
G01 X496.799 Y66.888 Z-1.598
G01 X497.464 Y67.288 Z-1.658
G01 X498.188 Y67.781 Z-1.735
G01 X499.042 Y68.439 Z-1.834
G01 X499.654 Y68.962 Z-1.916
G01 X500.258 Y69.523 Z-2.003
G01 X500.914 Y70.190 Z-2.104
G01 X501.557 Y70.909 Z-2.216
G01 X501.905 Y71.330 Z-2.283
G01 X502.556 Y72.199 Z-2.427
G01 X502.899 Y72.701 Z-2.507
G01 X503.413 Y73.531 Z-2.643
G01 X503.909 Y74.436 Z-2.786
G01 X504.351 Y75.351 Z-2.924
G01 X504.741 Y76.278 Z-3.055
G01 X505.085 Y77.218 Z-3.178
G01 X505.384 Y78.172 Z-3.293
G01 X505.641 Y79.144 Z-3.398
G01 X505.857 Y80.135 Z-3.494
G01 X506.035 Y81.149 Z-3.581
G01 X506.175 Y82.189 Z-3.657
G01 X506.276 Y83.236 Z-3.722
G01 X506.342 Y84.359 Z-3.779
G01 X506.367 Y85.493 Z-3.828
G01 X506.347 Y86.673 Z-3.873
G01 X506.295 Y87.677 Z-3.909
G01 X506.212 Y88.652 Z-3.944
G01 X506.100 Y89.587 Z-3.978
G01 X505.960 Y90.483 Z-4.009
G01 X505.793 Y91.340 Z-4.038
G01 X505.577 Y92.246 Z-4.066
G01 X505.312 Y93.165 Z-4.093
G01 X505.004 Y94.062 Z-4.117
G01 X504.596 Y95.065 Z-4.142
G01 X504.254 Y95.782 Z-4.150
G01 X503.807 Y96.598 Z-4.155
G01 X503.315 Y97.382 Z-4.154
G01 X502.773 Y98.128 Z-4.143
G01 X502.212 Y98.808 Z-4.125
G01 X501.542 Y99.535 Z-4.103
G01 X501.055 Y100.012 Z-4.079
G01 X500.440 Y100.555 Z-4.044
G01 X499.722 Y101.117 Z-3.997
G01 X499.139 Y101.514 Z-3.947
G01 X498.453 Y101.922 Z-3.881
G01 X497.747 Y102.278 Z-3.804
G01 X497.023 Y102.580 Z-3.716
G01 X496.287 Y102.827 Z-3.620
G01 X495.542 Y103.020 Z-3.515
G01 X494.676 Y103.180 Z-3.393
G01 X494.046 Y103.251 Z-3.296
G01 X493.299 Y103.279 Z-3.172
G01 X492.547 Y103.251 Z-3.037
G01 X491.829 Y103.170 Z-2.897
G01 X491.106 Y103.038 Z-2.749
G01 X490.361 Y102.850 Z-2.590
G01 X489.396 Y102.526 Z-2.379
G01 X488.620 Y102.202 Z-2.207
G01 X487.711 Y101.748 Z-2.001
G01 X486.972 Y101.319 Z-1.840
G01 X486.174 Y100.790 Z-1.670
G01 X485.332 Y100.160 Z-1.494
G01 X484.504 Y99.445 Z-1.341
G01 X483.675 Y98.647 Z-1.196
G01 X482.834 Y97.759 Z-1.052
G01 X482.601 Y97.545 Z-1.042
G01 X482.399 Y97.399 Z-1.070
G01 X482.094 Y97.238 Z-1.155
G01 X481.778 Y97.123 Z-1.283
G01 X481.450 Y97.043 Z-1.450
G01 X481.162 Y97.000 Z-1.617
G01 X480.647 Y96.972 Z-1.951
G01 X480.039 Y96.972 Z-2.411
G01 X478.978 Y96.972 Z-3.329
G01 X478.477 Y96.972 Z-3.788
G01 X478.409 Y97.387 Z-3.719
G01 X478.349 Y98.034 Z-3.659
G01 X478.340 Y98.388 Z-3.650
G01 X478.340 Y110.758 Z-3.650
G01 X478.329 Y113.946 Z-3.661
G01 X478.296 Y116.485 Z-3.694
G01 X478.237 Y118.490 Z-3.754
G01 X478.189 Y119.355 Z-3.802
G01 X478.124 Y120.104 Z-3.867
G01 X478.002 Y121.062 Z-3.988
G01 X477.853 Y121.923 Z-4.137
G01 X477.773 Y122.309 Z-4.217
G01 X480.325 Y126.104 Z-1.665
G01 X481.990 Y127.769 Z0.000
G01 X480.325 Y126.104 Z-1.665
G01 X479.999 Y127.769 Z0.000
G01 X480.325 Y126.104 Z-1.665
G01 X477.773 Y122.309 Z-4.217
G01 X477.073 Y122.568 Z-3.713
G01 X476.320 Y122.812 Z-3.203
G01 X475.610 Y123.002 Z-2.759
G01 X474.943 Y123.138 Z-2.381
G01 X474.166 Y123.240 Z-1.994
G01 X473.476 Y123.278 Z-1.699
G01 X472.921 Y123.271 Z-1.496
G01 X472.299 Y123.221 Z-1.307
G01 X471.587 Y123.112 Z-1.140
G01 X470.792 Y122.931 Z-1.008
G01 X469.932 Y122.682 Z-0.914
G01 X468.942 Y122.341 Z-0.856
G01 X467.831 Y122.813 Z0.000
G01 X468.942 Y122.341 Z-0.856
G01 X468.451 Y121.265 Z0.000
G01 X468.942 Y122.341 Z-0.856
G01 X469.970 Y122.694 Z-0.917
G01 X470.792 Y122.931 Z-1.008
G01 X471.587 Y123.112 Z-1.140
G01 X472.299 Y123.221 Z-1.307
G01 X472.921 Y123.271 Z-1.496
G01 X473.476 Y123.278 Z-1.699
G01 X474.166 Y123.240 Z-1.994
G01 X474.943 Y123.138 Z-2.381
G01 X475.610 Y123.002 Z-2.759
G01 X476.320 Y122.812 Z-3.203
G01 X477.073 Y122.568 Z-3.713
G01 X477.773 Y122.309 Z-4.217
G00 Z5.000
G00 X503.621 Y96.907  F4000.0
G01 Z-4.159 F200.0 M3
G01 X503.967 Y96.321 Z-4.157 F2000.0
G01 X504.350 Y95.590 Z-4.147
G01 X504.733 Y94.746 Z-4.132
G01 X505.072 Y93.878 Z-4.113
G01 X505.383 Y92.939 Z-4.089
G01 X505.621 Y92.074 Z-4.061
G01 X505.833 Y91.142 Z-4.029
G01 X506.008 Y90.191 Z-3.996
G01 X506.147 Y89.221 Z-3.961
G01 X506.251 Y88.233 Z-3.925
G01 X506.322 Y87.226 Z-3.889
G01 X506.359 Y86.199 Z-3.851
G01 X506.362 Y85.154 Z-3.811
G01 X506.329 Y84.092 Z-3.764
G01 X506.231 Y82.720 Z-3.692
G01 X506.110 Y81.665 Z-3.620
G01 X505.952 Y80.639 Z-3.538
G01 X505.755 Y79.636 Z-3.447
G01 X505.519 Y78.655 Z-3.346
G01 X505.241 Y77.693 Z-3.235
G01 X504.920 Y76.746 Z-3.116
G01 X504.553 Y75.813 Z-2.989
G01 X504.137 Y74.892 Z-2.855
G01 X503.668 Y73.982 Z-2.716
G01 X503.142 Y73.084 Z-2.572
G01 X502.829 Y72.595 Z-2.490
G01 X502.239 Y71.762 Z-2.355
G01 X501.796 Y71.195 Z-2.260
G01 X501.246 Y70.552 Z-2.155
G01 X500.694 Y69.960 Z-2.065
G01 X500.147 Y69.418 Z-1.985
G01 X499.584 Y68.899 Z-1.908
G01 X498.894 Y68.319 Z-1.819
G01 X498.188 Y67.781 Z-1.735
G01 X497.363 Y67.225 Z-1.647
G01 X496.721 Y66.844 Z-1.594
G01 X495.960 Y66.451 Z-1.541
G01 X495.086 Y66.071 Z-1.496
G01 X494.383 Y65.823 Z-1.480
G01 X493.570 Y65.596 Z-1.476
G01 X492.743 Y65.426 Z-1.490
G01 X491.903 Y65.321 Z-1.528
G01 X490.919 Y65.270 Z-1.588
G01 X490.107 Y65.277 Z-1.649
G01 X489.335 Y65.325 Z-1.715
G01 X488.529 Y65.419 Z-1.791
G01 X487.726 Y65.556 Z-1.873
G01 X486.926 Y65.735 Z-1.961
G01 X486.129 Y65.955 Z-2.056
G01 X485.083 Y66.309 Z-2.187
G01 X484.248 Y66.644 Z-2.302
G01 X483.512 Y66.978 Z-2.409
G01 X482.776 Y67.348 Z-2.521
G01 X482.040 Y67.754 Z-2.639
G01 X481.305 Y68.196 Z-2.762
G01 X480.571 Y68.674 Z-2.890
G01 X479.842 Y69.183 Z-3.022
G01 X479.398 Y69.547 Z-3.134
G01 X479.099 Y69.834 Z-3.245
G01 X478.721 Y70.267 Z-3.431
G01 X478.361 Y70.756 Z-3.671
G01 X478.340 Y71.309 Z-3.650
G01 X478.340 Y95.557 
G01 X478.357 Y96.057 Z-3.668
G01 X478.409 Y96.558 Z-3.719
G01 X478.477 Y96.972 Z-3.788
G01 X479.494 Y96.972 Z-2.870
G01 X480.331 Y96.972 Z-2.181
G01 X480.897 Y96.979 Z-1.784
G01 X481.162 Y97.000 Z-1.617
G01 X481.608 Y97.077 Z-1.366
G01 X481.942 Y97.177 Z-1.212
G01 X482.278 Y97.328 Z-1.098
G01 X482.399 Y97.399 Z-1.070
G01 X482.669 Y97.601 Z-1.040
G01 X482.834 Y97.759 Z-1.052
G01 X483.762 Y98.733 Z-1.209
G01 X484.504 Y99.445 Z-1.341
G01 X485.335 Y100.163 Z-1.495
G01 X486.174 Y100.790 Z-1.670
G01 X487.062 Y101.374 Z-1.859
G01 X487.821 Y101.808 Z-2.028
G01 X488.620 Y102.202 Z-2.207
G01 X489.396 Y102.526 Z-2.379
G01 X490.166 Y102.791 Z-2.549
G01 X490.868 Y102.983 Z-2.701
G01 X491.560 Y103.126 Z-2.845
G01 X492.224 Y103.220 Z-2.976
G01 X492.864 Y103.269 Z-3.096
G01 X493.500 Y103.278 Z-3.207
G01 X494.253 Y103.232 Z-3.328
G01 X495.004 Y103.127 Z-3.438
G01 X495.833 Y102.952 Z-3.559
G01 X496.495 Y102.763 Z-3.648
G01 X497.226 Y102.501 Z-3.742
G01 X497.941 Y102.187 Z-3.827
G01 X498.636 Y101.819 Z-3.899
G01 X499.310 Y101.404 Z-3.962
G01 X499.958 Y100.940 Z-4.012
G01 X500.631 Y100.394 Z-4.057
G01 X501.185 Y99.888 Z-4.085
G01 X501.762 Y99.304 Z-4.109
G01 X502.447 Y98.533 Z-4.136
G01 X502.915 Y97.943 Z-4.147
G01 X503.440 Y97.191 Z-4.154
G01 X503.621 Y96.907 Z-4.159
G00 Z5.000
G00 X520.908 Y81.641  F4000.0
G01 Z-4.259 F200.0 M3
G01 X521.139 Y80.395 Z-4.248 F2000.0
G01 X521.431 Y79.179 Z-4.217
G01 X521.762 Y78.050 Z-4.171
G01 X522.101 Y77.074 Z-4.112
G01 X522.551 Y75.950 Z-4.031
G01 X522.950 Y75.074 Z-3.951
G01 X523.435 Y74.116 Z-3.854
G01 X523.978 Y73.151 Z-3.747
G01 X524.516 Y72.288 Z-3.638
G01 X525.122 Y71.412 Z-3.512
G01 X525.791 Y70.549 Z-3.368
G01 X526.455 Y69.791 Z-3.222
G01 X527.166 Y69.072 Z-3.066
G01 X527.901 Y68.418 Z-2.905
G01 X528.659 Y67.828 Z-2.741
G01 X529.433 Y67.303 Z-2.578
G01 X530.221 Y66.842 Z-2.420
G01 X531.018 Y66.444 Z-2.268
G01 X531.820 Y66.106 Z-2.127
G01 X532.625 Y65.827 Z-1.997
G01 X533.483 Y65.591 Z-1.876
G01 X534.238 Y65.434 Z-1.778
G01 X535.046 Y65.314 Z-1.691
G01 X535.855 Y65.238 Z-1.623
G01 X536.818 Y65.211 Z-1.561
G01 X537.473 Y65.228 Z-1.524
G01 X538.083 Y65.272 Z-1.498
G01 X538.697 Y65.344 Z-1.478
G01 X539.307 Y65.444 Z-1.466
G01 X539.907 Y65.573 Z-1.461
G01 X540.498 Y65.729 Z-1.464
G01 X541.078 Y65.913 Z-1.476
G01 X541.646 Y66.125 Z-1.496
G01 X542.203 Y66.365 Z-1.524
G01 X542.747 Y66.632 Z-1.560
G01 X543.279 Y66.924 Z-1.604
G01 X544.070 Y67.424 Z-1.683
G01 X544.793 Y67.952 Z-1.777
G01 X545.263 Y68.336 Z-1.845
G01 X545.712 Y68.737 Z-1.914
G01 X546.142 Y69.155 Z-1.986
G01 X546.603 Y69.651 Z-2.071
G01 X547.075 Y70.220 Z-2.172
G01 X547.655 Y71.017 Z-2.319
G01 X547.986 Y71.526 Z-2.409
G01 X548.367 Y72.176 Z-2.523
G01 X548.871 Y73.153 Z-2.695
G01 X549.135 Y73.728 Z-2.790
G01 X549.457 Y74.506 Z-2.915
G01 X549.836 Y75.554 Z-3.081
G01 X550.237 Y76.863 Z-3.275
G01 X550.577 Y78.183 Z-3.462
G01 X550.841 Y79.440 Z-3.632
G01 X551.049 Y80.674 Z-3.782
G01 X551.203 Y81.873 Z-3.909
G01 X551.306 Y83.042 Z-4.013
G01 X551.362 Y84.186 Z-4.093
G01 X551.370 Y85.385 Z-4.153
G01 X551.311 Y86.779 Z-4.196
G01 X551.200 Y88.005 Z-4.213
G01 X551.013 Y89.331 Z-4.206
G01 X550.758 Y90.622 Z-4.173
G01 X550.452 Y91.823 Z-4.119
G01 X550.239 Y92.520 Z-4.077
G01 X549.994 Y93.245 Z-4.021
G01 X549.533 Y94.416 Z-3.914
G01 X549.016 Y95.541 Z-3.792
G01 X548.416 Y96.676 Z-3.654
G01 X547.827 Y97.648 Z-3.517
G01 X547.259 Y98.491 Z-3.389
G01 X546.973 Y98.883 Z-3.330
G01 X546.423 Y99.586 Z-3.204
G01 X545.694 Y100.417 Z-3.039
G01 X544.914 Y101.205 Z-2.861
G01 X544.288 Y101.768 Z-2.717
G01 X543.605 Y102.315 Z-2.566
G01 X542.882 Y102.827 Z-2.413
G01 X542.117 Y103.300 Z-2.259
G01 X541.200 Y103.783 Z-2.086
G01 X540.554 Y104.068 Z-1.974
G01 X539.907 Y104.320 Z-1.875
G01 X539.072 Y104.586 Z-1.762
G01 X538.097 Y104.826 Z-1.647
G01 X537.077 Y104.996 Z-1.552
G01 X536.046 Y105.095 Z-1.478
G01 X535.287 Y105.119 Z-1.438
G01 X534.593 Y105.106 Z-1.408
G01 X533.712 Y105.034 Z-1.388
G01 X533.146 Y104.955 Z-1.381
G01 X532.537 Y104.840 Z-1.382
G01 X531.855 Y104.671 Z-1.393
G01 X530.935 Y104.380 Z-1.426
G01 X530.397 Y104.177 Z-1.449
G01 X529.809 Y103.926 Z-1.480
G01 X529.127 Y103.596 Z-1.522
G01 X528.384 Y103.178 Z-1.586
G01 X527.659 Y102.696 Z-1.674
G01 X526.951 Y102.150 Z-1.785
G01 X526.264 Y101.533 Z-1.912
G01 X525.575 Y100.818 Z-2.058
G01 X524.940 Y100.057 Z-2.205
G01 X524.335 Y99.225 Z-2.359
G01 X523.771 Y98.343 Z-2.512
G01 X523.248 Y97.404 Z-2.669
G01 X522.738 Y96.335 Z-2.841
G01 X522.230 Y95.075 Z-3.038
G01 X521.780 Y93.731 Z-3.242
G01 X521.420 Y92.438 Z-3.432
G01 X521.132 Y91.178 Z-3.606
G01 X520.895 Y89.837 Z-3.774
G01 X520.714 Y88.383 Z-3.932
G01 X520.622 Y87.182 Z-4.040
G01 X520.584 Y85.852 Z-4.133
G01 X520.605 Y84.723 Z-4.190
G01 X520.671 Y83.652 Z-4.225
G01 X520.801 Y82.388 Z-4.253
G01 X520.908 Y81.641 Z-4.259
G00 Z5.000
G01 Z-4.259 F200.0 M3
G01 X520.772 Y82.628 Z-4.247 F2000.0
G01 X520.650 Y83.924 Z-4.219
G01 X520.590 Y85.283 Z-4.165
G01 X520.593 Y86.424 Z-4.098
G01 X520.647 Y87.578 Z-4.009
G01 X520.753 Y88.751 Z-3.897
G01 X520.915 Y89.974 Z-3.758
G01 X521.176 Y91.386 Z-3.576
G01 X521.495 Y92.732 Z-3.387
G01 X521.868 Y94.013 Z-3.198
G01 X522.287 Y95.227 Z-3.014
G01 X522.738 Y96.335 Z-2.841
G01 X523.252 Y97.412 Z-2.668
G01 X523.771 Y98.343 Z-2.512
G01 X524.416 Y99.344 Z-2.337
G01 X525.033 Y100.174 Z-2.182
G01 X525.650 Y100.902 Z-2.040
G01 X526.320 Y101.587 Z-1.901
G01 X527.012 Y102.200 Z-1.775
G01 X527.724 Y102.742 Z-1.665
G01 X528.452 Y103.218 Z-1.579
G01 X529.199 Y103.633 Z-1.518
G01 X529.887 Y103.962 Z-1.476
G01 X530.574 Y104.247 Z-1.439
G01 X531.479 Y104.560 Z-1.406
G01 X532.029 Y104.718 Z-1.391
G01 X532.632 Y104.860 Z-1.381
G01 X533.319 Y104.982 Z-1.380
G01 X534.007 Y105.066 Z-1.390
G01 X534.858 Y105.114 Z-1.422
G01 X535.436 Y105.118 Z-1.447
G01 X536.046 Y105.095 Z-1.478
G01 X537.077 Y104.996 Z-1.552
G01 X538.097 Y104.826 Z-1.647
G01 X539.072 Y104.586 Z-1.762
G01 X540.020 Y104.280 Z-1.893
G01 X540.897 Y103.922 Z-2.036
G01 X541.717 Y103.521 Z-2.182
G01 X542.588 Y103.018 Z-2.350
G01 X543.249 Y102.577 Z-2.488
G01 X543.951 Y102.046 Z-2.642
G01 X544.615 Y101.480 Z-2.793
G01 X545.245 Y100.880 Z-2.940
G01 X545.833 Y100.267 Z-3.071
G01 X546.553 Y99.423 Z-3.231
G01 X547.162 Y98.626 Z-3.367
G01 X547.502 Y98.142 Z-3.449
G01 X548.012 Y97.357 Z-3.563
G01 X548.529 Y96.472 Z-3.678
G01 X549.091 Y95.391 Z-3.810
G01 X549.598 Y94.263 Z-3.929
G01 X550.048 Y93.091 Z-4.032
G01 X550.391 Y92.029 Z-4.105
G01 X550.723 Y90.771 Z-4.167
G01 X550.951 Y89.686 Z-4.202
G01 X551.073 Y88.952 Z-4.214
G01 X551.200 Y88.005 Z-4.213
G01 X551.320 Y86.647 Z-4.194
G01 X551.372 Y85.261 Z-4.148
G01 X551.350 Y83.846 Z-4.069
G01 X551.258 Y82.418 Z-3.958
G01 X551.134 Y81.277 Z-3.847
G01 X550.953 Y80.062 Z-3.709
G01 X550.715 Y78.810 Z-3.549
G01 X550.414 Y77.521 Z-3.370
G01 X550.033 Y76.164 Z-3.171
G01 X549.616 Y74.929 Z-2.985
G01 X549.383 Y74.320 Z-2.887
G01 X549.069 Y73.580 Z-2.764
G01 X548.592 Y72.595 Z-2.599
G01 X548.298 Y72.051 Z-2.502
G01 X547.887 Y71.370 Z-2.380
G01 X547.306 Y70.524 Z-2.230
G01 X546.939 Y70.049 Z-2.143
G01 X546.507 Y69.543 Z-2.052
G01 X546.026 Y69.040 Z-1.964
G01 X545.552 Y68.590 Z-1.887
G01 X544.793 Y67.952 Z-1.777
G01 X544.070 Y67.424 Z-1.683
G01 X543.279 Y66.924 Z-1.604
G01 X542.516 Y66.514 Z-1.541
G01 X541.983 Y66.266 Z-1.509
G01 X541.441 Y66.045 Z-1.485
G01 X540.891 Y65.851 Z-1.469
G01 X540.333 Y65.682 Z-1.461
G01 X539.765 Y65.540 Z-1.460
G01 X539.188 Y65.423 Z-1.466
G01 X538.600 Y65.331 Z-1.480
G01 X538.003 Y65.265 Z-1.500
G01 X537.379 Y65.224 Z-1.528
G01 X536.553 Y65.212 Z-1.574
G01 X535.538 Y65.262 Z-1.652
G01 X534.915 Y65.330 Z-1.704
G01 X534.101 Y65.460 Z-1.794
G01 X533.287 Y65.639 Z-1.901
G01 X532.476 Y65.874 Z-2.020
G01 X531.653 Y66.171 Z-2.156
G01 X530.807 Y66.543 Z-2.309
G01 X530.010 Y66.959 Z-2.463
G01 X529.259 Y67.414 Z-2.616
G01 X528.519 Y67.931 Z-2.771
G01 X527.770 Y68.529 Z-2.933
G01 X527.044 Y69.189 Z-3.093
G01 X526.344 Y69.911 Z-3.247
G01 X525.673 Y70.694 Z-3.393
