%
( jobb1V ) ( File created: Saturday August 24 2024 - 11:41 AM)
( for LinuxCNC )
( Material Size) ( X= 1300.000, Y= 200.000, Z= 20.000)
G90 (Incremental distance mode)
G17 G21 (Active Plane: XY)(Metric Mode)
G40 G49 G80(Tool Diameter, Length compensation & canned cycles OFF)
G64 P0.05 Q0.05(Path Blending)
M600
G90 (absolute distance mode)
G54 (Coordinate System)
S18000M3
G00 Z5.000
G4 P6
( V-Carve 1 )
G00 X1226.143 Y109.323 Z5.000 F4000.0
G01 Z-5.142 F200.0 M3
G01 X1227.259 Y108.450 Z-4.268 F2000.0
G01 X1228.072 Y107.773 Z-3.592
G01 X1228.944 Y107.015 Z-2.834
G01 X1229.877 Y106.168 Z-1.986
G01 X1230.875 Y105.225 Z-1.044
G01 X1231.938 Y104.181 Z0.000
G01 X1230.875 Y105.225 Z-1.044
G01 X1229.877 Y106.168 Z-1.986
G01 X1228.944 Y107.015 Z-2.834
G01 X1228.072 Y107.773 Z-3.592
G01 X1227.259 Y108.450 Z-4.268
G01 X1226.143 Y109.323 Z-5.142
G01 X1225.929 Y110.347 Z-5.035
G01 X1225.761 Y111.003 Z-4.950
G01 X1225.471 Y111.946 Z-4.807
G01 X1225.122 Y112.892 Z-4.646
G01 X1224.720 Y113.783 Z-4.472
G01 X1224.430 Y114.340 Z-4.357
G01 X1223.974 Y115.102 Z-4.196
G01 X1223.432 Y115.875 Z-4.033
G01 X1222.994 Y116.430 Z-3.907
G01 X1222.457 Y117.043 Z-3.757
G01 X1221.918 Y117.590 Z-3.615
G01 X1221.541 Y117.938 Z-3.524
G01 X1220.953 Y118.434 Z-3.377
G01 X1220.347 Y118.887 Z-3.235
G01 X1219.509 Y119.432 Z-3.047
G01 X1218.548 Y119.962 Z-2.846
G01 X1217.589 Y120.393 Z-2.655
G01 X1216.719 Y120.720 Z-2.491
G01 X1215.854 Y120.988 Z-2.337
G01 X1214.995 Y121.199 Z-2.196
G01 X1214.144 Y121.358 Z-2.070
G01 X1213.300 Y121.465 Z-1.960
G01 X1212.465 Y121.526 Z-1.870
G01 X1211.636 Y121.541 Z-1.797
G01 X1210.603 Y121.490 Z-1.725
G01 X1209.591 Y121.374 Z-1.670
G01 X1208.605 Y121.189 Z-1.633
G01 X1207.645 Y120.941 Z-1.613
G01 X1206.698 Y120.624 Z-1.607
G01 X1205.811 Y120.255 Z-1.618
G01 X1204.937 Y119.822 Z-1.640
G01 X1204.037 Y119.296 Z-1.674
G01 X1203.281 Y118.787 Z-1.715
G01 X1202.422 Y118.129 Z-1.767
G01 X1201.740 Y117.540 Z-1.820
G01 X1200.987 Y116.808 Z-1.886
G01 X1200.324 Y116.075 Z-1.964
G01 X1199.634 Y115.214 Z-2.061
G01 X1199.069 Y114.410 Z-2.160
G01 X1198.526 Y113.530 Z-2.269
G01 X1198.035 Y112.618 Z-2.381
G01 X1197.597 Y111.676 Z-2.499
G01 X1197.149 Y110.548 Z-2.634
G01 X1196.863 Y109.699 Z-2.736
G01 X1196.571 Y108.680 Z-2.855
G01 X1196.296 Y107.508 Z-2.984
G01 X1196.232 Y107.138 Z-3.030
G01 X1196.200 Y106.877 Z-3.075
G01 X1196.173 Y106.472 Z-3.167
G01 X1196.182 Y106.037 Z-3.283
G01 X1196.210 Y105.678 Z-3.398
G01 X1196.089 Y105.318 Z-3.369
G01 X1195.978 Y104.863 Z-3.353
G01 X1195.895 Y104.374 Z-3.371
G01 X1195.767 Y102.731 Z-3.511
G01 X1195.719 Y101.339 Z-3.621
G01 X1195.723 Y99.969 Z-3.726
G01 X1195.775 Y98.621 Z-3.830
G01 X1195.874 Y97.293 Z-3.936
G01 X1196.022 Y95.986 Z-4.043
G01 X1196.221 Y94.699 Z-4.152
G01 X1196.473 Y93.433 Z-4.260
G01 X1196.831 Y92.010 Z-4.387
G01 X1197.147 Y90.968 Z-4.474
G01 X1197.578 Y89.775 Z-4.573
G01 X1197.972 Y88.832 Z-4.649
G01 X1198.218 Y88.299 Z-4.696
G01 X1198.631 Y87.478 Z-4.755
G01 X1199.124 Y86.609 Z-4.814
G01 X1199.539 Y85.951 Z-4.860
G01 X1200.029 Y85.235 Z-4.899
G01 X1200.701 Y84.360 Z-4.937
G01 X1201.335 Y83.618 Z-4.963
G01 X1201.677 Y83.244 Z-4.976
G01 X1202.300 Y82.605 Z-4.984
G01 X1203.159 Y81.811 Z-4.988
G01 X1203.989 Y81.123 Z-4.983
G01 X1204.984 Y80.399 Z-4.964
G01 X1205.721 Y79.928 Z-4.939
G01 X1206.057 Y79.729 Z-4.929
G01 X1206.951 Y79.255 Z-4.881
G01 X1207.724 Y78.900 Z-4.833
G01 X1208.727 Y78.510 Z-4.762
G01 X1209.441 Y78.281 Z-4.705
G01 X1210.180 Y78.078 Z-4.638
G01 X1211.178 Y77.865 Z-4.541
G01 X1212.007 Y77.734 Z-4.459
G01 X1213.103 Y77.621 Z-4.348
G01 X1214.202 Y77.577 Z-4.232
G01 X1214.818 Y77.586 Z-4.165
G01 X1215.530 Y77.621 Z-4.078
G01 X1216.571 Y77.736 Z-3.938
G01 X1217.281 Y77.854 Z-3.835
G01 X1218.272 Y78.075 Z-3.680
G01 X1219.195 Y78.348 Z-3.514
G01 X1219.973 Y78.629 Z-3.365
G01 X1220.602 Y78.892 Z-3.238
G01 X1221.212 Y79.179 Z-3.110
G01 X1221.803 Y79.489 Z-2.982
G01 X1222.375 Y79.820 Z-2.855
G01 X1223.058 Y80.261 Z-2.698
G01 X1223.969 Y80.927 Z-2.482
G01 X1224.464 Y81.325 Z-2.369
G01 X1225.336 Y82.100 Z-2.173
G01 X1225.856 Y82.607 Z-2.063
G01 X1226.371 Y83.154 Z-1.958
G01 X1226.932 Y83.809 Z-1.850
G01 X1227.537 Y84.594 Z-1.735
G01 X1227.945 Y85.176 Z-1.664
G01 X1228.399 Y85.886 Z-1.583
G01 X1228.982 Y86.906 Z-1.473
G01 X1229.308 Y87.541 Z-1.410
G01 X1229.621 Y88.199 Z-1.347
G01 X1229.918 Y88.882 Z-1.280
G01 X1230.224 Y89.655 Z-1.204
G01 X1230.508 Y90.452 Z-1.123
G01 X1230.825 Y91.459 Z-1.014
G01 X1231.938 Y91.947 Z0.000
G01 X1230.825 Y91.459 Z-1.014
G01 X1230.338 Y92.979 Z0.000
G01 X1230.825 Y91.459 Z-1.014
G01 X1230.454 Y90.296 Z-1.137
G01 X1230.187 Y89.559 Z-1.213
G01 X1229.904 Y88.847 Z-1.284
G01 X1229.578 Y88.105 Z-1.357
G01 X1229.214 Y87.351 Z-1.432
G01 X1228.641 Y86.295 Z-1.536
G01 X1228.254 Y85.653 Z-1.606
G01 X1227.880 Y85.082 Z-1.674
G01 X1227.456 Y84.483 Z-1.752
G01 X1226.932 Y83.809 Z-1.850
G01 X1226.232 Y83.003 Z-1.984
G01 X1225.772 Y82.522 Z-2.082
G01 X1224.940 Y81.738 Z-2.260
G01 X1224.385 Y81.261 Z-2.386
G01 X1223.761 Y80.767 Z-2.533
G01 X1222.925 Y80.172 Z-2.727
G01 X1222.270 Y79.758 Z-2.877
G01 X1221.673 Y79.416 Z-3.012
G01 X1220.985 Y79.067 Z-3.161
G01 X1220.302 Y78.761 Z-3.303
G01 X1219.325 Y78.392 Z-3.489
G01 X1218.527 Y78.145 Z-3.633
G01 X1217.596 Y77.916 Z-3.790
G01 X1216.571 Y77.736 Z-3.938
G01 X1215.528 Y77.621 Z-4.078
G01 X1214.443 Y77.578 Z-4.204
G01 X1213.345 Y77.603 Z-4.324
G01 X1212.265 Y77.701 Z-4.433
G01 X1211.748 Y77.770 Z-4.489
G01 X1210.915 Y77.914 Z-4.568
G01 X1210.098 Y78.099 Z-4.644
G01 X1209.441 Y78.281 Z-4.705
G01 X1208.727 Y78.510 Z-4.762
G01 X1207.978 Y78.793 Z-4.817
G01 X1207.362 Y79.060 Z-4.861
G01 X1206.703 Y79.377 Z-4.897
G01 X1205.951 Y79.790 Z-4.931
G01 X1205.420 Y80.114 Z-4.955
G01 X1204.769 Y80.545 Z-4.971
G01 X1203.989 Y81.123 Z-4.983
G01 X1203.159 Y81.811 Z-4.988
G01 X1202.288 Y82.616 Z-4.984
G01 X1201.481 Y83.456 Z-4.967
G01 X1201.094 Y83.890 Z-4.959
G01 X1200.547 Y84.549 Z-4.932
G01 X1199.956 Y85.337 Z-4.891
G01 X1199.539 Y85.951 Z-4.860
G01 X1199.072 Y86.697 Z-4.811
G01 X1198.515 Y87.703 Z-4.736
G01 X1198.072 Y88.611 Z-4.667
G01 X1197.829 Y89.160 Z-4.628
G01 X1197.466 Y90.064 Z-4.552
G01 X1197.080 Y91.178 Z-4.455
G01 X1196.728 Y92.390 Z-4.350
G01 X1196.432 Y93.624 Z-4.244
G01 X1196.190 Y94.879 Z-4.136
G01 X1196.000 Y96.154 Z-4.030
G01 X1195.836 Y97.730 Z-3.905
G01 X1195.751 Y99.098 Z-3.797
G01 X1195.715 Y100.427 Z-3.696
G01 X1195.726 Y101.714 Z-3.596
G01 X1195.779 Y102.961 Z-3.495
G01 X1195.895 Y104.374 Z-3.371
G01 X1195.978 Y104.863 Z-3.353
G01 X1196.089 Y105.318 Z-3.369
G01 X1196.210 Y105.678 Z-3.398
G01 X1196.751 Y105.678 Z-2.923
G01 X1197.635 Y105.678 Z-2.210
G01 X1198.168 Y105.678 Z-1.854
G01 X1198.385 Y105.678 Z-1.735
G01 X1198.653 Y105.678 Z-1.616
G01 X1198.961 Y105.678 Z-1.527
G01 X1199.261 Y105.678 Z-1.497
G01 X1221.149 Y105.678 
G01 X1221.549 Y105.705 Z-1.524
G01 X1221.949 Y105.785 Z-1.604
G01 X1222.281 Y105.892 Z-1.711
G01 X1222.535 Y105.999 Z-1.818
G01 X1222.939 Y106.213 Z-2.032
G01 X1223.413 Y106.534 Z-2.353
G01 X1223.922 Y106.962 Z-2.781
G01 X1224.351 Y107.390 Z-3.209
G01 X1226.143 Y109.323 Z-5.142
G00 Z5.000
G01 Z-5.142 F200.0 M3
G01 X1224.351 Y107.390 Z-3.209 F2000.0
G01 X1223.922 Y106.962 Z-2.781
G01 X1223.413 Y106.534 Z-2.353
G01 X1222.939 Y106.213 Z-2.032
G01 X1222.535 Y105.999 Z-1.818
G01 X1222.129 Y105.839 Z-1.658
G01 X1221.715 Y105.732 Z-1.551
G01 X1221.432 Y105.692 Z-1.510
G01 X1221.149 Y105.678 Z-1.497
G01 X1199.261 Y105.678 
G01 X1198.961 Y105.678 Z-1.527
G01 X1198.653 Y105.678 Z-1.616
G01 X1198.385 Y105.678 Z-1.735
G01 X1197.977 Y105.678 Z-1.972
G01 X1197.325 Y105.678 Z-2.448
G01 X1196.751 Y105.678 Z-2.923
G01 X1196.210 Y105.678 Z-3.398
G01 X1196.182 Y106.037 Z-3.283
G01 X1196.173 Y106.472 Z-3.167
G01 X1196.200 Y106.877 Z-3.075
G01 X1196.232 Y107.138 Z-3.030
G01 X1196.313 Y107.594 Z-2.976
G01 X1196.571 Y108.680 Z-2.855
G01 X1196.925 Y109.894 Z-2.711
G01 X1197.205 Y110.703 Z-2.616
G01 X1197.597 Y111.676 Z-2.499
G01 X1198.054 Y112.657 Z-2.376
G01 X1198.526 Y113.530 Z-2.269
G01 X1199.069 Y114.410 Z-2.160
G01 X1199.661 Y115.251 Z-2.057
G01 X1200.324 Y116.075 Z-1.964
G01 X1201.015 Y116.836 Z-1.884
G01 X1201.740 Y117.540 Z-1.820
G01 X1202.496 Y118.190 Z-1.764
G01 X1203.281 Y118.787 Z-1.715
G01 X1204.094 Y119.333 Z-1.673
G01 X1204.937 Y119.822 Z-1.640
G01 X1205.811 Y120.255 Z-1.618
G01 X1206.776 Y120.652 Z-1.606
G01 X1207.645 Y120.941 Z-1.613
G01 X1208.605 Y121.189 Z-1.633
G01 X1209.611 Y121.377 Z-1.670
G01 X1210.603 Y121.490 Z-1.725
G01 X1211.637 Y121.541 Z-1.797
G01 X1212.693 Y121.515 Z-1.896
G01 X1213.448 Y121.450 Z-1.979
G01 X1214.296 Y121.333 Z-2.092
G01 X1215.151 Y121.165 Z-2.221
G01 X1216.012 Y120.943 Z-2.365
G01 X1216.877 Y120.665 Z-2.520
G01 X1217.846 Y120.286 Z-2.708
G01 X1218.646 Y119.911 Z-2.866
G01 X1219.509 Y119.432 Z-3.047
G01 X1220.146 Y119.025 Z-3.189
G01 X1221.006 Y118.394 Z-3.390
G01 X1221.724 Y117.772 Z-3.566
G01 X1222.050 Y117.461 Z-3.653
G01 X1222.640 Y116.841 Z-3.806
G01 X1223.144 Y116.246 Z-3.946
G01 X1223.784 Y115.387 Z-4.136
G01 X1224.266 Y114.632 Z-4.297
G01 X1224.720 Y113.783 Z-4.472
G01 X1225.123 Y112.890 Z-4.647
G01 X1225.471 Y111.946 Z-4.807
G01 X1225.778 Y110.942 Z-4.957
G01 X1226.035 Y109.873 Z-5.085
G01 X1226.143 Y109.323 Z-5.142
G00 Z5.000
G00 X1249.580 Y141.733  F4000.0
G01 Z-4.917 F200.0 M3
G01 X1249.739 Y140.914 Z-4.758 F2000.0
G01 X1249.901 Y139.832 Z-4.596
G01 X1250.006 Y138.853 Z-4.491
G01 X1250.063 Y138.054 Z-4.434
G01 X1250.137 Y136.220 Z-4.360
G01 X1250.187 Y133.554 Z-4.310
G01 X1250.212 Y128.341 Z-4.285
G01 X1250.212 Y85.348 Z-4.285
G01 X1250.212 Y84.194 Z-4.297
G01 X1250.211 Y83.109 Z-4.333
G01 X1250.210 Y82.087 Z-4.396
G01 X1250.208 Y81.111 Z-4.489
G01 X1250.207 Y80.155 Z-4.622
G01 X1250.206 Y79.457 Z-4.752
G01 X1249.412 Y78.838 Z-4.133
G01 X1248.580 Y78.243 Z-3.538
G01 X1247.657 Y77.651 Z-2.946
G01 X1247.070 Y77.310 Z-2.605
G01 X1246.507 Y77.010 Z-2.305
G01 X1245.967 Y76.749 Z-2.044
G01 X1245.448 Y76.524 Z-1.819
G01 X1244.950 Y76.333 Z-1.628
G01 X1244.468 Y76.173 Z-1.468
G01 X1243.972 Y76.035 Z-1.330
G01 X1243.468 Y75.925 Z-1.220
G01 X1242.953 Y75.840 Z-1.135
G01 X1242.407 Y75.774 Z-1.069
G01 X1241.821 Y75.722 Z-1.017
G01 X1240.532 Y75.657 Z-0.952
G01 X1239.896 Y75.642 Z-0.937
G01 X1238.959 Y76.563 Z0.000
G01 X1239.896 Y75.642 Z-0.937
G01 X1238.959 Y74.705 Z0.000
G01 X1239.896 Y75.642 Z-0.937
G01 X1241.229 Y75.685 Z-0.980
G01 X1241.876 Y75.726 Z-1.021
G01 X1242.480 Y75.782 Z-1.077
G01 X1243.052 Y75.855 Z-1.150
G01 X1243.607 Y75.952 Z-1.247
G01 X1244.127 Y76.075 Z-1.370
G01 X1244.606 Y76.216 Z-1.511
G01 X1245.100 Y76.388 Z-1.683
G01 X1245.610 Y76.591 Z-1.886
G01 X1246.139 Y76.829 Z-2.124
G01 X1246.689 Y77.104 Z-2.399
G01 X1247.261 Y77.418 Z-2.713
G01 X1248.270 Y78.036 Z-3.331
G01 X1249.040 Y78.564 Z-3.859
G01 X1249.950 Y79.253 Z-4.548
G01 X1250.206 Y79.457 Z-4.752
G01 X1250.968 Y78.863 Z-4.158
G01 X1251.801 Y78.268 Z-3.563
G01 X1252.543 Y77.793 Z-3.088
G01 X1253.368 Y77.322 Z-2.617
G01 X1253.937 Y77.031 Z-2.326
G01 X1254.484 Y76.779 Z-2.074
G01 X1255.010 Y76.563 Z-1.858
G01 X1255.520 Y76.377 Z-1.672
G01 X1256.017 Y76.218 Z-1.513
G01 X1256.546 Y76.074 Z-1.369
G01 X1257.097 Y75.954 Z-1.249
G01 X1257.667 Y75.862 Z-1.157
G01 X1258.272 Y75.789 Z-1.084
G01 X1258.927 Y75.732 Z-1.027
G01 X1259.637 Y75.688 Z-0.983
G01 X1261.201 Y75.641 Z-0.936
G01 X1262.137 Y74.705 Z0.000
G01 X1261.201 Y75.641 Z-0.936
G01 X1262.137 Y76.563 Z0.000
G01 X1261.201 Y75.641 Z-0.936
G01 X1259.637 Y75.688 Z-0.983
G01 X1258.871 Y75.736 Z-1.031
G01 X1258.199 Y75.797 Z-1.092
G01 X1257.567 Y75.876 Z-1.171
G01 X1256.957 Y75.982 Z-1.277
G01 X1256.397 Y76.111 Z-1.406
G01 X1255.895 Y76.255 Z-1.550
G01 X1255.381 Y76.425 Z-1.720
G01 X1254.853 Y76.625 Z-1.920
G01 X1254.308 Y76.857 Z-2.152
G01 X1253.743 Y77.127 Z-2.422
G01 X1253.155 Y77.438 Z-2.733
G01 X1252.543 Y77.793 Z-3.088
G01 X1251.801 Y78.268 Z-3.563
G01 X1250.968 Y78.863 Z-4.158
G01 X1250.206 Y79.457 Z-4.752
G01 X1250.207 Y80.413 Z-4.581
G01 X1250.208 Y81.298 Z-4.468
G01 X1250.210 Y82.237 Z-4.385
G01 X1250.211 Y83.233 Z-4.328
G01 X1250.212 Y84.295 Z-4.295
G01 X1250.212 Y85.391 Z-4.285
G01 X1250.212 Y128.367 Z-4.285
G01 X1250.186 Y133.603 Z-4.311
G01 X1250.137 Y136.220 Z-4.360
G01 X1250.063 Y138.054 Z-4.434
G01 X1249.978 Y139.149 Z-4.519
G01 X1249.844 Y140.251 Z-4.653
G01 X1249.679 Y141.243 Z-4.818
G01 X1249.580 Y141.733 Z-4.917
G01 X1252.557 Y146.172 Z-1.940
G01 X1254.497 Y148.112 Z0.000
G01 X1252.557 Y146.172 Z-1.940
G01 X1252.174 Y148.112 Z0.000
G01 X1252.557 Y146.172 Z-1.940
G01 X1249.580 Y141.733 Z-4.917
G01 X1248.828 Y142.015 Z-4.371
G01 X1247.951 Y142.305 Z-3.770
G01 X1247.123 Y142.532 Z-3.246
G01 X1246.346 Y142.695 Z-2.799
G01 X1245.686 Y142.793 Z-2.459
G01 X1244.906 Y142.858 Z-2.102
G01 X1244.136 Y142.866 Z-1.802
G01 X1243.533 Y142.832 Z-1.605
G01 X1242.822 Y142.746 Z-1.415
G01 X1242.317 Y142.656 Z-1.307
G01 X1241.527 Y142.470 Z-1.179
G01 X1240.566 Y142.185 Z-1.078
G01 X1239.472 Y141.799 Z-1.019
G01 X1238.081 Y142.330 Z0.000
G01 X1239.472 Y141.799 Z-1.019
G01 X1238.959 Y140.524 Z0.000
G01 X1239.472 Y141.799 Z-1.019
G01 X1240.566 Y142.185 Z-1.078
G01 X1241.527 Y142.470 Z-1.179
G01 X1242.317 Y142.656 Z-1.307
G01 X1242.822 Y142.746 Z-1.415
G01 X1243.533 Y142.832 Z-1.605
G01 X1244.136 Y142.866 Z-1.802
G01 X1244.906 Y142.858 Z-2.102
G01 X1245.686 Y142.793 Z-2.459
G01 X1246.346 Y142.695 Z-2.799
G01 X1247.123 Y142.532 Z-3.246
G01 X1247.951 Y142.305 Z-3.770
G01 X1248.828 Y142.015 Z-4.371
G01 X1249.580 Y141.733 Z-4.917
G00 Z5.000
G00 X1175.116 Y94.787  F4000.0
G01 Z-4.792 F200.0 M3
G01 X1176.022 Y94.106 Z-4.783 F2000.0
G01 X1176.572 Y93.648 Z-4.773
G01 X1177.178 Y93.090 Z-4.754
G01 X1177.813 Y92.423 Z-4.721
G01 X1178.379 Y91.726 Z-4.679
G01 X1178.752 Y91.190 Z-4.638
G01 X1179.078 Y90.648 Z-4.587
G01 X1179.374 Y90.069 Z-4.523
G01 X1179.626 Y89.473 Z-4.447
G01 X1179.835 Y88.865 Z-4.360
G01 X1180.001 Y88.248 Z-4.265
G01 X1180.128 Y87.619 Z-4.162
G01 X1180.215 Y87.004 Z-4.059
G01 X1180.271 Y86.384 Z-3.956
G01 X1180.294 Y85.767 Z-3.851
G01 X1180.282 Y85.155 Z-3.745
G01 X1180.237 Y84.548 Z-3.635
G01 X1180.123 Y83.732 Z-3.479
G01 X1179.959 Y82.985 Z-3.319
G01 X1179.717 Y82.186 Z-3.143
G01 X1179.440 Y81.489 Z-2.976
G01 X1179.146 Y80.882 Z-2.828
G01 X1178.900 Y80.441 Z-2.719
G01 X1178.636 Y80.018 Z-2.614
G01 X1178.142 Y79.334 Z-2.441
G01 X1177.750 Y78.861 Z-2.325
G01 X1177.180 Y78.253 Z-2.180
G01 X1176.458 Y77.588 Z-2.034
G01 X1175.739 Y77.026 Z-1.912
G01 X1175.272 Y76.702 Z-1.845
G01 X1174.542 Y76.260 Z-1.756
G01 X1173.708 Y75.839 Z-1.678
G01 X1173.070 Y75.574 Z-1.632
G01 X1172.332 Y75.321 Z-1.588
G01 X1171.504 Y75.102 Z-1.555
G01 X1170.574 Y74.928 Z-1.534
G01 X1169.615 Y74.823 Z-1.522
G01 X1168.625 Y74.784 Z-1.521
G01 X1167.456 Y74.817 Z-1.534
G01 X1166.377 Y74.912 Z-1.560
G01 X1165.260 Y75.075 Z-1.609
G01 X1164.108 Y75.315 Z-1.688
G01 X1162.924 Y75.633 Z-1.799
G01 X1161.811 Y75.998 Z-1.934
G01 X1161.047 Y76.289 Z-2.044
G01 X1160.362 Y76.571 Z-2.159
G01 X1159.205 Y77.106 Z-2.380
G01 X1158.282 Y77.570 Z-2.587
G01 X1157.445 Y77.989 Z-2.824
G01 X1156.625 Y78.389 Z-3.107
G01 X1155.718 Y78.809 Z-3.485
G01 X1155.476 Y79.463 Z-3.243
G01 X1155.185 Y80.309 Z-2.952
G01 X1154.917 Y81.148 Z-2.684
G01 X1154.671 Y81.984 Z-2.438
G01 X1154.444 Y82.819 Z-2.211
G01 X1154.236 Y83.656 Z-2.003
G01 X1154.044 Y84.498 Z-1.811
G01 X1153.868 Y85.347 Z-1.635
G01 X1153.707 Y86.206 Z-1.474
G01 X1153.559 Y87.075 Z-1.326
G01 X1153.306 Y88.824 Z-1.073
G01 X1153.175 Y89.921 Z-0.942
G01 X1153.937 Y90.863 Z0.000
G01 X1153.175 Y89.921 Z-0.942
G01 X1152.233 Y90.863 Z0.000
G01 X1153.175 Y89.921 Z-0.942
G01 X1153.306 Y88.824 Z-1.073
G01 X1153.559 Y87.075 Z-1.326
G01 X1153.716 Y86.153 Z-1.483
G01 X1153.880 Y85.286 Z-1.647
G01 X1154.060 Y84.428 Z-1.827
G01 X1154.255 Y83.575 Z-2.022
G01 X1154.469 Y82.725 Z-2.236
G01 X1154.701 Y81.877 Z-2.468
G01 X1154.955 Y81.026 Z-2.722
G01 X1155.231 Y80.170 Z-2.998
G01 X1155.532 Y79.307 Z-3.299
G01 X1155.718 Y78.809 Z-3.485
G01 X1155.095 Y78.136 Z-2.862
G01 X1154.546 Y77.449 Z-2.313
G01 X1154.224 Y76.978 Z-1.991
G01 X1153.879 Y76.394 Z-1.646
G01 X1153.620 Y75.861 Z-1.387
G01 X1153.373 Y75.226 Z-1.140
G01 X1153.324 Y75.074 Z-1.092
G01 X1152.233 Y73.982 Z0.000
G01 X1153.324 Y75.074 Z-1.092
G01 X1153.576 Y74.597 Z-0.614
G01 X1153.937 Y73.982 Z0.000
G01 X1153.506 Y74.724 Z-0.741
G01 X1153.324 Y75.074 Z-1.092
G01 X1153.541 Y75.676 Z-1.308
G01 X1153.756 Y76.154 Z-1.523
G01 X1154.037 Y76.675 Z-1.804
G01 X1154.410 Y77.256 Z-2.177
G01 X1154.683 Y77.628 Z-2.450
G01 X1155.095 Y78.136 Z-2.862
G01 X1155.718 Y78.809 Z-3.485
G01 X1156.625 Y78.389 Z-3.107
G01 X1157.656 Y77.883 Z-2.759
G01 X1158.451 Y77.486 Z-2.545
G01 X1159.676 Y76.881 Z-2.284
G01 X1160.476 Y76.522 Z-2.140
G01 X1161.726 Y76.028 Z-1.946
G01 X1162.489 Y75.769 Z-1.845
G01 X1163.164 Y75.563 Z-1.771
G01 X1164.108 Y75.315 Z-1.688
G01 X1165.260 Y75.075 Z-1.609
G01 X1166.377 Y74.912 Z-1.560
G01 X1167.456 Y74.817 Z-1.534
G01 X1168.625 Y74.784 Z-1.521
G01 X1169.615 Y74.823 Z-1.522
G01 X1170.574 Y74.928 Z-1.534
G01 X1171.433 Y75.087 Z-1.553
G01 X1171.958 Y75.214 Z-1.572
G01 X1172.771 Y75.465 Z-1.611
G01 X1173.630 Y75.804 Z-1.671
G01 X1174.262 Y76.108 Z-1.729
G01 X1174.949 Y76.497 Z-1.804
G01 X1175.665 Y76.973 Z-1.901
G01 X1176.408 Y77.547 Z-2.025
G01 X1177.100 Y78.175 Z-2.163
G01 X1177.513 Y78.596 Z-2.262
G01 X1178.059 Y79.229 Z-2.415
G01 X1178.437 Y79.728 Z-2.541
G01 X1178.717 Y80.141 Z-2.646
G01 X1179.009 Y80.626 Z-2.768
G01 X1179.373 Y81.342 Z-2.941
G01 X1179.638 Y81.973 Z-3.090
G01 X1179.883 Y82.701 Z-3.259
G01 X1180.079 Y83.505 Z-3.430
G01 X1180.204 Y84.252 Z-3.581
G01 X1180.260 Y84.778 Z-3.679
G01 X1180.290 Y85.341 Z-3.779
G01 X1180.290 Y85.964 Z-3.885
G01 X1180.255 Y86.589 Z-3.989
G01 X1180.187 Y87.217 Z-4.093
G01 X1180.063 Y87.963 Z-4.220
G01 X1179.904 Y88.626 Z-4.325
G01 X1179.710 Y89.243 Z-4.416
G01 X1179.483 Y89.824 Z-4.494
G01 X1179.221 Y90.380 Z-4.559
G01 X1178.920 Y90.921 Z-4.614
G01 X1178.572 Y91.458 Z-4.660
G01 X1178.172 Y91.996 Z-4.698
G01 X1177.709 Y92.539 Z-4.729
G01 X1177.049 Y93.214 Z-4.757
G01 X1176.428 Y93.772 Z-4.776
G01 X1175.512 Y94.501 Z-4.789
G01 X1174.264 Y95.370 Z-4.783
G01 X1172.824 Y96.251 Z-4.751
G01 X1171.362 Y97.053 Z-4.696
G01 X1169.766 Y97.886 Z-4.645
G01 X1168.036 Y98.765 Z-4.611
G01 X1164.225 Y100.668 Z-4.567
G01 X1162.934 Y101.349 Z-4.540
G01 X1161.652 Y102.081 Z-4.514
G01 X1160.500 Y102.802 Z-4.491
G01 X1159.537 Y103.469 Z-4.467
G01 X1158.767 Y104.065 Z-4.442
G01 X1158.195 Y104.571 Z-4.414
G01 X1157.786 Y104.977 Z-4.372
G01 X1157.406 Y105.415 Z-4.316
G01 X1156.947 Y106.044 Z-4.217
G01 X1156.571 Y106.676 Z-4.100
G01 X1156.199 Y107.440 Z-3.945
G01 X1155.945 Y108.091 Z-3.810
G01 X1155.744 Y108.710 Z-3.677
G01 X1155.511 Y109.660 Z-3.483
G01 X1155.359 Y110.606 Z-3.298
G01 X1155.285 Y111.543 Z-3.123
G01 X1155.288 Y112.478 Z-2.951
G01 X1155.369 Y113.385 Z-2.777
G01 X1155.520 Y114.274 Z-2.599
G01 X1155.706 Y114.993 Z-2.456
G01 X1155.919 Y115.605 Z-2.342
G01 X1156.187 Y116.215 Z-2.231
G01 X1156.448 Y116.710 Z-2.149
G01 X1156.828 Y117.317 Z-2.053
G01 X1157.138 Y117.746 Z-1.992
G01 X1157.602 Y118.306 Z-1.919
G01 X1158.217 Y118.939 Z-1.846
G01 X1158.661 Y119.331 Z-1.802
G01 X1159.233 Y119.780 Z-1.745
G01 X1159.914 Y120.236 Z-1.688
G01 X1160.637 Y120.641 Z-1.641
G01 X1161.186 Y120.898 Z-1.610
G01 X1161.953 Y121.193 Z-1.575
G01 X1162.455 Y121.353 Z-1.558
G01 X1163.278 Y121.560 Z-1.537
G01 X1164.229 Y121.728 Z-1.525
G01 X1165.211 Y121.826 Z-1.518
G01 X1166.199 Y121.860 Z-1.521
G01 X1167.017 Y121.842 Z-1.526
G01 X1168.070 Y121.753 Z-1.521
G01 X1169.198 Y121.584 Z-1.527
G01 X1170.009 Y121.412 Z-1.541
G01 X1171.057 Y121.132 Z-1.578
G01 X1172.106 Y120.781 Z-1.646
G01 X1172.736 Y120.538 Z-1.707
G01 X1173.757 Y120.104 Z-1.849
G01 X1174.401 Y119.811 Z-1.976
G01 X1174.965 Y119.542 Z-2.108
G01 X1175.820 Y119.126 Z-2.363
G01 X1176.521 Y118.795 Z-2.632
G01 X1177.211 Y118.496 Z-2.955
G01 X1177.582 Y118.346 Z-3.146
G01 X1177.848 Y117.540 Z-2.880
G01 X1178.252 Y116.160 Z-2.476
G01 X1178.475 Y115.303 Z-2.253
G01 X1178.835 Y113.737 Z-1.893
G01 X1179.162 Y112.085 Z-1.567
G01 X1179.461 Y110.332 Z-1.268
G01 X1179.764 Y108.243 Z-0.964
G01 X1179.025 Y107.279 Z0.000
G01 X1179.764 Y108.243 Z-0.964
G01 X1180.729 Y107.279 Z0.000
G01 X1179.764 Y108.243 Z-0.964
G01 X1179.456 Y110.361 Z-1.273
G01 X1179.154 Y112.127 Z-1.574
G01 X1178.823 Y113.796 Z-1.906
G01 X1178.454 Y115.387 Z-2.274
G01 X1178.071 Y116.805 Z-2.657
G01 X1177.804 Y117.679 Z-2.925
G01 X1177.582 Y118.346 Z-3.146
G01 X1178.091 Y118.972 Z-2.637
G01 X1178.479 Y119.521 Z-2.250
G01 X1178.767 Y119.982 Z-1.962
G01 X1179.049 Y120.522 Z-1.680
G01 X1179.256 Y121.013 Z-1.472
G01 X1179.494 Y121.717 Z-1.234
G01 X1179.664 Y122.321 Z-1.064
G01 X1180.729 Y123.385 Z0.000
G01 X1179.664 Y122.321 Z-1.064
G01 X1179.025 Y123.385 Z0.000
G01 X1179.664 Y122.321 Z-1.064
G01 X1179.458 Y121.598 Z-1.271
G01 X1179.256 Y121.013 Z-1.472
G01 X1179.049 Y120.522 Z-1.680
G01 X1178.767 Y119.982 Z-1.962
G01 X1178.479 Y119.521 Z-2.250
G01 X1178.091 Y118.972 Z-2.637
G01 X1177.582 Y118.346 Z-3.146
G01 X1176.738 Y118.699 Z-2.725
G01 X1176.056 Y119.014 Z-2.445
G01 X1175.443 Y119.314 Z-2.243
G01 X1174.840 Y119.601 Z-2.076
G01 X1173.842 Y120.065 Z-1.863
G01 X1173.208 Y120.344 Z-1.766
G01 X1172.182 Y120.753 Z-1.652
G01 X1171.549 Y120.976 Z-1.606
G01 X1170.858 Y121.190 Z-1.570
G01 X1169.835 Y121.452 Z-1.535
G01 X1169.198 Y121.584 Z-1.527
G01 X1168.428 Y121.708 Z-1.524
G01 X1167.417 Y121.816 Z-1.522
G01 X1166.786 Y121.851 Z-1.523
G01 X1166.146 Y121.860 Z-1.521
G01 X1165.156 Y121.822 Z-1.519
G01 X1164.201 Y121.724 Z-1.525
G01 X1163.278 Y121.560 Z-1.537
G01 X1162.386 Y121.334 Z-1.561
G01 X1161.599 Y121.065 Z-1.589
G01 X1161.111 Y120.864 Z-1.613
G01 X1160.377 Y120.503 Z-1.655
G01 X1159.914 Y120.236 Z-1.688
G01 X1159.533 Y119.991 Z-1.719
G01 X1159.123 Y119.699 Z-1.757
G01 X1158.501 Y119.194 Z-1.814
G01 X1157.950 Y118.676 Z-1.875
G01 X1157.393 Y118.067 Z-1.951
G01 X1156.894 Y117.413 Z-2.039
G01 X1156.599 Y116.963 Z-2.108
G01 X1156.249 Y116.337 Z-2.210
G01 X1155.919 Y115.605 Z-2.342
G01 X1155.706 Y114.993 Z-2.456
G01 X1155.520 Y114.274 Z-2.599
G01 X1155.369 Y113.385 Z-2.777
G01 X1155.288 Y112.470 Z-2.952
G01 X1155.285 Y111.543 Z-3.123
G01 X1155.359 Y110.606 Z-3.298
G01 X1155.511 Y109.660 Z-3.483
G01 X1155.744 Y108.710 Z-3.677
G01 X1155.945 Y108.091 Z-3.810
G01 X1156.210 Y107.414 Z-3.951
G01 X1156.571 Y106.676 Z-4.100
G01 X1156.947 Y106.044 Z-4.217
G01 X1157.266 Y105.593 Z-4.290
G01 X1157.604 Y105.179 Z-4.349
G01 X1157.978 Y104.778 Z-4.394
G01 X1158.594 Y104.213 Z-4.434
G01 X1159.537 Y103.469 Z-4.467
G01 X1160.770 Y102.627 Z-4.495
G01 X1161.873 Y101.950 Z-4.517
G01 X1163.062 Y101.280 Z-4.542
G01 X1164.512 Y100.519 Z-4.575
G01 X1168.113 Y98.726 Z-4.613
G01 X1169.856 Y97.839 Z-4.647
G01 X1171.705 Y96.870 Z-4.711
G01 X1172.957 Y96.173 Z-4.754
G01 X1174.304 Y95.344 Z-4.784
G01 X1175.116 Y94.787 Z-4.792
G00 Z5.000
G00 X1133.973 Y94.787  F4000.0
G01 Z-4.792 F200.0 M3
G01 X1134.879 Y94.106 Z-4.783 F2000.0
G01 X1135.429 Y93.648 Z-4.773
G01 X1136.035 Y93.090 Z-4.754
G01 X1136.670 Y92.423 Z-4.721
G01 X1137.236 Y91.726 Z-4.679
G01 X1137.609 Y91.190 Z-4.638
G01 X1137.935 Y90.648 Z-4.587
G01 X1138.230 Y90.069 Z-4.523
G01 X1138.483 Y89.473 Z-4.447
G01 X1138.692 Y88.865 Z-4.360
G01 X1138.858 Y88.248 Z-4.265
G01 X1138.985 Y87.619 Z-4.162
G01 X1139.072 Y87.004 Z-4.059
G01 X1139.128 Y86.384 Z-3.956
G01 X1139.151 Y85.767 Z-3.851
G01 X1139.139 Y85.155 Z-3.745
G01 X1139.094 Y84.548 Z-3.635
G01 X1138.980 Y83.732 Z-3.479
G01 X1138.816 Y82.985 Z-3.319
G01 X1138.574 Y82.186 Z-3.143
G01 X1138.297 Y81.489 Z-2.976
G01 X1138.003 Y80.882 Z-2.828
G01 X1137.757 Y80.441 Z-2.719
G01 X1137.493 Y80.018 Z-2.614
G01 X1136.999 Y79.334 Z-2.441
G01 X1136.607 Y78.861 Z-2.325
G01 X1136.037 Y78.253 Z-2.180
G01 X1135.315 Y77.588 Z-2.034
G01 X1134.595 Y77.026 Z-1.912
G01 X1134.129 Y76.702 Z-1.845
G01 X1133.399 Y76.260 Z-1.756
G01 X1132.565 Y75.839 Z-1.678
G01 X1131.927 Y75.574 Z-1.632
G01 X1131.188 Y75.321 Z-1.588
G01 X1130.360 Y75.102 Z-1.555
G01 X1129.431 Y74.928 Z-1.534
G01 X1128.472 Y74.823 Z-1.522
G01 X1127.482 Y74.784 Z-1.521
G01 X1126.313 Y74.817 Z-1.534
G01 X1125.234 Y74.912 Z-1.560
G01 X1124.117 Y75.075 Z-1.609
G01 X1122.965 Y75.315 Z-1.688
G01 X1121.781 Y75.633 Z-1.799
G01 X1120.668 Y75.998 Z-1.934
G01 X1119.903 Y76.289 Z-2.044
G01 X1119.219 Y76.571 Z-2.159
G01 X1118.062 Y77.106 Z-2.380
G01 X1117.139 Y77.570 Z-2.587
G01 X1116.302 Y77.989 Z-2.824
G01 X1115.482 Y78.389 Z-3.107
G01 X1114.575 Y78.809 Z-3.485
G01 X1114.333 Y79.463 Z-3.243
G01 X1114.042 Y80.309 Z-2.952
G01 X1113.774 Y81.148 Z-2.684
G01 X1113.528 Y81.984 Z-2.438
G01 X1113.301 Y82.819 Z-2.211
G01 X1113.093 Y83.656 Z-2.003
G01 X1112.901 Y84.498 Z-1.811
G01 X1112.725 Y85.347 Z-1.635
G01 X1112.563 Y86.206 Z-1.474
G01 X1112.416 Y87.075 Z-1.326
G01 X1112.162 Y88.824 Z-1.073
G01 X1112.032 Y89.921 Z-0.942
G01 X1112.793 Y90.863 Z0.000
G01 X1112.032 Y89.921 Z-0.942
G01 X1111.090 Y90.863 Z0.000
G01 X1112.032 Y89.921 Z-0.942
G01 X1112.162 Y88.824 Z-1.073
G01 X1112.416 Y87.075 Z-1.326
G01 X1112.573 Y86.153 Z-1.483
G01 X1112.737 Y85.286 Z-1.647
G01 X1112.917 Y84.428 Z-1.827
G01 X1113.112 Y83.575 Z-2.022
G01 X1113.326 Y82.725 Z-2.236
G01 X1113.558 Y81.877 Z-2.468
G01 X1113.812 Y81.026 Z-2.722
G01 X1114.088 Y80.170 Z-2.998
G01 X1114.389 Y79.307 Z-3.299
G01 X1114.575 Y78.809 Z-3.485
G01 X1113.952 Y78.136 Z-2.862
G01 X1113.403 Y77.449 Z-2.313
G01 X1113.081 Y76.978 Z-1.991
G01 X1112.736 Y76.394 Z-1.646
G01 X1112.476 Y75.861 Z-1.387
G01 X1112.229 Y75.226 Z-1.140
G01 X1112.181 Y75.074 Z-1.092
G01 X1111.090 Y73.982 Z0.000
G01 X1112.181 Y75.074 Z-1.092
G01 X1112.433 Y74.597 Z-0.614
G01 X1112.793 Y73.982 Z0.000
G01 X1112.363 Y74.724 Z-0.741
G01 X1112.181 Y75.074 Z-1.092
G01 X1112.398 Y75.676 Z-1.308
G01 X1112.613 Y76.154 Z-1.523
G01 X1112.894 Y76.675 Z-1.804
G01 X1113.267 Y77.256 Z-2.177
G01 X1113.540 Y77.628 Z-2.450
G01 X1113.952 Y78.136 Z-2.862
G01 X1114.575 Y78.809 Z-3.485
G01 X1115.482 Y78.389 Z-3.107
G01 X1116.513 Y77.883 Z-2.759
G01 X1117.307 Y77.486 Z-2.545
G01 X1118.533 Y76.881 Z-2.284
G01 X1119.333 Y76.522 Z-2.140
G01 X1120.583 Y76.028 Z-1.946
G01 X1121.345 Y75.769 Z-1.845
G01 X1122.021 Y75.563 Z-1.771
G01 X1122.965 Y75.315 Z-1.688
G01 X1124.117 Y75.075 Z-1.609
G01 X1125.234 Y74.912 Z-1.560
G01 X1126.313 Y74.817 Z-1.534
G01 X1127.482 Y74.784 Z-1.521
G01 X1128.472 Y74.823 Z-1.522
G01 X1129.431 Y74.928 Z-1.534
G01 X1130.290 Y75.087 Z-1.553
G01 X1130.815 Y75.214 Z-1.572
G01 X1131.627 Y75.465 Z-1.611
G01 X1132.487 Y75.804 Z-1.671
G01 X1133.119 Y76.108 Z-1.729
G01 X1133.806 Y76.497 Z-1.804
G01 X1134.522 Y76.973 Z-1.901
G01 X1135.265 Y77.547 Z-2.025
G01 X1135.957 Y78.175 Z-2.163
G01 X1136.370 Y78.596 Z-2.262
G01 X1136.916 Y79.229 Z-2.415
G01 X1137.293 Y79.728 Z-2.541
G01 X1137.573 Y80.141 Z-2.646
G01 X1137.866 Y80.626 Z-2.768
G01 X1138.230 Y81.342 Z-2.941
G01 X1138.495 Y81.973 Z-3.090
G01 X1138.740 Y82.701 Z-3.259
G01 X1138.936 Y83.505 Z-3.430
G01 X1139.061 Y84.252 Z-3.581
G01 X1139.117 Y84.778 Z-3.679
G01 X1139.147 Y85.341 Z-3.779
G01 X1139.147 Y85.964 Z-3.885
G01 X1139.112 Y86.589 Z-3.989
G01 X1139.044 Y87.217 Z-4.093
G01 X1138.920 Y87.963 Z-4.220
G01 X1138.761 Y88.626 Z-4.325
G01 X1138.567 Y89.243 Z-4.416
G01 X1138.340 Y89.824 Z-4.494
G01 X1138.078 Y90.380 Z-4.559
G01 X1137.776 Y90.921 Z-4.614
G01 X1137.429 Y91.458 Z-4.660
G01 X1137.028 Y91.996 Z-4.698
G01 X1136.566 Y92.539 Z-4.729
G01 X1135.906 Y93.214 Z-4.757
G01 X1135.285 Y93.772 Z-4.776
G01 X1134.369 Y94.501 Z-4.789
G01 X1133.121 Y95.370 Z-4.783
G01 X1131.681 Y96.251 Z-4.751
G01 X1130.219 Y97.053 Z-4.696
G01 X1128.622 Y97.886 Z-4.645
G01 X1126.893 Y98.765 Z-4.611
G01 X1123.082 Y100.668 Z-4.567
G01 X1121.791 Y101.349 Z-4.540
G01 X1120.509 Y102.081 Z-4.514
G01 X1119.357 Y102.802 Z-4.491
G01 X1118.394 Y103.469 Z-4.467
G01 X1117.624 Y104.065 Z-4.442
G01 X1117.052 Y104.571 Z-4.414
G01 X1116.642 Y104.977 Z-4.372
G01 X1116.263 Y105.415 Z-4.316
G01 X1115.804 Y106.044 Z-4.217
G01 X1115.428 Y106.676 Z-4.100
G01 X1115.056 Y107.440 Z-3.945
G01 X1114.802 Y108.091 Z-3.810
G01 X1114.601 Y108.710 Z-3.677
G01 X1114.368 Y109.660 Z-3.483
G01 X1114.216 Y110.606 Z-3.298
G01 X1114.142 Y111.543 Z-3.123
G01 X1114.145 Y112.478 Z-2.951
G01 X1114.226 Y113.385 Z-2.777
G01 X1114.377 Y114.274 Z-2.599
G01 X1114.563 Y114.993 Z-2.456
G01 X1114.776 Y115.605 Z-2.342
G01 X1115.044 Y116.215 Z-2.231
G01 X1115.305 Y116.710 Z-2.149
G01 X1115.685 Y117.317 Z-2.053
G01 X1115.995 Y117.746 Z-1.992
G01 X1116.459 Y118.306 Z-1.919
G01 X1117.074 Y118.939 Z-1.846
G01 X1117.518 Y119.331 Z-1.802
G01 X1118.090 Y119.780 Z-1.745
G01 X1118.771 Y120.236 Z-1.688
G01 X1119.494 Y120.641 Z-1.641
G01 X1120.043 Y120.898 Z-1.610
G01 X1120.810 Y121.193 Z-1.575
G01 X1121.312 Y121.353 Z-1.558
G01 X1122.135 Y121.560 Z-1.537
G01 X1123.086 Y121.728 Z-1.525
G01 X1124.068 Y121.826 Z-1.518
G01 X1125.056 Y121.860 Z-1.521
G01 X1125.874 Y121.842 Z-1.526
G01 X1126.927 Y121.753 Z-1.521
G01 X1128.055 Y121.584 Z-1.527
G01 X1128.866 Y121.412 Z-1.541
G01 X1129.914 Y121.132 Z-1.578
G01 X1130.963 Y120.781 Z-1.646
G01 X1131.593 Y120.538 Z-1.707
G01 X1132.614 Y120.104 Z-1.849
G01 X1133.258 Y119.811 Z-1.976
G01 X1133.822 Y119.542 Z-2.108
G01 X1134.677 Y119.126 Z-2.363
G01 X1135.378 Y118.795 Z-2.632
G01 X1136.068 Y118.496 Z-2.955
G01 X1136.439 Y118.346 Z-3.146
G01 X1136.705 Y117.540 Z-2.880
G01 X1137.109 Y116.160 Z-2.476
G01 X1137.332 Y115.303 Z-2.253
G01 X1137.692 Y113.737 Z-1.893
G01 X1138.019 Y112.085 Z-1.567
G01 X1138.318 Y110.332 Z-1.268
G01 X1138.621 Y108.243 Z-0.964
G01 X1137.882 Y107.279 Z0.000
G01 X1138.621 Y108.243 Z-0.964
G01 X1139.585 Y107.279 Z0.000
G01 X1138.621 Y108.243 Z-0.964
G01 X1138.313 Y110.361 Z-1.273
G01 X1138.011 Y112.127 Z-1.574
G01 X1137.680 Y113.796 Z-1.906
G01 X1137.311 Y115.387 Z-2.274
G01 X1136.928 Y116.805 Z-2.657
G01 X1136.661 Y117.679 Z-2.925
G01 X1136.439 Y118.346 Z-3.146
G01 X1136.948 Y118.972 Z-2.637
G01 X1137.335 Y119.521 Z-2.250
G01 X1137.624 Y119.982 Z-1.962
G01 X1137.906 Y120.522 Z-1.680
G01 X1138.113 Y121.013 Z-1.472
G01 X1138.351 Y121.717 Z-1.234
G01 X1138.521 Y122.321 Z-1.064
G01 X1139.585 Y123.385 Z0.000
G01 X1138.521 Y122.321 Z-1.064
G01 X1137.882 Y123.385 Z0.000
G01 X1138.521 Y122.321 Z-1.064
G01 X1138.314 Y121.598 Z-1.271
G01 X1138.113 Y121.013 Z-1.472
G01 X1137.906 Y120.522 Z-1.680
G01 X1137.624 Y119.982 Z-1.962
G01 X1137.335 Y119.521 Z-2.250
G01 X1136.948 Y118.972 Z-2.637
G01 X1136.439 Y118.346 Z-3.146
G01 X1135.595 Y118.699 Z-2.725
G01 X1134.913 Y119.014 Z-2.445
G01 X1134.300 Y119.314 Z-2.243
G01 X1133.697 Y119.601 Z-2.076
G01 X1132.699 Y120.065 Z-1.863
G01 X1132.065 Y120.344 Z-1.766
G01 X1131.039 Y120.753 Z-1.652
G01 X1130.406 Y120.976 Z-1.606
G01 X1129.715 Y121.190 Z-1.570
G01 X1128.692 Y121.452 Z-1.535
G01 X1128.055 Y121.584 Z-1.527
G01 X1127.285 Y121.708 Z-1.524
G01 X1126.274 Y121.816 Z-1.522
G01 X1125.643 Y121.851 Z-1.523
G01 X1125.002 Y121.860 Z-1.521
G01 X1124.013 Y121.822 Z-1.519
G01 X1123.057 Y121.724 Z-1.525
G01 X1122.135 Y121.560 Z-1.537
G01 X1121.243 Y121.334 Z-1.561
G01 X1120.456 Y121.065 Z-1.589
G01 X1119.968 Y120.864 Z-1.613
G01 X1119.234 Y120.503 Z-1.655
G01 X1118.771 Y120.236 Z-1.688
G01 X1118.390 Y119.991 Z-1.719
G01 X1117.980 Y119.699 Z-1.757
G01 X1117.358 Y119.194 Z-1.814
G01 X1116.807 Y118.676 Z-1.875
G01 X1116.250 Y118.067 Z-1.951
G01 X1115.751 Y117.413 Z-2.039
G01 X1115.455 Y116.963 Z-2.108
G01 X1115.106 Y116.337 Z-2.210
G01 X1114.776 Y115.605 Z-2.342
G01 X1114.563 Y114.993 Z-2.456
G01 X1114.377 Y114.274 Z-2.599
G01 X1114.226 Y113.385 Z-2.777
G01 X1114.145 Y112.470 Z-2.952
G01 X1114.142 Y111.543 Z-3.123
G01 X1114.216 Y110.606 Z-3.298
G01 X1114.368 Y109.660 Z-3.483
G01 X1114.601 Y108.710 Z-3.677
G01 X1114.802 Y108.091 Z-3.810
G01 X1115.067 Y107.414 Z-3.951
G01 X1115.428 Y106.676 Z-4.100
G01 X1115.804 Y106.044 Z-4.217
G01 X1116.123 Y105.593 Z-4.290
G01 X1116.461 Y105.179 Z-4.349
G01 X1116.835 Y104.778 Z-4.394
G01 X1117.451 Y104.213 Z-4.434
G01 X1118.394 Y103.469 Z-4.467
G01 X1119.627 Y102.627 Z-4.495
G01 X1120.730 Y101.950 Z-4.517
G01 X1121.919 Y101.280 Z-4.542
G01 X1123.369 Y100.519 Z-4.575
G01 X1126.969 Y98.726 Z-4.613
G01 X1128.713 Y97.839 Z-4.647
G01 X1130.562 Y96.870 Z-4.711
G01 X1131.814 Y96.173 Z-4.754
G01 X1133.161 Y95.344 Z-4.784
G01 X1133.973 Y94.787 Z-4.792
G00 Z5.000
G00 X1094.031 Y79.671  F4000.0
G01 Z-4.933 F200.0 M3
G01 X1093.869 Y80.473 Z-4.770 F2000.0
G01 X1093.695 Y81.571 Z-4.597
G01 X1093.580 Y82.581 Z-4.482
G01 X1093.517 Y83.401 Z-4.420
G01 X1093.489 Y83.730 Z-4.414
G01 X1093.411 Y84.307 Z-4.434
G01 X1093.322 Y84.797 Z-4.489
G01 X1093.383 Y85.365 Z-4.390
G01 X1093.413 Y85.918 Z-4.333
G01 X1093.407 Y86.592 Z-4.308
G01 X1093.370 Y89.607 Z-4.271
G01 X1093.358 Y93.341 Z-4.259
G01 X1093.357 Y113.213 Z-4.259
G01 X1093.340 Y114.410 Z-4.277
G01 X1093.290 Y115.576 Z-4.327
G01 X1093.211 Y116.635 Z-4.406
G01 X1093.117 Y117.492 Z-4.499
G01 X1097.616 Y121.991 Z0.000
G01 X1093.117 Y117.492 Z-4.499
G01 X1092.296 Y118.108 Z-3.883
G01 X1091.452 Y118.688 Z-3.303
G01 X1090.756 Y119.121 Z-2.870
G01 X1090.000 Y119.540 Z-2.451
G01 X1089.361 Y119.847 Z-2.144
G01 X1088.659 Y120.130 Z-1.862
G01 X1088.089 Y120.317 Z-1.674
G01 X1087.288 Y120.525 Z-1.466
G01 X1086.477 Y120.683 Z-1.308
G01 X1085.626 Y120.805 Z-1.186
G01 X1084.701 Y120.900 Z-1.092
G01 X1083.723 Y120.967 Z-1.024
G01 X1082.485 Y121.016 Z-0.975
G01 X1081.510 Y121.991 Z0.000
G01 X1082.485 Y121.016 Z-0.975
G01 X1081.510 Y120.081 Z0.000
G01 X1082.485 Y121.016 Z-0.975
G01 X1083.778 Y120.964 Z-1.027
G01 X1084.753 Y120.895 Z-1.096
G01 X1085.675 Y120.799 Z-1.192
G01 X1086.543 Y120.672 Z-1.319
G01 X1087.382 Y120.504 Z-1.487
G01 X1088.089 Y120.317 Z-1.674
G01 X1088.659 Y120.130 Z-1.862
G01 X1089.361 Y119.847 Z-2.144
G01 X1090.000 Y119.540 Z-2.451
G01 X1090.756 Y119.121 Z-2.870
G01 X1091.452 Y118.688 Z-3.303
G01 X1092.296 Y118.108 Z-3.883
G01 X1093.117 Y117.492 Z-4.499
G01 X1093.232 Y116.387 Z-4.384
G01 X1093.305 Y115.298 Z-4.311
G01 X1093.345 Y114.180 Z-4.271
G01 X1093.358 Y113.112 Z-4.259
G01 X1093.358 Y93.313 Z-4.259
G01 X1093.370 Y89.552 Z-4.271
G01 X1093.413 Y86.320 Z-4.314
G01 X1093.405 Y85.692 Z-4.352
G01 X1093.374 Y85.265 Z-4.404
G01 X1093.322 Y84.797 Z-4.489
G01 X1092.044 Y84.797 Z-3.316
G01 X1091.363 Y84.797 Z-2.729
G01 X1090.605 Y84.797 Z-2.142
G01 X1090.272 Y84.787 Z-1.915
G01 X1089.719 Y84.720 Z-1.573
G01 X1089.281 Y84.608 Z-1.346
G01 X1088.983 Y84.489 Z-1.220
G01 X1088.779 Y84.386 Z-1.157
G01 X1088.554 Y84.240 Z-1.109
G01 X1088.301 Y84.023 Z-1.094
G01 X1087.087 Y82.834 Z-1.166
G01 X1086.240 Y82.049 Z-1.233
G01 X1085.293 Y81.216 Z-1.329
G01 X1084.626 Y80.666 Z-1.403
G01 X1083.850 Y80.061 Z-1.511
G01 X1083.106 Y79.531 Z-1.627
G01 X1082.397 Y79.059 Z-1.754
G01 X1081.362 Y78.430 Z-1.953
G01 X1080.379 Y77.903 Z-2.149
G01 X1079.543 Y77.520 Z-2.323
G01 X1078.803 Y77.238 Z-2.474
G01 X1077.894 Y76.975 Z-2.652
G01 X1077.173 Y76.821 Z-2.791
G01 X1076.276 Y76.696 Z-2.961
G01 X1075.745 Y76.652 Z-3.063
G01 X1075.080 Y76.634 Z-3.187
G01 X1074.290 Y76.663 Z-3.330
G01 X1073.589 Y76.736 Z-3.458
G01 X1072.678 Y76.894 Z-3.627
G01 X1071.966 Y77.079 Z-3.755
G01 X1071.408 Y77.264 Z-3.852
G01 X1070.854 Y77.490 Z-3.942
G01 X1070.342 Y77.739 Z-4.017
G01 X1069.863 Y78.013 Z-4.078
G01 X1069.181 Y78.482 Z-4.148
G01 X1068.600 Y78.972 Z-4.193
G01 X1068.095 Y79.483 Z-4.236
G01 X1067.721 Y79.924 Z-4.266
G01 X1067.348 Y80.436 Z-4.293
G01 X1066.942 Y81.104 Z-4.318
G01 X1066.623 Y81.747 Z-4.329
G01 X1066.333 Y82.463 Z-4.330
G01 X1066.023 Y83.466 Z-4.316
G01 X1065.761 Y84.609 Z-4.292
G01 X1065.626 Y85.368 Z-4.282
G01 X1065.496 Y86.304 Z-4.274
G01 X1065.358 Y87.769 Z-4.264
G01 X1065.299 Y88.780 Z-4.268
G01 X1065.257 Y90.347 Z-4.277
G01 X1065.249 Y91.712 Z-4.285
G01 X1065.243 Y113.669 Z-4.291
G01 X1065.219 Y114.709 Z-4.315
G01 X1065.180 Y115.585 Z-4.353
G01 X1065.122 Y116.445 Z-4.412
G01 X1065.016 Y117.474 Z-4.517
G01 X1069.534 Y121.991 Z0.000
G01 X1065.016 Y117.474 Z-4.517
G01 X1064.330 Y117.994 Z-3.997
G01 X1063.500 Y118.568 Z-3.423
G01 X1062.789 Y119.006 Z-2.986
G01 X1062.210 Y119.325 Z-2.666
G01 X1061.655 Y119.604 Z-2.387
G01 X1061.120 Y119.847 Z-2.144
G01 X1060.604 Y120.058 Z-1.933
G01 X1059.729 Y120.363 Z-1.628
G01 X1059.128 Y120.536 Z-1.455
G01 X1058.610 Y120.663 Z-1.329
G01 X1058.061 Y120.769 Z-1.222
G01 X1057.487 Y120.851 Z-1.140
G01 X1056.874 Y120.916 Z-1.075
G01 X1056.209 Y120.966 Z-1.025
G01 X1055.488 Y121.002 Z-0.989
G01 X1053.918 Y121.036 Z-0.955
G01 X1052.963 Y121.991 Z0.000
G01 X1053.918 Y121.036 Z-0.955
G01 X1052.963 Y120.081 Z0.000
G01 X1053.918 Y121.036 Z-0.955
G01 X1055.528 Y121.000 Z-0.991
G01 X1056.260 Y120.963 Z-1.029
G01 X1056.941 Y120.910 Z-1.081
G01 X1057.578 Y120.840 Z-1.151
G01 X1058.186 Y120.747 Z-1.244
G01 X1058.738 Y120.634 Z-1.358
G01 X1059.611 Y120.399 Z-1.592
G01 X1060.237 Y120.194 Z-1.797
G01 X1060.757 Y119.998 Z-1.993
G01 X1061.292 Y119.771 Z-2.220
G01 X1061.846 Y119.511 Z-2.480
G01 X1062.422 Y119.212 Z-2.780
G01 X1063.107 Y118.816 Z-3.175
G01 X1063.886 Y118.310 Z-3.681
G01 X1064.683 Y117.733 Z-4.258
G01 X1065.016 Y117.474 Z-4.517
G01 X1065.122 Y116.445 Z-4.412
G01 X1065.191 Y115.389 Z-4.343
G01 X1065.241 Y113.805 Z-4.293
G01 X1065.249 Y112.802 Z-4.285
G01 X1065.249 Y91.712 
G01 X1065.274 Y89.491 Z-4.269
G01 X1065.313 Y88.507 Z-4.265
G01 X1065.379 Y87.487 Z-4.267
G01 X1065.521 Y86.111 Z-4.273
G01 X1065.652 Y85.206 Z-4.285
G01 X1065.825 Y84.290 Z-4.301
G01 X1066.023 Y83.466 Z-4.316
G01 X1066.240 Y82.737 Z-4.328
G01 X1066.443 Y82.173 Z-4.331
G01 X1066.741 Y81.493 Z-4.325
G01 X1067.110 Y80.810 Z-4.308
G01 X1067.548 Y80.150 Z-4.279
G01 X1068.040 Y79.543 Z-4.239
G01 X1068.512 Y79.052 Z-4.200
G01 X1069.125 Y78.526 Z-4.151
G01 X1069.632 Y78.161 Z-4.104
G01 X1070.099 Y77.873 Z-4.049
G01 X1070.593 Y77.611 Z-3.981
G01 X1071.125 Y77.374 Z-3.899
G01 X1071.705 Y77.161 Z-3.802
G01 X1072.505 Y76.935 Z-3.658
G01 X1073.217 Y76.792 Z-3.526
G01 X1073.754 Y76.714 Z-3.429
G01 X1074.399 Y76.655 Z-3.312
G01 X1075.210 Y76.635 Z-3.161
G01 X1075.880 Y76.662 Z-3.036
G01 X1076.465 Y76.715 Z-2.928
G01 X1077.325 Y76.851 Z-2.759
G01 X1078.046 Y77.014 Z-2.619
G01 X1078.963 Y77.292 Z-2.443
G01 X1079.807 Y77.634 Z-2.270
G01 X1080.379 Y77.903 Z-2.149
G01 X1081.362 Y78.430 Z-1.953
G01 X1082.462 Y79.100 Z-1.742
G01 X1083.179 Y79.582 Z-1.614
G01 X1083.924 Y80.116 Z-1.500
G01 X1084.683 Y80.712 Z-1.395
G01 X1085.466 Y81.364 Z-1.308
G01 X1086.275 Y82.081 Z-1.230
G01 X1087.115 Y82.861 Z-1.164
G01 X1088.351 Y84.071 Z-1.093
G01 X1088.645 Y84.303 Z-1.125
G01 X1088.779 Y84.386 Z-1.157
G01 X1089.014 Y84.503 Z-1.232
G01 X1089.281 Y84.608 Z-1.346
G01 X1089.719 Y84.720 Z-1.573
G01 X1090.272 Y84.787 Z-1.915
G01 X1090.605 Y84.797 Z-2.142
G01 X1091.363 Y84.797 Z-2.729
G01 X1092.044 Y84.797 Z-3.316
G01 X1093.322 Y84.797 Z-4.489
G01 X1093.434 Y84.158 Z-4.424
G01 X1093.489 Y83.730 Z-4.414
G01 X1093.535 Y83.146 Z-4.436
G01 X1093.611 Y82.263 Z-4.513
G01 X1093.756 Y81.148 Z-4.657
G01 X1093.932 Y80.141 Z-4.834
G01 X1094.031 Y79.671 Z-4.933
G01 X1091.038 Y75.198 Z-1.939
G01 X1089.099 Y73.260 Z0.000
G01 X1091.038 Y75.198 Z-1.939
G01 X1091.422 Y73.260 Z0.000
G01 X1091.038 Y75.198 Z-1.939
G01 X1094.031 Y79.671 Z-4.933
G01 X1094.827 Y79.381 Z-4.361
G01 X1095.703 Y79.099 Z-3.766
G01 X1096.526 Y78.880 Z-3.250
G01 X1097.294 Y78.721 Z-2.810
G01 X1098.176 Y78.597 Z-2.359
G01 X1098.989 Y78.540 Z-1.996
G01 X1099.645 Y78.538 Z-1.744
G01 X1100.360 Y78.586 Z-1.516
G01 X1100.895 Y78.657 Z-1.378
G01 X1101.678 Y78.813 Z-1.224
G01 X1102.234 Y78.951 Z-1.140
G01 X1103.203 Y79.240 Z-1.037
G01 X1104.202 Y79.594 Z-0.983
G01 X1104.295 Y79.630 Z-0.981
G01 X1105.566 Y79.093 Z0.000
G01 X1104.295 Y79.630 Z-0.981
G01 X1104.844 Y80.900 Z0.000
G01 X1104.295 Y79.630 Z-0.981
G01 X1103.653 Y79.393 Z-1.007
G01 X1102.659 Y79.071 Z-1.088
G01 X1101.755 Y78.831 Z-1.211
G01 X1101.177 Y78.707 Z-1.316
G01 X1100.496 Y78.601 Z-1.478
G01 X1099.926 Y78.550 Z-1.649
G01 X1099.184 Y78.535 Z-1.917
G01 X1098.479 Y78.569 Z-2.217
G01 X1097.623 Y78.667 Z-2.634
G01 X1096.959 Y78.784 Z-2.996
G01 X1096.162 Y78.971 Z-3.473
G01 X1095.306 Y79.221 Z-4.030
G01 X1094.392 Y79.536 Z-4.670
G01 X1094.031 Y79.671 Z-4.933
G00 Z5.000
G00 X1039.849 Y86.660  F4000.0
G01 Z-6.000 F200.0 M3
G01 X1040.359 Y87.539  F2000.0
G01 X1040.828 Y88.445 
G01 X1041.256 Y89.380 
G01 X1041.644 Y90.347 
G01 X1041.990 Y91.346 
G01 X1042.297 Y92.381 
G01 X1042.561 Y93.452 
G01 X1042.671 Y93.970 
G01 X1042.879 Y95.131 
G01 X1043.038 Y96.300 
G01 X1043.152 Y97.509 
G01 X1043.222 Y98.760 
G01 X1043.245 Y100.055 
G01 X1043.226 Y101.198 
G01 X1043.169 Y102.303 
G01 X1043.075 Y103.367 
G01 X1042.945 Y104.391 
G01 X1042.780 Y105.374 
G01 X1042.581 Y106.317 
G01 X1042.350 Y107.222 
G01 X1042.086 Y108.089 
G01 X1041.792 Y108.921 
G01 X1041.466 Y109.719 
G01 X1041.110 Y110.485 
G01 X1040.723 Y111.221 
G01 X1040.305 Y111.930 
G01 X1039.855 Y112.612 
G01 X1039.371 Y113.271 
G01 X1038.846 Y113.916 
G01 X1038.432 Y114.380 
G01 X1038.018 Y114.800 
G01 X1037.605 Y115.180 
G01 X1037.192 Y115.521 
G01 X1036.778 Y115.827 
G01 X1036.363 Y116.100 
G01 X1035.944 Y116.343 
G01 X1035.519 Y116.558 
G01 X1035.085 Y116.746 
G01 X1034.640 Y116.910 
G01 X1034.179 Y117.050 
G01 X1033.699 Y117.167 
G01 X1033.198 Y117.259 
G01 X1032.673 Y117.327 
G01 X1032.120 Y117.369 
G01 X1031.263 Y117.379 
G01 X1030.723 Y117.337 
G01 X1030.193 Y117.253 
G01 X1029.664 Y117.127 
G01 X1029.131 Y116.955 
G01 X1028.584 Y116.732 
G01 X1028.021 Y116.453 
G01 X1027.438 Y116.111 
G01 X1026.884 Y115.733 
G01 X1026.324 Y115.281 
G01 X1025.703 Y114.701 
G01 X1025.031 Y113.987 
G01 X1024.317 Y113.138 
G01 X1023.568 Y112.152 
G01 X1022.793 Y111.029 
G01 X1021.995 Y109.773 
G01 X1021.564 Y109.051 
G02 X1013.845 Y106.709 I-5.149 J3.080
G01 X1013.473 Y107.334 Z-5.628 
G01 X1013.100 Y108.053 Z-5.255
G01 X1012.887 Y108.521 Z-5.047
G01 X1012.612 Y109.232 Z-4.781
G01 X1012.428 Y109.828 Z-4.604
G01 X1012.309 Y110.304 Z-4.493
G01 X1012.193 Y110.895 Z-4.398
G01 X1012.118 Y111.455 Z-4.349
G01 X1012.072 Y112.131 Z-4.342
G01 X1011.997 Y113.601 Z-4.418
G01 X1011.895 Y114.691 Z-4.519
G01 X1011.779 Y115.493 Z-4.635
G01 X1011.593 Y116.445 Z-4.822
G01 X1011.528 Y116.726 Z-4.886
G01 X1014.772 Y121.536 Z-1.642
G01 X1016.414 Y123.178 Z0.000
G01 X1014.772 Y121.536 Z-1.642
G01 X1014.453 Y123.178 Z0.000
G01 X1014.772 Y121.536 Z-1.642
G01 X1011.528 Y116.726 Z-4.886
G01 X1010.622 Y117.042 Z-4.253
G01 X1009.529 Y117.363 Z-3.546
G01 X1008.525 Y117.589 Z-2.960
G01 X1007.613 Y117.731 Z-2.487
G01 X1006.817 Y117.798 Z-2.126
G01 X1005.998 Y117.810 Z-1.808
G01 X1005.387 Y117.781 Z-1.607
G01 X1004.508 Y117.686 Z-1.365
G01 X1003.622 Y117.536 Z-1.172
G01 X1002.841 Y117.354 Z-1.048
G01 X1002.022 Y117.116 Z-0.962
G01 X1001.052 Y116.785 Z-0.905
G01 X999.895 Y117.294 Z0.000
G01 X1001.052 Y116.785 Z-0.905
G01 X1000.515 Y115.642 Z0.000
G01 X1001.052 Y116.785 Z-0.905
G01 X1002.062 Y117.129 Z-0.965
G01 X1002.898 Y117.369 Z-1.055
G01 X1003.694 Y117.550 Z-1.186
G01 X1004.595 Y117.698 Z-1.386
G01 X1005.387 Y117.781 Z-1.607
G01 X1005.998 Y117.810 Z-1.808
G01 X1006.817 Y117.798 Z-2.126
G01 X1007.613 Y117.731 Z-2.487
G01 X1008.525 Y117.589 Z-2.960
G01 X1009.529 Y117.363 Z-3.546
G01 X1010.622 Y117.042 Z-4.253
G01 X1011.528 Y116.726 Z-4.886
G01 X1011.722 Y115.813 Z-4.692
G01 X1011.846 Y115.066 Z-4.569
G01 X1011.936 Y114.316 Z-4.478
G01 X1011.997 Y113.601 Z-4.418
G01 X1012.075 Y112.059 Z-4.340
G01 X1012.139 Y111.279 Z-4.359
G01 X1012.233 Y110.668 Z-4.430
G01 X1012.334 Y110.196 Z-4.516
G01 X1012.520 Y109.513 Z-4.693
G01 X1012.704 Y108.977 Z-4.870
G01 X1012.887 Y108.521 Z-5.047
G01 X1013.100 Y108.053 Z-5.255
G01 X1013.473 Y107.334 Z-5.628
G01 X1013.845 Y106.709 Z-6.000
G01 X1013.845 Y82.863 
G01 X1013.416 Y82.137 Z-5.571
G01 X1013.202 Y81.728 Z-5.357
G01 X1012.987 Y81.275 Z-5.142
G01 X1012.773 Y80.761 Z-4.928
G01 X1012.559 Y80.152 Z-4.713
G01 X1012.451 Y79.789 Z-4.606
G01 X1012.291 Y79.101 Z-4.445
G01 X1012.183 Y78.399 Z-4.338
G01 X1012.143 Y77.920 Z-4.298
G01 X1012.130 Y77.441 Z-4.285
G01 X1012.129 Y62.020 Z-4.293
G01 X1012.128 Y60.619 Z-4.329
G01 X1012.129 Y59.553 Z-4.382
G01 X1012.132 Y58.553 Z-4.461
G01 X1012.135 Y57.594 Z-4.575
G01 X1012.139 Y56.800 Z-4.706
G01 X1011.168 Y56.039 Z-3.944
G01 X1010.378 Y55.487 Z-3.393
G01 X1009.509 Y54.953 Z-2.859
G01 X1008.800 Y54.568 Z-2.474
G01 X1008.016 Y54.200 Z-2.106
G01 X1007.382 Y53.951 Z-1.856
G01 X1006.658 Y53.720 Z-1.626
G01 X1005.815 Y53.514 Z-1.420
G01 X1005.131 Y53.378 Z-1.284
G01 X1004.449 Y53.268 Z-1.173
G01 X1003.762 Y53.181 Z-1.087
G01 X1003.067 Y53.117 Z-1.023
G01 X1002.358 Y53.075 Z-0.980
G01 X1001.632 Y53.052 Z-0.958
G01 X1000.592 Y53.049 Z-0.955
G01 X999.637 Y54.004 Z0.000
G01 X1000.592 Y53.049 Z-0.955
G01 X999.637 Y52.094 Z0.000
G01 X1000.592 Y53.049 Z-0.955
G01 X1001.685 Y53.053 Z-0.959
G01 X1002.416 Y53.077 Z-0.983
G01 X1003.132 Y53.122 Z-1.028
G01 X1003.835 Y53.190 Z-1.095
G01 X1004.532 Y53.280 Z-1.186
G01 X1005.227 Y53.396 Z-1.301
G01 X1005.924 Y53.539 Z-1.444
G01 X1006.658 Y53.720 Z-1.626
G01 X1007.382 Y53.951 Z-1.856
G01 X1008.016 Y54.200 Z-2.106
G01 X1008.800 Y54.568 Z-2.474
G01 X1009.509 Y54.953 Z-2.859
G01 X1010.378 Y55.487 Z-3.393
G01 X1011.168 Y56.039 Z-3.944
G01 X1012.139 Y56.800 Z-4.706
G01 X1012.816 Y56.266 Z-4.172
G01 X1013.658 Y55.657 Z-3.562
G01 X1014.431 Y55.164 Z-3.069
G01 X1015.295 Y54.683 Z-2.589
G01 X1015.863 Y54.406 Z-2.312
G01 X1016.408 Y54.169 Z-2.075
G01 X1016.934 Y53.966 Z-1.872
G01 X1017.448 Y53.791 Z-1.696
G01 X1017.953 Y53.639 Z-1.545
G01 X1018.499 Y53.498 Z-1.403
G01 X1019.079 Y53.378 Z-1.283
G01 X1019.681 Y53.284 Z-1.189
G01 X1020.324 Y53.209 Z-1.114
G01 X1021.018 Y53.150 Z-1.056
G01 X1021.771 Y53.105 Z-1.011
G01 X1022.589 Y53.074 Z-0.980
G01 X1023.455 Y53.056 Z-0.961
G01 X1024.416 Y52.094 Z0.000
G01 X1023.455 Y53.056 Z-0.961
G01 X1024.416 Y54.004 Z0.000
G01 X1023.455 Y53.056 Z-0.961
G01 X1022.554 Y53.075 Z-0.981
G01 X1021.729 Y53.107 Z-1.013
G01 X1020.964 Y53.154 Z-1.060
G01 X1020.253 Y53.216 Z-1.122
G01 X1019.584 Y53.297 Z-1.203
G01 X1018.943 Y53.403 Z-1.309
G01 X1018.361 Y53.531 Z-1.437
G01 X1017.841 Y53.671 Z-1.577
G01 X1017.315 Y53.834 Z-1.739
G01 X1016.779 Y54.023 Z-1.929
G01 X1016.227 Y54.245 Z-2.150
G01 X1015.655 Y54.504 Z-2.410
G01 X1015.057 Y54.808 Z-2.714
G01 X1014.431 Y55.164 Z-3.069
G01 X1013.658 Y55.657 Z-3.562
G01 X1012.816 Y56.266 Z-4.172
G01 X1012.139 Y56.800 Z-4.706
G01 X1012.136 Y57.956 Z-4.526
G01 X1012.133 Y58.857 Z-4.433
G01 X1012.130 Y59.837 Z-4.365
G01 X1012.127 Y61.766 Z-4.298
G01 X1012.130 Y63.348 Z-4.285
G01 X1012.130 Y77.441 
G01 X1012.156 Y78.119 Z-4.311
G01 X1012.237 Y78.797 Z-4.392
G01 X1012.344 Y79.358 Z-4.499
G01 X1012.451 Y79.789 Z-4.606
G01 X1012.666 Y80.472 Z-4.821
G01 X1012.773 Y80.761 Z-4.928
G01 X1012.987 Y81.275 Z-5.142
G01 X1013.202 Y81.728 Z-5.357
G01 X1013.416 Y82.137 Z-5.571
G01 X1013.845 Y82.863 Z-6.000
G02 X1020.361 Y81.960 I2.569 J-5.422
G01 X1020.926 Y81.467  
G01 X1021.389 Y81.088 
G01 X1022.192 Y80.501 
G01 X1022.800 Y80.135 
G01 X1023.220 Y79.944 
G01 X1023.632 Y79.797 
G01 X1024.069 Y79.668 
G01 X1024.551 Y79.552 
G01 X1025.080 Y79.453 
G01 X1025.656 Y79.372 
G01 X1026.280 Y79.311 
G01 X1026.951 Y79.273 
G01 X1027.651 Y79.261 
G01 X1028.466 Y79.280 
G01 X1029.231 Y79.335 
G01 X1029.964 Y79.426 
G01 X1030.667 Y79.550 
G01 X1031.342 Y79.707 
G01 X1031.993 Y79.896 
G01 X1032.621 Y80.117 
G01 X1033.230 Y80.372 
G01 X1033.824 Y80.659 
G01 X1034.405 Y80.983 
G01 X1034.976 Y81.343 
G01 X1035.538 Y81.743 
G01 X1036.093 Y82.185 
G01 X1036.642 Y82.671 
G01 X1037.187 Y83.204 
G01 X1037.743 Y83.806 
G01 X1038.381 Y84.570 
G01 X1039.002 Y85.389 
G01 X1039.577 Y86.230 
G01 X1039.849 Y86.660 
G00 Z5.000
G00 X1014.285 Y104.608  F4000.0
G01 Z-6.000 F200.0 M3
G01 X1014.675 Y105.470  F2000.0
G01 X1015.581 Y105.745 
G01 X1014.285 Y106.053 
G01 X1014.285 Y104.608 
G00 Z5.000
G00 X1015.581 Y83.827  F4000.0
G01 Z-6.000 F200.0 M3
G01 X1014.675 Y84.102  F2000.0
G01 X1014.285 Y84.965 
G01 X1014.285 Y83.519 
G01 X1015.581 Y83.827 
G00 Z5.000
G00 X1024.208 Y83.280  F4000.0
G01 Z-6.000 F200.0 M3
G01 X1024.600 Y83.009  F2000.0
G01 X1025.065 Y82.774 
G01 X1025.627 Y82.581 
G01 X1026.325 Y82.438 
G01 X1026.881 Y82.379 
G01 X1027.489 Y82.358 
G01 X1028.160 Y82.391 
G01 X1028.706 Y82.476 
G01 X1029.170 Y82.604 
G01 X1029.581 Y82.772 
G01 X1029.967 Y82.988 
G01 X1030.353 Y83.268 
G01 X1030.755 Y83.638 
G01 X1031.172 Y84.111 
G01 X1031.485 Y84.529 
G01 X1031.780 Y84.970 
G01 X1032.060 Y85.442 
G01 X1032.327 Y85.947 
G01 X1032.579 Y86.489 
G01 X1032.815 Y87.070 
G01 X1033.035 Y87.690 
G01 X1033.237 Y88.352 
G01 X1033.420 Y89.056 
G01 X1033.582 Y89.803 
G01 X1033.723 Y90.593 
G01 X1033.840 Y91.427 
G01 X1033.934 Y92.306 
G01 X1034.001 Y93.227 
G01 X1034.043 Y94.192 
G01 X1034.057 Y95.199 
G01 X1034.041 Y96.364 
G01 X1033.993 Y97.482 
G01 X1033.914 Y98.549 
G01 X1033.805 Y99.568 
G01 X1033.668 Y100.536 
G01 X1033.504 Y101.454 
G01 X1033.313 Y102.323 
G01 X1033.099 Y103.142 
G01 X1032.861 Y103.913 
G01 X1032.602 Y104.636 
G01 X1032.322 Y105.314 
G01 X1032.024 Y105.946 
G01 X1031.708 Y106.537 
G01 X1031.374 Y107.088 
G01 X1031.023 Y107.602 
G01 X1030.648 Y108.091 
G01 X1030.181 Y108.611 
G01 X1029.731 Y109.028 
G01 X1029.324 Y109.334 
G01 X1028.955 Y109.552 
G01 X1028.610 Y109.704 
G01 X1028.266 Y109.808 
G01 X1027.893 Y109.873 
G01 X1027.472 Y109.897 
G01 X1026.974 Y109.866 
G01 X1026.466 Y109.770 
G01 X1025.909 Y109.593 
G01 X1025.318 Y109.330 
G01 X1025.078 Y109.161 
G01 X1024.673 Y108.838 
G01 X1024.120 Y108.354 
G01 X1023.447 Y107.723 
G01 X1022.414 Y106.692 
G01 X1020.157 Y107.607 Z-3.743
G01 X1016.414 Y109.086 Z0.000
G01 X1020.157 Y107.607 Z-3.743
G01 X1022.414 Y106.692 Z-6.000
G01 X1022.421 Y90.128 
G01 X1022.475 Y87.933 
G01 X1022.573 Y86.337 
G01 X1022.678 Y85.471 
G01 X1022.776 Y85.083 
G01 X1022.909 Y84.764 
G01 X1023.107 Y84.426 
G01 X1023.400 Y84.044 
G01 X1023.784 Y83.647 
G01 X1024.208 Y83.280 
G00 Z5.000
G00 X1022.854 Y106.040  F4000.0
G01 Z-6.000 F200.0 M3
G01 X1022.943 Y106.482  F2000.0
G01 X1023.195 Y106.856 
G01 X1022.854 Y106.514 
G01 X1022.854 Y106.040 
G00 Z5.000
G00 X988.410 Y78.621  F4000.0
G01 Z-4.810 F200.0 M3
G01 X988.375 Y78.564 Z-4.745 F2000.0
G01 X988.410 Y78.621 Z-4.810
G01 X988.861 Y78.362 Z-4.582
G01 X989.293 Y78.180 Z-4.349
G01 X989.726 Y78.046 Z-4.117
G01 X990.085 Y77.958 Z-3.925
G01 X990.698 Y77.863 Z-3.602
G01 X991.266 Y77.819 Z-3.309
G01 X991.873 Y77.819 Z-3.006
G01 X992.617 Y77.886 Z-2.653
G01 X993.271 Y78.009 Z-2.361
G01 X993.885 Y78.180 Z-2.110
G01 X994.276 Y78.318 Z-1.965
G01 X994.878 Y78.577 Z-1.753
G01 X995.427 Y78.866 Z-1.581
G01 X995.927 Y79.180 Z-1.452
G01 X996.374 Y79.519 Z-1.357
G01 X996.711 Y79.811 Z-1.308
G01 X997.507 Y80.579 Z-1.210
G01 X998.182 Y81.286 Z-1.134
G01 X998.724 Y81.882 Z-1.068
G01 X999.792 Y81.519 Z0.000
G01 X998.724 Y81.882 Z-1.068
G01 X999.792 Y84.410 Z0.000
G01 X998.724 Y81.882 Z-1.068
G01 X997.963 Y81.052 Z-1.156
G01 X997.049 Y80.129 Z-1.263
G01 X996.653 Y79.758 Z-1.317
G01 X996.220 Y79.397 Z-1.386
G01 X995.749 Y79.062 Z-1.494
G01 X995.232 Y78.756 Z-1.640
G01 X994.668 Y78.482 Z-1.824
G01 X994.079 Y78.245 Z-2.037
G01 X993.411 Y78.040 Z-2.304
G01 X992.819 Y77.919 Z-2.559
G01 X992.126 Y77.836 Z-2.882
G01 X991.601 Y77.815 Z-3.139
G01 X991.048 Y77.832 Z-3.420
G01 X990.474 Y77.892 Z-3.719
G01 X989.958 Y77.989 Z-3.993
G01 X989.652 Y78.065 Z-4.157
G01 X989.293 Y78.180 Z-4.349
G01 X988.794 Y78.394 Z-4.616
G01 X988.410 Y78.621 Z-4.810
G01 X988.191 Y79.100 Z-4.760
G01 X988.031 Y79.576 Z-4.698
G01 X987.862 Y80.218 Z-4.616
G01 X987.704 Y81.080 Z-4.517
G01 X987.584 Y82.002 Z-4.441
G01 X987.545 Y82.260 Z-4.438
G01 X987.422 Y82.925 Z-4.479
G01 X987.362 Y83.197 Z-4.516
G01 X987.422 Y83.677 Z-4.418
G01 X987.451 Y84.002 Z-4.370
G01 X987.474 Y84.550 Z-4.317
G01 X987.461 Y85.582 Z-4.292
G01 X987.436 Y88.045 Z-4.267
G01 X987.428 Y102.891 Z-4.259
G01 X987.410 Y103.448 Z-4.277
G01 X987.356 Y104.004 Z-4.332
G01 X987.283 Y104.465 Z-4.404
G01 X987.356 Y104.926 Z-4.332
G01 X987.410 Y105.483 Z-4.277
G01 X987.428 Y106.040 Z-4.259
G01 X987.414 Y108.899 Z-4.255
G01 X987.345 Y110.628 Z-4.261
G01 X987.275 Y111.617 Z-4.271
G01 X987.191 Y112.475 Z-4.282
G01 X987.080 Y113.313 Z-4.290
G01 X986.909 Y114.244 Z-4.287
G01 X986.810 Y114.630 Z-4.270
G01 X986.527 Y115.408 Z-4.179
G01 X986.174 Y116.171 Z-4.053
G01 X985.791 Y116.829 Z-3.907
G01 X985.352 Y117.442 Z-3.732
G01 X984.864 Y118.006 Z-3.533
G01 X984.154 Y118.681 Z-3.251
G01 X983.580 Y119.148 Z-3.043
G01 X983.048 Y119.527 Z-2.866
G01 X982.240 Y120.024 Z-2.625
G01 X981.479 Y120.421 Z-2.420
G01 X980.635 Y120.788 Z-2.224
G01 X979.893 Y121.056 Z-2.073
G01 X979.362 Y121.218 Z-1.981
G01 X978.391 Y121.454 Z-1.837
G01 X977.405 Y121.626 Z-1.727
G01 X976.655 Y121.715 Z-1.662
G01 X975.598 Y121.783 Z-1.597
G01 X974.952 Y121.798 Z-1.572
G01 X974.041 Y121.777 Z-1.552
G01 X973.434 Y121.741 Z-1.542
G01 X972.589 Y121.652 Z-1.548
G01 X971.742 Y121.513 Z-1.576
G01 X970.917 Y121.323 Z-1.625
G01 X970.111 Y121.078 Z-1.699
G01 X969.321 Y120.775 Z-1.797
G01 X968.546 Y120.407 Z-1.922
G01 X967.787 Y119.967 Z-2.073
G01 X967.082 Y119.488 Z-2.229
G01 X966.410 Y118.952 Z-2.400
G01 X965.793 Y118.374 Z-2.583
G01 X965.234 Y117.741 Z-2.774
G01 X964.790 Y117.150 Z-2.954
G01 X964.330 Y116.429 Z-3.183
G01 X963.974 Y115.759 Z-3.397
G01 X963.650 Y115.016 Z-3.638
G01 X963.417 Y114.321 Z-3.855
G01 X963.285 Y113.822 Z-4.004
G01 X963.146 Y113.164 Z-4.166
G01 X963.061 Y112.586 Z-4.270
G01 X963.018 Y112.049 Z-4.332
G01 X963.012 Y111.457 Z-4.359
G01 X963.018 Y110.962 Z-4.321
G01 X963.022 Y110.796 Z-4.286
G01 X962.859 Y110.545 Z-4.027
G01 X962.784 Y110.397 Z-3.868
G01 X962.948 Y110.690 Z-4.180
G01 X963.022 Y110.796 Z-4.286
G01 X963.272 Y110.473 Z-3.931
G01 X963.022 Y110.796 Z-4.286
G01 X963.014 Y111.182 Z-4.347
G01 X963.010 Y111.515 Z-4.359
G01 X963.018 Y112.049 Z-4.332
G01 X963.061 Y112.586 Z-4.270
G01 X963.146 Y113.164 Z-4.166
G01 X963.285 Y113.822 Z-4.004
G01 X963.499 Y114.591 Z-3.773
G01 X963.769 Y115.306 Z-3.544
G01 X964.062 Y115.939 Z-3.341
G01 X964.437 Y116.608 Z-3.124
G01 X964.790 Y117.150 Z-2.954
G01 X965.234 Y117.741 Z-2.774
G01 X965.793 Y118.374 Z-2.583
G01 X966.410 Y118.952 Z-2.400
G01 X967.082 Y119.488 Z-2.229
G01 X967.883 Y120.029 Z-2.053
G01 X968.639 Y120.454 Z-1.905
G01 X969.409 Y120.811 Z-1.785
G01 X970.193 Y121.106 Z-1.690
G01 X970.992 Y121.343 Z-1.620
G01 X971.811 Y121.526 Z-1.573
G01 X972.683 Y121.664 Z-1.547
G01 X973.548 Y121.750 Z-1.542
G01 X974.424 Y121.791 Z-1.555
G01 X975.529 Y121.785 Z-1.593
G01 X976.655 Y121.715 Z-1.662
G01 X977.405 Y121.626 Z-1.727
G01 X978.391 Y121.454 Z-1.837
G01 X979.362 Y121.218 Z-1.981
G01 X980.043 Y121.006 Z-2.103
G01 X980.635 Y120.788 Z-2.224
G01 X981.479 Y120.421 Z-2.420
G01 X982.240 Y120.024 Z-2.625
G01 X983.048 Y119.527 Z-2.866
G01 X983.787 Y118.986 Z-3.115
G01 X984.337 Y118.520 Z-3.322
G01 X984.864 Y118.006 Z-3.533
G01 X985.391 Y117.392 Z-3.749
G01 X985.826 Y116.775 Z-3.922
G01 X986.197 Y116.125 Z-4.062
G01 X986.527 Y115.408 Z-4.179
G01 X986.810 Y114.630 Z-4.270
G01 X986.966 Y113.969 Z-4.289
G01 X987.100 Y113.169 Z-4.287
G01 X987.205 Y112.346 Z-4.280
G01 X987.296 Y111.378 Z-4.270
G01 X987.388 Y109.731 Z-4.256
G01 X987.425 Y107.898 Z-4.256
G01 X987.428 Y106.040 Z-4.259
G01 X987.410 Y105.483 Z-4.277
G01 X987.356 Y104.926 Z-4.332
G01 X987.283 Y104.465 Z-4.404
G01 X986.543 Y104.465 Z-3.723
G01 X985.364 Y104.465 Z-2.701
G01 X984.692 Y104.465 Z-2.190
G01 X984.140 Y104.465 Z-1.850
G01 X983.753 Y104.465 Z-1.679
G01 X983.417 Y104.449 Z-1.578
G01 X983.028 Y104.386 Z-1.502
G01 X982.616 Y104.260 Z-1.477
G01 X979.031 Y102.859 Z-1.521
G01 X976.124 Y101.668 Z-1.557
G01 X973.879 Y100.692 Z-1.595
G01 X972.991 Y100.282 Z-1.620
G01 X972.274 Y99.930 Z-1.650
G01 X971.202 Y99.379 Z-1.713
G01 X970.189 Y98.819 Z-1.785
G01 X969.227 Y98.254 Z-1.873
G01 X968.110 Y97.533 Z-2.002
G01 X967.451 Y97.074 Z-2.088
G01 X966.645 Y96.459 Z-2.214
G01 X965.782 Y95.726 Z-2.380
G01 X965.162 Y95.137 Z-2.522
G01 X964.422 Y94.354 Z-2.725
G01 X963.869 Y93.697 Z-2.898
G01 X963.280 Y92.905 Z-3.112
G01 X962.737 Y92.061 Z-3.340
G01 X962.252 Y91.163 Z-3.577
G01 X961.950 Y90.496 Z-3.744
G01 X961.728 Y89.904 Z-3.885
G01 X961.520 Y89.213 Z-4.025
G01 X961.367 Y88.489 Z-4.150
G01 X961.280 Y87.794 Z-4.244
G01 X961.237 Y86.999 Z-4.333
G01 X961.246 Y86.371 Z-4.389
G01 X961.287 Y85.743 Z-4.441
G01 X961.387 Y84.916 Z-4.507
G01 X961.555 Y84.029 Z-4.571
G01 X961.768 Y83.242 Z-4.622
G01 X962.017 Y82.541 Z-4.655
G01 X962.297 Y81.910 Z-4.670
G01 X962.609 Y81.330 Z-4.668
G01 X962.962 Y80.783 Z-4.649
G01 X963.369 Y80.248 Z-4.611
G01 X963.885 Y79.674 Z-4.547
G01 X964.345 Y79.239 Z-4.477
G01 X964.819 Y78.854 Z-4.392
G01 X965.471 Y78.411 Z-4.255
G01 X965.990 Y78.119 Z-4.133
G01 X966.523 Y77.862 Z-4.001
G01 X967.238 Y77.582 Z-3.820
G01 X968.088 Y77.325 Z-3.599
G01 X968.720 Y77.183 Z-3.441
G01 X969.301 Y77.087 Z-3.299
G01 X970.170 Y77.006 Z-3.090
G01 X970.880 Y76.993 Z-2.927
G01 X971.761 Y77.045 Z-2.731
G01 X972.417 Y77.136 Z-2.587
G01 X972.959 Y77.244 Z-2.471
G01 X973.613 Y77.432 Z-2.316
G01 X974.263 Y77.663 Z-2.167
G01 X975.061 Y77.995 Z-2.002
G01 X976.084 Y78.484 Z-1.816
G01 X976.804 Y78.867 Z-1.707
G01 X977.517 Y79.272 Z-1.618
G01 X978.779 Y80.050 Z-1.490
G01 X980.172 Y80.982 Z-1.396
G01 X981.642 Y82.035 Z-1.340
G01 X982.410 Y82.607 Z-1.327
G01 X982.673 Y82.776 Z-1.352
G01 X983.003 Y82.934 Z-1.425
G01 X983.331 Y83.046 Z-1.535
G01 X983.677 Y83.127 Z-1.686
G01 X983.975 Y83.170 Z-1.837
G01 X984.496 Y83.197 Z-2.139
G01 X984.936 Y83.197 Z-2.436
G01 X985.693 Y83.197 Z-3.030
G01 X986.714 Y83.197 Z-3.921
G01 X987.362 Y83.197 Z-4.516
G01 X987.464 Y82.720 Z-4.459
G01 X987.557 Y82.177 Z-4.437
G01 X987.658 Y81.422 Z-4.482
G01 X987.800 Y80.517 Z-4.580
G01 X987.931 Y79.935 Z-4.651
G01 X988.120 Y79.297 Z-4.736
G01 X988.317 Y78.806 Z-4.796
G01 X988.410 Y78.621 Z-4.810
G00 Z5.000
G00 X962.297 Y81.910  F4000.0
G01 Z-4.670 F200.0 M3
G01 X962.017 Y82.541 Z-4.655 F2000.0
G01 X961.761 Y83.264 Z-4.620
G01 X961.543 Y84.085 Z-4.567
G01 X961.387 Y84.916 Z-4.507
G01 X961.274 Y85.885 Z-4.430
G01 X961.240 Y86.555 Z-4.374
G01 X961.242 Y87.175 Z-4.315
G01 X961.280 Y87.794 Z-4.244
G01 X961.376 Y88.545 Z-4.143
G01 X961.520 Y89.213 Z-4.025
G01 X961.728 Y89.904 Z-3.885
G01 X961.986 Y90.580 Z-3.725
G01 X962.382 Y91.422 Z-3.510
G01 X962.877 Y92.292 Z-3.278
G01 X963.423 Y93.108 Z-3.057
G01 X964.033 Y93.900 Z-2.845
G01 X964.633 Y94.588 Z-2.662
G01 X965.295 Y95.270 Z-2.490
G01 X966.010 Y95.928 Z-2.332
G01 X966.855 Y96.624 Z-2.181
G01 X967.561 Y97.153 Z-2.072
G01 X968.407 Y97.734 Z-1.962
G01 X969.608 Y98.482 Z-1.840
G01 X970.256 Y98.857 Z-1.779
G01 X971.365 Y99.465 Z-1.705
G01 X972.324 Y99.955 Z-1.648
G01 X973.363 Y100.457 Z-1.612
G01 X975.605 Y101.449 Z-1.567
G01 X978.074 Y102.475 Z-1.536
G01 X980.764 Y103.543 Z-1.505
G01 X982.656 Y104.275 Z-1.476
G01 X983.028 Y104.386 Z-1.502
G01 X983.417 Y104.449 Z-1.578
G01 X983.753 Y104.465 Z-1.679
G01 X984.140 Y104.465 Z-1.850
G01 X984.692 Y104.465 Z-2.190
G01 X985.364 Y104.465 Z-2.701
G01 X986.543 Y104.465 Z-3.723
G01 X987.283 Y104.465 Z-4.404
G01 X987.356 Y104.004 Z-4.332
G01 X987.410 Y103.448 Z-4.277
G01 X987.428 Y102.891 Z-4.259
G01 X987.437 Y87.981 Z-4.267
G01 X987.474 Y84.875 Z-4.305
G01 X987.473 Y84.472 Z-4.322
G01 X987.451 Y84.002 Z-4.370
G01 X987.408 Y83.554 Z-4.440
G01 X987.362 Y83.197 Z-4.516
G01 X986.043 Y83.197 Z-3.327
G01 X985.327 Y83.197 Z-2.733
G01 X984.936 Y83.197 Z-2.436
G01 X984.496 Y83.197 Z-2.139
G01 X983.975 Y83.170 Z-1.837
G01 X983.512 Y83.093 Z-1.610
G01 X983.161 Y82.993 Z-1.474
G01 X982.806 Y82.846 Z-1.376
G01 X982.583 Y82.723 Z-1.339
G01 X982.361 Y82.572 Z-1.327
G01 X980.868 Y81.472 Z-1.365
G01 X979.429 Y80.476 Z-1.441
G01 X978.107 Y79.628 Z-1.552
G01 X977.391 Y79.199 Z-1.632
G01 X976.734 Y78.829 Z-1.717
G01 X976.084 Y78.484 Z-1.816
G01 X975.061 Y77.995 Z-2.002
G01 X974.114 Y77.605 Z-2.202
G01 X973.402 Y77.364 Z-2.369
G01 X972.778 Y77.205 Z-2.508
G01 X972.274 Y77.113 Z-2.618
G01 X971.744 Y77.043 Z-2.735
G01 X970.880 Y76.993 Z-2.927
G01 X970.170 Y77.006 Z-3.090
G01 X969.301 Y77.087 Z-3.299
G01 X968.528 Y77.224 Z-3.487
G01 X967.975 Y77.356 Z-3.628
G01 X967.238 Y77.582 Z-3.820
G01 X966.492 Y77.876 Z-4.009
G01 X965.814 Y78.212 Z-4.176
G01 X965.274 Y78.535 Z-4.300
G01 X964.760 Y78.898 Z-4.405
G01 X964.281 Y79.295 Z-4.489
G01 X963.821 Y79.740 Z-4.557
G01 X963.369 Y80.248 Z-4.611
G01 X962.962 Y80.783 Z-4.649
G01 X962.609 Y81.330 Z-4.668
G01 X962.297 Y81.910 Z-4.670
G00 Z5.000
G00 X967.605 Y138.123  F4000.0
G01 Z-5.594 F200.0 M3
G01 X967.838 Y138.222 Z-5.354 F2000.0
G01 X967.611 Y138.129 Z-5.589
G01 X967.761 Y138.460 Z-5.242
G01 X967.605 Y138.123 Z-5.594
G01 X967.450 Y138.485 Z-5.224
G01 X967.601 Y138.128 Z-5.589
G01 X967.373 Y138.222 Z-5.354
G01 X967.605 Y138.123 Z-5.594
G01 X967.244 Y137.968 Z-5.224
G01 X967.600 Y138.118 Z-5.589
G01 X967.506 Y137.891 Z-5.354
G01 X967.605 Y138.123 Z-5.594
G01 X967.732 Y137.796 Z-5.261
G01 X967.610 Y138.118 Z-5.590
G01 X967.967 Y137.968 Z-5.224
G01 X967.605 Y138.123 Z-5.594
G00 Z5.000
G00 X985.783 Y138.117  F4000.0
G01 Z-5.588 F200.0 M3
G01 X985.789 Y138.131 Z-5.582 F2000.0
G01 X986.009 Y138.222 Z-5.354
G01 X985.789 Y138.131 Z-5.582
G01 X985.932 Y138.485 Z-5.224
G01 X985.790 Y138.148 Z-5.570
G01 X985.684 Y138.407 Z-5.302
G01 X985.789 Y138.131 Z-5.582
G01 X985.783 Y138.117 Z-5.588
G01 X985.752 Y138.110 Z-5.570
G01 X985.492 Y138.215 Z-5.302
G01 X985.752 Y138.110 Z-5.570
G01 X985.415 Y137.968 Z-5.224
G01 X985.768 Y138.111 Z-5.582
G01 X985.677 Y137.891 Z-5.354
G01 X985.768 Y138.111 Z-5.582
G01 X985.783 Y138.117 Z-5.588
G01 X985.828 Y138.072 Z-5.543
G01 X985.947 Y137.792 Z-5.253
G01 X985.828 Y138.072 Z-5.543
G01 X986.107 Y137.952 Z-5.253
G01 X985.828 Y138.072 Z-5.543
G01 X985.783 Y138.117 Z-5.588
G00 Z5.000
G00 X930.099 Y116.985  F4000.0
G01 Z-4.907 F200.0 M3
G01 X933.191 Y121.570 Z-1.815 F2000.0
G01 X935.006 Y123.385 Z0.000
G01 X933.191 Y121.570 Z-1.815
G01 X932.838 Y123.385 Z0.000
G01 X933.191 Y121.570 Z-1.815
G01 X930.099 Y116.985 Z-4.907
G01 X929.157 Y117.315 Z-4.248
G01 X928.308 Y117.568 Z-3.695
G01 X927.521 Y117.761 Z-3.221
G01 X926.793 Y117.899 Z-2.820
G01 X925.900 Y118.011 Z-2.381
G01 X925.044 Y118.057 Z-2.018
G01 X924.371 Y118.049 Z-1.773
G01 X923.595 Y117.987 Z-1.540
G01 X923.045 Y117.911 Z-1.404
G01 X922.155 Y117.736 Z-1.233
G01 X921.204 Y117.493 Z-1.102
G01 X920.230 Y117.193 Z-1.015
G01 X919.724 Y117.019 Z-0.986
G01 X918.538 Y117.603 Z0.000
G01 X919.724 Y117.019 Z-0.986
G01 X919.054 Y115.745 Z0.000
G01 X919.724 Y117.019 Z-0.986
G01 X920.767 Y117.364 Z-1.057
G01 X921.741 Y117.636 Z-1.170
G01 X922.629 Y117.836 Z-1.317
G01 X923.149 Y117.928 Z-1.428
G01 X923.913 Y118.019 Z-1.629
G01 X924.537 Y118.055 Z-1.830
G01 X925.359 Y118.048 Z-2.144
G01 X926.151 Y117.986 Z-2.499
G01 X926.793 Y117.899 Z-2.820
G01 X927.521 Y117.761 Z-3.221
G01 X928.308 Y117.568 Z-3.695
G01 X929.157 Y117.315 Z-4.248
G01 X930.099 Y116.985 Z-4.907
G01 X930.316 Y115.945 Z-4.690
G01 X930.468 Y114.955 Z-4.538
G01 X930.552 Y114.194 Z-4.454
G01 X930.608 Y113.423 Z-4.397
G01 X930.655 Y112.477 Z-4.359
G01 X930.712 Y111.895 Z-4.379
G01 X930.817 Y111.247 Z-4.451
G01 X930.973 Y110.583 Z-4.579
G01 X930.833 Y109.858 Z-4.416
G01 X930.787 Y109.519 Z-4.361
G01 X930.734 Y108.805 Z-4.290
G01 X930.736 Y107.401 Z-4.269
G01 X930.747 Y103.665 Z-4.259
G01 X930.750 Y85.302 Z-4.262
G01 X930.773 Y83.688 Z-4.299
G01 X930.813 Y82.476 Z-4.372
G01 X930.865 Y81.457 Z-4.468
G01 X930.931 Y80.327 Z-4.633
G01 X930.970 Y79.510 Z-4.805
G01 X930.324 Y79.008 Z-4.303
G01 X929.578 Y78.473 Z-3.768
G01 X928.866 Y78.002 Z-3.297
G01 X928.187 Y77.592 Z-2.887
G01 X927.539 Y77.239 Z-2.534
G01 X926.921 Y76.939 Z-2.234
G01 X926.331 Y76.687 Z-1.982
G01 X925.764 Y76.478 Z-1.773
G01 X925.215 Y76.307 Z-1.602
G01 X924.527 Y76.129 Z-1.424
G01 X923.836 Y75.987 Z-1.282
G01 X923.128 Y75.873 Z-1.168
G01 X922.392 Y75.784 Z-1.079
G01 X921.621 Y75.718 Z-1.012
G01 X920.808 Y75.671 Z-0.966
G01 X919.994 Y75.644 Z-0.939
G01 X919.054 Y76.563 Z0.000
G01 X919.994 Y75.644 Z-0.939
G01 X919.054 Y74.705 Z0.000
G01 X919.994 Y75.644 Z-0.939
G01 X920.858 Y75.673 Z-0.968
G01 X921.681 Y75.722 Z-1.017
G01 X922.466 Y75.792 Z-1.087
G01 X923.220 Y75.887 Z-1.181
G01 X923.953 Y76.009 Z-1.304
G01 X924.677 Y76.164 Z-1.459
G01 X925.383 Y76.356 Z-1.651
G01 X925.949 Y76.543 Z-1.838
G01 X926.535 Y76.770 Z-2.065
G01 X927.146 Y77.043 Z-2.338
G01 X927.782 Y77.367 Z-2.662
G01 X928.446 Y77.744 Z-3.039
G01 X929.140 Y78.179 Z-3.474
G01 X929.865 Y78.674 Z-3.969
G01 X930.736 Y79.323 Z-4.618
G01 X930.970 Y79.510 Z-4.805
G01 X932.044 Y78.748 Z-4.043
G01 X932.936 Y78.171 Z-3.466
G01 X933.607 Y77.778 Z-3.073
G01 X934.245 Y77.443 Z-2.738
G01 X934.853 Y77.155 Z-2.450
G01 X935.439 Y76.906 Z-2.201
G01 X936.010 Y76.689 Z-1.984
G01 X936.573 Y76.498 Z-1.793
G01 X937.132 Y76.330 Z-1.625
G01 X937.721 Y76.172 Z-1.467
G01 X938.338 Y76.033 Z-1.328
G01 X938.964 Y75.920 Z-1.215
G01 X939.606 Y75.829 Z-1.124
G01 X940.273 Y75.757 Z-1.052
G01 X940.970 Y75.702 Z-0.997
G01 X941.702 Y75.664 Z-0.959
G01 X942.325 Y75.646 Z-0.941
G01 X943.265 Y74.705 Z0.000
G01 X942.325 Y75.646 Z-0.941
G01 X943.265 Y76.563 Z0.000
G01 X942.325 Y75.646 Z-0.941
G01 X941.657 Y75.666 Z-0.961
G01 X940.918 Y75.706 Z-1.001
G01 X940.210 Y75.763 Z-1.058
G01 X939.529 Y75.839 Z-1.134
G01 X938.869 Y75.936 Z-1.231
G01 X938.221 Y76.058 Z-1.353
G01 X937.606 Y76.201 Z-1.496
G01 X937.028 Y76.360 Z-1.655
G01 X936.448 Y76.539 Z-1.834
G01 X935.861 Y76.743 Z-2.038
G01 X935.262 Y76.978 Z-2.273
G01 X934.643 Y77.250 Z-2.545
G01 X933.999 Y77.568 Z-2.863
G01 X933.323 Y77.940 Z-3.235
G01 X932.625 Y78.366 Z-3.661
G01 X931.699 Y78.985 Z-4.280
G01 X930.970 Y79.510 Z-4.805
G01 X930.917 Y80.545 Z-4.594
G01 X930.851 Y81.743 Z-4.436
G01 X930.805 Y82.679 Z-4.357
G01 X930.773 Y83.688 Z-4.299
G01 X930.750 Y85.339 Z-4.262
G01 X930.747 Y103.689 Z-4.259
G01 X930.728 Y108.414 Z-4.278
G01 X930.745 Y109.038 Z-4.306
G01 X930.787 Y109.519 Z-4.361
G01 X930.880 Y110.136 Z-4.471
G01 X930.973 Y110.583 Z-4.579
G01 X931.546 Y110.594 Z-4.077
G01 X932.130 Y110.626 Z-3.575
G01 X933.035 Y110.729 Z-2.823
G01 X933.459 Y110.806 Z-2.485
G01 X933.816 Y110.885 Z-2.213
G01 X934.383 Y111.058 Z-1.804
G01 X934.795 Y111.234 Z-1.532
G01 X935.064 Y111.381 Z-1.370
G01 X935.368 Y111.588 Z-1.218
G01 X935.555 Y111.750 Z-1.142
G01 X935.752 Y111.964 Z-1.085
G01 X935.952 Y112.256 Z-1.067
G01 X936.707 Y113.466 Z-1.115
G01 X937.148 Y114.125 Z-1.144
G01 X937.742 Y114.953 Z-1.199
G01 X938.337 Y115.716 Z-1.267
G01 X939.153 Y116.649 Z-1.378
G01 X939.525 Y117.022 Z-1.439
G01 X939.924 Y117.386 Z-1.527
G01 X940.421 Y117.773 Z-1.649
G01 X940.984 Y118.140 Z-1.825
G01 X941.449 Y118.385 Z-1.990
G01 X941.751 Y118.526 Z-2.111
G01 X942.335 Y118.736 Z-2.359
G01 X942.741 Y118.851 Z-2.543
G01 X943.472 Y119.002 Z-2.890
G01 X944.229 Y119.092 Z-3.259
G01 X945.055 Y119.124 Z-3.661
G01 X945.899 Y119.080 Z-4.054
G01 X946.538 Y118.987 Z-4.326
G01 X947.039 Y118.864 Z-4.516
G01 X947.509 Y118.704 Z-4.665
G01 X948.045 Y118.469 Z-4.804
G01 X948.353 Y118.287 Z-4.844
G01 X948.554 Y118.138 Z-4.843
G01 X948.852 Y117.887 Z-4.795
G01 X949.001 Y117.729 Z-4.733
G01 X949.153 Y117.475 Z-4.569
G01 X949.246 Y117.092 Z-4.231
G01 X949.277 Y117.010 Z-4.145
G01 X949.220 Y117.201 Z-4.333
G01 X949.137 Y117.506 Z-4.592
G01 X948.985 Y117.755 Z-4.748
G01 X948.994 Y117.757 Z-4.739
G01 X948.985 Y117.755 Z-4.748
G01 X948.742 Y117.982 Z-4.818
G01 X948.407 Y118.249 Z-4.847
G01 X948.117 Y118.431 Z-4.817
G01 X947.764 Y118.600 Z-4.737
G01 X947.161 Y118.827 Z-4.556
G01 X946.634 Y118.967 Z-4.364
G01 X946.132 Y119.052 Z-4.158
G01 X945.581 Y119.106 Z-3.909
G01 X944.721 Y119.120 Z-3.500
G01 X943.910 Y119.062 Z-3.103
G01 X943.109 Y118.936 Z-2.716
G01 X942.670 Y118.835 Z-2.510
G01 X942.033 Y118.634 Z-2.228
G01 X941.677 Y118.492 Z-2.081
G01 X941.209 Y118.263 Z-1.901
G01 X940.793 Y118.027 Z-1.764
G01 X940.421 Y117.773 Z-1.649
G01 X939.924 Y117.386 Z-1.527
G01 X939.452 Y116.951 Z-1.425
G01 X938.909 Y116.380 Z-1.341
G01 X938.278 Y115.646 Z-1.260
G01 X937.702 Y114.899 Z-1.195
G01 X937.117 Y114.079 Z-1.142
G01 X936.527 Y113.188 Z-1.099
G01 X935.916 Y112.197 Z-1.066
G01 X935.752 Y111.964 Z-1.085
G01 X935.555 Y111.750 Z-1.142
G01 X935.368 Y111.588 Z-1.218
G01 X935.020 Y111.355 Z-1.395
G01 X934.584 Y111.137 Z-1.668
G01 X934.189 Y110.991 Z-1.940
G01 X933.816 Y110.885 Z-2.213
G01 X933.347 Y110.784 Z-2.572
G01 X932.729 Y110.686 Z-3.074
G01 X932.130 Y110.626 Z-3.575
G01 X931.546 Y110.594 Z-4.077
G01 X930.973 Y110.583 Z-4.579
G01 X930.817 Y111.247 Z-4.451
G01 X930.712 Y111.895 Z-4.379
G01 X930.650 Y112.568 Z-4.359
G01 X930.591 Y113.690 Z-4.414
G01 X930.515 Y114.563 Z-4.491
G01 X930.372 Y115.615 Z-4.634
G01 X930.170 Y116.674 Z-4.836
G01 X930.099 Y116.985 Z-4.907
G00 Z5.000
G00 X889.368 Y80.184  F4000.0
G01 Z-5.479 F200.0 M3
G01 X888.429 Y79.439 Z-4.734 F2000.0
G01 X887.492 Y78.751 Z-4.046
G01 X886.675 Y78.207 Z-3.502
G01 X885.845 Y77.718 Z-3.013
G01 X884.992 Y77.287 Z-2.582
G01 X884.419 Y77.028 Z-2.323
G01 X883.865 Y76.802 Z-2.097
G01 X883.325 Y76.604 Z-1.899
G01 X882.799 Y76.431 Z-1.726
G01 X882.281 Y76.281 Z-1.576
G01 X881.347 Y76.059 Z-1.354
G01 X880.753 Y75.947 Z-1.242
G01 X879.782 Y75.809 Z-1.104
G01 X878.707 Y75.713 Z-1.008
G01 X877.546 Y75.665 Z-0.960
G01 X875.459 Y75.660 Z-0.955
G01 X874.504 Y76.615 Z0.000
G01 X875.459 Y75.660 Z-0.955
G01 X874.504 Y74.705 Z0.000
G01 X875.459 Y75.660 Z-0.955
G01 X877.585 Y75.666 Z-0.961
G01 X878.707 Y75.713 Z-1.008
G01 X879.782 Y75.809 Z-1.104
G01 X880.753 Y75.947 Z-1.242
G01 X881.347 Y76.059 Z-1.354
G01 X882.281 Y76.281 Z-1.576
G01 X882.922 Y76.470 Z-1.765
G01 X883.464 Y76.652 Z-1.947
G01 X884.019 Y76.863 Z-2.158
G01 X884.590 Y77.103 Z-2.398
G01 X885.180 Y77.377 Z-2.672
G01 X885.845 Y77.718 Z-3.013
G01 X886.675 Y78.207 Z-3.502
G01 X887.492 Y78.751 Z-4.046
G01 X888.429 Y79.439 Z-4.734
G01 X889.368 Y80.184 Z-5.479
G01 X890.350 Y79.400 Z-4.695
G01 X891.393 Y78.630 Z-3.925
G01 X892.247 Y78.058 Z-3.353
G01 X892.848 Y77.694 Z-2.989
G01 X893.439 Y77.373 Z-2.668
G01 X893.990 Y77.112 Z-2.407
G01 X894.864 Y76.757 Z-2.052
G01 X895.480 Y76.541 Z-1.836
G01 X896.330 Y76.288 Z-1.583
G01 X897.278 Y76.064 Z-1.359
G01 X898.225 Y75.897 Z-1.192
G01 X899.234 Y75.774 Z-1.069
G01 X900.216 Y75.700 Z-0.995
G01 X901.243 Y75.664 Z-0.959
G01 X903.232 Y75.660 Z-0.955
G01 X904.187 Y74.705 Z0.000
G01 X903.232 Y75.660 Z-0.955
G01 X904.187 Y76.615 Z0.000
G01 X903.232 Y75.660 Z-0.955
G01 X901.209 Y75.665 Z-0.960
G01 X900.176 Y75.702 Z-0.997
G01 X899.186 Y75.779 Z-1.074
G01 X898.225 Y75.897 Z-1.192
G01 X897.278 Y76.064 Z-1.359
G01 X896.330 Y76.288 Z-1.583
G01 X895.480 Y76.541 Z-1.836
G01 X894.864 Y76.757 Z-2.052
G01 X893.990 Y77.112 Z-2.407
G01 X893.439 Y77.373 Z-2.668
G01 X892.848 Y77.694 Z-2.989
G01 X891.992 Y78.222 Z-3.517
G01 X891.001 Y78.911 Z-4.206
G01 X890.134 Y79.568 Z-4.863
G01 X889.368 Y80.184 Z-5.479
G01 X889.370 Y81.459 Z-5.266
G01 X889.375 Y82.620 Z-5.134
G01 X889.374 Y83.948 Z-5.033
G01 X889.373 Y85.368 Z-4.975
G01 X889.372 Y86.836 Z-4.956
G01 X889.372 Y139.749 
G01 X890.223 Y140.591 Z-4.114
G01 X890.527 Y140.866 Z-3.839
G01 X890.858 Y141.140 Z-3.565
G01 X891.425 Y141.551 Z-3.154
G01 X891.874 Y141.825 Z-2.880
G01 X892.133 Y141.963 Z-2.742
G01 X892.427 Y142.100 Z-2.605
G01 X892.776 Y142.237 Z-2.468
G01 X893.230 Y142.374 Z-2.331
G01 X893.552 Y142.443 Z-2.263
G01 X894.053 Y142.502 Z-2.203
G01 X894.327 Y142.511 Z-2.194
G01 X904.233 Y142.511 Z-2.194
G01 X905.391 Y142.498 Z-2.207
G01 X906.510 Y142.459 Z-2.246
G01 X907.596 Y142.394 Z-2.311
G01 X908.655 Y142.302 Z-2.403
G01 X909.693 Y142.178 Z-2.527
G01 X910.669 Y142.030 Z-2.675
G01 X911.683 Y141.838 Z-2.867
G01 X912.757 Y141.588 Z-3.117
G01 X913.774 Y141.306 Z-3.399
G01 X914.666 Y141.024 Z-3.681
G01 X915.226 Y139.901 Z-3.174
G01 X915.655 Y138.945 Z-2.790
G01 X916.035 Y138.008 Z-2.455
G01 X916.373 Y137.081 Z-2.161
G01 X916.674 Y136.157 Z-1.904
G01 X916.951 Y135.200 Z-1.672
G01 X917.115 Y134.539 Z-1.540
G01 X917.262 Y133.839 Z-1.426
G01 X917.398 Y133.089 Z-1.326
G01 X917.524 Y132.283 Z-1.237
G01 X917.643 Y131.415 Z-1.159
G01 X917.862 Y129.479 Z-1.032
G01 X917.878 Y129.313 Z-1.024
G01 X916.990 Y128.289 Z0.000
G01 X917.878 Y129.313 Z-1.024
G01 X918.951 Y128.289 Z0.000
G01 X917.878 Y129.313 Z-1.024
G01 X917.752 Y130.512 Z-1.093
G01 X917.638 Y131.454 Z-1.162
G01 X917.517 Y132.332 Z-1.242
G01 X917.387 Y133.152 Z-1.333
G01 X917.246 Y133.921 Z-1.438
G01 X917.089 Y134.649 Z-1.560
G01 X916.916 Y135.332 Z-1.701
G01 X916.636 Y136.282 Z-1.936
G01 X916.321 Y137.230 Z-2.206
G01 X915.966 Y138.186 Z-2.515
G01 X915.565 Y139.155 Z-2.871
G01 X915.109 Y140.146 Z-3.280
G01 X914.666 Y141.024 Z-3.681
G01 X918.177 Y144.705 Z0.000
G01 X914.666 Y141.024 Z-3.681
G01 X913.508 Y141.384 Z-3.321
G01 X912.571 Y141.635 Z-3.070
G01 X911.570 Y141.861 Z-2.844
G01 X910.525 Y142.054 Z-2.651
G01 X909.526 Y142.200 Z-2.505
G01 X908.510 Y142.316 Z-2.389
G01 X907.470 Y142.404 Z-2.301
G01 X906.398 Y142.464 Z-2.241
G01 X905.291 Y142.500 Z-2.205
G01 X904.187 Y142.511 Z-2.194
G01 X894.327 Y142.511 
G01 X893.940 Y142.494 Z-2.211
G01 X893.552 Y142.443 Z-2.263
G01 X893.230 Y142.374 Z-2.331
G01 X892.776 Y142.237 Z-2.468
G01 X892.427 Y142.100 Z-2.605
G01 X892.133 Y141.963 Z-2.742
G01 X891.640 Y141.688 Z-3.017
G01 X891.225 Y141.414 Z-3.291
G01 X890.858 Y141.140 Z-3.565
G01 X890.527 Y140.866 Z-3.839
G01 X889.939 Y140.317 Z-4.388
G01 X889.372 Y139.749 Z-4.956
G01 X888.520 Y140.591 Z-4.114
G01 X888.216 Y140.866 Z-3.839
G01 X887.885 Y141.140 Z-3.565
G01 X887.318 Y141.551 Z-3.154
G01 X886.869 Y141.825 Z-2.880
G01 X886.610 Y141.963 Z-2.742
G01 X886.316 Y142.100 Z-2.605
G01 X885.967 Y142.237 Z-2.468
G01 X885.513 Y142.374 Z-2.331
G01 X885.192 Y142.443 Z-2.263
G01 X884.690 Y142.502 Z-2.203
G01 X884.416 Y142.511 Z-2.194
G01 X874.752 Y142.505 Z-2.200
G01 X872.596 Y142.458 Z-2.247
G01 X871.527 Y142.412 Z-2.293
G01 X870.590 Y142.354 Z-2.351
G01 X869.707 Y142.278 Z-2.427
G01 X868.863 Y142.180 Z-2.525
G01 X868.071 Y142.059 Z-2.646
G01 X867.119 Y141.867 Z-2.838
G01 X866.148 Y141.627 Z-3.078
G01 X865.083 Y141.312 Z-3.393
G01 X864.457 Y141.102 Z-3.603
G01 X861.031 Y144.705 Z0.000
G01 X864.457 Y141.102 Z-3.603
G01 X863.912 Y139.991 Z-3.114
G01 X863.401 Y138.819 Z-2.663
G01 X863.035 Y137.880 Z-2.345
G01 X862.709 Y136.956 Z-2.065
G01 X862.397 Y135.954 Z-1.804
G01 X862.128 Y134.950 Z-1.586
G01 X861.898 Y133.933 Z-1.407
G01 X861.701 Y132.893 Z-1.262
G01 X861.531 Y131.805 Z-1.148
G01 X861.392 Y130.698 Z-1.064
G01 X861.259 Y129.291 Z-1.002
G01 X860.205 Y128.289 Z0.000
G01 X861.259 Y129.291 Z-1.002
G01 X862.167 Y128.289 Z0.000
G01 X861.259 Y129.291 Z-1.002
G01 X861.398 Y130.755 Z-1.068
G01 X861.538 Y131.855 Z-1.152
G01 X861.708 Y132.934 Z-1.267
G01 X861.908 Y133.983 Z-1.415
G01 X862.143 Y135.011 Z-1.598
G01 X862.418 Y136.029 Z-1.822
G01 X862.746 Y137.065 Z-2.097
G01 X863.093 Y138.034 Z-2.395
G01 X863.479 Y139.007 Z-2.731
G01 X863.912 Y139.991 Z-3.114
G01 X864.457 Y141.102 Z-3.603
G01 X865.291 Y141.378 Z-3.327
G01 X866.278 Y141.661 Z-3.044
G01 X867.240 Y141.894 Z-2.811
G01 X868.277 Y142.094 Z-2.611
G01 X869.041 Y142.204 Z-2.501
G01 X869.842 Y142.291 Z-2.414
G01 X870.694 Y142.361 Z-2.344
G01 X871.610 Y142.416 Z-2.289
G01 X872.596 Y142.458 Z-2.247
G01 X874.799 Y142.505 Z-2.200
G01 X884.416 Y142.511 Z-2.194
G01 X884.804 Y142.494 Z-2.211
G01 X885.192 Y142.443 Z-2.263
G01 X885.513 Y142.374 Z-2.331
G01 X885.967 Y142.237 Z-2.468
G01 X886.316 Y142.100 Z-2.605
G01 X886.610 Y141.963 Z-2.742
G01 X887.103 Y141.688 Z-3.017
G01 X887.519 Y141.414 Z-3.291
G01 X887.885 Y141.140 Z-3.565
G01 X888.216 Y140.866 Z-3.839
G01 X888.804 Y140.317 Z-4.388
G01 X889.372 Y139.749 Z-4.956
G01 X889.372 Y86.766 Z-4.956
G01 X889.371 Y85.064 Z-4.984
G01 X889.370 Y83.468 Z-5.064
G01 X889.369 Y82.028 Z-5.195
G01 X889.371 Y81.054 Z-5.325
G01 X889.368 Y80.184 Z-5.479
G00 Z5.000
G00 X802.807 Y79.644  F4000.0
G01 Z-4.939 F200.0 M3
G01 X802.064 Y79.091 Z-4.386 F2000.0
G01 X801.197 Y78.499 Z-3.794
G01 X800.140 Y77.856 Z-3.151
G01 X799.436 Y77.477 Z-2.772
G01 X798.764 Y77.152 Z-2.447
G01 X798.118 Y76.873 Z-2.168
G01 X797.492 Y76.634 Z-1.929
G01 X796.880 Y76.427 Z-1.722
G01 X796.279 Y76.249 Z-1.544
G01 X795.688 Y76.096 Z-1.391
G01 X795.109 Y75.968 Z-1.263
G01 X794.540 Y75.862 Z-1.157
G01 X793.977 Y75.778 Z-1.073
G01 X793.417 Y75.714 Z-1.009
G01 X792.858 Y75.669 Z-0.964
G01 X792.295 Y75.643 Z-0.938
G01 X790.568 Y75.634 Z-0.929
G01 X789.639 Y76.563 Z0.000
G01 X790.568 Y75.634 Z-0.929
G01 X789.639 Y74.705 Z0.000
G01 X790.568 Y75.634 Z-0.929
G01 X792.356 Y75.644 Z-0.939
G01 X792.923 Y75.673 Z-0.968
G01 X793.487 Y75.720 Z-1.015
G01 X794.052 Y75.788 Z-1.083
G01 X794.621 Y75.876 Z-1.171
G01 X795.198 Y75.986 Z-1.281
G01 X795.784 Y76.120 Z-1.415
G01 X796.390 Y76.280 Z-1.575
G01 X797.015 Y76.470 Z-1.765
G01 X797.652 Y76.692 Z-1.987
G01 X798.306 Y76.951 Z-2.246
G01 X798.982 Y77.254 Z-2.549
G01 X799.686 Y77.607 Z-2.902
G01 X800.423 Y78.020 Z-3.315
G01 X801.197 Y78.499 Z-3.794
G01 X802.064 Y79.091 Z-4.386
G01 X802.807 Y79.644 Z-4.939
G01 X803.608 Y79.037 Z-4.332
G01 X804.635 Y78.319 Z-3.614
G01 X805.496 Y77.781 Z-3.076
G01 X806.094 Y77.449 Z-2.744
G01 X806.623 Y77.188 Z-2.483
G01 X807.589 Y76.772 Z-2.067
G01 X808.507 Y76.436 Z-1.731
G01 X809.385 Y76.170 Z-1.465
G01 X810.235 Y75.965 Z-1.260
G01 X811.070 Y75.815 Z-1.110
G01 X811.903 Y75.712 Z-1.007
G01 X812.746 Y75.653 Z-0.948
G01 X813.591 Y75.634 Z-0.929
G01 X816.947 Y75.634 
G01 X817.876 Y74.705 Z0.000
G01 X816.947 Y75.634 Z-0.929
G01 X817.876 Y76.563 Z0.000
G01 X816.947 Y75.634 Z-0.929
G01 X813.132 Y75.640 Z-0.935
G01 X812.273 Y75.681 Z-0.976
G01 X811.428 Y75.765 Z-1.060
G01 X810.586 Y75.896 Z-1.191
G01 X809.733 Y76.080 Z-1.375
G01 X808.857 Y76.323 Z-1.618
G01 X807.946 Y76.634 Z-1.929
G01 X806.990 Y77.023 Z-2.318
G01 X806.390 Y77.299 Z-2.594
G01 X805.817 Y77.598 Z-2.893
G01 X805.233 Y77.938 Z-3.233
G01 X804.256 Y78.575 Z-3.870
G01 X803.383 Y79.204 Z-4.499
G01 X802.807 Y79.644 Z-4.939
G01 X802.807 Y80.727 Z-4.710
G01 X802.799 Y81.773 Z-4.549
G01 X802.796 Y82.618 Z-4.453
G01 X802.785 Y83.991 Z-4.346
G01 X802.780 Y85.868 Z-4.274
G01 X802.777 Y87.198 Z-4.259
G01 X802.777 Y118.274 
G01 X802.777 Y118.919 Z-4.307
G01 X802.777 Y119.188 Z-4.356
G01 X802.777 Y119.574 Z-4.453
G01 X802.777 Y120.133 Z-4.647
G01 X803.550 Y120.133 Z-3.950
G01 X804.366 Y120.133 Z-3.253
G01 X804.804 Y120.133 Z-2.904
G01 X805.281 Y120.133 Z-2.555
G01 X805.845 Y120.133 Z-2.207
G01 X806.212 Y120.133 Z-2.033
G01 X806.631 Y120.133 Z-1.902
G01 X807.035 Y120.133 Z-1.858
G01 X817.360 Y120.133 
G01 X819.218 Y118.274 Z0.000
G01 X817.360 Y120.133 Z-1.858
G01 X819.218 Y121.991 Z0.000
G01 X817.360 Y120.133 Z-1.858
G01 X807.035 Y120.133 
G01 X806.631 Y120.133 Z-1.902
G01 X806.212 Y120.133 Z-2.033
G01 X805.845 Y120.133 Z-2.207
G01 X805.281 Y120.133 Z-2.555
G01 X804.804 Y120.133 Z-2.904
G01 X804.366 Y120.133 Z-3.253
G01 X803.550 Y120.133 Z-3.950
G01 X802.777 Y120.133 Z-4.647
G01 X802.777 Y120.691 Z-4.453
G01 X802.777 Y121.077 Z-4.356
G01 X802.777 Y121.536 Z-4.283
G01 X802.777 Y121.991 Z-4.259
G01 X802.782 Y125.877 Z-4.256
G01 X802.817 Y127.394 Z-4.227
G01 X802.886 Y128.836 Z-4.172
G01 X803.017 Y130.506 Z-4.065
G01 X803.127 Y131.509 Z-3.982
G01 X803.297 Y132.751 Z-3.847
G01 X803.504 Y133.937 Z-3.691
G01 X803.747 Y135.077 Z-3.509
G01 X804.044 Y136.238 Z-3.288
G01 X804.360 Y137.262 Z-3.069
G01 X804.750 Y138.331 Z-2.815
G01 X805.131 Y139.222 Z-2.585
G01 X805.477 Y139.906 Z-2.415
G01 X805.841 Y140.537 Z-2.255
G01 X806.280 Y141.211 Z-2.086
G01 X806.795 Y141.905 Z-1.917
G01 X807.216 Y142.409 Z-1.797
G01 X807.713 Y142.933 Z-1.681
G01 X808.226 Y143.411 Z-1.586
G01 X808.755 Y143.843 Z-1.513
G01 X809.295 Y144.227 Z-1.463
G01 X809.843 Y144.565 Z-1.432
G01 X810.408 Y144.867 Z-1.417
G01 X810.991 Y145.132 Z-1.419
G01 X811.593 Y145.363 Z-1.436
G01 X812.214 Y145.558 Z-1.468
G01 X812.858 Y145.719 Z-1.515
G01 X813.741 Y145.878 Z-1.599
G01 X814.368 Y145.953 Z-1.667
G01 X815.002 Y145.995 Z-1.744
G01 X815.885 Y145.997 Z-1.868
G01 X816.627 Y145.948 Z-1.993
G01 X817.243 Y145.872 Z-2.109
G01 X817.864 Y145.762 Z-2.241
G01 X818.492 Y145.617 Z-2.386
G01 X819.150 Y145.424 Z-2.551
G01 X819.897 Y145.150 Z-2.756
G01 X820.523 Y144.872 Z-2.936
G01 X821.379 Y144.420 Z-3.196
G01 X821.918 Y144.095 Z-3.359
G01 X822.716 Y143.550 Z-3.606
G01 X823.548 Y142.901 Z-3.857
G01 X824.348 Y142.194 Z-4.088
G01 X825.206 Y141.353 Z-4.311
G01 X825.723 Y140.828 Z-4.413
G01 X826.211 Y140.298 Z-4.461
G01 X826.571 Y139.862 Z-4.439
G01 X826.795 Y139.548 Z-4.363
G01 X826.828 Y139.497 Z-4.343
G01 X826.913 Y138.841 Z-3.807
G01 X826.954 Y138.470 Z-3.465
G01 X826.885 Y139.058 Z-3.994
G01 X826.828 Y139.497 Z-4.343
G01 X827.505 Y139.321 Z-3.686
G01 X826.828 Y139.497 Z-4.343
G01 X826.661 Y139.744 Z-4.417
G01 X826.438 Y140.031 Z-4.456
G01 X826.034 Y140.492 Z-4.452
G01 X825.519 Y141.039 Z-4.377
G01 X824.740 Y141.819 Z-4.195
G01 X823.933 Y142.572 Z-3.968
G01 X823.137 Y143.233 Z-3.733
G01 X822.284 Y143.854 Z-3.474
G01 X821.774 Y144.185 Z-3.315
G01 X821.055 Y144.601 Z-3.095
G01 X820.339 Y144.958 Z-2.882
G01 X819.627 Y145.256 Z-2.679
G01 X818.811 Y145.530 Z-2.467
G01 X818.233 Y145.682 Z-2.327
G01 X817.585 Y145.816 Z-2.182
G01 X816.933 Y145.914 Z-2.052
G01 X816.285 Y145.976 Z-1.936
G01 X815.412 Y146.004 Z-1.798
G01 X814.698 Y145.979 Z-1.703
G01 X814.104 Y145.925 Z-1.634
G01 X813.412 Y145.827 Z-1.564
G01 X812.745 Y145.694 Z-1.506
G01 X811.904 Y145.465 Z-1.454
G01 X811.311 Y145.259 Z-1.430
G01 X810.730 Y145.018 Z-1.420
G01 X810.164 Y144.741 Z-1.425
G01 X809.614 Y144.429 Z-1.446
G01 X809.081 Y144.080 Z-1.483
G01 X808.567 Y143.696 Z-1.539
G01 X808.077 Y143.279 Z-1.612
G01 X807.605 Y142.826 Z-1.704
G01 X807.116 Y142.294 Z-1.823
G01 X806.646 Y141.715 Z-1.961
G01 X806.085 Y140.921 Z-2.161
G01 X805.764 Y140.411 Z-2.288
G01 X805.357 Y139.680 Z-2.469
G01 X804.945 Y138.811 Z-2.691
G01 X804.496 Y137.659 Z-2.975
G01 X804.189 Y136.722 Z-3.190
G01 X803.883 Y135.632 Z-3.409
G01 X803.617 Y134.503 Z-3.603
G01 X803.397 Y133.350 Z-3.773
G01 X803.208 Y132.137 Z-3.918
G01 X803.053 Y130.866 Z-4.038
G01 X802.934 Y129.530 Z-4.134
G01 X802.843 Y128.047 Z-4.204
G01 X802.795 Y126.645 Z-4.245
G01 X802.777 Y125.067 Z-4.259
G01 X802.777 Y121.991 
G01 X802.777 Y121.347 Z-4.307
G01 X802.777 Y121.077 Z-4.356
G01 X802.777 Y120.691 Z-4.453
G01 X802.777 Y120.133 Z-4.647
G01 X802.003 Y120.133 Z-3.950
G01 X801.187 Y120.133 Z-3.253
G01 X800.749 Y120.133 Z-2.904
G01 X800.272 Y120.133 Z-2.555
G01 X799.708 Y120.133 Z-2.207
G01 X799.341 Y120.133 Z-2.033
G01 X798.922 Y120.133 Z-1.902
G01 X798.518 Y120.133 Z-1.858
G01 X791.187 Y120.133 
G01 X789.329 Y121.991 Z0.000
G01 X791.187 Y120.133 Z-1.858
G01 X789.329 Y118.274 Z0.000
G01 X791.187 Y120.133 Z-1.858
G01 X798.518 Y120.133 
G01 X798.922 Y120.133 Z-1.902
G01 X799.341 Y120.133 Z-2.033
G01 X799.708 Y120.133 Z-2.207
G01 X800.272 Y120.133 Z-2.555
G01 X800.749 Y120.133 Z-2.904
G01 X801.187 Y120.133 Z-3.253
G01 X802.003 Y120.133 Z-3.950
G01 X802.777 Y120.133 Z-4.647
G01 X802.777 Y119.574 Z-4.453
G01 X802.777 Y119.188 Z-4.356
G01 X802.777 Y118.729 Z-4.283
G01 X802.777 Y118.274 Z-4.259
G01 X802.777 Y87.137 Z-4.259
G01 X802.778 Y85.418 Z-4.285
G01 X802.789 Y83.650 Z-4.368
G01 X802.795 Y82.362 Z-4.479
G01 X802.803 Y81.442 Z-4.594
G01 X802.806 Y80.406 Z-4.771
G01 X802.807 Y79.644 Z-4.939
G00 Z5.000
G00 X770.525 Y141.733  F4000.0
G01 Z-4.917 F200.0 M3
G01 X770.685 Y140.914 Z-4.758 F2000.0
G01 X770.846 Y139.832 Z-4.596
G01 X770.951 Y138.853 Z-4.491
G01 X771.009 Y138.054 Z-4.434
G01 X771.083 Y136.220 Z-4.360
G01 X771.132 Y133.554 Z-4.310
G01 X771.158 Y128.341 Z-4.285
G01 X771.158 Y85.348 Z-4.285
G01 X771.157 Y84.194 Z-4.297
G01 X771.157 Y83.109 Z-4.333
G01 X771.155 Y82.087 Z-4.396
G01 X771.154 Y81.111 Z-4.489
G01 X771.152 Y80.155 Z-4.622
G01 X771.152 Y79.457 Z-4.752
G01 X770.358 Y78.838 Z-4.133
G01 X769.526 Y78.243 Z-3.538
G01 X768.603 Y77.651 Z-2.946
G01 X768.015 Y77.310 Z-2.605
G01 X767.452 Y77.010 Z-2.305
G01 X766.912 Y76.749 Z-2.044
G01 X766.394 Y76.524 Z-1.819
G01 X765.895 Y76.333 Z-1.628
G01 X765.414 Y76.173 Z-1.468
G01 X764.917 Y76.035 Z-1.330
G01 X764.414 Y75.925 Z-1.220
G01 X763.898 Y75.840 Z-1.135
G01 X763.353 Y75.774 Z-1.069
G01 X762.766 Y75.722 Z-1.017
G01 X761.477 Y75.657 Z-0.952
G01 X760.842 Y75.642 Z-0.937
G01 X759.904 Y76.563 Z0.000
G01 X760.842 Y75.642 Z-0.937
G01 X759.904 Y74.705 Z0.000
G01 X760.842 Y75.642 Z-0.937
G01 X762.174 Y75.685 Z-0.980
G01 X762.822 Y75.726 Z-1.021
G01 X763.426 Y75.782 Z-1.077
G01 X763.997 Y75.855 Z-1.150
G01 X764.552 Y75.952 Z-1.247
G01 X765.073 Y76.075 Z-1.370
G01 X765.552 Y76.216 Z-1.511
G01 X766.045 Y76.388 Z-1.683
G01 X766.555 Y76.591 Z-1.886
G01 X767.085 Y76.829 Z-2.124
G01 X767.635 Y77.104 Z-2.399
G01 X768.207 Y77.418 Z-2.713
G01 X769.215 Y78.036 Z-3.331
G01 X769.985 Y78.564 Z-3.859
G01 X770.895 Y79.253 Z-4.548
G01 X771.152 Y79.457 Z-4.752
G01 X771.914 Y78.863 Z-4.158
G01 X772.747 Y78.268 Z-3.563
G01 X773.488 Y77.793 Z-3.088
G01 X774.313 Y77.322 Z-2.617
G01 X774.883 Y77.031 Z-2.326
G01 X775.429 Y76.779 Z-2.074
G01 X775.956 Y76.563 Z-1.858
G01 X776.466 Y76.377 Z-1.672
G01 X776.963 Y76.218 Z-1.513
G01 X777.491 Y76.074 Z-1.369
G01 X778.043 Y75.954 Z-1.249
G01 X778.612 Y75.862 Z-1.157
G01 X779.218 Y75.789 Z-1.084
G01 X779.872 Y75.732 Z-1.027
G01 X780.582 Y75.688 Z-0.983
G01 X782.147 Y75.641 Z-0.936
G01 X783.083 Y74.705 Z0.000
G01 X782.147 Y75.641 Z-0.936
G01 X783.083 Y76.563 Z0.000
G01 X782.147 Y75.641 Z-0.936
G01 X780.582 Y75.688 Z-0.983
G01 X779.817 Y75.736 Z-1.031
G01 X779.145 Y75.797 Z-1.092
G01 X778.512 Y75.876 Z-1.171
G01 X777.902 Y75.982 Z-1.277
G01 X777.343 Y76.111 Z-1.406
G01 X776.840 Y76.255 Z-1.550
G01 X776.327 Y76.425 Z-1.720
G01 X775.799 Y76.625 Z-1.920
G01 X775.254 Y76.857 Z-2.152
G01 X774.688 Y77.127 Z-2.422
G01 X774.101 Y77.438 Z-2.733
G01 X773.488 Y77.793 Z-3.088
G01 X772.747 Y78.268 Z-3.563
G01 X771.914 Y78.863 Z-4.158
G01 X771.152 Y79.457 Z-4.752
G01 X771.153 Y80.413 Z-4.581
G01 X771.154 Y81.298 Z-4.468
G01 X771.156 Y82.237 Z-4.385
G01 X771.157 Y83.233 Z-4.328
G01 X771.158 Y84.295 Z-4.295
G01 X771.158 Y85.391 Z-4.285
G01 X771.158 Y128.367 Z-4.285
G01 X771.131 Y133.603 Z-4.311
G01 X771.083 Y136.220 Z-4.360
G01 X771.009 Y138.054 Z-4.434
G01 X770.924 Y139.149 Z-4.519
G01 X770.790 Y140.251 Z-4.653
G01 X770.625 Y141.243 Z-4.818
G01 X770.525 Y141.733 Z-4.917
G01 X773.502 Y146.172 Z-1.940
G01 X775.443 Y148.112 Z0.000
G01 X773.502 Y146.172 Z-1.940
G01 X773.119 Y148.112 Z0.000
G01 X773.502 Y146.172 Z-1.940
G01 X770.525 Y141.733 Z-4.917
G01 X769.773 Y142.015 Z-4.371
G01 X768.896 Y142.305 Z-3.770
G01 X768.068 Y142.532 Z-3.246
G01 X767.291 Y142.695 Z-2.799
G01 X766.631 Y142.793 Z-2.459
G01 X765.851 Y142.858 Z-2.102
G01 X765.081 Y142.866 Z-1.802
G01 X764.479 Y142.832 Z-1.605
G01 X763.767 Y142.746 Z-1.415
G01 X763.263 Y142.656 Z-1.307
G01 X762.472 Y142.470 Z-1.179
G01 X761.512 Y142.185 Z-1.078
G01 X760.418 Y141.799 Z-1.019
G01 X759.027 Y142.330 Z0.000
G01 X760.418 Y141.799 Z-1.019
G01 X759.904 Y140.524 Z0.000
G01 X760.418 Y141.799 Z-1.019
G01 X761.512 Y142.185 Z-1.078
G01 X762.472 Y142.470 Z-1.179
G01 X763.263 Y142.656 Z-1.307
G01 X763.767 Y142.746 Z-1.415
G01 X764.479 Y142.832 Z-1.605
G01 X765.081 Y142.866 Z-1.802
G01 X765.851 Y142.858 Z-2.102
G01 X766.631 Y142.793 Z-2.459
G01 X767.291 Y142.695 Z-2.799
G01 X768.068 Y142.532 Z-3.246
G01 X768.896 Y142.305 Z-3.770
G01 X769.773 Y142.015 Z-4.371
G01 X770.525 Y141.733 Z-4.917
G00 Z5.000
G00 X711.820 Y94.297  F4000.0
G01 Z-4.968 F200.0 M3
G01 X711.661 Y95.448 Z-4.955 F2000.0
G01 X711.532 Y96.781 Z-4.925
G01 X711.459 Y98.132 Z-4.876
G01 X711.445 Y99.499 Z-4.803
G01 X711.494 Y100.881 Z-4.703
G01 X711.607 Y102.298 Z-4.574
G01 X711.804 Y103.859 Z-4.403
G01 X712.082 Y105.423 Z-4.207
G01 X712.460 Y107.065 Z-3.977
G01 X712.836 Y108.402 Z-3.781
G01 X713.161 Y109.403 Z-3.629
G01 X713.639 Y110.690 Z-3.433
G01 X713.955 Y111.439 Z-3.315
G01 X714.248 Y112.077 Z-3.213
G01 X714.555 Y112.696 Z-3.113
G01 X714.893 Y113.323 Z-3.009
G01 X715.498 Y114.329 Z-2.837
G01 X716.024 Y115.110 Z-2.700
G01 X716.604 Y115.883 Z-2.552
G01 X717.309 Y116.721 Z-2.390
G01 X717.777 Y117.217 Z-2.291
G01 X718.534 Y117.934 Z-2.142
G01 X719.314 Y118.579 Z-2.011
G01 X720.117 Y119.150 Z-1.898
G01 X720.973 Y119.675 Z-1.810
G01 X721.657 Y120.035 Z-1.762
G01 X722.295 Y120.337 Z-1.721
G01 X723.097 Y120.670 Z-1.678
G01 X723.897 Y120.955 Z-1.645
G01 X724.794 Y121.219 Z-1.623
G01 X725.498 Y121.385 Z-1.611
G01 X726.299 Y121.528 Z-1.610
G01 X727.102 Y121.625 Z-1.622
G01 X728.095 Y121.682 Z-1.659
G01 X728.769 Y121.686 Z-1.688
G01 X729.481 Y121.659 Z-1.725
G01 X730.265 Y121.594 Z-1.776
G01 X731.285 Y121.454 Z-1.864
G01 X731.874 Y121.345 Z-1.921
G01 X732.588 Y121.181 Z-2.001
G01 X733.561 Y120.899 Z-2.130
G01 X734.117 Y120.709 Z-2.209
G01 X734.875 Y120.408 Z-2.328
G01 X735.629 Y120.064 Z-2.459
G01 X736.563 Y119.565 Z-2.635
G01 X737.113 Y119.236 Z-2.742
G01 X737.884 Y118.721 Z-2.903
G01 X738.703 Y118.102 Z-3.083
G01 X739.478 Y117.441 Z-3.259
G01 X740.213 Y116.741 Z-3.430
G01 X740.916 Y116.008 Z-3.587
G01 X741.742 Y115.043 Z-3.772
G01 X742.566 Y113.956 Z-3.957
G01 X743.334 Y112.807 Z-4.130
G01 X744.044 Y111.599 Z-4.292
G01 X744.612 Y110.513 Z-4.424
G01 X745.216 Y109.200 Z-4.566
G01 X745.460 Y108.606 Z-4.627
G01 X745.817 Y107.654 Z-4.704
G01 X746.217 Y106.415 Z-4.789
G01 X746.506 Y105.353 Z-4.849
G01 X746.701 Y104.523 Z-4.880
G01 X746.942 Y103.267 Z-4.907
G01 X747.143 Y101.883 Z-4.917
G01 X747.227 Y101.066 Z-4.913
G01 X747.301 Y100.137 Z-4.893
G01 X747.361 Y98.576 Z-4.842
G01 X747.349 Y97.265 Z-4.775
G01 X747.284 Y95.931 Z-4.682
G01 X747.164 Y94.567 Z-4.560
G01 X746.985 Y93.168 Z-4.412
G01 X746.742 Y91.729 Z-4.237
G01 X746.407 Y90.153 Z-4.024
G01 X746.037 Y88.722 Z-3.821
G01 X745.799 Y87.907 Z-3.700
G01 X745.453 Y86.854 Z-3.539
G01 X745.041 Y85.755 Z-3.368
G01 X744.674 Y84.891 Z-3.225
G01 X744.242 Y83.983 Z-3.070
G01 X743.775 Y83.108 Z-2.919
G01 X743.296 Y82.314 Z-2.776
G01 X742.783 Y81.553 Z-2.639
G01 X742.189 Y80.772 Z-2.501
G01 X741.686 Y80.182 Z-2.394
G01 X741.125 Y79.595 Z-2.292
G01 X740.571 Y79.070 Z-2.201
G01 X740.005 Y78.582 Z-2.115
G01 X739.428 Y78.129 Z-2.035
G01 X738.842 Y77.709 Z-1.963
G01 X738.247 Y77.323 Z-1.899
G01 X737.642 Y76.969 Z-1.844
G01 X737.029 Y76.648 Z-1.798
G01 X736.407 Y76.359 Z-1.761
G01 X735.775 Y76.101 Z-1.733
G01 X735.133 Y75.874 Z-1.714
G01 X734.482 Y75.678 Z-1.704
G01 X733.819 Y75.511 Z-1.703
G01 X733.146 Y75.375 Z-1.711
G01 X732.461 Y75.268 Z-1.726
G01 X731.763 Y75.191 Z-1.750
G01 X731.036 Y75.143 Z-1.783
G01 X730.106 Y75.128 Z-1.833
G01 X729.151 Y75.166 Z-1.902
G01 X728.199 Y75.258 Z-1.988
G01 X727.251 Y75.408 Z-2.091
G01 X726.304 Y75.616 Z-2.211
G01 X725.358 Y75.887 Z-2.350
G01 X724.356 Y76.247 Z-2.515
G01 X723.437 Y76.649 Z-2.680
G01 X722.439 Y77.167 Z-2.874
G01 X721.563 Y77.699 Z-3.052
G01 X720.699 Y78.301 Z-3.233
G01 X719.826 Y78.999 Z-3.422
G01 X718.979 Y79.769 Z-3.608
G01 X718.161 Y80.611 Z-3.788
G01 X717.379 Y81.525 Z-3.958
G01 X716.581 Y82.576 Z-4.131
G01 X715.944 Y83.513 Z-4.262
G01 X715.298 Y84.568 Z-4.391
G01 X714.694 Y85.658 Z-4.511
G01 X714.103 Y86.840 Z-4.631
G01 X713.620 Y87.933 Z-4.722
G01 X713.156 Y89.118 Z-4.808
G01 X712.746 Y90.333 Z-4.875
G01 X712.389 Y91.575 Z-4.926
G01 X712.090 Y92.843 Z-4.956
G01 X711.846 Y94.135 Z-4.966
G01 X711.820 Y94.297 Z-4.968
G00 Z5.000
G01 Z-4.968 F200.0 M3
G01 X711.970 Y93.439 Z-4.967 F2000.0
G01 X712.143 Y92.593 Z-4.954
G01 X712.430 Y91.424 Z-4.920
G01 X712.792 Y90.181 Z-4.869
G01 X713.212 Y88.968 Z-4.797
G01 X713.681 Y87.785 Z-4.711
G01 X714.202 Y86.635 Z-4.610
G01 X714.768 Y85.517 Z-4.497
G01 X715.416 Y84.367 Z-4.370
G01 X716.028 Y83.384 Z-4.245
G01 X716.736 Y82.362 Z-4.097
G01 X717.516 Y81.355 Z-3.930
G01 X718.292 Y80.471 Z-3.759
G01 X719.120 Y79.633 Z-3.577
G01 X719.978 Y78.869 Z-3.389
G01 X720.862 Y78.181 Z-3.198
G01 X721.766 Y77.569 Z-3.008
G01 X722.685 Y77.031 Z-2.823
G01 X723.569 Y76.587 Z-2.654
G01 X724.505 Y76.189 Z-2.488
G01 X725.445 Y75.859 Z-2.337
G01 X726.388 Y75.595 Z-2.200
G01 X727.331 Y75.393 Z-2.081
G01 X728.275 Y75.248 Z-1.981
G01 X729.222 Y75.161 Z-1.896
G01 X730.206 Y75.127 Z-1.828
G01 X731.145 Y75.148 Z-1.778
G01 X731.857 Y75.199 Z-1.747
G01 X732.574 Y75.283 Z-1.724
G01 X733.285 Y75.400 Z-1.710
G01 X733.986 Y75.550 Z-1.705
G01 X734.675 Y75.732 Z-1.709
G01 X735.351 Y75.947 Z-1.722
G01 X736.015 Y76.195 Z-1.745
G01 X736.664 Y76.474 Z-1.778
G01 X737.299 Y76.785 Z-1.820
G01 X737.919 Y77.127 Z-1.871
G01 X738.524 Y77.498 Z-1.931
G01 X739.114 Y77.899 Z-1.999
G01 X739.685 Y78.326 Z-2.073
G01 X740.234 Y78.774 Z-2.152
G01 X740.758 Y79.242 Z-2.234
G01 X741.259 Y79.729 Z-2.317
G01 X741.797 Y80.308 Z-2.416
G01 X742.348 Y80.971 Z-2.534
G01 X742.875 Y81.683 Z-2.662
G01 X743.410 Y82.495 Z-2.811
G01 X743.855 Y83.253 Z-2.944
G01 X744.306 Y84.111 Z-3.092
G01 X744.752 Y85.064 Z-3.255
G01 X745.126 Y85.972 Z-3.401
G01 X745.569 Y87.194 Z-3.594
G01 X745.834 Y88.023 Z-3.717
G01 X746.243 Y89.490 Z-3.932
G01 X746.595 Y90.993 Z-4.141
G01 X746.895 Y92.586 Z-4.341
G01 X747.095 Y93.969 Z-4.498
G01 X747.238 Y95.314 Z-4.628
G01 X747.336 Y96.869 Z-4.747
G01 X747.360 Y97.923 Z-4.813
G01 X747.343 Y99.215 Z-4.869
G01 X747.290 Y100.291 Z-4.896
G01 X747.227 Y101.066 Z-4.913
G01 X747.134 Y101.955 Z-4.918
G01 X746.942 Y103.267 Z-4.907
G01 X746.701 Y104.523 Z-4.880
G01 X746.506 Y105.353 Z-4.849
G01 X746.217 Y106.415 Z-4.789
G01 X745.817 Y107.654 Z-4.704
G01 X745.460 Y108.606 Z-4.627
G01 X745.125 Y109.412 Z-4.548
G01 X744.612 Y110.513 Z-4.424
G01 X744.044 Y111.599 Z-4.292
G01 X743.229 Y112.973 Z-4.106
G01 X742.452 Y114.114 Z-3.931
G01 X741.622 Y115.192 Z-3.745
G01 X740.737 Y116.202 Z-3.545
G01 X739.826 Y117.121 Z-3.337
G01 X739.097 Y117.777 Z-3.170
G01 X738.300 Y118.416 Z-2.994
G01 X737.456 Y119.013 Z-2.815
G01 X736.980 Y119.319 Z-2.715
G01 X736.097 Y119.823 Z-2.546
G01 X735.494 Y120.128 Z-2.434
G01 X734.617 Y120.515 Z-2.288
G01 X733.986 Y120.756 Z-2.189
G01 X733.012 Y121.066 Z-2.056
G01 X732.450 Y121.216 Z-1.985
G01 X731.699 Y121.380 Z-1.902
G01 X730.684 Y121.544 Z-1.811
G01 X730.071 Y121.613 Z-1.764
G01 X729.380 Y121.665 Z-1.719
G01 X728.595 Y121.687 Z-1.678
G01 X727.786 Y121.672 Z-1.643
G01 X726.983 Y121.614 Z-1.620
G01 X726.097 Y121.496 Z-1.611
G01 X725.387 Y121.361 Z-1.612
G01 X724.591 Y121.165 Z-1.625
G01 X723.796 Y120.922 Z-1.649
G01 X722.890 Y120.588 Z-1.691
G01 X722.204 Y120.296 Z-1.726
G01 X721.409 Y119.910 Z-1.776
G01 X720.621 Y119.470 Z-1.842
G01 X719.772 Y118.914 Z-1.943
G01 X719.280 Y118.552 Z-2.016
G01 X718.534 Y117.934 Z-2.142
G01 X717.777 Y117.217 Z-2.291
G01 X717.293 Y116.702 Z-2.394
G01 X716.604 Y115.883 Z-2.552
G01 X716.024 Y115.110 Z-2.700
G01 X715.498 Y114.329 Z-2.837
G01 X714.877 Y113.294 Z-3.014
G01 X714.509 Y112.606 Z-3.127
G01 X714.205 Y111.988 Z-3.228
G01 X713.676 Y110.780 Z-3.418
G01 X713.343 Y109.918 Z-3.553
G01 X712.897 Y108.598 Z-3.751
G01 X712.493 Y107.192 Z-3.958
G01 X712.132 Y105.665 Z-4.172
G01 X711.946 Y104.701 Z-4.303
G01 X711.804 Y103.859 Z-4.403
G01 X711.607 Y102.298 Z-4.574
G01 X711.487 Y100.760 Z-4.713
G01 X711.443 Y99.371 Z-4.811
G01 X711.463 Y97.998 Z-4.882
G01 X711.543 Y96.642 Z-4.929
G01 X711.678 Y95.304 Z-4.958
G01 X711.820 Y94.297 Z-4.968
G00 Z5.000
G00 X677.090 Y113.845  F4000.0
G01 Z-6.000 F200.0 M3
G01 X676.810 Y114.173  F2000.0
G01 X676.442 Y114.507 
G01 X676.143 Y114.694 
G01 X675.847 Y114.811 
G01 X675.451 Y114.886 
G01 X674.922 Y114.901 
G01 X674.529 Y114.851 
G01 X674.243 Y114.763 
G01 X673.978 Y114.627 
G01 X673.662 Y114.389 
G01 X673.283 Y114.000 
G01 X673.016 Y113.616 
G01 X672.825 Y113.235 
G01 X672.630 Y112.717 
G01 X672.446 Y112.050 
G01 X672.290 Y111.229 
G01 X672.176 Y110.255 
G01 X672.115 Y109.132 
G01 X672.118 Y107.680 
G01 X672.152 Y106.879 
G01 X672.207 Y106.116 
G01 X672.283 Y105.392 
G01 X672.378 Y104.707 
G01 X672.491 Y104.061 
G01 X672.621 Y103.453 
G01 X672.766 Y102.884 
G01 X672.926 Y102.353 
G01 X673.098 Y101.858 
G01 X673.282 Y101.399 
G01 X673.476 Y100.973 
G01 X673.680 Y100.580 
G01 X673.893 Y100.216 
G01 X674.115 Y99.879 
G01 X674.488 Y99.395 
G01 X674.776 Y99.094 
G01 X675.139 Y98.804 
G01 X675.447 Y98.637 
G01 X675.780 Y98.531 
G01 X676.238 Y98.470 
G01 X676.802 Y98.482 
G01 X677.216 Y98.554 
G01 X677.515 Y98.660 
G01 X677.784 Y98.813 
G01 X678.091 Y99.063 
G01 X678.394 Y99.397 
G01 X678.626 Y99.780 
G01 X678.809 Y100.201 
G01 X678.993 Y100.774 
G01 X679.160 Y101.506 
G01 X679.294 Y102.399 
G01 X679.382 Y103.448 
G01 X679.412 Y104.643 
G01 X679.401 Y105.490 
G01 X679.367 Y106.298 
G01 X679.310 Y107.068 
G01 X679.234 Y107.801 
G01 X679.137 Y108.497 
G01 X679.022 Y109.155 
G01 X678.889 Y109.776 
G01 X678.740 Y110.360 
G01 X678.575 Y110.907 
G01 X678.397 Y111.420 
G01 X678.207 Y111.899 
G01 X678.005 Y112.345 
G01 X677.791 Y112.761 
G01 X677.567 Y113.148 
G01 X677.333 Y113.510 
G01 X677.090 Y113.845 
G00 Z5.000
G00 X663.404 Y103.777  F4000.0
G01 Z-6.000 F200.0 M3
G01 X663.582 Y103.135  F2000.0
G01 X663.803 Y102.511 
G01 X664.071 Y101.899 
G01 X664.387 Y101.293 
G01 X664.745 Y100.709 
G01 X665.130 Y100.173 
G01 X665.550 Y99.671 
G01 X666.010 Y99.198 
G01 X666.516 Y98.749 
G01 X667.075 Y98.321 
G01 X667.692 Y97.913 
G01 X668.373 Y97.525 
G01 X668.822 Y97.297 
G01 X669.484 Y96.906 
G01 X668.640 Y94.729 Z-3.763
G01 X668.192 Y93.573 Z-2.645
G01 X667.944 Y92.933 Z-2.085
G01 X667.802 Y92.568 Z-1.806
G01 X667.721 Y92.358 Z-1.666
G01 X667.566 Y91.968 Z-1.460
G01 X667.398 Y91.642 Z-1.327
G01 X667.234 Y91.398 Z-1.254
G01 X667.091 Y91.223 Z-1.223
G01 X666.892 Y91.022 Z-1.213
G01 X666.227 Y90.414 Z-1.247
G01 X665.365 Y89.567 Z-1.325
G01 X664.914 Y89.086 Z-1.387
G01 X664.535 Y88.652 Z-1.456
G01 X663.912 Y87.858 Z-1.617
G01 X663.380 Y87.088 Z-1.799
G01 X662.968 Y86.411 Z-1.985
G01 X662.597 Y85.691 Z-2.213
G01 X662.366 Y85.143 Z-2.401
G01 X662.196 Y84.654 Z-2.586
G01 X662.031 Y84.027 Z-2.843
G01 X661.942 Y83.470 Z-3.079
G01 X661.897 Y82.822 Z-3.360
G01 X661.904 Y82.150 Z-3.667
G01 X661.964 Y81.511 Z-3.966
G01 X662.059 Y81.023 Z-4.187
G01 X662.108 Y80.856 Z-4.256
G01 X661.961 Y80.813 Z-4.108
G01 X662.108 Y80.856 Z-4.256
G01 X662.450 Y80.490 Z-4.248
G01 X662.906 Y80.085 Z-4.225
G01 X663.481 Y79.648 Z-4.211
G01 X664.250 Y79.161 Z-4.229
G01 X664.758 Y78.880 Z-4.257
G01 X664.577 Y77.708 Z-3.169
G01 X664.498 Y77.161 Z-2.688
G01 X664.412 Y76.571 Z-2.207
G01 X664.337 Y76.061 Z-1.846
G01 X664.275 Y75.664 Z-1.619
G01 X664.226 Y75.451 Z-1.513
G01 X664.103 Y75.077 Z-1.353
G01 X664.022 Y74.894 Z-1.291
G01 X663.859 Y74.600 Z-1.224
G01 X663.620 Y74.288 Z-1.202
G01 X662.446 Y72.944 Z-1.280
G01 X661.429 Y71.702 Z-1.402
G01 X660.571 Y70.576 Z-1.559
G01 X660.114 Y69.933 Z-1.671
G01 X659.721 Y69.344 Z-1.786
G01 X659.347 Y68.749 Z-1.919
G01 X659.003 Y68.142 Z-2.060
G01 X658.610 Y67.332 Z-2.253
G01 X658.232 Y66.437 Z-2.496
G01 X657.908 Y65.514 Z-2.779
G01 X657.676 Y64.655 Z-3.077
G01 X657.513 Y63.795 Z-3.404
G01 X657.423 Y62.985 Z-3.733
G01 X657.406 Y62.446 Z-3.950
G01 X657.441 Y61.980 Z-4.115
G01 X657.488 Y61.759 Z-4.177
G01 X657.661 Y61.453 Z-4.175
G01 X658.046 Y60.939 Z-4.128
G01 X658.530 Y60.414 Z-4.057
G01 X659.028 Y59.948 Z-3.990
G01 X659.689 Y59.413 Z-3.905
G01 X660.312 Y58.965 Z-3.841
G01 X661.141 Y58.436 Z-3.773
G01 X661.798 Y58.063 Z-3.729
G01 X662.649 Y57.630 Z-3.679
G01 X663.526 Y57.232 Z-3.632
G01 X664.429 Y56.871 Z-3.588
G01 X665.358 Y56.543 Z-3.545
G01 X666.657 Y56.154 Z-3.493
G01 X667.617 Y55.912 Z-3.454
G01 X668.607 Y55.700 Z-3.414
G01 X669.626 Y55.517 Z-3.373
G01 X670.675 Y55.363 Z-3.331
G01 X671.755 Y55.240 Z-3.287
G01 X672.865 Y55.145 Z-3.241
G01 X673.998 Y55.081 Z-3.192
G01 X675.503 Y55.042 Z-3.126
G01 X676.934 Y55.053 Z-3.056
G01 X678.632 Y55.126 Z-2.957
G01 X679.841 Y55.220 Z-2.877
G01 X681.061 Y55.354 Z-2.788
G01 X682.372 Y55.547 Z-2.681
G01 X683.654 Y55.786 Z-2.567
G01 X684.909 Y56.075 Z-2.446
G01 X686.289 Y56.461 Z-2.303
G01 X687.343 Y56.811 Z-2.192
G01 X688.520 Y57.268 Z-2.066
G01 X689.099 Y57.518 Z-2.003
G01 X689.796 Y57.847 Z-1.927
G01 X690.791 Y58.374 Z-1.829
G01 X691.340 Y58.694 Z-1.776
G01 X692.018 Y59.127 Z-1.716
G01 X692.921 Y59.775 Z-1.654
G01 X693.427 Y60.175 Z-1.624
G01 X694.346 Y60.973 Z-1.577
G01 X695.157 Y61.762 Z-1.549
G01 X695.799 Y62.466 Z-1.528
G01 X696.207 Y62.961 Z-1.522
G01 X696.655 Y63.567 Z-1.523
G01 X697.057 Y64.180 Z-1.531
G01 X697.478 Y64.930 Z-1.548
G01 X697.776 Y65.561 Z-1.575
G01 X697.994 Y66.111 Z-1.605
G01 X698.178 Y66.672 Z-1.643
G01 X698.334 Y67.287 Z-1.691
G01 X698.448 Y67.908 Z-1.745
G01 X698.518 Y68.526 Z-1.804
G01 X698.543 Y69.184 Z-1.874
G01 X698.519 Y69.772 Z-1.949
G01 X698.420 Y70.527 Z-2.063
G01 X698.262 Y71.214 Z-2.188
G01 X698.134 Y71.618 Z-2.269
G01 X697.955 Y72.076 Z-2.370
G01 X697.670 Y72.659 Z-2.512
G01 X697.292 Y73.270 Z-2.670
G01 X696.868 Y73.817 Z-2.825
G01 X696.399 Y74.315 Z-2.974
G01 X695.879 Y74.774 Z-3.118
G01 X695.269 Y75.222 Z-3.268
G01 X694.686 Y75.578 Z-3.400
G01 X694.050 Y75.906 Z-3.526
G01 X693.277 Y76.236 Z-3.654
G01 X692.564 Y76.484 Z-3.750
G01 X691.885 Y76.679 Z-3.822
G01 X691.174 Y76.844 Z-3.883
G01 X690.325 Y77.005 Z-3.929
G01 X689.101 Y77.170 Z-3.961
G01 X687.314 Y77.329 Z-3.978
G01 X684.725 Y77.474 Z-3.999
G01 X680.772 Y77.621 Z-4.020
G01 X675.712 Y77.807 Z-3.983
G01 X673.387 Y77.913 Z-3.948
G01 X671.237 Y78.038 Z-3.914
G01 X669.037 Y78.214 Z-3.889
G01 X667.717 Y78.377 Z-3.911
