%
( jobb2 ) ( File created: Saturday August 24 2024 - 01:53 PM)
( for LinuxCNC )
( Material Size) ( X= 1300.000, Y= 200.000, Z= 20.000)
G90 (Incremental distance mode)
G17 G21 (Active Plane: XY)(Metric Mode)
G40 G49 G80(Tool Diameter, Length compensation & canned cycles OFF)
G64 P0.05 Q0.05(Path Blending)
M600
G90 (absolute distance mode)
G54 (Coordinate System)
S18000M3
G00 Z5.000
G4 P6
( V-Carve 1 )
G00 X512.845 Y62.027 Z5.000 F4000.0
G01 Z-4.805 F200.0 M3
G01 X513.330 Y61.924 Z-4.777 F2000.0
G01 X513.900 Y61.831 Z-4.692
G01 X514.424 Y61.770 Z-4.576
G01 X515.022 Y61.725 Z-4.411
G01 X515.902 Y61.709 Z-4.127
G01 X516.957 Y61.760 Z-3.750
G01 X517.924 Y61.885 Z-3.395
G01 X518.586 Y62.029 Z-3.165
G01 X519.028 Y62.161 Z-3.029
G01 X519.720 Y62.422 Z-2.834
G01 X520.352 Y62.717 Z-2.677
G01 X520.934 Y63.043 Z-2.548
G01 X521.547 Y63.450 Z-2.426
G01 X522.028 Y63.816 Z-2.338
G01 X522.498 Y64.217 Z-2.257
G01 X522.959 Y64.650 Z-2.184
G01 X523.604 Y65.334 Z-2.087
G01 X523.959 Y65.760 Z-2.046
G01 X524.445 Y66.412 Z-2.000
G01 X525.038 Y67.321 Z-1.964
G01 X525.407 Y67.950 Z-1.945
G01 X525.832 Y68.744 Z-1.928
G01 X526.434 Y70.004 Z-1.912
G01 X526.761 Y70.753 Z-1.901
G01 X530.270 Y79.329 Z-1.893
G01 X530.407 Y79.725 Z-1.916
G01 X530.500 Y80.138 Z-1.985
G01 X530.546 Y80.493 Z-2.077
G01 X530.560 Y81.017 Z-2.262
G01 X530.417 Y86.040 Z-4.292
G01 X531.170 Y86.352 Z-3.713
G01 X531.561 Y86.541 Z-3.423
G01 X532.172 Y86.888 Z-2.988
G01 X532.606 Y87.184 Z-2.698
G01 X532.835 Y87.363 Z-2.554
G01 X533.078 Y87.574 Z-2.409
G01 X533.340 Y87.834 Z-2.264
G01 X533.642 Y88.190 Z-2.119
G01 X533.827 Y88.452 Z-2.046
G01 X534.020 Y88.782 Z-1.992
G01 X534.182 Y89.130 Z-1.974
G01 X544.277 Y113.971 Z-2.013
G01 X544.655 Y115.025 Z-2.060
G01 X544.970 Y116.044 Z-2.150
G01 X545.199 Y116.868 Z-2.263
G01 X545.460 Y117.943 Z-2.467
G01 X545.594 Y118.549 Z-2.624
G01 X545.662 Y118.896 Z-2.732
G01 X545.754 Y119.328 Z-2.899
G01 X546.769 Y119.825 Z-2.403
G01 X547.761 Y120.265 Z-1.962
G01 X548.663 Y120.615 Z-1.612
G01 X549.376 Y120.843 Z-1.384
G01 X549.870 Y120.970 Z-1.257
G01 X550.643 Y121.121 Z-1.106
G01 X551.453 Y121.231 Z-0.996
G01 X551.919 Y121.277 Z-0.950
G01 X552.869 Y120.454 Z0.000
G01 X551.919 Y121.277 Z-0.950
G01 X552.869 Y122.227 Z0.000
G01 X551.919 Y121.277 Z-0.950
G01 X550.987 Y121.173 Z-1.054
G01 X550.175 Y121.036 Z-1.192
G01 X549.488 Y120.874 Z-1.353
G01 X548.977 Y120.721 Z-1.506
G01 X548.125 Y120.413 Z-1.814
G01 X547.187 Y120.016 Z-2.211
G01 X546.643 Y119.764 Z-2.463
G01 X545.754 Y119.328 Z-2.899
G01 X545.359 Y119.630 Z-2.598
G01 X544.707 Y120.073 Z-2.155
G01 X544.198 Y120.360 Z-1.867
G01 X543.654 Y120.615 Z-1.613
G01 X543.042 Y120.846 Z-1.382
G01 X542.320 Y121.049 Z-1.178
G01 X541.793 Y121.158 Z-1.069
G01 X541.147 Y121.245 Z-0.982
G01 X540.401 Y121.300 Z-0.927
G01 X539.480 Y121.331 Z-0.896
G01 X538.584 Y122.227 Z0.000
G01 X539.480 Y121.331 Z-0.896
G01 X538.584 Y120.454 Z0.000
G01 X539.480 Y121.331 Z-0.896
G01 X540.453 Y121.298 Z-0.930
G01 X541.207 Y121.239 Z-0.988
G01 X541.793 Y121.158 Z-1.069
G01 X542.466 Y121.013 Z-1.214
G01 X543.042 Y120.846 Z-1.382
G01 X543.654 Y120.615 Z-1.613
G01 X544.198 Y120.360 Z-1.867
G01 X544.707 Y120.073 Z-2.155
G01 X545.359 Y119.630 Z-2.598
G01 X545.754 Y119.328 Z-2.899
G01 X545.650 Y118.829 Z-2.709
G01 X545.460 Y117.943 Z-2.467
G01 X545.275 Y117.178 Z-2.314
G01 X545.009 Y116.172 Z-2.165
G01 X544.687 Y115.119 Z-2.066
G01 X544.458 Y114.455 Z-2.029
G01 X544.039 Y113.372 Z-2.007
G01 X534.180 Y89.125 Z-1.974
G01 X534.020 Y88.782 Z-1.992
G01 X533.827 Y88.452 Z-2.046
G01 X533.642 Y88.190 Z-2.119
G01 X533.340 Y87.834 Z-2.264
G01 X533.078 Y87.574 Z-2.409
G01 X532.835 Y87.363 Z-2.554
G01 X532.385 Y87.028 Z-2.843
G01 X531.964 Y86.762 Z-3.133
G01 X531.561 Y86.541 Z-3.423
G01 X531.170 Y86.352 Z-3.713
G01 X530.417 Y86.040 Z-4.292
G01 X530.164 Y86.309 Z-4.180
G01 X529.726 Y86.839 Z-4.012
G01 X529.548 Y87.081 Z-3.956
G01 X529.190 Y87.638 Z-3.871
G01 X528.891 Y88.200 Z-3.843
G01 X518.232 Y110.436 Z-3.778
G01 X517.468 Y112.099 Z-3.803
G01 X517.048 Y113.083 Z-3.847
G01 X516.713 Y113.923 Z-3.905
G01 X516.309 Y115.036 Z-4.022
G01 X516.018 Y115.889 Z-4.161
G01 X515.820 Y116.488 Z-4.291
G01 X515.547 Y117.418 Z-4.540
G01 X515.492 Y117.622 Z-4.605
G01 X516.077 Y118.158 Z-4.069
G01 X516.805 Y118.764 Z-3.463
G01 X517.478 Y119.264 Z-2.963
G01 X518.100 Y119.674 Z-2.553
G01 X518.677 Y120.011 Z-2.217
G01 X519.216 Y120.287 Z-1.940
G01 X519.727 Y120.517 Z-1.711
G01 X520.243 Y120.718 Z-1.509
G01 X520.764 Y120.889 Z-1.338
G01 X521.269 Y121.024 Z-1.204
G01 X521.767 Y121.129 Z-1.098
G01 X522.268 Y121.209 Z-1.018
G01 X522.777 Y121.269 Z-0.959
G01 X523.302 Y121.309 Z-0.918
G01 X523.848 Y121.333 Z-0.894
G01 X524.515 Y121.340 Z-0.887
G01 X525.402 Y120.454 Z0.000
G01 X524.515 Y121.340 Z-0.887
G01 X525.402 Y122.227 Z0.000
G01 X524.515 Y121.340 Z-0.887
G01 X523.793 Y121.331 Z-0.896
G01 X523.238 Y121.305 Z-0.922
G01 X522.701 Y121.261 Z-0.966
G01 X522.177 Y121.196 Z-1.031
G01 X521.658 Y121.108 Z-1.119
G01 X521.136 Y120.991 Z-1.236
G01 X520.603 Y120.840 Z-1.387
G01 X520.076 Y120.656 Z-1.571
G01 X519.552 Y120.442 Z-1.786
G01 X519.004 Y120.182 Z-2.045
G01 X518.421 Y119.867 Z-2.360
G01 X517.798 Y119.482 Z-2.746
G01 X517.128 Y119.011 Z-3.216
G01 X516.407 Y118.441 Z-3.787
G01 X515.632 Y117.755 Z-4.472
G01 X515.492 Y117.622 Z-4.605
G01 X514.538 Y118.138 Z-4.089
G01 X513.145 Y118.864 Z-3.363
G01 X512.050 Y119.413 Z-2.814
G01 X511.072 Y119.873 Z-2.355
G01 X510.248 Y120.226 Z-2.001
G01 X509.586 Y120.473 Z-1.754
G01 X508.924 Y120.670 Z-1.557
G01 X507.965 Y120.895 Z-1.332
G01 X506.920 Y121.085 Z-1.142
G01 X505.932 Y121.229 Z-0.998
G01 X504.934 Y122.227 Z0.000
G01 X505.932 Y121.229 Z-0.998
G01 X504.934 Y120.454 Z0.000
G01 X505.932 Y121.229 Z-0.998
G01 X506.963 Y121.078 Z-1.149
G01 X508.032 Y120.881 Z-1.346
G01 X508.924 Y120.670 Z-1.557
G01 X509.586 Y120.473 Z-1.754
G01 X510.393 Y120.166 Z-2.061
G01 X511.233 Y119.800 Z-2.428
G01 X512.186 Y119.347 Z-2.881
G01 X513.249 Y118.811 Z-3.416
G01 X514.670 Y118.068 Z-4.159
G01 X515.492 Y117.622 Z-4.605
G01 X515.674 Y116.972 Z-4.412
G01 X515.947 Y116.101 Z-4.202
G01 X516.206 Y115.322 Z-4.064
G01 X516.485 Y114.532 Z-3.962
G01 X516.784 Y113.738 Z-3.891
G01 X517.111 Y112.930 Z-3.839
G01 X517.468 Y112.099 Z-3.803
G01 X518.252 Y110.393 Z-3.778
G01 X528.891 Y88.200 Z-3.843
G01 X529.190 Y87.638 Z-3.871
G01 X529.548 Y87.081 Z-3.956
G01 X529.884 Y86.638 Z-4.068
G01 X530.164 Y86.309 Z-4.180
G01 X530.417 Y86.040 Z-4.292
G01 X530.561 Y80.774 Z-2.170
G01 X530.529 Y80.329 Z-2.031
G01 X530.451 Y79.894 Z-1.939
G01 X530.371 Y79.607 Z-1.904
G01 X530.270 Y79.328 Z-1.893
G01 X526.699 Y70.605 Z-1.902
G01 X526.103 Y69.293 Z-1.922
G01 X525.762 Y68.608 Z-1.932
G01 X525.327 Y67.809 Z-1.947
G01 X524.850 Y67.018 Z-1.972
G01 X524.257 Y66.152 Z-2.019
G01 X523.844 Y65.615 Z-2.060
G01 X523.330 Y65.031 Z-2.127
G01 X522.851 Y64.546 Z-2.200
G01 X522.356 Y64.093 Z-2.279
G01 X521.840 Y63.669 Z-2.369
G01 X521.294 Y63.274 Z-2.473
G01 X520.709 Y62.910 Z-2.596
G01 X520.037 Y62.562 Z-2.755
G01 X519.385 Y62.288 Z-2.926
G01 X518.967 Y62.140 Z-3.047
G01 X518.440 Y61.991 Z-3.215
G01 X517.903 Y61.881 Z-3.402
G01 X516.957 Y61.760 Z-3.750
G01 X515.902 Y61.709 Z-4.127
G01 X515.022 Y61.725 Z-4.411
G01 X514.154 Y61.799 Z-4.641
G01 X513.683 Y61.864 Z-4.731
G01 X513.060 Y61.977 Z-4.799
G01 X512.673 Y62.072 Z-4.799
G01 X512.329 Y62.188 Z-4.748
G01 X512.110 Y62.274 Z-4.681
G01 X511.699 Y62.443 Z-4.485
G01 X511.568 Y62.528 Z-4.376
G01 X511.235 Y62.783 Z-4.016
G01 X511.172 Y62.822 Z-3.943
G01 X511.427 Y62.642 Z-4.229
G01 X511.656 Y62.463 Z-4.456
G01 X511.942 Y62.339 Z-4.610
G01 X512.280 Y62.205 Z-4.736
G01 X512.554 Y62.109 Z-4.788
G01 X512.845 Y62.027 Z-4.805
G00 Z5.000
G00 X1207.883 Y109.323  F4000.0
G01 Z-5.142 F200.0 M3
G01 X1208.999 Y108.450 Z-4.268 F2000.0
G01 X1209.812 Y107.773 Z-3.592
G01 X1210.684 Y107.015 Z-2.834
G01 X1211.617 Y106.168 Z-1.986
G01 X1212.614 Y105.225 Z-1.044
G01 X1213.678 Y104.181 Z0.000
G01 X1212.614 Y105.225 Z-1.044
G01 X1211.617 Y106.168 Z-1.986
G01 X1210.684 Y107.015 Z-2.834
G01 X1209.812 Y107.773 Z-3.592
G01 X1208.999 Y108.450 Z-4.268
G01 X1207.883 Y109.323 Z-5.142
G01 X1207.668 Y110.347 Z-5.035
G01 X1207.501 Y111.003 Z-4.950
G01 X1207.211 Y111.946 Z-4.807
G01 X1206.862 Y112.892 Z-4.646
G01 X1206.460 Y113.783 Z-4.472
G01 X1206.170 Y114.340 Z-4.357
G01 X1205.714 Y115.102 Z-4.196
G01 X1205.172 Y115.875 Z-4.033
G01 X1204.734 Y116.430 Z-3.907
G01 X1204.196 Y117.043 Z-3.757
G01 X1203.657 Y117.590 Z-3.615
G01 X1203.281 Y117.938 Z-3.524
G01 X1202.693 Y118.434 Z-3.377
G01 X1202.087 Y118.887 Z-3.235
G01 X1201.249 Y119.432 Z-3.047
G01 X1200.288 Y119.962 Z-2.846
G01 X1199.329 Y120.393 Z-2.655
G01 X1198.459 Y120.720 Z-2.491
G01 X1197.594 Y120.988 Z-2.337
G01 X1196.735 Y121.199 Z-2.196
G01 X1195.883 Y121.358 Z-2.070
G01 X1195.040 Y121.465 Z-1.960
G01 X1194.205 Y121.526 Z-1.870
G01 X1193.376 Y121.541 Z-1.797
G01 X1192.342 Y121.490 Z-1.725
G01 X1191.331 Y121.374 Z-1.670
G01 X1190.345 Y121.189 Z-1.633
G01 X1189.385 Y120.941 Z-1.613
G01 X1188.437 Y120.624 Z-1.607
G01 X1187.550 Y120.255 Z-1.618
G01 X1186.677 Y119.822 Z-1.640
G01 X1185.777 Y119.296 Z-1.674
G01 X1185.021 Y118.787 Z-1.715
G01 X1184.161 Y118.129 Z-1.767
G01 X1183.480 Y117.540 Z-1.820
G01 X1182.727 Y116.808 Z-1.886
G01 X1182.064 Y116.075 Z-1.964
G01 X1181.373 Y115.214 Z-2.061
G01 X1180.809 Y114.410 Z-2.160
G01 X1180.266 Y113.530 Z-2.269
G01 X1179.775 Y112.618 Z-2.381
G01 X1179.336 Y111.676 Z-2.499
G01 X1178.889 Y110.548 Z-2.634
G01 X1178.603 Y109.699 Z-2.736
G01 X1178.311 Y108.680 Z-2.855
G01 X1178.035 Y107.508 Z-2.984
G01 X1177.971 Y107.138 Z-3.030
G01 X1177.940 Y106.877 Z-3.075
G01 X1177.913 Y106.472 Z-3.167
G01 X1177.922 Y106.037 Z-3.283
G01 X1177.950 Y105.678 Z-3.398
G01 X1177.829 Y105.318 Z-3.369
G01 X1177.718 Y104.863 Z-3.353
G01 X1177.635 Y104.374 Z-3.371
G01 X1177.507 Y102.731 Z-3.511
G01 X1177.459 Y101.339 Z-3.621
G01 X1177.463 Y99.969 Z-3.726
G01 X1177.515 Y98.621 Z-3.830
G01 X1177.614 Y97.293 Z-3.936
G01 X1177.762 Y95.986 Z-4.043
G01 X1177.961 Y94.699 Z-4.152
G01 X1178.213 Y93.433 Z-4.260
G01 X1178.570 Y92.010 Z-4.387
G01 X1178.887 Y90.968 Z-4.474
G01 X1179.318 Y89.775 Z-4.573
G01 X1179.712 Y88.832 Z-4.649
G01 X1179.958 Y88.299 Z-4.696
G01 X1180.370 Y87.478 Z-4.755
G01 X1180.864 Y86.609 Z-4.814
G01 X1181.278 Y85.951 Z-4.860
G01 X1181.769 Y85.235 Z-4.899
G01 X1182.441 Y84.360 Z-4.937
G01 X1183.074 Y83.618 Z-4.963
G01 X1183.416 Y83.244 Z-4.976
G01 X1184.040 Y82.605 Z-4.984
G01 X1184.899 Y81.811 Z-4.988
G01 X1185.729 Y81.123 Z-4.983
G01 X1186.724 Y80.399 Z-4.964
G01 X1187.461 Y79.928 Z-4.939
G01 X1187.797 Y79.729 Z-4.929
G01 X1188.691 Y79.255 Z-4.881
G01 X1189.464 Y78.900 Z-4.833
G01 X1190.466 Y78.510 Z-4.762
G01 X1191.181 Y78.281 Z-4.705
G01 X1191.920 Y78.078 Z-4.638
G01 X1192.918 Y77.865 Z-4.541
G01 X1193.746 Y77.734 Z-4.459
G01 X1194.843 Y77.621 Z-4.348
G01 X1195.942 Y77.577 Z-4.232
G01 X1196.558 Y77.586 Z-4.165
G01 X1197.270 Y77.621 Z-4.078
G01 X1198.311 Y77.736 Z-3.938
G01 X1199.021 Y77.854 Z-3.835
G01 X1200.012 Y78.075 Z-3.680
G01 X1200.935 Y78.348 Z-3.514
G01 X1201.712 Y78.629 Z-3.365
G01 X1202.342 Y78.892 Z-3.238
G01 X1202.952 Y79.179 Z-3.110
G01 X1203.543 Y79.489 Z-2.982
G01 X1204.115 Y79.820 Z-2.855
G01 X1204.798 Y80.261 Z-2.698
G01 X1205.708 Y80.927 Z-2.482
G01 X1206.203 Y81.325 Z-2.369
G01 X1207.076 Y82.100 Z-2.173
G01 X1207.596 Y82.607 Z-2.063
G01 X1208.111 Y83.154 Z-1.958
G01 X1208.672 Y83.809 Z-1.850
G01 X1209.277 Y84.594 Z-1.735
G01 X1209.685 Y85.176 Z-1.664
G01 X1210.139 Y85.886 Z-1.583
G01 X1210.722 Y86.906 Z-1.473
G01 X1211.048 Y87.541 Z-1.410
G01 X1211.360 Y88.199 Z-1.347
G01 X1211.658 Y88.882 Z-1.280
G01 X1211.964 Y89.655 Z-1.204
G01 X1212.248 Y90.452 Z-1.123
G01 X1212.565 Y91.459 Z-1.014
G01 X1213.678 Y91.947 Z0.000
G01 X1212.565 Y91.459 Z-1.014
G01 X1212.078 Y92.979 Z0.000
G01 X1212.565 Y91.459 Z-1.014
G01 X1212.194 Y90.296 Z-1.137
G01 X1211.927 Y89.559 Z-1.213
G01 X1211.643 Y88.847 Z-1.284
G01 X1211.318 Y88.105 Z-1.357
G01 X1210.954 Y87.351 Z-1.432
G01 X1210.381 Y86.295 Z-1.536
G01 X1209.993 Y85.653 Z-1.606
G01 X1209.620 Y85.082 Z-1.674
G01 X1209.196 Y84.483 Z-1.752
G01 X1208.672 Y83.809 Z-1.850
G01 X1207.972 Y83.003 Z-1.984
G01 X1207.512 Y82.522 Z-2.082
G01 X1206.680 Y81.738 Z-2.260
G01 X1206.125 Y81.261 Z-2.386
G01 X1205.501 Y80.767 Z-2.533
G01 X1204.665 Y80.172 Z-2.727
G01 X1204.010 Y79.758 Z-2.877
G01 X1203.412 Y79.416 Z-3.012
G01 X1202.725 Y79.067 Z-3.161
G01 X1202.042 Y78.761 Z-3.303
G01 X1201.064 Y78.392 Z-3.489
G01 X1200.266 Y78.145 Z-3.633
G01 X1199.336 Y77.916 Z-3.790
G01 X1198.311 Y77.736 Z-3.938
G01 X1197.268 Y77.621 Z-4.078
G01 X1196.183 Y77.578 Z-4.204
G01 X1195.085 Y77.603 Z-4.324
G01 X1194.005 Y77.701 Z-4.433
G01 X1193.487 Y77.770 Z-4.489
G01 X1192.654 Y77.914 Z-4.568
G01 X1191.838 Y78.099 Z-4.644
G01 X1191.181 Y78.281 Z-4.705
G01 X1190.466 Y78.510 Z-4.762
G01 X1189.718 Y78.793 Z-4.817
G01 X1189.102 Y79.060 Z-4.861
G01 X1188.443 Y79.377 Z-4.897
G01 X1187.691 Y79.790 Z-4.931
G01 X1187.159 Y80.114 Z-4.955
G01 X1186.509 Y80.545 Z-4.971
G01 X1185.729 Y81.123 Z-4.983
G01 X1184.899 Y81.811 Z-4.988
G01 X1184.028 Y82.616 Z-4.984
G01 X1183.221 Y83.456 Z-4.967
G01 X1182.834 Y83.890 Z-4.959
G01 X1182.286 Y84.549 Z-4.932
G01 X1181.696 Y85.337 Z-4.891
G01 X1181.278 Y85.951 Z-4.860
G01 X1180.811 Y86.697 Z-4.811
G01 X1180.255 Y87.703 Z-4.736
G01 X1179.812 Y88.611 Z-4.667
G01 X1179.569 Y89.160 Z-4.628
G01 X1179.206 Y90.064 Z-4.552
G01 X1178.820 Y91.178 Z-4.455
G01 X1178.467 Y92.390 Z-4.350
G01 X1178.171 Y93.624 Z-4.244
G01 X1177.929 Y94.879 Z-4.136
G01 X1177.739 Y96.154 Z-4.030
G01 X1177.576 Y97.730 Z-3.905
G01 X1177.490 Y99.098 Z-3.797
G01 X1177.455 Y100.427 Z-3.696
G01 X1177.466 Y101.714 Z-3.596
G01 X1177.519 Y102.961 Z-3.495
G01 X1177.635 Y104.374 Z-3.371
G01 X1177.718 Y104.863 Z-3.353
G01 X1177.829 Y105.318 Z-3.369
G01 X1177.950 Y105.678 Z-3.398
G01 X1178.490 Y105.678 Z-2.923
G01 X1179.375 Y105.678 Z-2.210
G01 X1179.908 Y105.678 Z-1.854
G01 X1180.124 Y105.678 Z-1.735
G01 X1180.393 Y105.678 Z-1.616
G01 X1180.701 Y105.678 Z-1.527
G01 X1181.001 Y105.678 Z-1.497
G01 X1202.889 Y105.678 
G01 X1203.289 Y105.705 Z-1.524
G01 X1203.689 Y105.785 Z-1.604
G01 X1204.021 Y105.892 Z-1.711
G01 X1204.275 Y105.999 Z-1.818
G01 X1204.678 Y106.213 Z-2.032
G01 X1205.153 Y106.534 Z-2.353
G01 X1205.661 Y106.962 Z-2.781
G01 X1206.090 Y107.390 Z-3.209
G01 X1207.883 Y109.323 Z-5.142
G00 Z5.000
G01 Z-5.142 F200.0 M3
G01 X1206.090 Y107.390 Z-3.209 F2000.0
G01 X1205.661 Y106.962 Z-2.781
G01 X1205.153 Y106.534 Z-2.353
G01 X1204.678 Y106.213 Z-2.032
G01 X1204.275 Y105.999 Z-1.818
G01 X1203.869 Y105.839 Z-1.658
G01 X1203.455 Y105.732 Z-1.551
G01 X1203.172 Y105.692 Z-1.510
G01 X1202.889 Y105.678 Z-1.497
G01 X1181.001 Y105.678 
G01 X1180.701 Y105.678 Z-1.527
G01 X1180.393 Y105.678 Z-1.616
G01 X1180.124 Y105.678 Z-1.735
G01 X1179.717 Y105.678 Z-1.972
G01 X1179.064 Y105.678 Z-2.448
G01 X1178.490 Y105.678 Z-2.923
G01 X1177.950 Y105.678 Z-3.398
G01 X1177.922 Y106.037 Z-3.283
G01 X1177.913 Y106.472 Z-3.167
G01 X1177.940 Y106.877 Z-3.075
G01 X1177.971 Y107.138 Z-3.030
G01 X1178.053 Y107.594 Z-2.976
G01 X1178.311 Y108.680 Z-2.855
G01 X1178.665 Y109.894 Z-2.711
G01 X1178.945 Y110.703 Z-2.616
G01 X1179.336 Y111.676 Z-2.499
G01 X1179.794 Y112.657 Z-2.376
G01 X1180.266 Y113.530 Z-2.269
G01 X1180.809 Y114.410 Z-2.160
G01 X1181.401 Y115.251 Z-2.057
G01 X1182.064 Y116.075 Z-1.964
G01 X1182.754 Y116.836 Z-1.884
G01 X1183.480 Y117.540 Z-1.820
G01 X1184.236 Y118.190 Z-1.764
G01 X1185.021 Y118.787 Z-1.715
G01 X1185.834 Y119.333 Z-1.673
G01 X1186.677 Y119.822 Z-1.640
G01 X1187.550 Y120.255 Z-1.618
G01 X1188.515 Y120.652 Z-1.606
G01 X1189.385 Y120.941 Z-1.613
G01 X1190.345 Y121.189 Z-1.633
G01 X1191.351 Y121.377 Z-1.670
G01 X1192.342 Y121.490 Z-1.725
G01 X1193.377 Y121.541 Z-1.797
G01 X1194.432 Y121.515 Z-1.896
G01 X1195.188 Y121.450 Z-1.979
G01 X1196.036 Y121.333 Z-2.092
G01 X1196.891 Y121.165 Z-2.221
G01 X1197.752 Y120.943 Z-2.365
G01 X1198.617 Y120.665 Z-2.520
G01 X1199.586 Y120.286 Z-2.708
G01 X1200.385 Y119.911 Z-2.866
G01 X1201.249 Y119.432 Z-3.047
G01 X1201.886 Y119.025 Z-3.189
G01 X1202.746 Y118.394 Z-3.390
G01 X1203.463 Y117.772 Z-3.566
G01 X1203.790 Y117.461 Z-3.653
G01 X1204.380 Y116.841 Z-3.806
G01 X1204.884 Y116.246 Z-3.946
G01 X1205.524 Y115.387 Z-4.136
G01 X1206.005 Y114.632 Z-4.297
G01 X1206.460 Y113.783 Z-4.472
G01 X1206.863 Y112.890 Z-4.647
G01 X1207.211 Y111.946 Z-4.807
G01 X1207.518 Y110.942 Z-4.957
G01 X1207.775 Y109.873 Z-5.085
G01 X1207.883 Y109.323 Z-5.142
G00 Z5.000
G00 X1254.807 Y109.323  F4000.0
G01 Z-5.142 F200.0 M3
G01 X1255.924 Y108.450 Z-4.268 F2000.0
G01 X1256.737 Y107.773 Z-3.592
G01 X1257.608 Y107.015 Z-2.834
G01 X1258.542 Y106.168 Z-1.986
G01 X1259.539 Y105.225 Z-1.044
G01 X1260.603 Y104.181 Z0.000
G01 X1259.539 Y105.225 Z-1.044
G01 X1258.542 Y106.168 Z-1.986
G01 X1257.608 Y107.015 Z-2.834
G01 X1256.737 Y107.773 Z-3.592
G01 X1255.924 Y108.450 Z-4.268
G01 X1254.807 Y109.323 Z-5.142
G01 X1254.593 Y110.347 Z-5.035
G01 X1254.426 Y111.003 Z-4.950
G01 X1254.136 Y111.946 Z-4.807
G01 X1253.787 Y112.892 Z-4.646
G01 X1253.385 Y113.783 Z-4.472
G01 X1253.095 Y114.340 Z-4.357
G01 X1252.639 Y115.102 Z-4.196
G01 X1252.097 Y115.875 Z-4.033
G01 X1251.658 Y116.430 Z-3.907
G01 X1251.121 Y117.043 Z-3.757
G01 X1250.582 Y117.590 Z-3.615
G01 X1250.206 Y117.938 Z-3.524
G01 X1249.617 Y118.434 Z-3.377
G01 X1249.012 Y118.887 Z-3.235
G01 X1248.174 Y119.432 Z-3.047
G01 X1247.213 Y119.962 Z-2.846
G01 X1246.254 Y120.393 Z-2.655
G01 X1245.384 Y120.720 Z-2.491
G01 X1244.519 Y120.988 Z-2.337
G01 X1243.659 Y121.199 Z-2.196
G01 X1242.808 Y121.358 Z-2.070
G01 X1241.965 Y121.465 Z-1.960
G01 X1241.130 Y121.526 Z-1.870
G01 X1240.301 Y121.541 Z-1.797
G01 X1239.267 Y121.490 Z-1.725
G01 X1238.256 Y121.374 Z-1.670
G01 X1237.270 Y121.189 Z-1.633
G01 X1236.310 Y120.941 Z-1.613
G01 X1235.362 Y120.624 Z-1.607
G01 X1234.475 Y120.255 Z-1.618
G01 X1233.602 Y119.822 Z-1.640
G01 X1232.701 Y119.296 Z-1.674
G01 X1231.946 Y118.787 Z-1.715
G01 X1231.086 Y118.129 Z-1.767
G01 X1230.405 Y117.540 Z-1.820
G01 X1229.652 Y116.808 Z-1.886
G01 X1228.988 Y116.075 Z-1.964
G01 X1228.298 Y115.214 Z-2.061
G01 X1227.734 Y114.410 Z-2.160
G01 X1227.190 Y113.530 Z-2.269
G01 X1226.700 Y112.618 Z-2.381
G01 X1226.261 Y111.676 Z-2.499
G01 X1225.814 Y110.548 Z-2.634
G01 X1225.527 Y109.699 Z-2.736
G01 X1225.235 Y108.680 Z-2.855
G01 X1224.960 Y107.508 Z-2.984
G01 X1224.896 Y107.138 Z-3.030
G01 X1224.865 Y106.877 Z-3.075
G01 X1224.838 Y106.472 Z-3.167
G01 X1224.847 Y106.037 Z-3.283
G01 X1224.875 Y105.678 Z-3.398
G01 X1224.754 Y105.318 Z-3.369
G01 X1224.643 Y104.863 Z-3.353
G01 X1224.560 Y104.374 Z-3.371
G01 X1224.432 Y102.731 Z-3.511
G01 X1224.384 Y101.339 Z-3.621
G01 X1224.388 Y99.969 Z-3.726
G01 X1224.440 Y98.621 Z-3.830
G01 X1224.539 Y97.293 Z-3.936
G01 X1224.687 Y95.986 Z-4.043
G01 X1224.885 Y94.699 Z-4.152
G01 X1225.138 Y93.433 Z-4.260
G01 X1225.495 Y92.010 Z-4.387
G01 X1225.812 Y90.968 Z-4.474
G01 X1226.243 Y89.775 Z-4.573
G01 X1226.637 Y88.832 Z-4.649
G01 X1226.883 Y88.299 Z-4.696
G01 X1227.295 Y87.478 Z-4.755
G01 X1227.789 Y86.609 Z-4.814
G01 X1228.203 Y85.951 Z-4.860
G01 X1228.693 Y85.235 Z-4.899
G01 X1229.365 Y84.360 Z-4.937
G01 X1229.999 Y83.618 Z-4.963
G01 X1230.341 Y83.244 Z-4.976
G01 X1230.964 Y82.605 Z-4.984
G01 X1231.823 Y81.811 Z-4.988
G01 X1232.653 Y81.123 Z-4.983
G01 X1233.649 Y80.399 Z-4.964
G01 X1234.386 Y79.928 Z-4.939
G01 X1234.721 Y79.729 Z-4.929
G01 X1235.615 Y79.255 Z-4.881
G01 X1236.389 Y78.900 Z-4.833
G01 X1237.391 Y78.510 Z-4.762
G01 X1238.105 Y78.281 Z-4.705
G01 X1238.845 Y78.078 Z-4.638
G01 X1239.843 Y77.865 Z-4.541
G01 X1240.671 Y77.734 Z-4.459
G01 X1241.768 Y77.621 Z-4.348
G01 X1242.867 Y77.577 Z-4.232
G01 X1243.483 Y77.586 Z-4.165
G01 X1244.195 Y77.621 Z-4.078
G01 X1245.236 Y77.736 Z-3.938
G01 X1245.946 Y77.854 Z-3.835
G01 X1246.937 Y78.075 Z-3.680
G01 X1247.859 Y78.348 Z-3.514
G01 X1248.637 Y78.629 Z-3.365
G01 X1249.267 Y78.892 Z-3.238
G01 X1249.877 Y79.179 Z-3.110
G01 X1250.468 Y79.489 Z-2.982
G01 X1251.039 Y79.820 Z-2.855
G01 X1251.723 Y80.261 Z-2.698
G01 X1252.633 Y80.927 Z-2.482
G01 X1253.128 Y81.325 Z-2.369
G01 X1254.001 Y82.100 Z-2.173
G01 X1254.520 Y82.607 Z-2.063
G01 X1255.036 Y83.154 Z-1.958
G01 X1255.596 Y83.809 Z-1.850
G01 X1256.201 Y84.594 Z-1.735
G01 X1256.609 Y85.176 Z-1.664
G01 X1257.063 Y85.886 Z-1.583
G01 X1257.646 Y86.906 Z-1.473
G01 X1257.973 Y87.541 Z-1.410
G01 X1258.285 Y88.199 Z-1.347
G01 X1258.583 Y88.882 Z-1.280
G01 X1258.889 Y89.655 Z-1.204
G01 X1259.173 Y90.452 Z-1.123
G01 X1259.490 Y91.459 Z-1.014
G01 X1260.603 Y91.947 Z0.000
G01 X1259.490 Y91.459 Z-1.014
G01 X1259.002 Y92.979 Z0.000
G01 X1259.490 Y91.459 Z-1.014
G01 X1259.119 Y90.296 Z-1.137
G01 X1258.852 Y89.559 Z-1.213
G01 X1258.568 Y88.847 Z-1.284
G01 X1258.243 Y88.105 Z-1.357
G01 X1257.879 Y87.351 Z-1.432
G01 X1257.306 Y86.295 Z-1.536
G01 X1256.918 Y85.653 Z-1.606
G01 X1256.545 Y85.082 Z-1.674
G01 X1256.121 Y84.483 Z-1.752
G01 X1255.596 Y83.809 Z-1.850
G01 X1254.897 Y83.003 Z-1.984
G01 X1254.437 Y82.522 Z-2.082
G01 X1253.605 Y81.738 Z-2.260
G01 X1253.050 Y81.261 Z-2.386
G01 X1252.426 Y80.767 Z-2.533
G01 X1251.590 Y80.172 Z-2.727
G01 X1250.935 Y79.758 Z-2.877
G01 X1250.337 Y79.416 Z-3.012
G01 X1249.649 Y79.067 Z-3.161
G01 X1248.966 Y78.761 Z-3.303
G01 X1247.989 Y78.392 Z-3.489
G01 X1247.191 Y78.145 Z-3.633
G01 X1246.260 Y77.916 Z-3.790
G01 X1245.236 Y77.736 Z-3.938
G01 X1244.193 Y77.621 Z-4.078
G01 X1243.108 Y77.578 Z-4.204
G01 X1242.010 Y77.603 Z-4.324
G01 X1240.930 Y77.701 Z-4.433
G01 X1240.412 Y77.770 Z-4.489
G01 X1239.579 Y77.914 Z-4.568
G01 X1238.762 Y78.099 Z-4.644
G01 X1238.105 Y78.281 Z-4.705
G01 X1237.391 Y78.510 Z-4.762
G01 X1236.643 Y78.793 Z-4.817
G01 X1236.026 Y79.060 Z-4.861
G01 X1235.367 Y79.377 Z-4.897
G01 X1234.615 Y79.790 Z-4.931
G01 X1234.084 Y80.114 Z-4.955
G01 X1233.433 Y80.545 Z-4.971
G01 X1232.653 Y81.123 Z-4.983
G01 X1231.823 Y81.811 Z-4.988
G01 X1230.953 Y82.616 Z-4.984
G01 X1230.145 Y83.456 Z-4.967
G01 X1229.759 Y83.890 Z-4.959
G01 X1229.211 Y84.549 Z-4.932
G01 X1228.621 Y85.337 Z-4.891
G01 X1228.203 Y85.951 Z-4.860
G01 X1227.736 Y86.697 Z-4.811
G01 X1227.179 Y87.703 Z-4.736
G01 X1226.737 Y88.611 Z-4.667
G01 X1226.494 Y89.160 Z-4.628
G01 X1226.131 Y90.064 Z-4.552
G01 X1225.745 Y91.178 Z-4.455
G01 X1225.392 Y92.390 Z-4.350
G01 X1225.096 Y93.624 Z-4.244
G01 X1224.854 Y94.879 Z-4.136
G01 X1224.664 Y96.154 Z-4.030
G01 X1224.500 Y97.730 Z-3.905
G01 X1224.415 Y99.098 Z-3.797
G01 X1224.380 Y100.427 Z-3.696
G01 X1224.391 Y101.714 Z-3.596
G01 X1224.444 Y102.961 Z-3.495
G01 X1224.560 Y104.374 Z-3.371
G01 X1224.643 Y104.863 Z-3.353
G01 X1224.754 Y105.318 Z-3.369
G01 X1224.875 Y105.678 Z-3.398
G01 X1225.415 Y105.678 Z-2.923
G01 X1226.300 Y105.678 Z-2.210
G01 X1226.833 Y105.678 Z-1.854
G01 X1227.049 Y105.678 Z-1.735
G01 X1227.317 Y105.678 Z-1.616
G01 X1227.626 Y105.678 Z-1.527
G01 X1227.926 Y105.678 Z-1.497
G01 X1249.813 Y105.678 
G01 X1250.214 Y105.705 Z-1.524
G01 X1250.614 Y105.785 Z-1.604
G01 X1250.945 Y105.892 Z-1.711
G01 X1251.200 Y105.999 Z-1.818
G01 X1251.603 Y106.213 Z-2.032
G01 X1252.077 Y106.534 Z-2.353
G01 X1252.586 Y106.962 Z-2.781
G01 X1253.015 Y107.390 Z-3.209
G01 X1254.807 Y109.323 Z-5.142
G00 Z5.000
G01 Z-5.142 F200.0 M3
G01 X1253.015 Y107.390 Z-3.209 F2000.0
G01 X1252.586 Y106.962 Z-2.781
G01 X1252.077 Y106.534 Z-2.353
G01 X1251.603 Y106.213 Z-2.032
G01 X1251.200 Y105.999 Z-1.818
G01 X1250.794 Y105.839 Z-1.658
G01 X1250.379 Y105.732 Z-1.551
G01 X1250.096 Y105.692 Z-1.510
G01 X1249.813 Y105.678 Z-1.497
G01 X1227.926 Y105.678 
G01 X1227.626 Y105.678 Z-1.527
G01 X1227.317 Y105.678 Z-1.616
G01 X1227.049 Y105.678 Z-1.735
G01 X1226.641 Y105.678 Z-1.972
G01 X1225.989 Y105.678 Z-2.448
G01 X1225.415 Y105.678 Z-2.923
G01 X1224.875 Y105.678 Z-3.398
G01 X1224.847 Y106.037 Z-3.283
G01 X1224.838 Y106.472 Z-3.167
G01 X1224.865 Y106.877 Z-3.075
G01 X1224.896 Y107.138 Z-3.030
G01 X1224.978 Y107.594 Z-2.976
G01 X1225.235 Y108.680 Z-2.855
G01 X1225.590 Y109.894 Z-2.711
G01 X1225.870 Y110.703 Z-2.616
G01 X1226.261 Y111.676 Z-2.499
G01 X1226.719 Y112.657 Z-2.376
G01 X1227.190 Y113.530 Z-2.269
G01 X1227.734 Y114.410 Z-2.160
G01 X1228.326 Y115.251 Z-2.057
G01 X1228.988 Y116.075 Z-1.964
G01 X1229.679 Y116.836 Z-1.884
G01 X1230.405 Y117.540 Z-1.820
G01 X1231.160 Y118.190 Z-1.764
G01 X1231.946 Y118.787 Z-1.715
G01 X1232.759 Y119.333 Z-1.673
G01 X1233.602 Y119.822 Z-1.640
G01 X1234.475 Y120.255 Z-1.618
G01 X1235.440 Y120.652 Z-1.606
G01 X1236.310 Y120.941 Z-1.613
G01 X1237.270 Y121.189 Z-1.633
G01 X1238.276 Y121.377 Z-1.670
G01 X1239.267 Y121.490 Z-1.725
G01 X1240.301 Y121.541 Z-1.797
G01 X1241.357 Y121.515 Z-1.896
G01 X1242.113 Y121.450 Z-1.979
G01 X1242.961 Y121.333 Z-2.092
G01 X1243.815 Y121.165 Z-2.221
G01 X1244.676 Y120.943 Z-2.365
G01 X1245.542 Y120.665 Z-2.520
G01 X1246.511 Y120.286 Z-2.708
G01 X1247.310 Y119.911 Z-2.866
G01 X1248.174 Y119.432 Z-3.047
G01 X1248.811 Y119.025 Z-3.189
G01 X1249.671 Y118.394 Z-3.390
G01 X1250.388 Y117.772 Z-3.566
G01 X1250.715 Y117.461 Z-3.653
G01 X1251.305 Y116.841 Z-3.806
G01 X1251.808 Y116.246 Z-3.946
G01 X1252.448 Y115.387 Z-4.136
G01 X1252.930 Y114.632 Z-4.297
G01 X1253.385 Y113.783 Z-4.472
G01 X1253.788 Y112.890 Z-4.647
G01 X1254.136 Y111.946 Z-4.807
G01 X1254.442 Y110.942 Z-4.957
G01 X1254.700 Y109.873 Z-5.085
G01 X1254.807 Y109.323 Z-5.142
G00 Z5.000
G00 X1128.227 Y141.742  F4000.0
G01 Z-4.920 F200.0 M3
G01 X1128.383 Y140.960 Z-4.764 F2000.0
G01 X1128.553 Y139.862 Z-4.593
G01 X1128.666 Y138.864 Z-4.481
G01 X1128.728 Y138.045 Z-4.419
G01 X1128.774 Y137.139 Z-4.373
G01 X1128.839 Y134.878 Z-4.308
G01 X1128.876 Y131.905 Z-4.271
G01 X1128.888 Y128.237 Z-4.259
G01 X1128.888 Y113.835 
G01 X1128.908 Y113.251 Z-4.279
G01 X1128.968 Y112.667 Z-4.339
G01 X1129.048 Y112.183 Z-4.419
G01 X1128.968 Y111.699 Z-4.339
G01 X1128.908 Y111.115 Z-4.279
G01 X1128.888 Y110.531 Z-4.259
G01 X1128.888 Y82.242 
G01 X1128.912 Y81.597 Z-4.283
G01 X1127.016 Y80.538 Z-2.387
G01 X1124.629 Y79.248 Z0.000
G01 X1127.016 Y80.538 Z-2.387
G01 X1128.912 Y81.597 Z-4.283
G01 X1129.333 Y81.026 Z-4.003
G01 X1129.774 Y80.522 Z-3.786
G01 X1130.123 Y80.187 Z-3.656
G01 X1130.347 Y79.993 Z-3.591
G01 X1130.736 Y79.694 Z-3.508
G01 X1131.594 Y79.098 Z-3.353
G01 X1132.464 Y78.537 Z-3.203
G01 X1133.377 Y77.996 Z-3.053
G01 X1134.292 Y77.502 Z-2.909
G01 X1135.208 Y77.055 Z-2.772
G01 X1136.127 Y76.655 Z-2.641
G01 X1137.049 Y76.302 Z-2.517
G01 X1137.975 Y75.996 Z-2.399
G01 X1138.905 Y75.739 Z-2.288
G01 X1139.839 Y75.530 Z-2.185
G01 X1140.921 Y75.350 Z-2.072
G01 X1141.882 Y75.248 Z-1.984
G01 X1142.724 Y75.201 Z-1.917
G01 X1143.721 Y75.200 Z-1.845
G01 X1144.712 Y75.257 Z-1.783
G01 X1145.692 Y75.379 Z-1.739
G01 X1146.657 Y75.576 Z-1.722
G01 X1147.183 Y75.716 Z-1.717
G01 X1147.859 Y75.926 Z-1.727
G01 X1148.536 Y76.174 Z-1.751
G01 X1149.444 Y76.574 Z-1.798
G01 X1150.333 Y77.033 Z-1.859
G01 X1151.199 Y77.551 Z-1.935
G01 X1152.044 Y78.126 Z-2.024
G01 X1152.868 Y78.753 Z-2.122
G01 X1153.755 Y79.504 Z-2.235
G01 X1154.458 Y80.159 Z-2.337
G01 X1155.225 Y80.937 Z-2.455
G01 X1155.974 Y81.776 Z-2.585
G01 X1156.380 Y82.266 Z-2.663
G01 X1156.956 Y83.023 Z-2.786
G01 X1157.540 Y83.866 Z-2.925
G01 X1158.140 Y84.834 Z-3.084
G01 X1158.719 Y85.890 Z-3.251
G01 X1159.234 Y86.958 Z-3.411
G01 X1159.690 Y88.040 Z-3.564
G01 X1160.090 Y89.136 Z-3.708
G01 X1160.439 Y90.249 Z-3.842
G01 X1160.739 Y91.383 Z-3.965
G01 X1160.992 Y92.539 Z-4.077
G01 X1161.199 Y93.722 Z-4.178
G01 X1161.363 Y94.935 Z-4.267
G01 X1161.482 Y96.182 Z-4.344
G01 X1161.558 Y97.466 Z-4.410
G01 X1161.586 Y98.790 Z-4.467
G01 X1161.564 Y100.143 Z-4.518
G01 X1161.502 Y101.338 Z-4.560
G01 X1161.405 Y102.475 Z-4.601
G01 X1161.274 Y103.567 Z-4.640
G01 X1161.111 Y104.612 Z-4.677
G01 X1160.916 Y105.612 Z-4.711
G01 X1160.664 Y106.668 Z-4.744
G01 X1160.355 Y107.741 Z-4.776
G01 X1159.996 Y108.788 Z-4.803
G01 X1159.586 Y109.807 Z-4.826
G01 X1159.121 Y110.794 Z-4.842
G01 X1158.656 Y111.651 Z-4.846
G01 X1158.172 Y112.438 Z-4.846
G01 X1157.559 Y113.315 Z-4.838
G01 X1156.892 Y114.148 Z-4.818
G01 X1156.214 Y114.903 Z-4.794
G01 X1155.389 Y115.729 Z-4.759
G01 X1154.671 Y116.363 Z-4.718
G01 X1153.927 Y116.949 Z-4.668
G01 X1153.153 Y117.482 Z-4.604
G01 X1152.567 Y117.837 Z-4.549
G01 X1151.756 Y118.266 Z-4.465
G01 X1150.922 Y118.633 Z-4.365
G01 X1150.069 Y118.938 Z-4.256
G01 X1149.204 Y119.182 Z-4.137
G01 X1148.330 Y119.363 Z-4.011
G01 X1147.453 Y119.486 Z-3.883
G01 X1146.556 Y119.540 Z-3.738
G01 X1145.699 Y119.523 Z-3.586
G01 X1144.702 Y119.426 Z-3.395
G01 X1143.782 Y119.260 Z-3.207
G01 X1142.913 Y119.040 Z-3.021
G01 X1142.070 Y118.769 Z-2.836
G01 X1141.255 Y118.450 Z-2.655
G01 X1140.418 Y118.066 Z-2.470
G01 X1139.476 Y117.561 Z-2.263
G01 X1138.959 Y117.254 Z-2.147
G01 X1138.028 Y116.637 Z-1.949
G01 X1137.534 Y116.276 Z-1.839
G01 X1136.965 Y115.836 Z-1.727
G01 X1136.080 Y115.067 Z-1.565
G01 X1135.112 Y114.137 Z-1.395
G01 X1134.131 Y113.101 Z-1.227
G01 X1133.860 Y112.851 Z-1.215
G01 X1133.623 Y112.681 Z-1.248
G01 X1133.482 Y112.598 Z-1.282
G01 X1133.267 Y112.492 Z-1.348
G01 X1132.899 Y112.359 Z-1.497
G01 X1132.517 Y112.265 Z-1.692
G01 X1132.180 Y112.215 Z-1.887
G01 X1131.580 Y112.183 Z-2.277
G01 X1130.871 Y112.183 Z-2.812
G01 X1130.235 Y112.183 Z-3.348
G01 X1129.048 Y112.183 Z-4.419
G01 X1128.968 Y112.667 Z-4.339
G01 X1128.908 Y113.251 Z-4.279
G01 X1128.888 Y113.835 Z-4.259
G01 X1128.888 Y128.266 Z-4.259
G01 X1128.875 Y131.961 Z-4.271
G01 X1128.837 Y134.947 Z-4.310
G01 X1128.767 Y137.286 Z-4.380
G01 X1128.711 Y138.295 Z-4.435
G01 X1128.636 Y139.170 Z-4.511
G01 X1128.494 Y140.288 Z-4.653
G01 X1128.320 Y141.292 Z-4.827
G01 X1128.227 Y141.742 Z-4.920
G01 X1131.204 Y146.169 Z-1.943
G01 X1133.147 Y148.112 Z0.000
G01 X1131.204 Y146.169 Z-1.943
G01 X1130.824 Y148.112 Z0.000
G01 X1131.204 Y146.169 Z-1.943
G01 X1128.227 Y141.742 Z-4.920
G01 X1127.410 Y142.044 Z-4.332
G01 X1126.532 Y142.329 Z-3.737
G01 X1125.703 Y142.551 Z-3.219
G01 X1124.924 Y142.710 Z-2.778
G01 X1124.268 Y142.802 Z-2.445
G01 X1123.504 Y142.863 Z-2.100
G01 X1122.733 Y142.870 Z-1.803
G01 X1122.134 Y142.836 Z-1.609
G01 X1121.420 Y142.750 Z-1.419
G01 X1120.918 Y142.661 Z-1.312
G01 X1120.018 Y142.451 Z-1.167
G01 X1119.078 Y142.177 Z-1.066
G01 X1117.922 Y141.781 Z-0.997
G01 X1116.628 Y142.330 Z0.000
G01 X1117.922 Y141.781 Z-0.997
G01 X1117.350 Y140.524 Z0.000
G01 X1117.922 Y141.781 Z-0.997
G01 X1119.078 Y142.177 Z-1.066
G01 X1120.081 Y142.468 Z-1.175
G01 X1120.918 Y142.661 Z-1.312
G01 X1121.420 Y142.750 Z-1.419
G01 X1122.134 Y142.836 Z-1.609
G01 X1122.733 Y142.870 Z-1.803
G01 X1123.504 Y142.863 Z-2.100
G01 X1124.268 Y142.802 Z-2.445
G01 X1124.924 Y142.710 Z-2.778
G01 X1125.703 Y142.551 Z-3.219
G01 X1126.532 Y142.329 Z-3.737
G01 X1127.410 Y142.044 Z-4.332
G01 X1128.227 Y141.742 Z-4.920
G00 Z5.000
G00 X1158.383 Y112.106  F4000.0
G01 Z-4.852 F200.0 M3
G01 X1158.787 Y111.423 Z-4.849 F2000.0
G01 X1159.233 Y110.570 Z-4.839
G01 X1159.680 Y109.585 Z-4.821
G01 X1160.075 Y108.572 Z-4.798
G01 X1160.438 Y107.477 Z-4.771
G01 X1160.716 Y106.468 Z-4.738
G01 X1160.964 Y105.381 Z-4.701
G01 X1161.167 Y104.271 Z-4.662
G01 X1161.329 Y103.140 Z-4.621
G01 X1161.451 Y101.987 Z-4.580
G01 X1161.533 Y100.811 Z-4.537
G01 X1161.582 Y99.467 Z-4.492
G01 X1161.578 Y98.123 Z-4.439
G01 X1161.525 Y96.819 Z-4.379
G01 X1161.428 Y95.554 Z-4.307
G01 X1161.287 Y94.325 Z-4.223
G01 X1161.102 Y93.127 Z-4.128
G01 X1160.872 Y91.957 Z-4.021
G01 X1160.596 Y90.813 Z-3.903
G01 X1160.273 Y89.690 Z-3.774
G01 X1159.898 Y88.585 Z-3.636
G01 X1159.470 Y87.496 Z-3.487
G01 X1158.985 Y86.422 Z-3.331
G01 X1158.437 Y85.361 Z-3.168
G01 X1158.016 Y84.626 Z-3.048
G01 X1157.458 Y83.742 Z-2.905
G01 X1156.770 Y82.771 Z-2.747
G01 X1156.253 Y82.109 Z-2.636
G01 X1155.611 Y81.359 Z-2.514
G01 X1154.967 Y80.669 Z-2.410
G01 X1154.329 Y80.036 Z-2.316
G01 X1153.673 Y79.431 Z-2.225
G01 X1152.868 Y78.753 Z-2.122
G01 X1152.044 Y78.126 Z-2.024
G01 X1151.082 Y77.478 Z-1.922
G01 X1150.333 Y77.033 Z-1.859
G01 X1149.444 Y76.574 Z-1.798
G01 X1148.530 Y76.172 Z-1.750
G01 X1147.605 Y75.842 Z-1.726
G01 X1147.070 Y75.685 Z-1.716
G01 X1146.385 Y75.515 Z-1.721
G01 X1145.692 Y75.379 Z-1.739
G01 X1144.712 Y75.257 Z-1.783
G01 X1143.721 Y75.200 Z-1.845
G01 X1142.616 Y75.205 Z-1.924
G01 X1141.715 Y75.261 Z-2.001
G01 X1140.776 Y75.371 Z-2.089
G01 X1139.839 Y75.530 Z-2.185
G01 X1138.905 Y75.739 Z-2.288
G01 X1137.975 Y75.996 Z-2.399
G01 X1137.049 Y76.302 Z-2.517
G01 X1135.895 Y76.751 Z-2.670
G01 X1134.922 Y77.190 Z-2.810
G01 X1134.063 Y77.621 Z-2.941
G01 X1133.205 Y78.095 Z-3.079
G01 X1132.347 Y78.610 Z-3.222
G01 X1131.490 Y79.168 Z-3.371
G01 X1130.641 Y79.762 Z-3.526
G01 X1130.347 Y79.993 Z-3.591
G01 X1129.936 Y80.361 Z-3.721
G01 X1129.535 Y80.785 Z-3.895
G01 X1129.156 Y81.254 Z-4.111
G01 X1128.912 Y81.597 Z-4.283
G01 X1128.888 Y82.242 Z-4.259
G01 X1128.888 Y110.531 
G01 X1128.908 Y111.115 Z-4.279
G01 X1128.968 Y111.699 Z-4.339
G01 X1129.048 Y112.183 Z-4.419
G01 X1130.235 Y112.183 Z-3.348
G01 X1131.211 Y112.183 Z-2.545
G01 X1131.871 Y112.190 Z-2.082
G01 X1132.180 Y112.215 Z-1.887
G01 X1132.700 Y112.305 Z-1.594
G01 X1133.091 Y112.422 Z-1.414
G01 X1133.267 Y112.492 Z-1.348
G01 X1133.482 Y112.598 Z-1.282
G01 X1133.715 Y112.742 Z-1.232
G01 X1133.938 Y112.916 Z-1.213
G01 X1134.131 Y113.101 Z-1.227
G01 X1135.213 Y114.237 Z-1.410
G01 X1136.080 Y115.067 Z-1.565
G01 X1136.965 Y115.836 Z-1.727
G01 X1137.613 Y116.335 Z-1.856
G01 X1138.328 Y116.843 Z-2.008
G01 X1139.063 Y117.318 Z-2.170
G01 X1139.950 Y117.825 Z-2.367
G01 X1140.602 Y118.156 Z-2.510
G01 X1141.409 Y118.515 Z-2.690
G01 X1142.243 Y118.830 Z-2.875
G01 X1143.103 Y119.094 Z-3.063
G01 X1143.981 Y119.302 Z-3.249
G01 X1144.833 Y119.442 Z-3.421
G01 X1145.699 Y119.523 Z-3.586
G01 X1146.574 Y119.539 Z-3.741
G01 X1147.453 Y119.486 Z-3.883
G01 X1148.330 Y119.363 Z-4.011
G01 X1149.204 Y119.182 Z-4.137
G01 X1150.069 Y118.938 Z-4.256
G01 X1150.685 Y118.725 Z-4.336
G01 X1151.529 Y118.372 Z-4.439
G01 X1152.353 Y117.958 Z-4.528
G01 X1153.153 Y117.482 Z-4.604
G01 X1153.927 Y116.949 Z-4.668
G01 X1154.671 Y116.363 Z-4.718
G01 X1155.541 Y115.584 Z-4.766
G01 X1156.214 Y114.903 Z-4.794
G01 X1156.892 Y114.148 Z-4.818
G01 X1157.559 Y113.315 Z-4.838
G01 X1158.093 Y112.558 Z-4.845
G01 X1158.383 Y112.106 Z-4.852
G00 Z5.000
G00 X1103.995 Y94.787  F4000.0
G01 Z-4.792 F200.0 M3
G01 X1104.901 Y94.106 Z-4.783 F2000.0
G01 X1105.451 Y93.648 Z-4.773
G01 X1106.057 Y93.090 Z-4.754
G01 X1106.691 Y92.423 Z-4.721
G01 X1107.258 Y91.726 Z-4.679
G01 X1107.631 Y91.190 Z-4.638
G01 X1107.957 Y90.648 Z-4.587
G01 X1108.252 Y90.069 Z-4.523
G01 X1108.504 Y89.473 Z-4.447
G01 X1108.713 Y88.865 Z-4.360
G01 X1108.880 Y88.248 Z-4.265
G01 X1109.006 Y87.619 Z-4.162
G01 X1109.094 Y87.004 Z-4.059
G01 X1109.150 Y86.384 Z-3.956
G01 X1109.172 Y85.767 Z-3.851
G01 X1109.161 Y85.155 Z-3.745
G01 X1109.116 Y84.548 Z-3.635
G01 X1109.002 Y83.732 Z-3.479
G01 X1108.838 Y82.985 Z-3.319
G01 X1108.596 Y82.186 Z-3.143
G01 X1108.318 Y81.489 Z-2.976
G01 X1108.025 Y80.882 Z-2.828
G01 X1107.778 Y80.441 Z-2.719
G01 X1107.514 Y80.018 Z-2.614
G01 X1107.020 Y79.334 Z-2.441
G01 X1106.629 Y78.861 Z-2.325
G01 X1106.058 Y78.253 Z-2.180
G01 X1105.337 Y77.588 Z-2.034
G01 X1104.617 Y77.026 Z-1.912
G01 X1104.150 Y76.702 Z-1.845
G01 X1103.421 Y76.260 Z-1.756
G01 X1102.587 Y75.839 Z-1.678
G01 X1101.948 Y75.574 Z-1.632
G01 X1101.210 Y75.321 Z-1.588
G01 X1100.382 Y75.102 Z-1.555
G01 X1099.452 Y74.928 Z-1.534
G01 X1098.493 Y74.823 Z-1.522
G01 X1097.504 Y74.784 Z-1.521
G01 X1096.334 Y74.817 Z-1.534
G01 X1095.256 Y74.912 Z-1.560
G01 X1094.139 Y75.075 Z-1.609
G01 X1092.987 Y75.315 Z-1.688
G01 X1091.802 Y75.633 Z-1.799
G01 X1090.690 Y75.998 Z-1.934
G01 X1089.925 Y76.289 Z-2.044
G01 X1089.241 Y76.571 Z-2.159
G01 X1088.083 Y77.106 Z-2.380
G01 X1087.161 Y77.570 Z-2.587
G01 X1086.323 Y77.989 Z-2.824
G01 X1085.504 Y78.389 Z-3.107
G01 X1084.597 Y78.809 Z-3.485
G01 X1084.354 Y79.463 Z-3.243
G01 X1084.063 Y80.309 Z-2.952
G01 X1083.795 Y81.148 Z-2.684
G01 X1083.549 Y81.984 Z-2.438
G01 X1083.323 Y82.819 Z-2.211
G01 X1083.114 Y83.656 Z-2.003
G01 X1082.923 Y84.498 Z-1.811
G01 X1082.747 Y85.347 Z-1.635
G01 X1082.585 Y86.206 Z-1.474
G01 X1082.437 Y87.075 Z-1.326
G01 X1082.184 Y88.824 Z-1.073
G01 X1082.054 Y89.921 Z-0.942
G01 X1082.815 Y90.863 Z0.000
G01 X1082.054 Y89.921 Z-0.942
G01 X1081.111 Y90.863 Z0.000
G01 X1082.054 Y89.921 Z-0.942
G01 X1082.184 Y88.824 Z-1.073
G01 X1082.437 Y87.075 Z-1.326
G01 X1082.594 Y86.153 Z-1.483
G01 X1082.759 Y85.286 Z-1.647
G01 X1082.938 Y84.428 Z-1.827
G01 X1083.134 Y83.575 Z-2.022
G01 X1083.347 Y82.725 Z-2.236
G01 X1083.580 Y81.877 Z-2.468
G01 X1083.833 Y81.026 Z-2.722
G01 X1084.109 Y80.170 Z-2.998
G01 X1084.411 Y79.307 Z-3.299
G01 X1084.597 Y78.809 Z-3.485
G01 X1083.974 Y78.136 Z-2.862
G01 X1083.425 Y77.449 Z-2.313
G01 X1083.102 Y76.978 Z-1.991
G01 X1082.757 Y76.394 Z-1.646
G01 X1082.498 Y75.861 Z-1.387
G01 X1082.251 Y75.226 Z-1.140
G01 X1082.203 Y75.074 Z-1.092
G01 X1081.111 Y73.982 Z0.000
G01 X1082.203 Y75.074 Z-1.092
G01 X1082.455 Y74.597 Z-0.614
G01 X1082.815 Y73.982 Z0.000
G01 X1082.385 Y74.724 Z-0.741
G01 X1082.203 Y75.074 Z-1.092
G01 X1082.420 Y75.676 Z-1.308
G01 X1082.634 Y76.154 Z-1.523
G01 X1082.915 Y76.675 Z-1.804
G01 X1083.288 Y77.256 Z-2.177
G01 X1083.561 Y77.628 Z-2.450
G01 X1083.974 Y78.136 Z-2.862
G01 X1084.597 Y78.809 Z-3.485
G01 X1085.504 Y78.389 Z-3.107
G01 X1086.535 Y77.883 Z-2.759
G01 X1087.329 Y77.486 Z-2.545
G01 X1088.555 Y76.881 Z-2.284
G01 X1089.354 Y76.522 Z-2.140
G01 X1090.604 Y76.028 Z-1.946
G01 X1091.367 Y75.769 Z-1.845
G01 X1092.042 Y75.563 Z-1.771
G01 X1092.987 Y75.315 Z-1.688
G01 X1094.139 Y75.075 Z-1.609
G01 X1095.256 Y74.912 Z-1.560
G01 X1096.334 Y74.817 Z-1.534
G01 X1097.504 Y74.784 Z-1.521
G01 X1098.493 Y74.823 Z-1.522
G01 X1099.452 Y74.928 Z-1.534
G01 X1100.312 Y75.087 Z-1.553
G01 X1100.837 Y75.214 Z-1.572
G01 X1101.649 Y75.465 Z-1.611
G01 X1102.509 Y75.804 Z-1.671
G01 X1103.140 Y76.108 Z-1.729
G01 X1103.828 Y76.497 Z-1.804
G01 X1104.544 Y76.973 Z-1.901
G01 X1105.286 Y77.547 Z-2.025
G01 X1105.979 Y78.175 Z-2.163
G01 X1106.391 Y78.596 Z-2.262
G01 X1106.937 Y79.229 Z-2.415
G01 X1107.315 Y79.728 Z-2.541
G01 X1107.595 Y80.141 Z-2.646
G01 X1107.887 Y80.626 Z-2.768
G01 X1108.252 Y81.342 Z-2.941
G01 X1108.516 Y81.973 Z-3.090
G01 X1108.761 Y82.701 Z-3.259
G01 X1108.958 Y83.505 Z-3.430
G01 X1109.083 Y84.252 Z-3.581
G01 X1109.138 Y84.778 Z-3.679
G01 X1109.169 Y85.341 Z-3.779
G01 X1109.168 Y85.964 Z-3.885
G01 X1109.134 Y86.589 Z-3.989
G01 X1109.066 Y87.217 Z-4.093
G01 X1108.942 Y87.963 Z-4.220
G01 X1108.782 Y88.626 Z-4.325
G01 X1108.589 Y89.243 Z-4.416
G01 X1108.362 Y89.824 Z-4.494
G01 X1108.099 Y90.380 Z-4.559
G01 X1107.798 Y90.921 Z-4.614
G01 X1107.451 Y91.458 Z-4.660
G01 X1107.050 Y91.996 Z-4.698
G01 X1106.588 Y92.539 Z-4.729
G01 X1105.928 Y93.214 Z-4.757
G01 X1105.306 Y93.772 Z-4.776
G01 X1104.391 Y94.501 Z-4.789
G01 X1103.142 Y95.370 Z-4.783
G01 X1101.703 Y96.251 Z-4.751
G01 X1100.241 Y97.053 Z-4.696
G01 X1098.644 Y97.886 Z-4.645
G01 X1096.914 Y98.765 Z-4.611
G01 X1093.104 Y100.668 Z-4.567
G01 X1091.812 Y101.349 Z-4.540
G01 X1090.531 Y102.081 Z-4.514
G01 X1089.379 Y102.802 Z-4.491
G01 X1088.416 Y103.469 Z-4.467
G01 X1087.646 Y104.065 Z-4.442
G01 X1087.073 Y104.571 Z-4.414
G01 X1086.664 Y104.977 Z-4.372
G01 X1086.284 Y105.415 Z-4.316
G01 X1085.825 Y106.044 Z-4.217
G01 X1085.450 Y106.676 Z-4.100
G01 X1085.077 Y107.440 Z-3.945
G01 X1084.823 Y108.091 Z-3.810
G01 X1084.622 Y108.710 Z-3.677
G01 X1084.389 Y109.660 Z-3.483
G01 X1084.238 Y110.606 Z-3.298
G01 X1084.164 Y111.543 Z-3.123
G01 X1084.167 Y112.478 Z-2.951
G01 X1084.247 Y113.385 Z-2.777
G01 X1084.399 Y114.274 Z-2.599
G01 X1084.585 Y114.993 Z-2.456
G01 X1084.797 Y115.605 Z-2.342
G01 X1085.066 Y116.215 Z-2.231
G01 X1085.327 Y116.710 Z-2.149
G01 X1085.706 Y117.317 Z-2.053
G01 X1086.016 Y117.746 Z-1.992
G01 X1086.480 Y118.306 Z-1.919
G01 X1087.095 Y118.939 Z-1.846
G01 X1087.539 Y119.331 Z-1.802
G01 X1088.112 Y119.780 Z-1.745
G01 X1088.792 Y120.236 Z-1.688
G01 X1089.516 Y120.641 Z-1.641
G01 X1090.065 Y120.898 Z-1.610
G01 X1090.831 Y121.193 Z-1.575
G01 X1091.333 Y121.353 Z-1.558
G01 X1092.156 Y121.560 Z-1.537
G01 X1093.108 Y121.728 Z-1.525
G01 X1094.090 Y121.826 Z-1.518
G01 X1095.077 Y121.860 Z-1.521
G01 X1095.895 Y121.842 Z-1.526
G01 X1096.949 Y121.753 Z-1.521
G01 X1098.077 Y121.584 Z-1.527
G01 X1098.888 Y121.412 Z-1.541
G01 X1099.936 Y121.132 Z-1.578
G01 X1100.984 Y120.781 Z-1.646
G01 X1101.615 Y120.538 Z-1.707
G01 X1102.636 Y120.104 Z-1.849
G01 X1103.279 Y119.811 Z-1.976
G01 X1103.843 Y119.542 Z-2.108
G01 X1104.698 Y119.126 Z-2.363
G01 X1105.400 Y118.795 Z-2.632
G01 X1106.090 Y118.496 Z-2.955
G01 X1106.460 Y118.346 Z-3.146
G01 X1106.726 Y117.540 Z-2.880
G01 X1107.131 Y116.160 Z-2.476
G01 X1107.354 Y115.303 Z-2.253
G01 X1107.714 Y113.737 Z-1.893
G01 X1108.040 Y112.085 Z-1.567
G01 X1108.339 Y110.332 Z-1.268
G01 X1108.643 Y108.243 Z-0.964
G01 X1107.903 Y107.279 Z0.000
G01 X1108.643 Y108.243 Z-0.964
G01 X1109.607 Y107.279 Z0.000
G01 X1108.643 Y108.243 Z-0.964
G01 X1108.334 Y110.361 Z-1.273
G01 X1108.033 Y112.127 Z-1.574
G01 X1107.701 Y113.796 Z-1.906
G01 X1107.333 Y115.387 Z-2.274
G01 X1106.949 Y116.805 Z-2.657
G01 X1106.682 Y117.679 Z-2.925
G01 X1106.460 Y118.346 Z-3.146
G01 X1106.970 Y118.972 Z-2.637
G01 X1107.357 Y119.521 Z-2.250
G01 X1107.645 Y119.982 Z-1.962
G01 X1107.927 Y120.522 Z-1.680
G01 X1108.135 Y121.013 Z-1.472
G01 X1108.373 Y121.717 Z-1.234
G01 X1108.543 Y122.321 Z-1.064
G01 X1109.607 Y123.385 Z0.000
G01 X1108.543 Y122.321 Z-1.064
G01 X1107.903 Y123.385 Z0.000
G01 X1108.543 Y122.321 Z-1.064
G01 X1108.336 Y121.598 Z-1.271
G01 X1108.135 Y121.013 Z-1.472
G01 X1107.927 Y120.522 Z-1.680
G01 X1107.645 Y119.982 Z-1.962
G01 X1107.357 Y119.521 Z-2.250
G01 X1106.970 Y118.972 Z-2.637
G01 X1106.460 Y118.346 Z-3.146
G01 X1105.616 Y118.699 Z-2.725
G01 X1104.935 Y119.014 Z-2.445
G01 X1104.321 Y119.314 Z-2.243
G01 X1103.718 Y119.601 Z-2.076
G01 X1102.720 Y120.065 Z-1.863
G01 X1102.087 Y120.344 Z-1.766
G01 X1101.060 Y120.753 Z-1.652
G01 X1100.428 Y120.976 Z-1.606
G01 X1099.736 Y121.190 Z-1.570
G01 X1098.713 Y121.452 Z-1.535
G01 X1098.077 Y121.584 Z-1.527
G01 X1097.306 Y121.708 Z-1.524
G01 X1096.295 Y121.816 Z-1.522
G01 X1095.664 Y121.851 Z-1.523
G01 X1095.024 Y121.860 Z-1.521
G01 X1094.035 Y121.822 Z-1.519
G01 X1093.079 Y121.724 Z-1.525
G01 X1092.156 Y121.560 Z-1.537
G01 X1091.264 Y121.334 Z-1.561
G01 X1090.478 Y121.065 Z-1.589
G01 X1089.989 Y120.864 Z-1.613
G01 X1089.255 Y120.503 Z-1.655
G01 X1088.792 Y120.236 Z-1.688
G01 X1088.411 Y119.991 Z-1.719
G01 X1088.001 Y119.699 Z-1.757
G01 X1087.380 Y119.194 Z-1.814
G01 X1086.828 Y118.676 Z-1.875
G01 X1086.271 Y118.067 Z-1.951
G01 X1085.772 Y117.413 Z-2.039
G01 X1085.477 Y116.963 Z-2.108
G01 X1085.127 Y116.337 Z-2.210
G01 X1084.797 Y115.605 Z-2.342
G01 X1084.585 Y114.993 Z-2.456
G01 X1084.399 Y114.274 Z-2.599
G01 X1084.247 Y113.385 Z-2.777
G01 X1084.166 Y112.470 Z-2.952
G01 X1084.164 Y111.543 Z-3.123
G01 X1084.238 Y110.606 Z-3.298
G01 X1084.389 Y109.660 Z-3.483
G01 X1084.622 Y108.710 Z-3.677
G01 X1084.823 Y108.091 Z-3.810
G01 X1085.089 Y107.414 Z-3.951
G01 X1085.450 Y106.676 Z-4.100
G01 X1085.825 Y106.044 Z-4.217
G01 X1086.145 Y105.593 Z-4.290
G01 X1086.483 Y105.179 Z-4.349
G01 X1086.856 Y104.778 Z-4.394
G01 X1087.472 Y104.213 Z-4.434
G01 X1088.416 Y103.469 Z-4.467
G01 X1089.648 Y102.627 Z-4.495
G01 X1090.752 Y101.950 Z-4.517
G01 X1091.940 Y101.280 Z-4.542
G01 X1093.391 Y100.519 Z-4.575
G01 X1096.991 Y98.726 Z-4.613
G01 X1098.735 Y97.839 Z-4.647
G01 X1100.583 Y96.870 Z-4.711
G01 X1101.835 Y96.173 Z-4.754
G01 X1103.182 Y95.344 Z-4.784
G01 X1103.995 Y94.787 Z-4.792
G00 Z5.000
G00 X1061.683 Y142.880  F4000.0
G01 Z-5.226 F200.0 M3
G01 X1061.689 Y142.835 Z-5.197 F2000.0
G01 X1061.595 Y142.598 Z-4.952
G01 X1061.689 Y142.835 Z-5.197
G01 X1061.817 Y142.528 Z-4.882
G01 X1061.689 Y142.835 Z-5.197
G01 X1061.688 Y142.870 Z-5.221
G01 X1061.890 Y142.788 Z-5.011
G01 X1061.688 Y142.870 Z-5.221
G01 X1061.683 Y142.880 Z-5.226
G01 X1061.717 Y142.914 Z-5.192
G01 X1061.983 Y143.027 Z-4.917
G01 X1061.717 Y142.914 Z-5.192
G01 X1061.830 Y143.180 Z-4.917
G01 X1061.699 Y142.896 Z-5.211
G01 X1061.683 Y142.880 Z-5.226
G01 X1061.630 Y142.915 Z-5.189
G01 X1061.521 Y143.155 Z-4.935
G01 X1061.630 Y142.915 Z-5.189
G01 X1061.368 Y143.027 Z-4.917
G01 X1061.646 Y142.900 Z-5.205
G01 X1061.654 Y142.893 Z-5.212
G01 X1061.401 Y142.792 Z-4.952
G01 X1061.654 Y142.893 Z-5.212
G01 X1061.683 Y142.880 Z-5.226
G00 Z5.000
G00 X1061.032 Y116.950  F4000.0
G01 Z-4.954 F200.0 M3
G01 X1061.220 Y115.981 Z-4.766 F2000.0
G01 X1061.355 Y115.070 Z-4.631
G01 X1061.438 Y114.325 Z-4.548
G01 X1061.509 Y113.435 Z-4.477
G01 X1061.564 Y112.457 Z-4.422
G01 X1061.642 Y110.116 Z-4.344
G01 X1061.687 Y107.177 Z-4.299
G01 X1061.701 Y103.614 Z-4.285
G01 X1061.701 Y85.347 Z-4.285
G01 X1061.701 Y84.193 Z-4.297
G01 X1061.699 Y83.105 Z-4.334
G01 X1061.697 Y82.075 Z-4.399
G01 X1061.693 Y81.088 Z-4.495
G01 X1061.690 Y80.121 Z-4.632
G01 X1061.686 Y79.461 Z-4.756
G01 X1060.843 Y78.808 Z-4.103
G01 X1060.000 Y78.213 Z-3.508
G01 X1059.081 Y77.632 Z-2.927
G01 X1058.497 Y77.297 Z-2.592
G01 X1057.936 Y77.001 Z-2.296
G01 X1057.399 Y76.743 Z-2.038
G01 X1056.882 Y76.521 Z-1.816
G01 X1056.385 Y76.332 Z-1.627
G01 X1055.905 Y76.173 Z-1.468
G01 X1055.404 Y76.034 Z-1.329
G01 X1054.893 Y75.923 Z-1.218
G01 X1054.368 Y75.839 Z-1.134
G01 X1053.808 Y75.773 Z-1.068
G01 X1053.201 Y75.722 Z-1.017
G01 X1051.849 Y75.657 Z-0.952
G01 X1051.126 Y75.641 Z-0.936
G01 X1050.190 Y76.563 Z0.000
G01 X1051.126 Y75.641 Z-0.936
G01 X1050.190 Y74.705 Z0.000
G01 X1051.126 Y75.641 Z-0.936
G01 X1052.580 Y75.685 Z-0.980
G01 X1053.254 Y75.726 Z-1.021
G01 X1053.880 Y75.781 Z-1.076
G01 X1054.468 Y75.853 Z-1.148
G01 X1055.036 Y75.951 Z-1.246
G01 X1055.564 Y76.075 Z-1.370
G01 X1056.041 Y76.215 Z-1.510
G01 X1056.532 Y76.385 Z-1.680
G01 X1057.040 Y76.586 Z-1.881
G01 X1057.567 Y76.821 Z-2.116
G01 X1058.114 Y77.092 Z-2.387
G01 X1058.682 Y77.400 Z-2.695
G01 X1059.689 Y78.008 Z-3.303
G01 X1060.462 Y78.531 Z-3.826
G01 X1061.382 Y79.221 Z-4.516
G01 X1061.686 Y79.461 Z-4.756
G01 X1062.462 Y78.855 Z-4.150
G01 X1063.291 Y78.261 Z-3.556
G01 X1064.239 Y77.658 Z-2.953
G01 X1064.826 Y77.322 Z-2.617
G01 X1065.389 Y77.029 Z-2.324
G01 X1065.929 Y76.774 Z-2.069
G01 X1066.448 Y76.554 Z-1.849
G01 X1066.950 Y76.366 Z-1.661
G01 X1067.437 Y76.207 Z-1.502
G01 X1067.948 Y76.064 Z-1.359
G01 X1068.475 Y75.947 Z-1.242
G01 X1069.016 Y75.856 Z-1.151
G01 X1069.586 Y75.785 Z-1.080
G01 X1070.197 Y75.729 Z-1.024
G01 X1070.857 Y75.687 Z-0.982
G01 X1072.224 Y75.642 Z-0.937
G01 X1073.161 Y74.705 Z0.000
G01 X1072.224 Y75.642 Z-0.937
G01 X1073.161 Y76.563 Z0.000
G01 X1072.224 Y75.642 Z-0.937
G01 X1070.812 Y75.689 Z-0.984
G01 X1070.140 Y75.733 Z-1.028
G01 X1069.511 Y75.793 Z-1.088
G01 X1068.915 Y75.871 Z-1.166
G01 X1068.336 Y75.975 Z-1.270
G01 X1067.798 Y76.102 Z-1.397
G01 X1067.309 Y76.246 Z-1.541
G01 X1066.807 Y76.417 Z-1.712
G01 X1066.290 Y76.618 Z-1.913
G01 X1065.755 Y76.853 Z-2.148
G01 X1065.200 Y77.124 Z-2.419
G01 X1064.623 Y77.435 Z-2.730
G01 X1064.022 Y77.789 Z-3.084
G01 X1063.291 Y78.261 Z-3.556
G01 X1062.462 Y78.855 Z-4.150
G01 X1061.686 Y79.461 Z-4.756
G01 X1061.690 Y80.405 Z-4.587
G01 X1061.694 Y81.293 Z-4.471
G01 X1061.697 Y82.227 Z-4.387
G01 X1061.699 Y83.228 Z-4.329
G01 X1061.701 Y84.294 Z-4.295
G01 X1061.701 Y85.391 Z-4.285
G01 X1061.698 Y105.508 Z-4.288
G01 X1061.667 Y108.785 Z-4.319
G01 X1061.604 Y111.463 Z-4.382
G01 X1061.556 Y112.608 Z-4.430
G01 X1061.493 Y113.664 Z-4.493
G01 X1061.404 Y114.661 Z-4.582
G01 X1061.266 Y115.695 Z-4.720
G01 X1061.091 Y116.673 Z-4.895
G01 X1061.032 Y116.950 Z-4.954
G01 X1064.086 Y121.484 Z-1.900
G01 X1065.986 Y123.385 Z0.000
G01 X1064.086 Y121.484 Z-1.900
G01 X1063.715 Y123.385 Z0.000
G01 X1064.086 Y121.484 Z-1.900
G01 X1061.032 Y116.950 Z-4.954
G01 X1060.091 Y117.300 Z-4.276
G01 X1059.266 Y117.564 Z-3.721
G01 X1058.486 Y117.772 Z-3.236
G01 X1057.755 Y117.923 Z-2.820
G01 X1057.102 Y118.018 Z-2.487
G01 X1056.291 Y118.081 Z-2.123
G01 X1055.512 Y118.082 Z-1.829
G01 X1054.906 Y118.043 Z-1.638
G01 X1054.168 Y117.949 Z-1.447
G01 X1053.656 Y117.858 Z-1.339
G01 X1052.764 Y117.652 Z-1.194
G01 X1051.842 Y117.388 Z-1.093
G01 X1050.788 Y117.033 Z-1.025
G01 X1049.467 Y117.603 Z0.000
G01 X1050.788 Y117.033 Z-1.025
G01 X1050.190 Y115.745 Z0.000
G01 X1050.788 Y117.033 Z-1.025
G01 X1051.887 Y117.402 Z-1.097
G01 X1052.827 Y117.669 Z-1.203
G01 X1053.656 Y117.858 Z-1.339
G01 X1054.484 Y117.995 Z-1.523
G01 X1055.046 Y118.055 Z-1.680
G01 X1055.802 Y118.088 Z-1.933
G01 X1056.532 Y118.069 Z-2.225
G01 X1057.390 Y117.981 Z-2.630
G01 X1058.056 Y117.866 Z-2.986
G01 X1058.813 Y117.690 Z-3.434
G01 X1059.622 Y117.455 Z-3.956
G01 X1060.481 Y117.161 Z-4.552
G01 X1061.032 Y116.950 Z-4.954
G00 Z5.000
G00 X1023.395 Y116.985  F4000.0
G01 Z-4.907 F200.0 M3
G01 X1026.487 Y121.570 Z-1.815 F2000.0
G01 X1028.302 Y123.385 Z0.000
G01 X1026.487 Y121.570 Z-1.815
G01 X1026.134 Y123.385 Z0.000
G01 X1026.487 Y121.570 Z-1.815
G01 X1023.395 Y116.985 Z-4.907
G01 X1022.453 Y117.315 Z-4.248
G01 X1021.604 Y117.568 Z-3.695
G01 X1020.817 Y117.761 Z-3.221
G01 X1020.089 Y117.899 Z-2.820
G01 X1019.195 Y118.011 Z-2.381
G01 X1018.340 Y118.057 Z-2.018
G01 X1017.666 Y118.049 Z-1.773
G01 X1016.891 Y117.987 Z-1.540
G01 X1016.341 Y117.911 Z-1.404
G01 X1015.451 Y117.736 Z-1.233
G01 X1014.500 Y117.493 Z-1.102
G01 X1013.526 Y117.193 Z-1.015
G01 X1013.020 Y117.019 Z-0.986
G01 X1011.834 Y117.603 Z0.000
G01 X1013.020 Y117.019 Z-0.986
G01 X1012.350 Y115.745 Z0.000
G01 X1013.020 Y117.019 Z-0.986
G01 X1014.063 Y117.364 Z-1.057
G01 X1015.037 Y117.636 Z-1.170
G01 X1015.925 Y117.836 Z-1.317
G01 X1016.445 Y117.928 Z-1.428
G01 X1017.209 Y118.019 Z-1.629
G01 X1017.833 Y118.055 Z-1.830
G01 X1018.654 Y118.048 Z-2.144
G01 X1019.447 Y117.986 Z-2.499
G01 X1020.089 Y117.899 Z-2.820
G01 X1020.817 Y117.761 Z-3.221
G01 X1021.604 Y117.568 Z-3.695
G01 X1022.453 Y117.315 Z-4.248
G01 X1023.395 Y116.985 Z-4.907
G01 X1023.612 Y115.945 Z-4.690
G01 X1023.764 Y114.955 Z-4.538
G01 X1023.848 Y114.194 Z-4.454
G01 X1023.904 Y113.423 Z-4.397
G01 X1023.951 Y112.477 Z-4.359
G01 X1024.008 Y111.895 Z-4.379
G01 X1024.113 Y111.247 Z-4.451
G01 X1024.269 Y110.583 Z-4.579
G01 X1024.128 Y109.858 Z-4.416
G01 X1024.083 Y109.519 Z-4.361
G01 X1024.029 Y108.805 Z-4.290
G01 X1024.032 Y107.401 Z-4.269
G01 X1024.043 Y103.665 Z-4.259
G01 X1024.046 Y85.302 Z-4.262
G01 X1024.069 Y83.688 Z-4.299
G01 X1024.109 Y82.476 Z-4.372
G01 X1024.161 Y81.457 Z-4.468
G01 X1024.227 Y80.327 Z-4.633
G01 X1024.266 Y79.510 Z-4.805
G01 X1023.620 Y79.008 Z-4.303
G01 X1022.874 Y78.473 Z-3.768
G01 X1022.162 Y78.002 Z-3.297
G01 X1021.483 Y77.592 Z-2.887
G01 X1020.835 Y77.239 Z-2.534
G01 X1020.217 Y76.939 Z-2.234
G01 X1019.627 Y76.687 Z-1.982
G01 X1019.060 Y76.478 Z-1.773
G01 X1018.511 Y76.307 Z-1.602
G01 X1017.823 Y76.129 Z-1.424
G01 X1017.132 Y75.987 Z-1.282
G01 X1016.423 Y75.873 Z-1.168
G01 X1015.688 Y75.784 Z-1.079
G01 X1014.917 Y75.718 Z-1.012
G01 X1014.104 Y75.671 Z-0.966
G01 X1013.289 Y75.644 Z-0.939
G01 X1012.350 Y76.563 Z0.000
G01 X1013.289 Y75.644 Z-0.939
G01 X1012.350 Y74.705 Z0.000
G01 X1013.289 Y75.644 Z-0.939
G01 X1014.153 Y75.673 Z-0.968
G01 X1014.977 Y75.722 Z-1.017
G01 X1015.762 Y75.792 Z-1.087
G01 X1016.516 Y75.887 Z-1.181
G01 X1017.249 Y76.009 Z-1.304
G01 X1017.973 Y76.164 Z-1.459
G01 X1018.679 Y76.356 Z-1.651
G01 X1019.245 Y76.543 Z-1.838
G01 X1019.831 Y76.770 Z-2.065
G01 X1020.441 Y77.043 Z-2.338
G01 X1021.078 Y77.367 Z-2.662
G01 X1021.742 Y77.744 Z-3.039
G01 X1022.436 Y78.179 Z-3.474
G01 X1023.161 Y78.674 Z-3.969
G01 X1024.032 Y79.323 Z-4.618
G01 X1024.266 Y79.510 Z-4.805
G01 X1025.340 Y78.748 Z-4.043
G01 X1026.231 Y78.171 Z-3.466
G01 X1026.903 Y77.778 Z-3.073
G01 X1027.540 Y77.443 Z-2.738
G01 X1028.149 Y77.155 Z-2.450
G01 X1028.735 Y76.906 Z-2.201
G01 X1029.306 Y76.689 Z-1.984
G01 X1029.868 Y76.498 Z-1.793
G01 X1030.427 Y76.330 Z-1.625
G01 X1031.017 Y76.172 Z-1.467
G01 X1031.634 Y76.033 Z-1.328
G01 X1032.259 Y75.920 Z-1.215
G01 X1032.902 Y75.829 Z-1.124
G01 X1033.569 Y75.757 Z-1.052
G01 X1034.266 Y75.702 Z-0.997
G01 X1034.997 Y75.664 Z-0.959
G01 X1035.621 Y75.646 Z-0.941
G01 X1036.561 Y74.705 Z0.000
G01 X1035.621 Y75.646 Z-0.941
G01 X1036.561 Y76.563 Z0.000
G01 X1035.621 Y75.646 Z-0.941
G01 X1034.953 Y75.666 Z-0.961
G01 X1034.214 Y75.706 Z-1.001
G01 X1033.506 Y75.763 Z-1.058
G01 X1032.825 Y75.839 Z-1.134
G01 X1032.165 Y75.936 Z-1.231
G01 X1031.516 Y76.058 Z-1.353
G01 X1030.902 Y76.201 Z-1.496
G01 X1030.323 Y76.360 Z-1.655
G01 X1029.744 Y76.539 Z-1.834
G01 X1029.157 Y76.743 Z-2.038
G01 X1028.558 Y76.978 Z-2.273
G01 X1027.939 Y77.250 Z-2.545
G01 X1027.295 Y77.568 Z-2.863
G01 X1026.619 Y77.940 Z-3.235
G01 X1025.921 Y78.366 Z-3.661
G01 X1024.995 Y78.985 Z-4.280
G01 X1024.266 Y79.510 Z-4.805
G01 X1024.212 Y80.545 Z-4.594
G01 X1024.147 Y81.743 Z-4.436
G01 X1024.101 Y82.679 Z-4.357
G01 X1024.069 Y83.688 Z-4.299
G01 X1024.046 Y85.339 Z-4.262
G01 X1024.043 Y103.689 Z-4.259
G01 X1024.024 Y108.414 Z-4.278
G01 X1024.041 Y109.038 Z-4.306
G01 X1024.083 Y109.519 Z-4.361
G01 X1024.176 Y110.136 Z-4.471
G01 X1024.269 Y110.583 Z-4.579
G01 X1024.842 Y110.594 Z-4.077
G01 X1025.426 Y110.626 Z-3.575
G01 X1026.331 Y110.729 Z-2.823
G01 X1026.755 Y110.806 Z-2.485
G01 X1027.112 Y110.885 Z-2.213
G01 X1027.679 Y111.058 Z-1.804
G01 X1028.091 Y111.234 Z-1.532
G01 X1028.360 Y111.381 Z-1.370
G01 X1028.663 Y111.588 Z-1.218
G01 X1028.851 Y111.750 Z-1.142
G01 X1029.048 Y111.964 Z-1.085
G01 X1029.248 Y112.256 Z-1.067
G01 X1030.002 Y113.466 Z-1.115
G01 X1030.444 Y114.125 Z-1.144
G01 X1031.038 Y114.953 Z-1.199
G01 X1031.633 Y115.716 Z-1.267
G01 X1032.449 Y116.649 Z-1.378
G01 X1032.821 Y117.022 Z-1.439
G01 X1033.220 Y117.386 Z-1.527
G01 X1033.717 Y117.773 Z-1.649
G01 X1034.280 Y118.140 Z-1.825
G01 X1034.745 Y118.385 Z-1.990
G01 X1035.047 Y118.526 Z-2.111
G01 X1035.631 Y118.736 Z-2.359
G01 X1036.037 Y118.851 Z-2.543
G01 X1036.768 Y119.002 Z-2.890
G01 X1037.525 Y119.092 Z-3.259
G01 X1038.351 Y119.124 Z-3.661
G01 X1039.195 Y119.080 Z-4.054
G01 X1039.833 Y118.987 Z-4.326
G01 X1040.335 Y118.864 Z-4.516
G01 X1040.805 Y118.704 Z-4.665
G01 X1041.341 Y118.469 Z-4.804
G01 X1041.649 Y118.287 Z-4.844
G01 X1041.849 Y118.138 Z-4.843
G01 X1042.148 Y117.887 Z-4.795
G01 X1042.297 Y117.729 Z-4.733
G01 X1042.449 Y117.475 Z-4.569
G01 X1042.542 Y117.092 Z-4.231
G01 X1042.573 Y117.010 Z-4.145
G01 X1042.516 Y117.201 Z-4.333
G01 X1042.433 Y117.506 Z-4.592
G01 X1042.281 Y117.755 Z-4.748
G01 X1042.289 Y117.757 Z-4.739
G01 X1042.281 Y117.755 Z-4.748
G01 X1042.038 Y117.982 Z-4.818
G01 X1041.703 Y118.249 Z-4.847
G01 X1041.413 Y118.431 Z-4.817
G01 X1041.060 Y118.600 Z-4.737
G01 X1040.457 Y118.827 Z-4.556
G01 X1039.930 Y118.967 Z-4.364
G01 X1039.428 Y119.052 Z-4.158
G01 X1038.877 Y119.106 Z-3.909
G01 X1038.017 Y119.120 Z-3.500
G01 X1037.206 Y119.062 Z-3.103
G01 X1036.405 Y118.936 Z-2.716
G01 X1035.966 Y118.835 Z-2.510
G01 X1035.329 Y118.634 Z-2.228
G01 X1034.973 Y118.492 Z-2.081
G01 X1034.505 Y118.263 Z-1.901
G01 X1034.089 Y118.027 Z-1.764
G01 X1033.717 Y117.773 Z-1.649
G01 X1033.220 Y117.386 Z-1.527
G01 X1032.748 Y116.951 Z-1.425
G01 X1032.205 Y116.380 Z-1.341
G01 X1031.574 Y115.646 Z-1.260
G01 X1030.998 Y114.899 Z-1.195
G01 X1030.413 Y114.079 Z-1.142
G01 X1029.823 Y113.188 Z-1.099
G01 X1029.212 Y112.197 Z-1.066
G01 X1029.048 Y111.964 Z-1.085
G01 X1028.851 Y111.750 Z-1.142
G01 X1028.663 Y111.588 Z-1.218
G01 X1028.316 Y111.355 Z-1.395
G01 X1027.880 Y111.137 Z-1.668
G01 X1027.484 Y110.991 Z-1.940
G01 X1027.112 Y110.885 Z-2.213
G01 X1026.643 Y110.784 Z-2.572
G01 X1026.024 Y110.686 Z-3.074
G01 X1025.426 Y110.626 Z-3.575
G01 X1024.842 Y110.594 Z-4.077
G01 X1024.269 Y110.583 Z-4.579
G01 X1024.113 Y111.247 Z-4.451
G01 X1024.008 Y111.895 Z-4.379
G01 X1023.946 Y112.568 Z-4.359
G01 X1023.887 Y113.690 Z-4.414
G01 X1023.811 Y114.563 Z-4.491
G01 X1023.668 Y115.615 Z-4.634
G01 X1023.466 Y116.674 Z-4.836
G01 X1023.395 Y116.985 Z-4.907
G00 Z5.000
G00 X968.999 Y80.168  F4000.0
G01 Z-5.463 F200.0 M3
G01 X967.903 Y79.305 Z-4.600 F2000.0
G01 X966.926 Y78.599 Z-3.894
G01 X966.078 Y78.047 Z-3.342
G01 X965.218 Y77.559 Z-2.854
G01 X964.361 Y77.151 Z-2.446
G01 X963.416 Y76.765 Z-2.060
G01 X962.755 Y76.534 Z-1.829
G01 X961.839 Y76.264 Z-1.559
G01 X961.240 Y76.119 Z-1.414
G01 X960.313 Y75.940 Z-1.235
G01 X959.287 Y75.800 Z-1.094
G01 X958.188 Y75.707 Z-1.002
G01 X957.097 Y75.665 Z-0.960
G01 X955.024 Y75.660 Z-0.955
G01 X954.069 Y76.615 Z0.000
G01 X955.024 Y75.660 Z-0.955
G01 X954.069 Y74.705 Z0.000
G01 X955.024 Y75.660 Z-0.955
G01 X957.135 Y75.666 Z-0.961
G01 X958.233 Y75.710 Z-1.005
G01 X959.287 Y75.800 Z-1.094
G01 X960.313 Y75.940 Z-1.235
G01 X961.240 Y76.119 Z-1.414
G01 X961.839 Y76.264 Z-1.559
G01 X962.755 Y76.534 Z-1.829
G01 X963.416 Y76.765 Z-2.060
G01 X964.361 Y77.151 Z-2.446
G01 X965.218 Y77.559 Z-2.854
G01 X966.078 Y78.047 Z-3.342
G01 X966.926 Y78.599 Z-3.894
G01 X967.903 Y79.305 Z-4.600
G01 X968.999 Y80.168 Z-5.463
G01 X969.846 Y79.488 Z-4.783
G01 X970.770 Y78.803 Z-4.098
G01 X971.585 Y78.262 Z-3.557
G01 X972.299 Y77.844 Z-3.139
G01 X972.969 Y77.497 Z-2.792
G01 X973.813 Y77.117 Z-2.412
G01 X974.383 Y76.895 Z-2.190
G01 X974.943 Y76.701 Z-1.996
G01 X975.498 Y76.529 Z-1.824
G01 X976.079 Y76.370 Z-1.665
G01 X976.809 Y76.196 Z-1.491
G01 X977.522 Y76.049 Z-1.344
G01 X978.221 Y75.927 Z-1.222
G01 X978.908 Y75.829 Z-1.124
G01 X979.588 Y75.754 Z-1.049
G01 X980.263 Y75.701 Z-0.996
G01 X980.937 Y75.670 Z-0.965
G01 X983.158 Y75.660 Z-0.955
G01 X984.113 Y74.705 Z0.000
G01 X983.158 Y75.660 Z-0.955
G01 X984.113 Y76.615 Z0.000
G01 X983.158 Y75.660 Z-0.955
G01 X980.937 Y75.670 Z-0.965
G01 X980.199 Y75.705 Z-1.000
G01 X979.520 Y75.760 Z-1.055
G01 X978.836 Y75.838 Z-1.133
G01 X978.144 Y75.939 Z-1.234
G01 X977.439 Y76.065 Z-1.360
G01 X976.720 Y76.216 Z-1.511
G01 X975.959 Y76.401 Z-1.696
G01 X975.380 Y76.564 Z-1.859
G01 X974.799 Y76.748 Z-2.043
G01 X974.209 Y76.960 Z-2.255
G01 X973.602 Y77.206 Z-2.501
G01 X972.969 Y77.497 Z-2.792
G01 X972.299 Y77.844 Z-3.139
G01 X971.585 Y78.262 Z-3.557
G01 X970.770 Y78.803 Z-4.098
G01 X969.846 Y79.488 Z-4.783
G01 X968.999 Y80.168 Z-5.463
G01 X969.009 Y81.293 Z-5.278
G01 X969.022 Y82.616 Z-5.130
G01 X969.032 Y84.021 Z-5.031
G01 X969.036 Y85.781 Z-4.969
G01 X969.039 Y87.094 Z-4.956
G01 X969.039 Y109.086 
G01 X969.068 Y109.843 Z-4.985
G01 X969.155 Y110.600 Z-5.072
G01 X969.271 Y111.228 Z-5.187
G01 X970.563 Y111.228 Z-4.045
G01 X971.506 Y111.228 Z-3.284
G01 X972.035 Y111.228 Z-2.904
G01 X972.662 Y111.228 Z-2.523
G01 X973.072 Y111.228 Z-2.333
G01 X973.349 Y111.228 Z-2.237
G01 X973.675 Y111.228 Z-2.166
G01 X973.995 Y111.228 Z-2.142
G01 X987.379 Y111.227 Z-2.153
G01 X988.615 Y111.237 Z-2.222
G01 X989.688 Y111.247 Z-2.352
G01 X990.334 Y111.258 Z-2.465
G01 X991.259 Y111.271 Z-2.680
G01 X992.047 Y111.285 Z-2.916
G01 X993.003 Y111.296 Z-3.274
G01 X993.895 Y111.304 Z-3.678
G01 X994.041 Y111.304 Z-3.752
G01 X994.402 Y110.663 Z-3.391
G01 X994.781 Y109.929 Z-3.012
G01 X995.112 Y109.222 Z-2.681
G01 X995.401 Y108.539 Z-2.392
G01 X995.653 Y107.875 Z-2.140
G01 X995.872 Y107.225 Z-1.921
G01 X996.063 Y106.585 Z-1.730
G01 X996.237 Y105.919 Z-1.556
G01 X996.386 Y105.227 Z-1.407
G01 X996.508 Y104.514 Z-1.285
G01 X996.607 Y103.767 Z-1.186
G01 X996.686 Y102.978 Z-1.106
G01 X996.749 Y102.138 Z-1.044
G01 X996.794 Y101.243 Z-0.999
G01 X996.824 Y100.246 Z-0.968
G01 X995.883 Y99.277 Z0.000
G01 X996.824 Y100.246 Z-0.968
G01 X997.793 Y99.277 Z0.000
G01 X996.824 Y100.246 Z-0.968
G01 X996.792 Y101.283 Z-1.000
G01 X996.745 Y102.186 Z-1.047
G01 X996.681 Y103.038 Z-1.112
G01 X996.598 Y103.844 Z-1.195
G01 X996.493 Y104.612 Z-1.300
G01 X996.361 Y105.356 Z-1.432
G01 X996.204 Y106.052 Z-1.588
G01 X996.029 Y106.705 Z-1.764
G01 X995.827 Y107.365 Z-1.966
G01 X995.594 Y108.036 Z-2.199
G01 X995.325 Y108.724 Z-2.467
G01 X995.017 Y109.432 Z-2.776
G01 X994.662 Y110.166 Z-3.130
G01 X994.257 Y110.928 Z-3.536
G01 X994.041 Y111.304 Z-3.752
G01 X994.484 Y112.115 Z-3.308
G01 X994.857 Y112.876 Z-2.935
G01 X995.247 Y113.789 Z-2.545
G01 X995.511 Y114.514 Z-2.282
G01 X995.796 Y115.448 Z-1.996
G01 X995.962 Y116.088 Z-1.831
G01 X996.193 Y117.163 Z-1.600
G01 X996.385 Y118.289 Z-1.408
G01 X996.546 Y119.486 Z-1.247
G01 X996.680 Y120.768 Z-1.113
G01 X996.772 Y121.951 Z-1.020
G01 X997.793 Y122.972 Z0.000
G01 X996.772 Y121.951 Z-1.020
G01 X995.883 Y122.972 Z0.000
G01 X996.772 Y121.951 Z-1.020
G01 X996.677 Y120.740 Z-1.116
G01 X996.541 Y119.449 Z-1.251
G01 X996.377 Y118.238 Z-1.416
G01 X996.179 Y117.093 Z-1.614
G01 X995.938 Y115.992 Z-1.855
G01 X995.679 Y115.040 Z-2.114
G01 X995.456 Y114.353 Z-2.337
G01 X995.102 Y113.431 Z-2.691
G01 X994.765 Y112.680 Z-3.027
G01 X994.292 Y111.752 Z-3.501
G01 X994.041 Y111.304 Z-3.752
G01 X993.209 Y111.296 Z-3.363
G01 X992.403 Y111.287 Z-3.042
G01 X991.811 Y111.281 Z-2.839
G01 X990.999 Y111.269 Z-2.613
G01 X990.150 Y111.254 Z-2.429
G01 X989.122 Y111.240 Z-2.276
G01 X988.474 Y111.235 Z-2.210
G01 X987.315 Y111.227 Z-2.151
G01 X973.995 Y111.228 Z-2.142
G01 X973.541 Y111.228 Z-2.190
G01 X973.349 Y111.228 Z-2.237
G01 X973.072 Y111.228 Z-2.333
G01 X972.662 Y111.228 Z-2.523
G01 X972.035 Y111.228 Z-2.904
G01 X971.506 Y111.228 Z-3.284
G01 X970.563 Y111.228 Z-4.045
G01 X969.271 Y111.228 Z-5.187
G01 X969.155 Y111.855 Z-5.072
G01 X969.068 Y112.613 Z-4.985
G01 X969.039 Y113.370 Z-4.956
G01 X969.033 Y133.723 Z-4.962
G01 X968.989 Y136.046 Z-5.006
G01 X968.939 Y137.307 Z-5.056
G01 X968.875 Y138.374 Z-5.120
G01 X968.777 Y139.487 Z-5.218
G01 X970.422 Y141.124 Z-3.581
G01 X970.975 Y141.601 Z-3.104
G01 X971.294 Y141.840 Z-2.865
G01 X971.656 Y142.079 Z-2.626
G01 X972.085 Y142.317 Z-2.388
G01 X972.341 Y142.437 Z-2.268
G01 X972.825 Y142.616 Z-2.089
G01 X973.040 Y142.676 Z-2.029
G01 X973.517 Y142.765 Z-1.940
G01 X973.995 Y142.795 Z-1.910
G01 X989.453 Y142.795 Z-1.910
G01 X990.828 Y142.786 Z-1.919
G01 X992.124 Y142.760 Z-1.945
G01 X993.343 Y142.717 Z-1.988
G01 X994.491 Y142.655 Z-2.050
G01 X995.574 Y142.572 Z-2.133
G01 X996.603 Y142.467 Z-2.238
G01 X997.590 Y142.334 Z-2.371
G01 X998.519 Y142.174 Z-2.531
G01 X999.397 Y141.988 Z-2.717
G01 X1000.286 Y141.767 Z-2.938
G01 X1001.191 Y141.510 Z-3.195
G01 X1002.114 Y141.212 Z-3.493
G01 X1002.635 Y141.027 Z-3.678
G01 X1003.147 Y139.942 Z-3.214
G01 X1003.602 Y138.865 Z-2.806
G01 X1003.939 Y137.978 Z-2.508
G01 X1004.247 Y137.074 Z-2.239
G01 X1004.528 Y136.145 Z-1.999
G01 X1004.788 Y135.181 Z-1.782
G01 X1005.032 Y134.171 Z-1.581
G01 X1005.264 Y133.108 Z-1.396
G01 X1005.486 Y131.986 Z-1.223
G01 X1005.776 Y130.327 Z-1.006
G01 X1005.020 Y129.322 Z0.000
G01 X1005.776 Y130.327 Z-1.006
G01 X1006.827 Y129.322 Z0.000
G01 X1005.776 Y130.327 Z-1.006
G01 X1005.478 Y132.029 Z-1.230
G01 X1005.253 Y133.163 Z-1.405
G01 X1005.016 Y134.243 Z-1.595
G01 X1004.764 Y135.275 Z-1.802
G01 X1004.492 Y136.268 Z-2.029
G01 X1004.195 Y137.234 Z-2.284
G01 X1003.874 Y138.156 Z-2.565
G01 X1003.530 Y139.043 Z-2.870
G01 X1003.147 Y139.942 Z-3.214
G01 X1002.635 Y141.027 Z-3.678
G01 X1006.156 Y144.705 Z0.000
G01 X1002.635 Y141.027 Z-3.678
G01 X1001.878 Y141.292 Z-3.413
G01 X1000.974 Y141.575 Z-3.130
G01 X1000.087 Y141.820 Z-2.885
G01 X999.215 Y142.029 Z-2.676
G01 X998.328 Y142.210 Z-2.495
G01 X997.417 Y142.360 Z-2.345
G01 X996.468 Y142.482 Z-2.223
G01 X995.467 Y142.582 Z-2.123
G01 X994.403 Y142.660 Z-2.045
G01 X993.271 Y142.720 Z-1.985
G01 X992.063 Y142.762 Z-1.943
G01 X990.777 Y142.787 Z-1.918
G01 X989.430 Y142.795 Z-1.910
G01 X973.995 Y142.795 
G01 X973.517 Y142.765 Z-1.940
G01 X973.040 Y142.676 Z-2.029
G01 X972.644 Y142.556 Z-2.149
G01 X972.341 Y142.437 Z-2.268
G01 X971.859 Y142.198 Z-2.507
G01 X971.656 Y142.079 Z-2.626
G01 X971.294 Y141.840 Z-2.865
G01 X970.975 Y141.601 Z-3.104
G01 X970.422 Y141.124 Z-3.581
G01 X968.777 Y139.487 Z-5.218
G01 X967.816 Y140.239 Z-4.466
G01 X967.309 Y140.607 Z-4.098
G01 X966.501 Y141.143 Z-3.562
G01 X965.801 Y141.556 Z-3.149
G01 X964.893 Y142.021 Z-2.684
G01 X964.309 Y142.281 Z-2.424
G01 X963.745 Y142.505 Z-2.200
G01 X963.193 Y142.701 Z-2.005
G01 X962.645 Y142.874 Z-1.831
G01 X962.064 Y143.037 Z-1.668
G01 X961.339 Y143.212 Z-1.493
G01 X960.631 Y143.360 Z-1.345
G01 X959.934 Y143.483 Z-1.222
G01 X959.247 Y143.581 Z-1.124
G01 X958.565 Y143.656 Z-1.049
G01 X957.885 Y143.709 Z-0.996
G01 X957.204 Y143.740 Z-0.965
G01 X955.024 Y143.750 Z-0.955
G01 X954.069 Y144.705 Z0.000
G01 X955.024 Y143.750 Z-0.955
G01 X954.069 Y142.795 Z0.000
G01 X955.024 Y143.750 Z-0.955
G01 X957.204 Y143.740 Z-0.965
G01 X957.949 Y143.705 Z-1.000
G01 X958.633 Y143.650 Z-1.055
G01 X959.320 Y143.572 Z-1.133
G01 X960.014 Y143.470 Z-1.235
G01 X960.717 Y143.343 Z-1.362
G01 X961.433 Y143.191 Z-1.514
G01 X962.194 Y143.002 Z-1.703
G01 X962.763 Y142.838 Z-1.867
G01 X963.336 Y142.652 Z-2.053
G01 X963.918 Y142.439 Z-2.266
G01 X964.517 Y142.191 Z-2.514
G01 X965.142 Y141.901 Z-2.804
G01 X965.801 Y141.556 Z-3.149
G01 X966.501 Y141.143 Z-3.562
G01 X967.309 Y140.607 Z-4.098
G01 X968.232 Y139.922 Z-4.783
G01 X968.777 Y139.487 Z-5.218
G01 X968.891 Y138.133 Z-5.104
G01 X968.947 Y137.125 Z-5.047
G01 X969.015 Y134.997 Z-4.980
G01 X969.039 Y132.316 Z-4.956
G01 X969.039 Y113.370 
G01 X969.068 Y112.613 Z-4.985
G01 X969.155 Y111.855 Z-5.072
G01 X969.271 Y111.228 Z-5.187
G01 X969.155 Y110.600 Z-5.072
G01 X969.068 Y109.843 Z-4.985
G01 X969.039 Y109.086 Z-4.956
G01 X969.039 Y87.031 Z-4.956
G01 X969.037 Y85.380 Z-4.978
G01 X969.031 Y83.834 Z-5.041
G01 X969.017 Y82.276 Z-5.161
G01 X969.007 Y81.004 Z-5.319
G01 X968.999 Y80.168 Z-5.463
G00 Z5.000
G00 X878.143 Y122.219  F4000.0
G01 Z-4.663 F200.0 M3
G01 X878.356 Y121.718 Z-4.479 F2000.0
G01 X878.503 Y121.371 Z-4.388
G01 X878.678 Y120.959 Z-4.319
G01 X878.851 Y120.549 Z-4.296
G01 X878.851 Y120.046 Z-4.125
G01 X878.851 Y119.454 Z-3.997
G01 X878.851 Y118.872 Z-3.955
G01 X878.852 Y90.324 Z-3.955
G01 X878.866 Y89.133 Z-3.966
G01 X878.916 Y87.993 Z-3.991
G01 X879.014 Y86.895 Z-4.024
G01 X879.176 Y85.797 Z-4.068
G01 X879.385 Y84.871 Z-4.103
G01 X879.572 Y84.267 Z-4.125
G01 X879.743 Y83.852 Z-4.122
G01 X880.001 Y83.361 Z-4.100
G01 X880.321 Y82.892 Z-4.050
G01 X880.557 Y82.611 Z-4.003
G01 X880.993 Y82.192 Z-3.903
G01 X881.567 Y81.751 Z-3.768
G01 X881.887 Y81.545 Z-3.690
G01 X882.428 Y81.250 Z-3.553
G01 X883.020 Y81.010 Z-3.398
G01 X883.592 Y80.844 Z-3.237
G01 X884.128 Y80.736 Z-3.081
G01 X884.742 Y80.674 Z-2.905
G01 X885.295 Y80.666 Z-2.748
G01 X885.855 Y80.700 Z-2.584
G01 X886.582 Y80.808 Z-2.378
G01 X887.363 Y81.003 Z-2.163
G01 X887.801 Y81.147 Z-2.043
G01 X888.520 Y81.439 Z-1.858
G01 X889.181 Y81.777 Z-1.691
G01 X889.741 Y82.124 Z-1.554
G01 X890.372 Y82.592 Z-1.405
G01 X890.973 Y83.120 Z-1.260
G01 X891.416 Y83.574 Z-1.162
G01 X891.744 Y83.954 Z-1.093
G01 X892.058 Y84.361 Z-1.032
G01 X892.356 Y84.794 Z-0.981
G01 X892.638 Y85.254 Z-0.939
G01 X892.902 Y85.739 Z-0.908
G01 X893.104 Y86.154 Z-0.889
G01 X894.406 Y87.043 Z0.000
G01 X893.104 Y86.154 Z-0.889
G01 X892.537 Y87.043 Z0.000
G01 X893.104 Y86.154 Z-0.889
G01 X892.859 Y85.656 Z-0.912
G01 X892.592 Y85.177 Z-0.944
G01 X892.304 Y84.716 Z-0.988
G01 X891.993 Y84.273 Z-1.043
G01 X891.656 Y83.848 Z-1.109
G01 X891.291 Y83.440 Z-1.187
G01 X890.727 Y82.894 Z-1.320
G01 X890.086 Y82.369 Z-1.471
G01 X889.645 Y82.059 Z-1.579
G01 X889.181 Y81.777 Z-1.691
G01 X888.520 Y81.439 Z-1.858
G01 X887.801 Y81.147 Z-2.043
G01 X887.057 Y80.918 Z-2.245
G01 X886.322 Y80.761 Z-2.451
G01 X885.613 Y80.678 Z-2.653
G01 X884.989 Y80.663 Z-2.833
G01 X884.290 Y80.716 Z-3.036
G01 X883.857 Y80.786 Z-3.161
G01 X883.353 Y80.903 Z-3.302
G01 X882.720 Y81.123 Z-3.479
G01 X882.294 Y81.319 Z-3.588
G01 X881.855 Y81.563 Z-3.698
G01 X881.276 Y81.966 Z-3.839
G01 X880.891 Y82.284 Z-3.927
G01 X880.488 Y82.691 Z-4.018
G01 X880.147 Y83.131 Z-4.080
G01 X879.870 Y83.594 Z-4.114
G01 X879.648 Y84.073 Z-4.124
G01 X879.444 Y84.659 Z-4.114
G01 X879.308 Y85.170 Z-4.094
G01 X879.120 Y86.127 Z-4.052
G01 X878.987 Y87.141 Z-4.016
G01 X878.897 Y88.311 Z-3.986
G01 X878.861 Y89.371 Z-3.964
G01 X878.851 Y90.398 Z-3.955
G01 X878.851 Y118.872 
G01 X878.851 Y119.454 Z-3.997
G01 X878.851 Y120.046 Z-4.125
G01 X878.851 Y120.549 Z-4.296
G01 X879.574 Y120.549 Z-3.641
G01 X880.335 Y120.549 Z-2.987
G01 X880.742 Y120.549 Z-2.660
G01 X881.432 Y120.549 Z-2.169
G01 X881.866 Y120.549 Z-1.923
G01 X882.276 Y120.549 Z-1.760
G01 X882.543 Y120.549 Z-1.698
G01 X882.806 Y120.549 Z-1.678
G01 X891.386 Y120.549 
G01 X893.064 Y118.872 Z0.000
G01 X891.386 Y120.549 Z-1.678
G01 X893.064 Y122.227 Z0.000
G01 X891.386 Y120.549 Z-1.678
G01 X882.806 Y120.549 
G01 X882.433 Y120.549 Z-1.719
G01 X882.047 Y120.549 Z-1.841
G01 X881.708 Y120.549 Z-2.005
G01 X881.186 Y120.549 Z-2.332
G01 X880.742 Y120.549 Z-2.660
G01 X880.335 Y120.549 Z-2.987
G01 X879.574 Y120.549 Z-3.641
G01 X878.851 Y120.549 Z-4.296
G01 X878.605 Y121.129 Z-4.342
G01 X878.503 Y121.371 Z-4.388
G01 X878.356 Y121.718 Z-4.479
G01 X878.143 Y122.219 Z-4.663
G01 X878.556 Y123.286 Z-4.250
G01 X878.958 Y124.380 Z-3.848
G01 X879.336 Y125.468 Z-3.470
G01 X879.694 Y126.553 Z-3.112
G01 X880.032 Y127.638 Z-2.774
G01 X880.367 Y128.776 Z-2.439
G01 X880.723 Y130.166 Z-2.083
G01 X881.116 Y131.885 Z-1.690
G01 X881.551 Y133.941 Z-1.256
G01 X881.915 Y135.764 Z-0.891
G01 X882.806 Y136.656 Z0.000
G01 X881.915 Y135.764 Z-0.891
G01 X881.320 Y136.656 Z0.000
G01 X881.915 Y135.764 Z-0.891
G01 X881.545 Y133.913 Z-1.261
G01 X881.107 Y131.845 Z-1.699
G01 X880.710 Y130.111 Z-2.096
G01 X880.331 Y128.648 Z-2.475
G01 X880.006 Y127.550 Z-2.800
G01 X879.661 Y126.451 Z-3.145
G01 X879.297 Y125.351 Z-3.509
G01 X878.910 Y124.247 Z-3.896
G01 X878.500 Y123.137 Z-4.307
G01 X878.143 Y122.219 Z-4.663
G01 X877.270 Y122.175 Z-4.067
G01 X876.474 Y122.076 Z-3.571
G01 X875.969 Y121.983 Z-3.291
G01 X875.409 Y121.839 Z-3.011
G01 X874.897 Y121.669 Z-2.797
G01 X873.308 Y121.090 Z-2.218
G01 X872.375 Y120.777 Z-1.906
G01 X871.479 Y120.498 Z-1.626
G01 X870.619 Y120.250 Z-1.378
G01 X869.791 Y120.033 Z-1.162
G01 X868.901 Y119.827 Z-0.955
G01 X867.946 Y120.454 Z0.000
G01 X868.901 Y119.827 Z-0.955
G01 X867.946 Y118.872 Z0.000
G01 X868.901 Y119.827 Z-0.955
G01 X869.851 Y120.048 Z-1.176
G01 X870.685 Y120.268 Z-1.397
G01 X871.552 Y120.520 Z-1.648
G01 X872.455 Y120.803 Z-1.932
G01 X873.394 Y121.120 Z-2.248
G01 X874.897 Y121.669 Z-2.797
G01 X875.409 Y121.839 Z-3.011
G01 X875.969 Y121.983 Z-3.291
G01 X876.634 Y122.100 Z-3.666
G01 X877.270 Y122.175 Z-4.067
G01 X878.143 Y122.219 Z-4.663
G00 Z5.000
G00 X828.646 Y106.445  F4000.0
G01 Z-4.217 F200.0 M3
G01 X828.755 Y105.565 Z-4.202 F2000.0
G01 X828.934 Y104.598 Z-4.160
G01 X829.192 Y103.592 Z-4.085
G01 X829.469 Y102.752 Z-3.993
G01 X829.832 Y101.842 Z-3.872
G01 X830.213 Y101.041 Z-3.740
G01 X830.711 Y100.160 Z-3.569
G01 X831.148 Y99.491 Z-3.416
G01 X831.678 Y98.783 Z-3.232
G01 X832.241 Y98.120 Z-3.041
G01 X832.832 Y97.503 Z-2.846
G01 X833.454 Y96.924 Z-2.649
G01 X834.068 Y96.397 Z-2.472
G01 X834.424 Y96.045 Z-2.422
G01 X834.637 Y95.805 Z-2.424
G01 X834.412 Y95.225 Z-1.921
G01 X834.210 Y94.704 Z-1.543
G01 X834.123 Y94.479 Z-1.417
G01 X834.002 Y94.207 Z-1.294
G01 X833.913 Y94.046 Z-1.232
G01 X833.761 Y93.819 Z-1.164
G01 X833.629 Y93.656 Z-1.135
G01 X833.443 Y93.470 Z-1.127
G01 X832.826 Y92.905 Z-1.158
G01 X831.984 Y92.076 Z-1.235
G01 X831.313 Y91.339 Z-1.341
G01 X830.714 Y90.582 Z-1.490
G01 X830.182 Y89.817 Z-1.670
G01 X829.800 Y89.189 Z-1.843
G01 X829.455 Y88.520 Z-2.055
G01 X829.241 Y88.011 Z-2.229
G01 X829.083 Y87.557 Z-2.402
G01 X828.930 Y86.975 Z-2.640
G01 X828.847 Y86.457 Z-2.859
G01 X828.805 Y85.856 Z-3.120
G01 X828.812 Y85.232 Z-3.405
G01 X828.874 Y84.597 Z-3.701
G01 X828.955 Y84.185 Z-3.888
G01 X829.001 Y84.030 Z-3.952
G01 X828.865 Y83.990 Z-3.815
G01 X829.001 Y84.030 Z-3.952
G01 X829.319 Y83.690 Z-3.944
G01 X829.743 Y83.314 Z-3.923
G01 X830.276 Y82.908 Z-3.910
G01 X830.991 Y82.456 Z-3.927
G01 X831.462 Y82.195 Z-3.953
G01 X831.294 Y81.107 Z-2.943
G01 X831.220 Y80.599 Z-2.496
G01 X831.140 Y80.051 Z-2.049
G01 X831.096 Y79.746 Z-1.826
G01 X831.013 Y79.209 Z-1.503
G01 X830.901 Y78.790 Z-1.306
G01 X830.779 Y78.494 Z-1.199
G01 X830.627 Y78.221 Z-1.136
G01 X830.405 Y77.932 Z-1.116
G01 X829.292 Y76.656 Z-1.191
G01 X828.371 Y75.530 Z-1.302
G01 X827.537 Y74.433 Z-1.456
G01 X827.150 Y73.887 Z-1.552
G01 X826.785 Y73.340 Z-1.659
G01 X826.438 Y72.788 Z-1.782
G01 X826.118 Y72.224 Z-1.912
G01 X825.753 Y71.472 Z-2.092
G01 X825.386 Y70.602 Z-2.328
G01 X825.102 Y69.784 Z-2.581
G01 X824.886 Y68.987 Z-2.857
G01 X824.734 Y68.188 Z-3.161
G01 X824.651 Y67.435 Z-3.466
G01 X824.635 Y66.935 Z-3.667
G01 X824.667 Y66.503 Z-3.821
G01 X824.711 Y66.298 Z-3.879
G01 X824.872 Y66.013 Z-3.877
G01 X825.229 Y65.536 Z-3.833
G01 X825.679 Y65.048 Z-3.768
G01 X826.325 Y64.458 Z-3.679
G01 X827.071 Y63.884 Z-3.594
G01 X827.773 Y63.413 Z-3.530
G01 X828.714 Y62.866 Z-3.463
G01 X829.504 Y62.463 Z-3.416
G01 X830.318 Y62.094 Z-3.373
G01 X831.157 Y61.758 Z-3.332
G01 X832.362 Y61.344 Z-3.281
G01 X833.226 Y61.092 Z-3.244
G01 X834.117 Y60.868 Z-3.207
G01 X835.036 Y60.671 Z-3.170
G01 X835.982 Y60.501 Z-3.132
G01 X836.957 Y60.359 Z-3.093
G01 X837.959 Y60.243 Z-3.052
G01 X838.990 Y60.156 Z-3.009
G01 X840.042 Y60.096 Z-2.964
G01 X841.425 Y60.060 Z-2.903
G01 X843.169 Y60.083 Z-2.812
G01 X844.345 Y60.140 Z-2.744
G01 X845.468 Y60.226 Z-2.671
G01 X846.600 Y60.350 Z-2.588
G01 X847.818 Y60.529 Z-2.490
G01 X849.008 Y60.751 Z-2.384
G01 X850.174 Y61.019 Z-2.271
G01 X851.455 Y61.378 Z-2.138
G01 X852.433 Y61.703 Z-2.036
G01 X853.527 Y62.127 Z-1.918
G01 X854.636 Y62.627 Z-1.798
G01 X855.636 Y63.154 Z-1.698
G01 X856.145 Y63.451 Z-1.649
G01 X856.775 Y63.854 Z-1.593
G01 X857.614 Y64.455 Z-1.536
G01 X858.487 Y65.165 Z-1.487
G01 X859.138 Y65.755 Z-1.459
G01 X859.879 Y66.500 Z-1.429
G01 X860.286 Y66.954 Z-1.419
G01 X860.665 Y67.413 Z-1.414
G01 X861.081 Y67.976 Z-1.414
G01 X861.454 Y68.546 Z-1.421
G01 X861.845 Y69.242 Z-1.437
G01 X862.121 Y69.828 Z-1.462
G01 X862.324 Y70.338 Z-1.491
G01 X862.494 Y70.859 Z-1.526
G01 X862.640 Y71.430 Z-1.570
G01 X862.745 Y72.007 Z-1.620
G01 X862.810 Y72.581 Z-1.675
G01 X862.831 Y73.315 Z-1.754
G01 X862.811 Y73.738 Z-1.810
G01 X862.720 Y74.439 Z-1.915
G01 X862.573 Y75.076 Z-2.032
G01 X862.358 Y75.709 Z-2.162
G01 X862.088 Y76.297 Z-2.300
G01 X861.853 Y76.710 Z-2.406
G01 X861.480 Y77.246 Z-2.553
G01 X861.067 Y77.731 Z-2.692
G01 X860.606 Y78.176 Z-2.829
G01 X860.101 Y78.582 Z-2.962
G01 X859.488 Y78.992 Z-3.104
G01 X858.874 Y79.331 Z-3.233
G01 X858.359 Y79.572 Z-3.327
G01 X857.732 Y79.818 Z-3.425
G01 X856.815 Y80.107 Z-3.533
G01 X855.991 Y80.305 Z-3.606
G01 X855.202 Y80.454 Z-3.648
G01 X853.958 Y80.619 Z-3.680
G01 X852.407 Y80.755 Z-3.694
G01 X850.002 Y80.890 Z-3.713
G01 X846.332 Y81.027 Z-3.733
G01 X841.634 Y81.199 Z-3.698
G01 X839.475 Y81.297 Z-3.666
G01 X837.478 Y81.413 Z-3.635
G01 X835.796 Y81.543 Z-3.615
G01 X834.764 Y81.653 Z-3.616
G01 X833.555 Y81.835 Z-3.656
G01 X832.705 Y81.999 Z-3.711
G01 X832.281 Y82.081 Z-3.762
G01 X832.016 Y82.124 Z-3.811
G01 X831.462 Y82.195 Z-3.953
G01 X830.991 Y82.456 Z-3.927
G01 X830.276 Y82.908 Z-3.910
G01 X829.743 Y83.314 Z-3.923
G01 X829.319 Y83.690 Z-3.944
G01 X829.001 Y84.030 Z-3.952
G01 X828.912 Y84.372 Z-3.804
G01 X828.826 Y84.987 Z-3.519
G01 X828.802 Y85.486 Z-3.288
G01 X828.817 Y86.098 Z-3.012
G01 X828.882 Y86.712 Z-2.751
G01 X828.996 Y87.246 Z-2.525
G01 X829.149 Y87.764 Z-2.322
G01 X829.414 Y88.430 Z-2.084
G01 X829.737 Y89.074 Z-1.877
G01 X830.009 Y89.545 Z-1.744
G01 X830.465 Y90.238 Z-1.568
G01 X830.997 Y90.951 Z-1.411
G01 X831.362 Y91.396 Z-1.333
G01 X832.026 Y92.119 Z-1.230
G01 X832.857 Y92.934 Z-1.156
G01 X833.484 Y93.507 Z-1.126
G01 X833.685 Y93.722 Z-1.145
G01 X833.780 Y93.846 Z-1.171
G01 X833.913 Y94.046 Z-1.232
G01 X834.002 Y94.207 Z-1.294
G01 X834.123 Y94.479 Z-1.417
G01 X834.284 Y94.894 Z-1.669
G01 X834.412 Y95.225 Z-1.921
G01 X834.637 Y95.805 Z-2.424
G01 X835.052 Y95.646 Z-2.228
G01 X835.507 Y95.431 Z-2.061
G01 X836.355 Y94.985 Z-1.845
G01 X837.153 Y94.623 Z-1.671
G01 X837.866 Y94.352 Z-1.542
G01 X838.687 Y94.094 Z-1.416
G01 X839.404 Y93.920 Z-1.333
G01 X840.226 Y93.771 Z-1.258
G01 X840.953 Y93.688 Z-1.214
G01 X841.796 Y93.641 Z-1.180
G01 X842.814 Y93.652 Z-1.168
G01 X843.767 Y93.728 Z-1.185
G01 X844.443 Y93.823 Z-1.217
G01 X845.286 Y93.993 Z-1.276
G01 X846.150 Y94.236 Z-1.363
G01 X846.860 Y94.490 Z-1.458
G01 X847.624 Y94.821 Z-1.578
G01 X848.275 Y95.158 Z-1.701
G01 X848.996 Y95.592 Z-1.852
G01 X849.528 Y95.959 Z-1.977
G01 X850.095 Y96.398 Z-2.120
G01 X850.718 Y96.953 Z-2.293
G01 X851.260 Y97.509 Z-2.463
G01 X851.682 Y97.996 Z-2.608
G01 X852.086 Y98.517 Z-2.757
G01 X852.471 Y99.070 Z-2.910
G01 X852.837 Y99.653 Z-3.066
G01 X853.181 Y100.267 Z-3.224
G01 X853.612 Y101.148 Z-3.440
G01 X853.835 Y101.675 Z-3.558
G01 X854.062 Y102.285 Z-3.682
G01 X854.342 Y103.199 Z-3.848
G01 X854.482 Y103.769 Z-3.933
G01 X854.655 Y104.688 Z-4.048
G01 X854.740 Y105.350 Z-4.108
G01 X854.808 Y106.226 Z-4.168
G01 X854.826 Y107.239 Z-4.201
G01 X854.785 Y108.356 Z-4.212
G01 X854.701 Y109.312 Z-4.200
G01 X854.558 Y110.298 Z-4.163
G01 X854.355 Y111.269 Z-4.098
G01 X854.113 Y112.132 Z-4.009
G01 X853.809 Y112.970 Z-3.887
G01 X853.572 Y113.517 Z-3.790
G01 X853.224 Y114.249 Z-3.649
G01 X852.995 Y114.829 Z-3.598
G01 X852.772 Y115.544 Z-3.623
G01 X852.639 Y116.115 Z-3.707
G01 X852.554 Y116.634 Z-3.824
G01 X852.983 Y116.986 Z-3.468
G01 X853.504 Y117.360 Z-3.093
G01 X853.804 Y117.547 Z-2.906
G01 X854.336 Y117.828 Z-2.625
G01 X854.789 Y118.016 Z-2.438
G01 X855.245 Y118.156 Z-2.298
G01 X855.710 Y118.250 Z-2.204
G01 X856.028 Y118.285 Z-2.169
G01 X856.346 Y118.296 Z-2.157
G01 X862.930 Y118.297 Z-2.149
G01 X863.066 Y118.298 Z-2.144
G01 X863.583 Y117.777 Z-1.605
G01 X864.044 Y117.292 Z-1.080
G01 X864.205 Y117.141 Z-0.890
G01 X864.401 Y116.997 Z-0.657
G01 X864.128 Y117.207 Z-0.982
G01 X863.583 Y117.777 Z-1.605
G01 X863.066 Y118.298 Z-2.144
G01 X863.594 Y118.827 Z-1.599
G01 X863.827 Y119.072 Z-1.337
G01 X864.056 Y119.347 Z-1.043
G01 X864.232 Y119.583 Z-0.770
G01 X864.029 Y119.314 Z-1.080
G01 X863.827 Y119.072 Z-1.337
G01 X863.540 Y118.768 Z-1.659
G01 X863.066 Y118.298 Z-2.144
G01 X862.040 Y118.296 Z-2.157
G01 X856.346 Y118.296 
G01 X855.896 Y118.273 Z-2.180
G01 X855.447 Y118.203 Z-2.251
G01 X855.075 Y118.109 Z-2.344
G01 X854.789 Y118.016 Z-2.438
G01 X854.336 Y117.828 Z-2.625
G01 X853.804 Y117.547 Z-2.906
G01 X853.232 Y117.173 Z-3.281
G01 X852.751 Y116.798 Z-3.655
G01 X852.554 Y116.634 Z-3.824
G01 X852.243 Y116.856 Z-3.633
G01 X851.777 Y117.230 Z-3.367
G01 X851.515 Y117.459 Z-3.239
G01 X851.102 Y117.871 Z-3.064
G01 X850.509 Y118.482 Z-2.860
G01 X849.779 Y119.155 Z-2.624
G01 X849.238 Y119.603 Z-2.453
G01 X848.737 Y119.979 Z-2.303
G01 X848.231 Y120.324 Z-2.161
G01 X847.724 Y120.639 Z-2.027
G01 X847.213 Y120.924 Z-1.901
G01 X846.627 Y121.215 Z-1.768
G01 X845.774 Y121.573 Z-1.595
G01 X845.172 Y121.782 Z-1.492
G01 X844.662 Y121.932 Z-1.416
G01 X844.037 Y122.083 Z-1.337
G01 X843.198 Y122.233 Z-1.250
G01 X842.607 Y122.304 Z-1.206
G01 X841.872 Y122.353 Z-1.168
G01 X840.966 Y122.361 Z-1.143
G01 X840.037 Y122.307 Z-1.140
G01 X839.138 Y122.187 Z-1.164
G01 X838.407 Y122.039 Z-1.206
G01 X837.613 Y121.821 Z-1.270
G01 X836.809 Y121.535 Z-1.358
G01 X836.127 Y121.236 Z-1.455
G01 X835.371 Y120.841 Z-1.577
G01 X834.783 Y120.483 Z-1.690
G01 X834.036 Y119.959 Z-1.844
G01 X833.579 Y119.599 Z-1.950
G01 X833.028 Y119.110 Z-2.089
G01 X832.511 Y118.591 Z-2.235
G01 X831.935 Y117.931 Z-2.414
G01 X831.454 Y117.303 Z-2.583
G01 X831.074 Y116.751 Z-2.730
G01 X830.712 Y116.168 Z-2.882
G01 X830.368 Y115.556 Z-3.038
G01 X830.046 Y114.914 Z-3.195
G01 X829.749 Y114.243 Z-3.350
G01 X829.478 Y113.544 Z-3.502
G01 X829.205 Y112.717 Z-3.667
G01 X829.028 Y112.066 Z-3.779
G01 X828.858 Y111.288 Z-3.897
G01 X828.724 Y110.487 Z-4.000
G01 X828.633 Y109.660 Z-4.082
G01 X828.574 Y108.608 Z-4.156
G01 X828.575 Y107.573 Z-4.201
G01 X828.646 Y106.445 Z-4.217
G00 Z5.000
G01 Z-4.217 F200.0 M3
G01 X828.574 Y107.590 Z-4.200 F2000.0
G01 X828.576 Y108.726 Z-4.151
G01 X828.642 Y109.769 Z-4.072
G01 X828.740 Y110.596 Z-3.987
G01 X828.880 Y111.401 Z-3.881
G01 X829.057 Y112.181 Z-3.761
G01 X829.273 Y112.936 Z-3.623
G01 X829.592 Y113.853 Z-3.439
G01 X829.829 Y114.436 Z-3.309
G01 X830.102 Y115.033 Z-3.167
G01 X830.431 Y115.674 Z-3.009
G01 X830.781 Y116.284 Z-2.853
G01 X831.151 Y116.869 Z-2.700
G01 X831.575 Y117.471 Z-2.541
G01 X832.028 Y118.044 Z-2.386
G01 X832.511 Y118.591 Z-2.235
G01 X833.132 Y119.206 Z-2.059
G01 X833.669 Y119.672 Z-1.927
G01 X834.164 Y120.056 Z-1.818
G01 X834.922 Y120.571 Z-1.660
G01 X835.444 Y120.883 Z-1.565
G01 X836.279 Y121.306 Z-1.429
G01 X836.853 Y121.552 Z-1.354
G01 X837.661 Y121.836 Z-1.264
G01 X838.407 Y122.039 Z-1.206
G01 X839.232 Y122.203 Z-1.162
G01 X840.098 Y122.313 Z-1.140
G01 X841.084 Y122.363 Z-1.143
G01 X841.872 Y122.353 Z-1.168
G01 X842.677 Y122.297 Z-1.210
G01 X843.333 Y122.212 Z-1.264
G01 X844.151 Y122.058 Z-1.348
G01 X844.747 Y121.909 Z-1.428
G01 X845.379 Y121.714 Z-1.528
G01 X846.193 Y121.406 Z-1.676
G01 X846.799 Y121.133 Z-1.804
G01 X847.311 Y120.871 Z-1.924
G01 X847.821 Y120.581 Z-2.052
G01 X848.329 Y120.261 Z-2.188
G01 X848.834 Y119.910 Z-2.332
G01 X849.347 Y119.517 Z-2.486
G01 X849.992 Y118.968 Z-2.690
G01 X850.652 Y118.342 Z-2.909
G01 X851.226 Y117.742 Z-3.111
G01 X851.515 Y117.459 Z-3.239
G01 X851.916 Y117.114 Z-3.442
G01 X852.243 Y116.856 Z-3.633
G01 X852.554 Y116.634 Z-3.824
G01 X852.639 Y116.115 Z-3.707
G01 X852.772 Y115.544 Z-3.623
G01 X852.995 Y114.829 Z-3.598
G01 X853.224 Y114.249 Z-3.649
G01 X853.572 Y113.517 Z-3.790
G01 X853.863 Y112.834 Z-3.911
G01 X854.133 Y112.066 Z-4.017
G01 X854.389 Y111.127 Z-4.110
G01 X854.583 Y110.160 Z-4.170
G01 X854.716 Y109.168 Z-4.202
G01 X854.796 Y108.153 Z-4.210
G01 X854.826 Y107.118 Z-4.198
G01 X854.806 Y106.178 Z-4.164
G01 X854.724 Y105.191 Z-4.096
G01 X854.613 Y104.433 Z-4.017
G01 X854.456 Y103.650 Z-3.916
G01 X854.255 Y102.892 Z-3.793
G01 X854.019 Y102.161 Z-3.658
G01 X853.745 Y101.458 Z-3.508
G01 X853.358 Y100.609 Z-3.312
G01 X853.070 Y100.059 Z-3.173
G01 X852.744 Y99.497 Z-3.026
G01 X852.381 Y98.932 Z-2.874
G01 X851.988 Y98.383 Z-2.721
G01 X851.568 Y97.857 Z-2.569
G01 X851.114 Y97.349 Z-2.417
G01 X850.623 Y96.862 Z-2.267
G01 X850.095 Y96.398 Z-2.120
G01 X849.364 Y95.843 Z-1.935
G01 X848.915 Y95.539 Z-1.834
G01 X848.275 Y95.158 Z-1.701
G01 X847.543 Y94.783 Z-1.564
G01 X846.693 Y94.426 Z-1.432
G01 X846.092 Y94.217 Z-1.357
G01 X845.209 Y93.976 Z-1.268
G01 X844.317 Y93.802 Z-1.209
G01 X843.567 Y93.707 Z-1.182
G01 X842.660 Y93.646 Z-1.170
G01 X841.726 Y93.642 Z-1.183
G01 X840.953 Y93.688 Z-1.214
G01 X840.152 Y93.782 Z-1.264
G01 X839.404 Y93.920 Z-1.333
G01 X838.603 Y94.118 Z-1.428
G01 X837.866 Y94.352 Z-1.542
G01 X837.060 Y94.662 Z-1.689
G01 X836.355 Y94.985 Z-1.845
G01 X835.507 Y95.431 Z-2.061
G01 X835.052 Y95.646 Z-2.228
G01 X834.637 Y95.805 Z-2.424
G01 X834.424 Y96.045 Z-2.422
G01 X834.068 Y96.397 Z-2.472
G01 X833.335 Y97.030 Z-2.685
G01 X832.722 Y97.613 Z-2.882
G01 X832.133 Y98.240 Z-3.077
G01 X831.576 Y98.912 Z-3.267
G01 X831.054 Y99.629 Z-3.448
G01 X830.573 Y100.388 Z-3.615
G01 X830.138 Y101.189 Z-3.767
G01 X829.752 Y102.028 Z-3.898
G01 X829.415 Y102.901 Z-4.012
G01 X829.131 Y103.807 Z-4.103
G01 X828.903 Y104.743 Z-4.168
G01 X828.734 Y105.707 Z-4.207
G01 X828.646 Y106.445 Z-4.217
G00 Z5.000
G00 X831.462 Y82.195  F4000.0
G01 Z-3.953 F200.0 M3
G01 X832.016 Y82.124 Z-3.811 F2000.0
G01 X832.281 Y82.081 Z-3.762
G01 X832.917 Y81.956 Z-3.694
G01 X834.064 Y81.751 Z-3.636
G01 X834.988 Y81.626 Z-3.613
G01 X836.053 Y81.520 Z-3.615
G01 X837.578 Y81.407 Z-3.637
G01 X839.525 Y81.295 Z-3.667
G01 X843.903 Y81.110 Z-3.720
G01 X848.329 Y80.958 Z-3.725
G01 X851.447 Y80.816 Z-3.703
G01 X852.657 Y80.737 Z-3.694
G01 X854.066 Y80.607 Z-3.678
G01 X855.202 Y80.454 Z-3.648
G01 X855.991 Y80.305 Z-3.606
G01 X856.815 Y80.107 Z-3.533
G01 X857.732 Y79.818 Z-3.425
G01 X858.486 Y79.515 Z-3.304
G01 X859.000 Y79.266 Z-3.208
G01 X859.542 Y78.959 Z-3.093
G01 X860.101 Y78.582 Z-2.962
G01 X860.609 Y78.173 Z-2.828
G01 X861.090 Y77.706 Z-2.685
G01 X861.480 Y77.246 Z-2.553
G01 X861.855 Y76.707 Z-2.405
G01 X862.182 Y76.111 Z-2.256
G01 X862.358 Y75.709 Z-2.162
G01 X862.573 Y75.076 Z-2.032
G01 X862.720 Y74.439 Z-1.915
G01 X862.813 Y73.724 Z-1.808
G01 X862.834 Y73.154 Z-1.737
G01 X862.801 Y72.474 Z-1.662
G01 X862.714 Y71.814 Z-1.600
G01 X862.604 Y71.277 Z-1.556
G01 X862.461 Y70.752 Z-1.517
G01 X862.287 Y70.237 Z-1.485
G01 X862.064 Y69.695 Z-1.458
G01 X861.781 Y69.119 Z-1.436
G01 X861.454 Y68.546 Z-1.421
G01 X860.967 Y67.816 Z-1.411
G01 X860.618 Y67.355 Z-1.413
G01 X860.199 Y66.853 Z-1.422
G01 X859.690 Y66.300 Z-1.438
G01 X858.937 Y65.568 Z-1.465
G01 X858.083 Y64.826 Z-1.508
G01 X857.319 Y64.234 Z-1.552
G01 X856.645 Y63.767 Z-1.605
G01 X856.046 Y63.392 Z-1.657
G01 X855.119 Y62.873 Z-1.750
G01 X854.596 Y62.608 Z-1.803
G01 X853.527 Y62.127 Z-1.918
G01 X852.433 Y61.703 Z-2.036
G01 X851.316 Y61.335 Z-2.154
G01 X850.174 Y61.019 Z-2.271
G01 X849.008 Y60.751 Z-2.384
G01 X847.541 Y60.484 Z-2.511
G01 X846.491 Y60.336 Z-2.596
G01 X845.368 Y60.216 Z-2.679
G01 X844.077 Y60.122 Z-2.763
G01 X842.768 Y60.070 Z-2.837
G01 X841.425 Y60.060 Z-2.903
G01 X839.736 Y60.111 Z-2.975
G01 X838.666 Y60.181 Z-3.020
G01 X837.621 Y60.279 Z-3.063
G01 X836.603 Y60.407 Z-3.104
G01 X835.609 Y60.565 Z-3.144
G01 X834.641 Y60.752 Z-3.182
G01 X833.698 Y60.970 Z-3.221
G01 X832.779 Y61.218 Z-3.259
G01 X831.885 Y61.499 Z-3.298
G01 X830.716 Y61.929 Z-3.357
G01 X829.933 Y62.263 Z-3.397
G01 X829.176 Y62.624 Z-3.438
G01 X828.225 Y63.140 Z-3.495
G01 X827.643 Y63.496 Z-3.540
G01 X826.903 Y64.007 Z-3.610
G01 X826.325 Y64.458 Z-3.679
G01 X825.679 Y65.048 Z-3.768
G01 X825.229 Y65.536 Z-3.833
G01 X824.872 Y66.013 Z-3.877
G01 X824.705 Y66.316 Z-3.876
G01 X824.646 Y66.690 Z-3.758
G01 X824.634 Y67.071 Z-3.613
G01 X824.692 Y67.883 Z-3.284
G01 X824.834 Y68.748 Z-2.945
G01 X825.017 Y69.495 Z-2.677
G01 X825.166 Y69.983 Z-2.517
G01 X825.402 Y70.642 Z-2.317
G01 X825.753 Y71.472 Z-2.092
G01 X826.174 Y72.331 Z-1.889
G01 X826.492 Y72.877 Z-1.761
G01 X826.833 Y73.414 Z-1.644
G01 X827.215 Y73.981 Z-1.535
G01 X827.976 Y75.022 Z-1.367
G01 X828.846 Y76.120 Z-1.238
G01 X829.809 Y77.259 Z-1.149
G01 X830.444 Y77.975 Z-1.115
G01 X830.627 Y78.221 Z-1.136
G01 X830.792 Y78.521 Z-1.207
G01 X830.901 Y78.790 Z-1.306
G01 X831.013 Y79.209 Z-1.503
G01 X831.096 Y79.746 Z-1.826
G01 X831.140 Y80.051 Z-2.049
G01 X831.220 Y80.599 Z-2.496
G01 X831.365 Y81.595 Z-3.390
G01 X831.462 Y82.195 Z-3.953
G00 Z5.000
G00 X776.991 Y96.511  F4000.0
G01 Z-4.613 F200.0 M3
G01 X777.242 Y95.161 Z-4.602 F2000.0
G01 X777.558 Y93.843 Z-4.569
G01 X777.916 Y92.620 Z-4.519
G01 X778.284 Y91.563 Z-4.454
G01 X778.771 Y90.345 Z-4.367
G01 X779.203 Y89.396 Z-4.280
G01 X779.729 Y88.358 Z-4.175
G01 X780.330 Y87.290 Z-4.057
G01 X780.899 Y86.377 Z-3.942
G01 X781.556 Y85.429 Z-3.804
G01 X782.281 Y84.494 Z-3.649
G01 X783.001 Y83.672 Z-3.491
G01 X783.770 Y82.894 Z-3.322
G01 X784.567 Y82.185 Z-3.147
G01 X785.388 Y81.547 Z-2.970
G01 X786.227 Y80.978 Z-2.793
G01 X787.080 Y80.479 Z-2.621
G01 X787.943 Y80.047 Z-2.457
G01 X788.812 Y79.681 Z-2.304
G01 X789.684 Y79.378 Z-2.164
G01 X790.627 Y79.120 Z-2.031
G01 X791.432 Y78.951 Z-1.928
G01 X792.306 Y78.819 Z-1.836
G01 X793.183 Y78.740 Z-1.758
G01 X794.227 Y78.712 Z-1.691
G01 X794.936 Y78.730 Z-1.651
G01 X795.597 Y78.777 Z-1.622
G01 X796.263 Y78.855 Z-1.601
G01 X796.923 Y78.964 Z-1.588
G01 X797.574 Y79.103 Z-1.583
G01 X798.213 Y79.272 Z-1.586
G01 X798.842 Y79.472 Z-1.599
G01 X799.458 Y79.702 Z-1.621
G01 X800.061 Y79.961 Z-1.651
G01 X800.651 Y80.250 Z-1.690
G01 X801.226 Y80.567 Z-1.738
G01 X801.788 Y80.912 Z-1.793
G01 X802.335 Y81.284 Z-1.856
G01 X802.866 Y81.681 Z-1.925
G01 X803.376 Y82.097 Z-1.999
G01 X803.862 Y82.531 Z-2.074
G01 X804.328 Y82.984 Z-2.151
G01 X804.828 Y83.521 Z-2.243
G01 X805.339 Y84.137 Z-2.353
G01 X805.828 Y84.798 Z-2.472
G01 X806.325 Y85.552 Z-2.610
G01 X806.738 Y86.256 Z-2.733
G01 X807.157 Y87.053 Z-2.871
G01 X807.571 Y87.938 Z-3.023
G01 X807.919 Y88.781 Z-3.158
G01 X808.330 Y89.916 Z-3.338
G01 X808.576 Y90.685 Z-3.451
G01 X808.956 Y92.047 Z-3.651
G01 X809.282 Y93.444 Z-3.845
G01 X809.561 Y94.922 Z-4.031
G01 X809.747 Y96.207 Z-4.176
G01 X809.879 Y97.455 Z-4.297
G01 X809.970 Y98.899 Z-4.408
G01 X809.992 Y99.878 Z-4.469
G01 X809.977 Y101.078 Z-4.521
G01 X809.928 Y102.077 Z-4.546
G01 X809.807 Y103.405 Z-4.564
G01 X809.670 Y104.431 Z-4.565
G01 X809.537 Y105.225 Z-4.553
G01 X809.291 Y106.402 Z-4.514
G01 X808.981 Y107.599 Z-4.458
G01 X808.766 Y108.296 Z-4.417
G01 X808.501 Y109.081 Z-4.356
G01 X808.071 Y110.184 Z-4.256
G01 X807.522 Y111.406 Z-4.128
G01 X806.914 Y112.577 Z-3.985
G01 X806.156 Y113.853 Z-3.813
G01 X805.435 Y114.912 Z-3.650
G01 X804.633 Y115.951 Z-3.471
G01 X803.843 Y116.851 Z-3.292
G01 X802.997 Y117.705 Z-3.099
G01 X802.320 Y118.314 Z-2.944
G01 X801.579 Y118.908 Z-2.780
G01 X800.796 Y119.462 Z-2.614
G01 X800.355 Y119.746 Z-2.521
G01 X799.535 Y120.214 Z-2.364
G01 X798.974 Y120.497 Z-2.260
G01 X798.160 Y120.856 Z-2.125
G01 X797.574 Y121.080 Z-2.032
G01 X796.669 Y121.368 Z-1.909
G01 X796.148 Y121.507 Z-1.843
G01 X795.451 Y121.660 Z-1.766
G01 X794.518 Y121.810 Z-1.683
G01 X794.019 Y121.866 Z-1.639
G01 X793.297 Y121.924 Z-1.596
G01 X792.568 Y121.945 Z-1.558
G01 X791.817 Y121.930 Z-1.526
G01 X790.863 Y121.853 Z-1.503
G01 X790.249 Y121.767 Z-1.496
G01 X789.589 Y121.642 Z-1.497
G01 X788.851 Y121.460 Z-1.509
G01 X788.112 Y121.234 Z-1.531
G01 X787.271 Y120.925 Z-1.570
G01 X786.634 Y120.653 Z-1.603
G01 X785.895 Y120.295 Z-1.649
G01 X785.091 Y119.842 Z-1.719
G01 X784.305 Y119.320 Z-1.814
G01 X783.604 Y118.782 Z-1.922
G01 X782.854 Y118.119 Z-2.059
G01 X782.430 Y117.698 Z-2.145
G01 X781.777 Y116.976 Z-2.289
G01 X781.097 Y116.115 Z-2.453
G01 X780.531 Y115.301 Z-2.605
G01 X780.093 Y114.604 Z-2.722
G01 X779.526 Y113.587 Z-2.892
G01 X779.206 Y112.938 Z-2.997
G01 X778.715 Y111.817 Z-3.174
G01 X778.405 Y111.016 Z-3.299
G01 X777.979 Y109.751 Z-3.489
G01 X777.586 Y108.367 Z-3.693
G01 X777.249 Y106.913 Z-3.896
G01 X776.977 Y105.390 Z-4.088
G01 X776.793 Y103.940 Z-4.247
G01 X776.682 Y102.513 Z-4.376
G01 X776.642 Y101.223 Z-4.467
G01 X776.663 Y99.849 Z-4.539
G01 X776.734 Y98.689 Z-4.577
G01 X776.875 Y97.320 Z-4.607
G01 X776.991 Y96.511 Z-4.613
G00 Z5.000
G01 Z-4.613 F200.0 M3
G01 X776.844 Y97.580 Z-4.601 F2000.0
G01 X776.724 Y98.818 Z-4.574
G01 X776.656 Y100.072 Z-4.528
G01 X776.643 Y101.342 Z-4.460
G01 X776.688 Y102.625 Z-4.367
G01 X776.793 Y103.940 Z-4.247
G01 X776.977 Y105.390 Z-4.088
G01 X777.249 Y106.913 Z-3.896
G01 X777.586 Y108.367 Z-3.693
G01 X778.017 Y109.871 Z-3.470
G01 X778.469 Y111.186 Z-3.271
G01 X778.936 Y112.345 Z-3.092
G01 X779.246 Y113.022 Z-2.983
G01 X779.784 Y114.068 Z-2.812
G01 X780.180 Y114.750 Z-2.699
G01 X780.768 Y115.655 Z-2.538
G01 X781.433 Y116.555 Z-2.370
G01 X782.129 Y117.377 Z-2.210
G01 X782.793 Y118.060 Z-2.071
G01 X783.538 Y118.728 Z-1.934
G01 X783.987 Y119.086 Z-1.861
G01 X784.768 Y119.636 Z-1.754
G01 X785.565 Y120.119 Z-1.675
G01 X786.126 Y120.411 Z-1.637
G01 X786.718 Y120.691 Z-1.599
G01 X787.463 Y121.000 Z-1.559
G01 X788.443 Y121.340 Z-1.523
G01 X789.039 Y121.510 Z-1.507
G01 X789.692 Y121.664 Z-1.496
G01 X790.436 Y121.797 Z-1.495
G01 X791.182 Y121.887 Z-1.506
G01 X792.104 Y121.940 Z-1.540
G01 X792.730 Y121.943 Z-1.567
G01 X793.391 Y121.919 Z-1.601
G01 X794.118 Y121.856 Z-1.647
G01 X795.066 Y121.728 Z-1.731
G01 X795.613 Y121.628 Z-1.784
G01 X796.276 Y121.475 Z-1.858
G01 X797.179 Y121.213 Z-1.978
G01 X797.696 Y121.036 Z-2.051
G01 X798.631 Y120.655 Z-2.203
G01 X799.099 Y120.438 Z-2.283
G01 X799.967 Y119.975 Z-2.447
G01 X800.477 Y119.669 Z-2.546
G01 X801.194 Y119.191 Z-2.696
G01 X801.954 Y118.615 Z-2.863
G01 X802.674 Y118.002 Z-3.026
G01 X803.356 Y117.352 Z-3.185
G01 X804.009 Y116.671 Z-3.331
G01 X804.776 Y115.776 Z-3.502
G01 X805.541 Y114.766 Z-3.675
G01 X806.254 Y113.699 Z-3.835
G01 X806.914 Y112.577 Z-3.985
G01 X807.441 Y111.569 Z-4.108
G01 X808.002 Y110.350 Z-4.240
G01 X808.228 Y109.798 Z-4.297
G01 X808.560 Y108.914 Z-4.368
G01 X808.931 Y107.764 Z-4.447
G01 X809.200 Y106.778 Z-4.503
G01 X809.381 Y106.007 Z-4.532
G01 X809.605 Y104.841 Z-4.556
G01 X809.791 Y103.555 Z-4.565
G01 X809.869 Y102.797 Z-4.562
G01 X809.938 Y101.934 Z-4.544
G01 X809.993 Y100.432 Z-4.493
G01 X809.975 Y99.025 Z-4.416
G01 X809.922 Y98.028 Z-4.347
G01 X809.811 Y96.762 Z-4.234
G01 X809.644 Y95.463 Z-4.097
G01 X809.419 Y94.126 Z-3.934
G01 X809.108 Y92.663 Z-3.736
G01 X808.764 Y91.334 Z-3.548
G01 X808.543 Y90.577 Z-3.435
G01 X808.222 Y89.600 Z-3.287
G01 X807.839 Y88.579 Z-3.128
G01 X807.499 Y87.777 Z-2.994
G01 X806.982 Y86.710 Z-2.815
G01 X806.664 Y86.122 Z-2.711
G01 X806.219 Y85.384 Z-2.578
G01 X805.743 Y84.678 Z-2.450
G01 X805.191 Y83.952 Z-2.322
G01 X804.724 Y83.405 Z-2.223
G01 X804.203 Y82.859 Z-2.128
G01 X803.688 Y82.372 Z-2.044
G01 X803.163 Y81.919 Z-1.964
G01 X802.335 Y81.284 Z-1.856
G01 X801.530 Y80.750 Z-1.764
G01 X800.969 Y80.421 Z-1.712
G01 X800.400 Y80.123 Z-1.670
G01 X799.822 Y79.854 Z-1.635
G01 X799.235 Y79.615 Z-1.609
G01 X798.639 Y79.404 Z-1.592
G01 X798.034 Y79.222 Z-1.582
G01 X797.419 Y79.067 Z-1.581
G01 X796.794 Y78.941 Z-1.588
G01 X796.158 Y78.842 Z-1.603
G01 X795.510 Y78.770 Z-1.625
G01 X794.835 Y78.726 Z-1.655
G01 X793.940 Y78.712 Z-1.705
G01 X793.050 Y78.749 Z-1.769
G01 X792.165 Y78.837 Z-1.850
G01 X791.159 Y79.004 Z-1.963
G01 X790.401 Y79.175 Z-2.059
G01 X789.523 Y79.430 Z-2.189
G01 X788.632 Y79.751 Z-2.336
G01 X787.716 Y80.154 Z-2.501
G01 X786.852 Y80.605 Z-2.668
G01 X786.038 Y81.098 Z-2.834
G01 X785.236 Y81.658 Z-3.002
G01 X784.425 Y82.305 Z-3.178
G01 X783.638 Y83.021 Z-3.350
G01 X782.880 Y83.803 Z-3.518
G01 X782.153 Y84.651 Z-3.676
G01 X781.412 Y85.628 Z-3.836
G01 X780.821 Y86.497 Z-3.958
G01 X780.221 Y87.477 Z-4.077
G01 X779.660 Y88.489 Z-4.189
G01 X779.111 Y89.587 Z-4.300
G01 X778.663 Y90.602 Z-4.385
G01 X778.232 Y91.702 Z-4.464
G01 X777.851 Y92.830 Z-4.527
G01 X777.520 Y93.983 Z-4.574
G01 X777.242 Y95.161 Z-4.602
G01 X777.016 Y96.360 Z-4.611
G01 X776.991 Y96.511 Z-4.613
G00 Z5.000
G00 X801.730 Y137.153  F4000.0
G01 Z-5.189 F200.0 M3
G01 X801.701 Y137.147 Z-5.172 F2000.0
G01 X801.460 Y137.244 Z-4.924
G01 X801.701 Y137.147 Z-5.172
G01 X801.388 Y137.015 Z-4.851
G01 X801.716 Y137.147 Z-5.183
G01 X801.632 Y136.943 Z-4.971
G01 X801.716 Y137.147 Z-5.183
G01 X801.730 Y137.153 Z-5.189
G01 X801.772 Y137.111 Z-5.147
G01 X801.882 Y136.852 Z-4.877
G01 X801.772 Y137.111 Z-5.147
G01 X802.031 Y137.000 Z-4.877
G01 X801.772 Y137.111 Z-5.147
G01 X801.730 Y137.153 Z-5.189
G01 X801.735 Y137.167 Z-5.183
G01 X801.940 Y137.251 Z-4.971
G01 X801.735 Y137.167 Z-5.183
G01 X801.868 Y137.495 Z-4.851
G01 X801.736 Y137.182 Z-5.172
G01 X801.638 Y137.423 Z-4.924
G01 X801.735 Y137.167 Z-5.183
G01 X801.730 Y137.153 Z-5.189
G00 Z5.000
G00 X784.851 Y137.159  F4000.0
G01 Z-5.195 F200.0 M3
G01 X784.515 Y137.015 Z-4.851 F2000.0
G01 X784.846 Y137.155 Z-5.190
G01 X784.759 Y136.943 Z-4.971
G01 X784.851 Y137.159 Z-5.195
G01 X784.969 Y136.855 Z-4.885
G01 X784.855 Y137.154 Z-5.190
G01 X785.187 Y137.015 Z-4.851
G01 X784.851 Y137.159 Z-5.195
G01 X785.066 Y137.251 Z-4.971
G01 X784.856 Y137.164 Z-5.190
G01 X784.996 Y137.472 Z-4.867
G01 X784.851 Y137.159 Z-5.195
G01 X784.706 Y137.495 Z-4.851
G01 X784.846 Y137.164 Z-5.190
G01 X784.635 Y137.251 Z-4.971
G01 X784.851 Y137.159 Z-5.195
G00 Z5.000
G00 X731.107 Y140.554  F4000.0
G01 Z-4.586 F200.0 M3
G01 X731.312 Y139.461 Z-4.381 F2000.0
G01 X731.432 Y138.606 Z-4.261
G01 X731.508 Y137.898 Z-4.185
G01 X731.566 Y137.135 Z-4.127
G01 X731.639 Y135.403 Z-4.054
G01 X731.689 Y132.887 Z-4.004
G01 X731.715 Y127.979 Z-3.979
G01 X731.715 Y114.366 
G01 X731.748 Y113.635 Z-4.012
G01 X731.782 Y113.332 Z-4.046
G01 X731.849 Y112.904 Z-4.113
G01 X731.782 Y112.476 Z-4.046
G01 X731.731 Y111.959 Z-3.995
G01 X731.715 Y111.442 Z-3.979
G01 X731.713 Y87.135 Z-3.988
G01 X731.708 Y86.017 Z-4.021
G01 X731.701 Y85.044 Z-4.074
G01 X731.692 Y84.135 Z-4.152
G01 X731.680 Y83.266 Z-4.263
G01 X731.673 Y82.681 Z-4.363
G01 X730.709 Y81.941 Z-3.623
G01 X730.004 Y81.454 Z-3.136
G01 X729.124 Y80.912 Z-2.594
G01 X728.433 Y80.537 Z-2.219
G01 X727.657 Y80.176 Z-1.857
G01 X727.030 Y79.937 Z-1.618
G01 X726.595 Y79.801 Z-1.482
G01 X725.746 Y79.594 Z-1.276
G01 X725.042 Y79.462 Z-1.144
G01 X724.430 Y79.373 Z-1.054
G01 X723.800 Y79.302 Z-0.983
G01 X723.147 Y79.248 Z-0.930
G01 X722.466 Y79.211 Z-0.892
G01 X721.899 Y79.193 Z-0.874
G01 X721.025 Y80.044 Z0.000
G01 X721.899 Y79.193 Z-0.874
G01 X721.025 Y78.319 Z0.000
G01 X721.899 Y79.193 Z-0.874
G01 X722.509 Y79.213 Z-0.894
G01 X723.197 Y79.252 Z-0.933
G01 X723.860 Y79.308 Z-0.989
G01 X724.502 Y79.382 Z-1.064
G01 X725.128 Y79.477 Z-1.158
G01 X725.746 Y79.594 Z-1.276
G01 X726.595 Y79.801 Z-1.482
G01 X727.200 Y79.997 Z-1.678
G01 X727.948 Y80.304 Z-1.985
G01 X728.617 Y80.633 Z-2.314
G01 X729.460 Y81.112 Z-2.793
G01 X730.307 Y81.657 Z-3.339
G01 X731.069 Y82.209 Z-3.891
G01 X731.673 Y82.681 Z-4.363
G01 X732.400 Y82.097 Z-3.779
G01 X733.161 Y81.544 Z-3.225
G01 X733.872 Y81.091 Z-2.773
G01 X734.655 Y80.662 Z-2.343
G01 X735.156 Y80.422 Z-2.104
G01 X735.972 Y80.087 Z-1.769
G01 X736.563 Y79.883 Z-1.565
G01 X737.399 Y79.643 Z-1.325
G01 X738.052 Y79.498 Z-1.180
G01 X738.602 Y79.408 Z-1.089
G01 X739.184 Y79.335 Z-1.017
G01 X739.805 Y79.278 Z-0.960
G01 X740.473 Y79.235 Z-0.917
G01 X741.918 Y79.188 Z-0.870
G01 X742.788 Y78.319 Z0.000
G01 X741.918 Y79.188 Z-0.870
G01 X742.788 Y80.044 Z0.000
G01 X741.918 Y79.188 Z-0.870
G01 X740.473 Y79.235 Z-0.917
G01 X739.752 Y79.282 Z-0.964
G01 X739.115 Y79.343 Z-1.024
G01 X738.512 Y79.421 Z-1.102
G01 X737.929 Y79.522 Z-1.204
G01 X737.399 Y79.643 Z-1.325
G01 X736.563 Y79.883 Z-1.565
G01 X735.972 Y80.087 Z-1.769
G01 X735.156 Y80.422 Z-2.104
G01 X734.435 Y80.776 Z-2.457
G01 X733.872 Y81.091 Z-2.773
G01 X733.161 Y81.544 Z-3.225
G01 X732.400 Y82.097 Z-3.779
G01 X731.673 Y82.681 Z-4.363
G01 X731.687 Y83.646 Z-4.209
G01 X731.697 Y84.458 Z-4.120
