%
(1001)
(T1  D=3. CR=1.5 - ZMIN=0.227 - BALL END MILL)
G90 G94 G17 G91.1
G64 P0.001
G21
G28 G91 Z0.
G90
(DOORS)
M9
S18000 M3
G54
M8
G0 X364.758 Y522.214
G0 Z40.
Z30.
G1 Z27.8 F1200.
G19 G2 Y521.914 Z27.5 J-0.3 K0. F2000.
G1 Y521.614
G17 G3 X365.058 Y521.314 I0.3 J0.
G1 X646.659 Z26.97 F1200.
G2 X648.159 Y519.814 Z26.966 I0. J-1.5
G1 Y24.257 Z26.034
G2 X646.659 Y22.757 Z26.03 I-1.5 J0.
G1 X349.325 Z25.47
G2 X347.825 Y24.257 Z25.466 I0. J1.5
G1 Y519.814 Z24.534
G2 X349.325 Y521.314 Z24.53 I1.5 J0.
G1 X646.659 Z23.97
G2 X648.159 Y519.814 Z23.966 I0. J-1.5
G1 Y24.257 Z23.034
G2 X646.659 Y22.757 Z23.03 I-1.5 J0.
G1 X349.325 Z22.47
G2 X347.825 Y24.257 Z22.466 I0. J1.5
G1 Y272.036 Z22.
Y519.814 F4000.
G2 X349.325 Y521.314 I1.5 J0.
G1 X646.659
G2 X648.159 Y519.814 I0. J-1.5
G1 Y24.257
G2 X646.659 Y22.757 I-1.5 J0.
G1 X349.325
G2 X347.825 Y24.257 I0. J1.5
G1 Y272.036
Y519.814 Z21.534 F1200.
G2 X349.325 Y521.314 Z21.53 I1.5 J0.
G1 X646.659 Z20.97
G2 X648.159 Y519.814 Z20.966 I0. J-1.5
G1 Y24.257 Z20.034
G2 X646.659 Y22.757 Z20.03 I-1.5 J0.
G1 X349.325 Z19.47
G2 X347.825 Y24.257 Z19.466 I0. J1.5
G1 Y272.036 Z19.
Y519.814 F4000.
G2 X349.325 Y521.314 I1.5 J0.
G1 X646.659
G2 X648.159 Y519.814 I0. J-1.5
G1 Y24.257
G2 X646.659 Y22.757 I-1.5 J0.
G1 X349.325
G2 X347.825 Y24.257 I0. J1.5
G1 Y272.036
Y519.814 Z18.534 F1200.
G2 X349.325 Y521.314 Z18.53 I1.5 J0.
G1 X646.659 Z17.97
G2 X648.159 Y519.814 Z17.966 I0. J-1.5
G1 Y24.257 Z17.034
G2 X646.659 Y22.757 Z17.03 I-1.5 J0.
G1 X349.325 Z16.47
G2 X347.825 Y24.257 Z16.466 I0. J1.5
G1 Y272.036 Z16.
Y519.814 F4000.
G2 X349.325 Y521.314 I1.5 J0.
G1 X646.659
G2 X648.159 Y519.814 I0. J-1.5
G1 Y24.257
G2 X646.659 Y22.757 I-1.5 J0.
G1 X349.325
G2 X347.825 Y24.257 I0. J1.5
G1 Y272.036
Y519.814 Z15.534 F1200.
G2 X349.325 Y521.314 Z15.53 I1.5 J0.
G1 X646.659 Z14.97
G2 X648.159 Y519.814 Z14.966 I0. J-1.5
G1 Y24.257 Z14.034
G2 X646.659 Y22.757 Z14.03 I-1.5 J0.
G1 X349.325 Z13.47
G2 X347.825 Y24.257 Z13.466 I0. J1.5
G1 Y272.036 Z13.
Y519.814 F4000.
G2 X349.325 Y521.314 I1.5 J0.
G1 X646.659
G2 X648.159 Y519.814 I0. J-1.5
G1 Y24.257
G2 X646.659 Y22.757 I-1.5 J0.
G1 X349.325
G2 X347.825 Y24.257 I0. J1.5
G1 Y272.036
Y519.814 Z12.534 F1200.
G2 X349.325 Y521.314 Z12.53 I1.5 J0.
G1 X646.659 Z11.97
G2 X648.159 Y519.814 Z11.966 I0. J-1.5
G1 Y24.257 Z11.034
G2 X646.659 Y22.757 Z11.03 I-1.5 J0.
G1 X349.325 Z10.47
G2 X347.825 Y24.257 Z10.466 I0. J1.5
G1 Y272.036 Z10.
Y519.814 F4000.
G2 X349.325 Y521.314 I1.5 J0.
G1 X646.659
G2 X648.159 Y519.814 I0. J-1.5
G1 Y24.257
G2 X646.659 Y22.757 I-1.5 J0.
G1 X349.325
G2 X347.825 Y24.257 I0. J1.5
G1 Y272.036
Y519.814 Z9.534 F1200.
G2 X349.325 Y521.314 Z9.53 I1.5 J0.
G1 X646.659 Z8.97
G2 X648.159 Y519.814 Z8.966 I0. J-1.5
G1 Y24.257 Z8.034
G2 X646.659 Y22.757 Z8.03 I-1.5 J0.
G1 X349.325 Z7.47
G2 X347.825 Y24.257 Z7.466 I0. J1.5
G1 Y272.036 Z7.
Y519.814 F4000.
G2 X349.325 Y521.314 I1.5 J0.
G1 X646.659
G2 X648.159 Y519.814 I0. J-1.5
G1 Y24.257
G2 X646.659 Y22.757 I-1.5 J0.
G1 X349.325
G2 X347.825 Y24.257 I0. J1.5
G1 Y272.036
Y519.814 Z6.534 F1200.
G2 X349.325 Y521.314 Z6.53 I1.5 J0.
G1 X646.659 Z5.97
G2 X648.159 Y519.814 Z5.966 I0. J-1.5
G1 Y24.257 Z5.034
G2 X646.659 Y22.757 Z5.03 I-1.5 J0.
G1 X349.325 Z4.47
G2 X347.825 Y24.257 Z4.466 I0. J1.5
G1 Y272.036 Z4.
Y519.814 F4000.
G2 X349.325 Y521.314 I1.5 J0.
G1 X646.659
G2 X648.159 Y519.814 I0. J-1.5
G1 Y24.257
G2 X646.659 Y22.757 I-1.5 J0.
G1 X349.325
G2 X347.825 Y24.257 I0. J1.5
G1 Y272.036
Y519.814 Z3.534 F1200.
G2 X349.325 Y521.314 Z3.53 I1.5 J0.
G1 X646.659 Z2.97
G2 X648.159 Y519.814 Z2.966 I0. J-1.5
G1 Y84.96 Z2.148
Y24.257 F4000.
G2 X646.659 Y22.757 I-1.5 J0.
G1 X349.325
G2 X347.825 Y24.257 I0. J1.5
G1 Y272.036
Y519.814
G2 X349.325 Y521.314 I1.5 J0.
G1 X646.659
G2 X648.159 Y519.814 I0. J-1.5
G1 Y84.96
Y24.257 Z2.034 F1200.
G2 X646.659 Y22.757 Z2.03 I-1.5 J0.
G1 X349.325 Z1.47
G2 X347.825 Y24.257 Z1.466 I0. J1.5
G1 Y519.814 Z0.534
G2 X349.325 Y521.314 Z0.53 I1.5 J0.
G1 X473.342 Z0.296
X646.659 F4000.
G2 X648.159 Y519.814 I0. J-1.5
G1 Y84.96
Y24.257
G2 X646.659 Y22.757 I-1.5 J0.
G1 X349.325
G2 X347.825 Y24.257 I0. J1.5
G1 Y519.814
G2 X349.325 Y521.314 I1.5 J0.
G1 X473.342
G3 X473.642 Y521.614 I0. J0.3 F2000.
G1 Y521.914
G19 G3 Y522.214 Z0.596 J0. K0.3
G0 Z40.
X64.421
Z30.
G1 Z27.8 F1200.
G2 Y521.914 Z27.5 J-0.3 K0. F2000.
G1 Y521.614
G17 G3 X64.721 Y521.314 I0.3 J0.
G1 X346.322 Z26.97 F1200.
G2 X347.822 Y519.814 Z26.966 I0. J-1.5
G1 Y24.257 Z26.034
G2 X346.322 Y22.757 Z26.03 I-1.5 J0.
G1 X48.987 Z25.47
G2 X47.487 Y24.257 Z25.466 I0. J1.5
G1 Y519.814 Z24.534
G2 X48.987 Y521.314 Z24.53 I1.5 J0.
G1 X346.322 Z23.97
G2 X347.822 Y519.814 Z23.966 I0. J-1.5
G1 Y24.257 Z23.034
G2 X346.322 Y22.757 Z23.03 I-1.5 J0.
G1 X48.987 Z22.47
G2 X47.487 Y24.257 Z22.466 I0. J1.5
G1 Y272.036 Z22.
Y519.814 F4000.
G2 X48.987 Y521.314 I1.5 J0.
G1 X346.322
G2 X347.822 Y519.814 I0. J-1.5
G1 Y24.257
G2 X346.322 Y22.757 I-1.5 J0.
G1 X48.987
G2 X47.487 Y24.257 I0. J1.5
G1 Y272.036
Y519.814 Z21.534 F1200.
G2 X48.987 Y521.314 Z21.53 I1.5 J0.
G1 X346.322 Z20.97
G2 X347.822 Y519.814 Z20.966 I0. J-1.5
G1 Y24.257 Z20.034
G2 X346.322 Y22.757 Z20.03 I-1.5 J0.
G1 X48.987 Z19.47
G2 X47.487 Y24.257 Z19.466 I0. J1.5
G1 Y272.036 Z19.
Y519.814 F4000.
G2 X48.987 Y521.314 I1.5 J0.
G1 X346.322
G2 X347.822 Y519.814 I0. J-1.5
G1 Y24.257
G2 X346.322 Y22.757 I-1.5 J0.
G1 X48.987
G2 X47.487 Y24.257 I0. J1.5
G1 Y272.036
Y519.814 Z18.534 F1200.
G2 X48.987 Y521.314 Z18.53 I1.5 J0.
G1 X346.322 Z17.97
G2 X347.822 Y519.814 Z17.966 I0. J-1.5
G1 Y24.257 Z17.034
G2 X346.322 Y22.757 Z17.03 I-1.5 J0.
G1 X48.987 Z16.47
G2 X47.487 Y24.257 Z16.466 I0. J1.5
G1 Y272.036 Z16.
Y519.814 F4000.
G2 X48.987 Y521.314 I1.5 J0.
G1 X346.322
G2 X347.822 Y519.814 I0. J-1.5
G1 Y24.257
G2 X346.322 Y22.757 I-1.5 J0.
G1 X48.987
G2 X47.487 Y24.257 I0. J1.5
G1 Y272.036
Y519.814 Z15.534 F1200.
G2 X48.987 Y521.314 Z15.53 I1.5 J0.
G1 X346.322 Z14.97
G2 X347.822 Y519.814 Z14.966 I0. J-1.5
G1 Y24.257 Z14.034
G2 X346.322 Y22.757 Z14.03 I-1.5 J0.
G1 X48.987 Z13.47
G2 X47.487 Y24.257 Z13.466 I0. J1.5
G1 Y272.036 Z13.
Y519.814 F4000.
G2 X48.987 Y521.314 I1.5 J0.
G1 X346.322
G2 X347.822 Y519.814 I0. J-1.5
G1 Y24.257
G2 X346.322 Y22.757 I-1.5 J0.
G1 X48.987
G2 X47.487 Y24.257 I0. J1.5
G1 Y272.036
Y519.814 Z12.534 F1200.
G2 X48.987 Y521.314 Z12.53 I1.5 J0.
G1 X346.322 Z11.97
G2 X347.822 Y519.814 Z11.966 I0. J-1.5
G1 Y24.257 Z11.034
G2 X346.322 Y22.757 Z11.03 I-1.5 J0.
G1 X48.987 Z10.47
G2 X47.487 Y24.257 Z10.466 I0. J1.5
G1 Y272.036 Z10.
Y519.814 F4000.
G2 X48.987 Y521.314 I1.5 J0.
G1 X346.322
G2 X347.822 Y519.814 I0. J-1.5
G1 Y24.257
G2 X346.322 Y22.757 I-1.5 J0.
G1 X48.987
G2 X47.487 Y24.257 I0. J1.5
G1 Y272.036
Y519.814 Z9.534 F1200.
G2 X48.987 Y521.314 Z9.53 I1.5 J0.
G1 X346.322 Z8.97
G2 X347.822 Y519.814 Z8.966 I0. J-1.5
G1 Y24.257 Z8.034
G2 X346.322 Y22.757 Z8.03 I-1.5 J0.
G1 X48.987 Z7.47
G2 X47.487 Y24.257 Z7.466 I0. J1.5
G1 Y272.036 Z7.
Y519.814 F4000.
G2 X48.987 Y521.314 I1.5 J0.
G1 X346.322
G2 X347.822 Y519.814 I0. J-1.5
G1 Y24.257
G2 X346.322 Y22.757 I-1.5 J0.
G1 X48.987
G2 X47.487 Y24.257 I0. J1.5
G1 Y272.036
Y519.814 Z6.534 F1200.
G2 X48.987 Y521.314 Z6.53 I1.5 J0.
G1 X346.322 Z5.97
G2 X347.822 Y519.814 Z5.966 I0. J-1.5
G1 Y24.257 Z5.034
G2 X346.322 Y22.757 Z5.03 I-1.5 J0.
G1 X48.987 Z4.47
G2 X47.487 Y24.257 Z4.466 I0. J1.5
G1 Y272.036 Z4.
Y519.814 F4000.
G2 X48.987 Y521.314 I1.5 J0.
G1 X346.322
G2 X347.822 Y519.814 I0. J-1.5
G1 Y24.257
G2 X346.322 Y22.757 I-1.5 J0.
G1 X48.987
G2 X47.487 Y24.257 I0. J1.5
G1 Y272.036
Y519.814 Z3.534 F1200.
G2 X48.987 Y521.314 Z3.53 I1.5 J0.
G1 X346.322 Z2.97
G2 X347.822 Y519.814 Z2.966 I0. J-1.5
G1 Y24.257 Z2.034
G2 X346.322 Y22.757 Z2.03 I-1.5 J0.
G1 X48.987 Z1.47
G2 X47.487 Y24.257 Z1.466 I0. J1.5
G1 Y272.036 Z1.
Y519.814 F4000.
G2 X48.987 Y521.314 I1.5 J0.
G1 X346.322
G2 X347.822 Y519.814 I0. J-1.5
G1 Y24.257
G2 X346.322 Y22.757 I-1.5 J0.
G1 X48.987
G2 X47.487 Y24.257 I0. J1.5
G1 Y272.036
Y519.814 Z0.534 F1200.
G2 X48.987 Y521.314 Z0.53 I1.5 J0.
G1 X210.001 Z0.227
X346.322 F4000.
G2 X347.822 Y519.814 I0. J-1.5
G1 Y24.257
G2 X346.322 Y22.757 I-1.5 J0.
G1 X48.987
G2 X47.487 Y24.257 I0. J1.5
G1 Y272.036
Y519.814
G2 X48.987 Y521.314 I1.5 J0.
G1 X210.001
G3 X210.301 Y521.614 I0. J0.3 F2000.
G1 Y521.914
G19 G3 Y522.214 Z0.527 J0. K0.3
G0 Z40.
G17
M9
G28 G91 Z0.
G90
M30
%
