%
(1001)
(T1  D=3. CR=1.5 - ZMIN=0.283 - BALL END MILL)
G90 G94 G17 G91.1
G64 P0.001
G21
G28 G91 Z0.
G90
(DRAWER3)
M9
S18000 M3
G54
M8
G0 X650.266 Y194.198
G0 Z40.
Z30.
G1 Z27.8 F2000.
G18 G2 X650.566 Z27.5 I0.3 K0.
G1 X650.866
G17 G3 X651.166 Y194.498 I0. J0.3
G1 Y353.628 Z26.987 F4000.
G2 X652.666 Y355.128 Z26.979 I1.5 J0.
G1 X950. Z26.021
G2 X951.5 Y353.628 Z26.013 I0. J-1.5
G1 Y190.444 Z25.487
G2 X950. Y188.944 Z25.479 I-1.5 J0.
G1 X652.666 Z24.521
G2 X651.166 Y190.444 Z24.513 I0. J1.5
G1 Y353.628 Z23.987
G2 X652.666 Y355.128 Z23.979 I1.5 J0.
G1 X950. Z23.021
G2 X951.5 Y353.628 Z23.013 I0. J-1.5
G1 Y190.444 Z22.487
G2 X950. Y188.944 Z22.479 I-1.5 J0.
G1 X801.333 Z22.
X652.666
G2 X651.166 Y190.444 I0. J1.5
G1 Y353.628
G2 X652.666 Y355.128 I1.5 J0.
G1 X950.
G2 X951.5 Y353.628 I0. J-1.5
G1 Y190.444
G2 X950. Y188.944 I-1.5 J0.
G1 X801.333
X652.666 Z21.521
G2 X651.166 Y190.444 Z21.513 I0. J1.5
G1 Y353.628 Z20.987
G2 X652.666 Y355.128 Z20.979 I1.5 J0.
G1 X950. Z20.021
G2 X951.5 Y353.628 Z20.013 I0. J-1.5
G1 Y190.444 Z19.487
G2 X950. Y188.944 Z19.479 I-1.5 J0.
G1 X801.333 Z19.
X652.666
G2 X651.166 Y190.444 I0. J1.5
G1 Y353.628
G2 X652.666 Y355.128 I1.5 J0.
G1 X950.
G2 X951.5 Y353.628 I0. J-1.5
G1 Y190.444
G2 X950. Y188.944 I-1.5 J0.
G1 X801.333
X652.666 Z18.521
G2 X651.166 Y190.444 Z18.513 I0. J1.5
G1 Y353.628 Z17.987
G2 X652.666 Y355.128 Z17.979 I1.5 J0.
G1 X950. Z17.021
G2 X951.5 Y353.628 Z17.013 I0. J-1.5
G1 Y190.444 Z16.487
G2 X950. Y188.944 Z16.479 I-1.5 J0.
G1 X801.333 Z16.
X652.666
G2 X651.166 Y190.444 I0. J1.5
G1 Y353.628
G2 X652.666 Y355.128 I1.5 J0.
G1 X950.
G2 X951.5 Y353.628 I0. J-1.5
G1 Y190.444
G2 X950. Y188.944 I-1.5 J0.
G1 X801.333
X652.666 Z15.521
G2 X651.166 Y190.444 Z15.513 I0. J1.5
G1 Y353.628 Z14.987
G2 X652.666 Y355.128 Z14.979 I1.5 J0.
G1 X950. Z14.021
G2 X951.5 Y353.628 Z14.013 I0. J-1.5
G1 Y190.444 Z13.487
G2 X950. Y188.944 Z13.479 I-1.5 J0.
G1 X801.333 Z13.
X652.666
G2 X651.166 Y190.444 I0. J1.5
G1 Y353.628
G2 X652.666 Y355.128 I1.5 J0.
G1 X950.
G2 X951.5 Y353.628 I0. J-1.5
G1 Y190.444
G2 X950. Y188.944 I-1.5 J0.
G1 X801.333
X652.666 Z12.521
G2 X651.166 Y190.444 Z12.513 I0. J1.5
G1 Y353.628 Z11.987
G2 X652.666 Y355.128 Z11.979 I1.5 J0.
G1 X950. Z11.021
G2 X951.5 Y353.628 Z11.013 I0. J-1.5
G1 Y190.444 Z10.487
G2 X950. Y188.944 Z10.479 I-1.5 J0.
G1 X801.333 Z10.
X652.666
G2 X651.166 Y190.444 I0. J1.5
G1 Y353.628
G2 X652.666 Y355.128 I1.5 J0.
G1 X950.
G2 X951.5 Y353.628 I0. J-1.5
G1 Y190.444
G2 X950. Y188.944 I-1.5 J0.
G1 X801.333
X652.666 Z9.521
G2 X651.166 Y190.444 Z9.513 I0. J1.5
G1 Y353.628 Z8.987
G2 X652.666 Y355.128 Z8.979 I1.5 J0.
G1 X950. Z8.021
G2 X951.5 Y353.628 Z8.013 I0. J-1.5
G1 Y190.444 Z7.487
G2 X950. Y188.944 Z7.479 I-1.5 J0.
G1 X801.333 Z7.
X652.666
G2 X651.166 Y190.444 I0. J1.5
G1 Y353.628
G2 X652.666 Y355.128 I1.5 J0.
G1 X950.
G2 X951.5 Y353.628 I0. J-1.5
G1 Y190.444
G2 X950. Y188.944 I-1.5 J0.
G1 X801.333
X652.666 Z6.521
G2 X651.166 Y190.444 Z6.513 I0. J1.5
G1 Y353.628 Z5.987
G2 X652.666 Y355.128 Z5.979 I1.5 J0.
G1 X950. Z5.021
G2 X951.5 Y353.628 Z5.013 I0. J-1.5
G1 Y190.444 Z4.487
G2 X950. Y188.944 Z4.479 I-1.5 J0.
G1 X801.333 Z4.
X652.666
G2 X651.166 Y190.444 I0. J1.5
G1 Y353.628
G2 X652.666 Y355.128 I1.5 J0.
G1 X950.
G2 X951.5 Y353.628 I0. J-1.5
G1 Y190.444
G2 X950. Y188.944 I-1.5 J0.
G1 X801.333
X652.666 Z3.521
G2 X651.166 Y190.444 Z3.513 I0. J1.5
G1 Y353.628 Z2.987
G2 X652.666 Y355.128 Z2.979 I1.5 J0.
G1 X912.495 Z2.142
X950.
G2 X951.5 Y353.628 I0. J-1.5
G1 Y190.444
G2 X950. Y188.944 I-1.5 J0.
G1 X652.666
G2 X651.166 Y190.444 I0. J1.5
G1 Y353.628
G2 X652.666 Y355.128 I1.5 J0.
G1 X912.495
X950. Z2.021
G2 X951.5 Y353.628 Z2.013 I0. J-1.5
G1 Y190.444 Z1.487
G2 X950. Y188.944 Z1.479 I-1.5 J0.
G1 X652.666 Z0.521
G2 X651.166 Y190.444 Z0.513 I0. J1.5
G1 Y261.745 Z0.283
Y353.628
G2 X652.666 Y355.128 I1.5 J0.
G1 X912.495
X950.
G2 X951.5 Y353.628 I0. J-1.5
G1 Y190.444
G2 X950. Y188.944 I-1.5 J0.
G1 X652.666
G2 X651.166 Y190.444 I0. J1.5
G1 Y261.745
G3 X650.866 Y262.045 I-0.3 J0. F2000.
G1 X650.566
G18 G3 X650.266 Z0.583 I0. K0.3
G0 Z40.
G17
M9
G28 G91 Z0.
G90
M30
%
