%
(1001)
(T1  D=3. CR=1.5 - ZMIN=0.043 - BALL END MILL)
G90 G94 G17 G91.1
G64 P0.001
G21
G28 G91 Z0.
G90
(DRAWER2)
M9
S18000 M3
G54
M8
G0 X650.266 Y360.051
G0 Z40.
Z30.
G1 Z27.8 F2000.
G18 G2 X650.566 Z27.5 I0.3 K0.
G1 X650.866
G17 G3 X651.166 Y360.351 I0. J0.3
G1 Y518.813 Z26.988 F4000.
G2 X652.666 Y520.313 Z26.98 I1.5 J0.
G1 X950. Z26.02
G2 X951.5 Y518.813 Z26.012 I0. J-1.5
G1 Y356.631 Z25.488
G2 X950. Y355.131 Z25.48 I-1.5 J0.
G1 X652.666 Z24.52
G2 X651.166 Y356.631 Z24.512 I0. J1.5
G1 Y518.813 Z23.988
G2 X652.666 Y520.313 Z23.98 I1.5 J0.
G1 X950. Z23.02
G2 X951.5 Y518.813 Z23.012 I0. J-1.5
G1 Y356.631 Z22.488
G2 X950. Y355.131 Z22.48 I-1.5 J0.
G1 X801.333 Z22.
X652.666
G2 X651.166 Y356.631 I0. J1.5
G1 Y518.813
G2 X652.666 Y520.313 I1.5 J0.
G1 X950.
G2 X951.5 Y518.813 I0. J-1.5
G1 Y356.631
G2 X950. Y355.131 I-1.5 J0.
G1 X801.333
X652.666 Z21.52
G2 X651.166 Y356.631 Z21.512 I0. J1.5
G1 Y518.813 Z20.988
G2 X652.666 Y520.313 Z20.98 I1.5 J0.
G1 X950. Z20.02
G2 X951.5 Y518.813 Z20.012 I0. J-1.5
G1 Y356.631 Z19.488
G2 X950. Y355.131 Z19.48 I-1.5 J0.
G1 X801.333 Z19.
X652.666
G2 X651.166 Y356.631 I0. J1.5
G1 Y518.813
G2 X652.666 Y520.313 I1.5 J0.
G1 X950.
G2 X951.5 Y518.813 I0. J-1.5
G1 Y356.631
G2 X950. Y355.131 I-1.5 J0.
G1 X801.333
X652.666 Z18.52
G2 X651.166 Y356.631 Z18.512 I0. J1.5
G1 Y518.813 Z17.988
G2 X652.666 Y520.313 Z17.98 I1.5 J0.
G1 X950. Z17.02
G2 X951.5 Y518.813 Z17.012 I0. J-1.5
G1 Y356.631 Z16.488
G2 X950. Y355.131 Z16.48 I-1.5 J0.
G1 X801.333 Z16.
X652.666
G2 X651.166 Y356.631 I0. J1.5
G1 Y518.813
G2 X652.666 Y520.313 I1.5 J0.
G1 X950.
G2 X951.5 Y518.813 I0. J-1.5
G1 Y356.631
G2 X950. Y355.131 I-1.5 J0.
G1 X801.333
X652.666 Z15.52
G2 X651.166 Y356.631 Z15.512 I0. J1.5
G1 Y518.813 Z14.988
G2 X652.666 Y520.313 Z14.98 I1.5 J0.
G1 X950. Z14.02
G2 X951.5 Y518.813 Z14.012 I0. J-1.5
G1 Y356.631 Z13.488
G2 X950. Y355.131 Z13.48 I-1.5 J0.
G1 X801.333 Z13.
X652.666
G2 X651.166 Y356.631 I0. J1.5
G1 Y518.813
G2 X652.666 Y520.313 I1.5 J0.
G1 X950.
G2 X951.5 Y518.813 I0. J-1.5
G1 Y356.631
G2 X950. Y355.131 I-1.5 J0.
G1 X801.333
X652.666 Z12.52
G2 X651.166 Y356.631 Z12.512 I0. J1.5
G1 Y518.813 Z11.988
G2 X652.666 Y520.313 Z11.98 I1.5 J0.
G1 X950. Z11.02
G2 X951.5 Y518.813 Z11.012 I0. J-1.5
G1 Y356.631 Z10.488
G2 X950. Y355.131 Z10.48 I-1.5 J0.
G1 X801.333 Z10.
X652.666
G2 X651.166 Y356.631 I0. J1.5
G1 Y518.813
G2 X652.666 Y520.313 I1.5 J0.
G1 X950.
G2 X951.5 Y518.813 I0. J-1.5
G1 Y356.631
G2 X950. Y355.131 I-1.5 J0.
G1 X801.333
X652.666 Z9.52
G2 X651.166 Y356.631 Z9.512 I0. J1.5
G1 Y518.813 Z8.988
G2 X652.666 Y520.313 Z8.98 I1.5 J0.
G1 X950. Z8.02
G2 X951.5 Y518.813 Z8.012 I0. J-1.5
G1 Y356.631 Z7.488
G2 X950. Y355.131 Z7.48 I-1.5 J0.
G1 X801.333 Z7.
X652.666
G2 X651.166 Y356.631 I0. J1.5
G1 Y518.813
G2 X652.666 Y520.313 I1.5 J0.
G1 X950.
G2 X951.5 Y518.813 I0. J-1.5
G1 Y356.631
G2 X950. Y355.131 I-1.5 J0.
G1 X801.333
X652.666 Z6.52
G2 X651.166 Y356.631 Z6.512 I0. J1.5
G1 Y518.813 Z5.988
G2 X652.666 Y520.313 Z5.98 I1.5 J0.
G1 X950. Z5.02
G2 X951.5 Y518.813 Z5.012 I0. J-1.5
G1 Y356.631 Z4.488
G2 X950. Y355.131 Z4.48 I-1.5 J0.
G1 X801.333 Z4.
X652.666
G2 X651.166 Y356.631 I0. J1.5
G1 Y518.813
G2 X652.666 Y520.313 I1.5 J0.
G1 X950.
G2 X951.5 Y518.813 I0. J-1.5
G1 Y356.631
G2 X950. Y355.131 I-1.5 J0.
G1 X801.333
X652.666 Z3.52
G2 X651.166 Y356.631 Z3.512 I0. J1.5
G1 Y518.813 Z2.988
G2 X652.666 Y520.313 Z2.98 I1.5 J0.
G1 X950. Z2.02
G2 X951.5 Y518.813 Z2.012 I0. J-1.5
G1 Y356.631 Z1.488
G2 X950. Y355.131 Z1.48 I-1.5 J0.
G1 X801.333 Z1.
X652.666
G2 X651.166 Y356.631 I0. J1.5
G1 Y518.813
G2 X652.666 Y520.313 I1.5 J0.
G1 X950.
G2 X951.5 Y518.813 I0. J-1.5
G1 Y356.631
G2 X950. Y355.131 I-1.5 J0.
G1 X801.333
X652.666 Z0.52
G2 X651.166 Y356.631 Z0.512 I0. J1.5
G1 Y501.691 Z0.043
Y518.813
G2 X652.666 Y520.313 I1.5 J0.
G1 X950.
G2 X951.5 Y518.813 I0. J-1.5
G1 Y356.631
G2 X950. Y355.131 I-1.5 J0.
G1 X652.666
G2 X651.166 Y356.631 I0. J1.5
G1 Y501.691
G3 X650.866 Y501.991 I-0.3 J0. F2000.
G1 X650.566
G18 G3 X650.266 Z0.343 I0. K0.3
G0 Z40.
G17
M9
G28 G91 Z0.
G90
M30
%
