%
(1001)
(T1  D=3. CR=1.5 - ZMIN=0.347 - BALL END MILL)
G90 G94 G17 G91.1
G64 P0.001
G21
G28 G91 Z0.
G90
(DRAWER4)
M9
S18000 M3
G54
M8
G0 X952.4 Y183.688
G0 Z40.
Z30.
G1 Z27.8 F2000.
G18 G3 X952.1 Z27.5 I-0.3 K0.
G1 X951.8
G17 G3 X951.5 Y183.388 I0. J-0.3
G1 Y24.257 Z26.987 F4000.
G2 X950. Y22.757 Z26.979 I-1.5 J0.
G1 X652.666 Z26.021
G2 X651.166 Y24.257 Z26.013 I0. J1.5
G1 Y187.441 Z25.487
G2 X652.666 Y188.941 Z25.479 I1.5 J0.
G1 X950. Z24.521
G2 X951.5 Y187.441 Z24.513 I0. J-1.5
G1 Y24.257 Z23.987
G2 X950. Y22.757 Z23.979 I-1.5 J0.
G1 X652.666 Z23.021
G2 X651.166 Y24.257 Z23.013 I0. J1.5
G1 Y187.441 Z22.487
G2 X652.666 Y188.941 Z22.479 I1.5 J0.
G1 X801.333 Z22.
X950.
G2 X951.5 Y187.441 I0. J-1.5
G1 Y24.257
G2 X950. Y22.757 I-1.5 J0.
G1 X652.666
G2 X651.166 Y24.257 I0. J1.5
G1 Y187.441
G2 X652.666 Y188.941 I1.5 J0.
G1 X801.333
X950. Z21.521
G2 X951.5 Y187.441 Z21.513 I0. J-1.5
G1 Y24.257 Z20.987
G2 X950. Y22.757 Z20.979 I-1.5 J0.
G1 X652.666 Z20.021
G2 X651.166 Y24.257 Z20.013 I0. J1.5
G1 Y187.441 Z19.487
G2 X652.666 Y188.941 Z19.479 I1.5 J0.
G1 X801.333 Z19.
X950.
G2 X951.5 Y187.441 I0. J-1.5
G1 Y24.257
G2 X950. Y22.757 I-1.5 J0.
G1 X652.666
G2 X651.166 Y24.257 I0. J1.5
G1 Y187.441
G2 X652.666 Y188.941 I1.5 J0.
G1 X801.333
X950. Z18.521
G2 X951.5 Y187.441 Z18.513 I0. J-1.5
G1 Y24.257 Z17.987
G2 X950. Y22.757 Z17.979 I-1.5 J0.
G1 X652.666 Z17.021
G2 X651.166 Y24.257 Z17.013 I0. J1.5
G1 Y187.441 Z16.487
G2 X652.666 Y188.941 Z16.479 I1.5 J0.
G1 X801.333 Z16.
X950.
G2 X951.5 Y187.441 I0. J-1.5
G1 Y24.257
G2 X950. Y22.757 I-1.5 J0.
G1 X652.666
G2 X651.166 Y24.257 I0. J1.5
G1 Y187.441
G2 X652.666 Y188.941 I1.5 J0.
G1 X801.333
X950. Z15.521
G2 X951.5 Y187.441 Z15.513 I0. J-1.5
G1 Y24.257 Z14.987
G2 X950. Y22.757 Z14.979 I-1.5 J0.
G1 X652.666 Z14.021
G2 X651.166 Y24.257 Z14.013 I0. J1.5
G1 Y187.441 Z13.487
G2 X652.666 Y188.941 Z13.479 I1.5 J0.
G1 X801.333 Z13.
X950.
G2 X951.5 Y187.441 I0. J-1.5
G1 Y24.257
G2 X950. Y22.757 I-1.5 J0.
G1 X652.666
G2 X651.166 Y24.257 I0. J1.5
G1 Y187.441
G2 X652.666 Y188.941 I1.5 J0.
G1 X801.333
X950. Z12.521
G2 X951.5 Y187.441 Z12.513 I0. J-1.5
G1 Y24.257 Z11.987
G2 X950. Y22.757 Z11.979 I-1.5 J0.
G1 X652.666 Z11.021
G2 X651.166 Y24.257 Z11.013 I0. J1.5
G1 Y187.441 Z10.487
G2 X652.666 Y188.941 Z10.479 I1.5 J0.
G1 X801.333 Z10.
X950.
G2 X951.5 Y187.441 I0. J-1.5
G1 Y24.257
G2 X950. Y22.757 I-1.5 J0.
G1 X652.666
G2 X651.166 Y24.257 I0. J1.5
G1 Y187.441
G2 X652.666 Y188.941 I1.5 J0.
G1 X801.333
X950. Z9.521
G2 X951.5 Y187.441 Z9.513 I0. J-1.5
G1 Y24.257 Z8.987
G2 X950. Y22.757 Z8.979 I-1.5 J0.
G1 X652.666 Z8.021
G2 X651.166 Y24.257 Z8.013 I0. J1.5
G1 Y187.441 Z7.487
G2 X652.666 Y188.941 Z7.479 I1.5 J0.
G1 X801.333 Z7.
X950.
G2 X951.5 Y187.441 I0. J-1.5
G1 Y24.257
G2 X950. Y22.757 I-1.5 J0.
G1 X652.666
G2 X651.166 Y24.257 I0. J1.5
G1 Y187.441
G2 X652.666 Y188.941 I1.5 J0.
G1 X801.333
X950. Z6.521
G2 X951.5 Y187.441 Z6.513 I0. J-1.5
G1 Y24.257 Z5.987
G2 X950. Y22.757 Z5.979 I-1.5 J0.
G1 X652.666 Z5.021
G2 X651.166 Y24.257 Z5.013 I0. J1.5
G1 Y187.441 Z4.487
G2 X652.666 Y188.941 Z4.479 I1.5 J0.
G1 X801.333 Z4.
X950.
G2 X951.5 Y187.441 I0. J-1.5
G1 Y24.257
G2 X950. Y22.757 I-1.5 J0.
G1 X652.666
G2 X651.166 Y24.257 I0. J1.5
G1 Y187.441
G2 X652.666 Y188.941 I1.5 J0.
G1 X801.333
X950. Z3.521
G2 X951.5 Y187.441 Z3.513 I0. J-1.5
G1 Y24.257 Z2.987
G2 X950. Y22.757 Z2.979 I-1.5 J0.
G1 X700.045 Z2.173
X652.666
G2 X651.166 Y24.257 I0. J1.5
G1 Y187.441
G2 X652.666 Y188.941 I1.5 J0.
G1 X801.333
X950.
G2 X951.5 Y187.441 I0. J-1.5
G1 Y24.257
G2 X950. Y22.757 I-1.5 J0.
G1 X700.045
X652.666 Z2.021
G2 X651.166 Y24.257 Z2.013 I0. J1.5
G1 Y187.441 Z1.487
G2 X652.666 Y188.941 Z1.479 I1.5 J0.
G1 X950. Z0.521
G2 X951.5 Y187.441 Z0.513 I0. J-1.5
G1 Y135.888 Z0.347
Y24.257
G2 X950. Y22.757 I-1.5 J0.
G1 X700.045
X652.666
G2 X651.166 Y24.257 I0. J1.5
G1 Y187.441
G2 X652.666 Y188.941 I1.5 J0.
G1 X950.
G2 X951.5 Y187.441 I0. J-1.5
G1 Y135.888
G3 X951.8 Y135.588 I0.3 J0. F2000.
G1 X952.1
G18 G2 X952.4 Z0.647 I0. K0.3
G0 Z40.
G17
M9
G28 G91 Z0.
G90
M30
%
