%
(1001)
(T1  D=3. CR=1.5 - ZMIN=0.227 - BALL END MILL)
G90 G94 G17 G91.1
G64 P0.001
G21
G28 G91 Z0.
G90
(DOORONE)
M9
S18000 M3
G54
M8
G0 X348.722 Y272.336
G0 Z40.
Z30.
G1 Z27.8 F2000.
G18 G3 X348.422 Z27.5 I-0.3 K0.
G1 X348.122
G17 G3 X347.822 Y272.036 I0. J-0.3
G1 Y24.257 Z26.723 F4000.
G2 X346.322 Y22.757 Z26.716 I-1.5 J0.
G1 X48.987 Z25.784
G2 X47.487 Y24.257 Z25.777 I0. J1.5
G1 Y519.814 Z24.223
G2 X48.987 Y521.314 Z24.216 I1.5 J0.
G1 X346.322 Z23.284
G2 X347.822 Y519.814 Z23.277 I0. J-1.5
G1 Y24.257 Z21.723
G2 X346.322 Y22.757 Z21.716 I-1.5 J0.
G1 X48.987 Z20.784
G2 X47.487 Y24.257 Z20.777 I0. J1.5
G1 Y272.036 Z20.
Y519.814
G2 X48.987 Y521.314 I1.5 J0.
G1 X346.322
G2 X347.822 Y519.814 I0. J-1.5
G1 Y24.257
G2 X346.322 Y22.757 I-1.5 J0.
G1 X48.987
G2 X47.487 Y24.257 I0. J1.5
G1 Y272.036
Y519.814 Z19.223
G2 X48.987 Y521.314 Z19.216 I1.5 J0.
G1 X346.322 Z18.284
G2 X347.822 Y519.814 Z18.277 I0. J-1.5
G1 Y24.257 Z16.723
G2 X346.322 Y22.757 Z16.716 I-1.5 J0.
G1 X48.987 Z15.784
G2 X47.487 Y24.257 Z15.777 I0. J1.5
G1 Y272.036 Z15.
Y519.814
G2 X48.987 Y521.314 I1.5 J0.
G1 X346.322
G2 X347.822 Y519.814 I0. J-1.5
G1 Y24.257
G2 X346.322 Y22.757 I-1.5 J0.
G1 X48.987
G2 X47.487 Y24.257 I0. J1.5
G1 Y272.036
Y519.814 Z14.223
G2 X48.987 Y521.314 Z14.216 I1.5 J0.
G1 X346.322 Z13.284
G2 X347.822 Y519.814 Z13.277 I0. J-1.5
G1 Y24.257 Z11.723
G2 X346.322 Y22.757 Z11.716 I-1.5 J0.
G1 X48.987 Z10.784
G2 X47.487 Y24.257 Z10.777 I0. J1.5
G1 Y272.036 Z10.
Y519.814
G2 X48.987 Y521.314 I1.5 J0.
G1 X346.322
G2 X347.822 Y519.814 I0. J-1.5
G1 Y24.257
G2 X346.322 Y22.757 I-1.5 J0.
G1 X48.987
G2 X47.487 Y24.257 I0. J1.5
G1 Y272.036
Y519.814 Z9.223
G2 X48.987 Y521.314 Z9.216 I1.5 J0.
G1 X346.322 Z8.284
G2 X347.822 Y519.814 Z8.277 I0. J-1.5
G1 Y24.257 Z6.723
G2 X346.322 Y22.757 Z6.716 I-1.5 J0.
G1 X48.987 Z5.784
G2 X47.487 Y24.257 Z5.777 I0. J1.5
G1 Y272.036 Z5.
Y519.814
G2 X48.987 Y521.314 I1.5 J0.
G1 X346.322
G2 X347.822 Y519.814 I0. J-1.5
G1 Y24.257
G2 X346.322 Y22.757 I-1.5 J0.
G1 X48.987
G2 X47.487 Y24.257 I0. J1.5
G1 Y272.036
Y519.814 Z4.223
G2 X48.987 Y521.314 Z4.216 I1.5 J0.
G1 X346.322 Z3.284
G2 X347.822 Y519.814 Z3.277 I0. J-1.5
G1 Y24.257 Z1.723
G2 X346.322 Y22.757 Z1.716 I-1.5 J0.
G1 X48.987 Z0.784
G2 X47.487 Y24.257 Z0.777 I0. J1.5
G1 Y199.683 Z0.227
Y519.814
G2 X48.987 Y521.314 I1.5 J0.
G1 X346.322
G2 X347.822 Y519.814 I0. J-1.5
G1 Y24.257
G2 X346.322 Y22.757 I-1.5 J0.
G1 X48.987
G2 X47.487 Y24.257 I0. J1.5
G1 Y199.683
G3 X47.187 Y199.983 I-0.3 J0. F2000.
G1 X46.887
G18 G3 X46.587 Z0.527 I0. K0.3
G0 Z40.
G17
M9
G28 G91 Z0.
G90
M30
%
