%
(1001)
(T1  D=3. CR=1.5 - ZMIN=-0.025 - BALL END MILL)
G90 G94 G17 G91.1
G64 P0.001
G21
G28 G91 Z0.
G90
(TOP)
M9
S18000 M3
G54
M8
G0 X650.266 Y525.57
G0 Z40.
Z30.
G1 Z27.8 F2000.
G18 G2 X650.566 Z27.5 I0.3 K0.
G1 X650.866
G17 G3 X651.166 Y525.87 I0. J0.3
G1 Y685. Z26.987 F4000.
G2 X652.666 Y686.5 Z26.979 I1.5 J0.
G1 X950. Z26.021
G2 X951.5 Y685. Z26.013 I0. J-1.5
G1 Y521.817 Z25.487
G2 X950. Y520.317 Z25.479 I-1.5 J0.
G1 X652.666 Z24.521
G2 X651.166 Y521.817 Z24.513 I0. J1.5
G1 Y685. Z23.987
G2 X652.666 Y686.5 Z23.979 I1.5 J0.
G1 X950. Z23.021
G2 X951.5 Y685. Z23.013 I0. J-1.5
G1 Y521.817 Z22.487
G2 X950. Y520.317 Z22.479 I-1.5 J0.
G1 X801.333 Z22.
X652.666
G2 X651.166 Y521.817 I0. J1.5
G1 Y685.
G2 X652.666 Y686.5 I1.5 J0.
G1 X950.
G2 X951.5 Y685. I0. J-1.5
G1 Y521.817
G2 X950. Y520.317 I-1.5 J0.
G1 X801.333
X652.666 Z21.521
G2 X651.166 Y521.817 Z21.513 I0. J1.5
G1 Y685. Z20.987
G2 X652.666 Y686.5 Z20.979 I1.5 J0.
G1 X950. Z20.021
G2 X951.5 Y685. Z20.013 I0. J-1.5
G1 Y521.817 Z19.487
G2 X950. Y520.317 Z19.479 I-1.5 J0.
G1 X801.333 Z19.
X652.666
G2 X651.166 Y521.817 I0. J1.5
G1 Y685.
G2 X652.666 Y686.5 I1.5 J0.
G1 X950.
G2 X951.5 Y685. I0. J-1.5
G1 Y521.817
G2 X950. Y520.317 I-1.5 J0.
G1 X801.333
X652.666 Z18.521
G2 X651.166 Y521.817 Z18.513 I0. J1.5
G1 Y685. Z17.987
G2 X652.666 Y686.5 Z17.979 I1.5 J0.
G1 X950. Z17.021
G2 X951.5 Y685. Z17.013 I0. J-1.5
G1 Y521.817 Z16.487
G2 X950. Y520.317 Z16.479 I-1.5 J0.
G1 X801.333 Z16.
X652.666
G2 X651.166 Y521.817 I0. J1.5
G1 Y685.
G2 X652.666 Y686.5 I1.5 J0.
G1 X950.
G2 X951.5 Y685. I0. J-1.5
G1 Y521.817
G2 X950. Y520.317 I-1.5 J0.
G1 X801.333
X652.666 Z15.521
G2 X651.166 Y521.817 Z15.513 I0. J1.5
G1 Y685. Z14.987
G2 X652.666 Y686.5 Z14.979 I1.5 J0.
G1 X950. Z14.021
G2 X951.5 Y685. Z14.013 I0. J-1.5
G1 Y521.817 Z13.487
G2 X950. Y520.317 Z13.479 I-1.5 J0.
G1 X801.333 Z13.
X652.666
G2 X651.166 Y521.817 I0. J1.5
G1 Y685.
G2 X652.666 Y686.5 I1.5 J0.
G1 X950.
G2 X951.5 Y685. I0. J-1.5
G1 Y521.817
G2 X950. Y520.317 I-1.5 J0.
G1 X801.333
X652.666 Z12.521
G2 X651.166 Y521.817 Z12.513 I0. J1.5
G1 Y685. Z11.987
G2 X652.666 Y686.5 Z11.979 I1.5 J0.
G1 X950. Z11.021
G2 X951.5 Y685. Z11.013 I0. J-1.5
G1 Y521.817 Z10.487
G2 X950. Y520.317 Z10.479 I-1.5 J0.
G1 X801.333 Z10.
X652.666
G2 X651.166 Y521.817 I0. J1.5
G1 Y685.
G2 X652.666 Y686.5 I1.5 J0.
G1 X950.
G2 X951.5 Y685. I0. J-1.5
G1 Y521.817
G2 X950. Y520.317 I-1.5 J0.
G1 X801.333
X652.666 Z9.521
G2 X651.166 Y521.817 Z9.513 I0. J1.5
G1 Y685. Z8.987
G2 X652.666 Y686.5 Z8.979 I1.5 J0.
G1 X950. Z8.021
G2 X951.5 Y685. Z8.013 I0. J-1.5
G1 Y521.817 Z7.487
G2 X950. Y520.317 Z7.479 I-1.5 J0.
G1 X801.333 Z7.
X652.666
G2 X651.166 Y521.817 I0. J1.5
G1 Y685.
G2 X652.666 Y686.5 I1.5 J0.
G1 X950.
G2 X951.5 Y685. I0. J-1.5
G1 Y521.817
G2 X950. Y520.317 I-1.5 J0.
G1 X801.333
X652.666 Z6.521
G2 X651.166 Y521.817 Z6.513 I0. J1.5
G1 Y685. Z5.987
G2 X652.666 Y686.5 Z5.979 I1.5 J0.
G1 X950. Z5.021
G2 X951.5 Y685. Z5.013 I0. J-1.5
G1 Y521.817 Z4.487
G2 X950. Y520.317 Z4.479 I-1.5 J0.
G1 X801.333 Z4.
X652.666
G2 X651.166 Y521.817 I0. J1.5
G1 Y685.
G2 X652.666 Y686.5 I1.5 J0.
G1 X950.
G2 X951.5 Y685. I0. J-1.5
G1 Y521.817
G2 X950. Y520.317 I-1.5 J0.
G1 X801.333
X652.666 Z3.521
G2 X651.166 Y521.817 Z3.513 I0. J1.5
G1 Y685. Z2.987
G2 X652.666 Y686.5 Z2.979 I1.5 J0.
G1 X915.06 Z2.133
X950.
G2 X951.5 Y685. I0. J-1.5
G1 Y521.817
G2 X950. Y520.317 I-1.5 J0.
G1 X652.666
G2 X651.166 Y521.817 I0. J1.5
G1 Y685.
G2 X652.666 Y686.5 I1.5 J0.
G1 X915.06
X950. Z2.021
G2 X951.5 Y685. Z2.013 I0. J-1.5
G1 Y521.817 Z1.487
G2 X950. Y520.317 Z1.479 I-1.5 J0.
G1 X652.666 Z0.521
G2 X651.166 Y521.817 Z0.513 I0. J1.5
G1 Y598.248 Z0.267
Y685.
G2 X652.666 Y686.5 I1.5 J0.
G1 X915.06
X950.
G2 X951.5 Y685. I0. J-1.5
G1 Y521.817
G2 X950. Y520.317 I-1.5 J0.
G1 X652.666
G2 X651.166 Y521.817 I0. J1.5
G1 Y598.248
G3 X650.866 Y598.548 I-0.3 J0. F2000.
G1 X650.566
G18 G3 X650.266 Z0.567 I0. K0.3
G0 Z40.
X602.379 Y687.4
Z30.
G1 Z27.8 F2000.
G19 G2 Y687.1 Z27.5 J-0.3 K0.
G1 Y686.8
G17 G3 X602.679 Y686.5 I0.3 J0.
G1 X646.659 Z27.414 F4000.
G2 X648.159 Y685. Z27.409 I0. J-1.5
G1 Y522.818 Z27.091
G2 X646.659 Y521.318 Z27.086 I-1.5 J0.
G1 X48.987 Z25.914
G2 X47.487 Y522.818 Z25.909 I0. J1.5
G1 Y685. Z25.591
G2 X48.987 Y686.5 Z25.586 I1.5 J0.
G1 X646.659 Z24.414
G2 X648.159 Y685. Z24.409 I0. J-1.5
G1 Y522.818 Z24.091
G2 X646.659 Y521.318 Z24.086 I-1.5 J0.
G1 X48.987 Z22.914
G2 X47.487 Y522.818 Z22.909 I0. J1.5
G1 Y685. Z22.591
G2 X48.987 Y686.5 Z22.586 I1.5 J0.
G1 X347.823 Z22.
X646.659
G2 X648.159 Y685. I0. J-1.5
G1 Y522.818
G2 X646.659 Y521.318 I-1.5 J0.
G1 X48.987
G2 X47.487 Y522.818 I0. J1.5
G1 Y685.
G2 X48.987 Y686.5 I1.5 J0.
G1 X347.823
X646.659 Z21.414
G2 X648.159 Y685. Z21.409 I0. J-1.5
G1 Y522.818 Z21.091
G2 X646.659 Y521.318 Z21.086 I-1.5 J0.
G1 X48.987 Z19.914
G2 X47.487 Y522.818 Z19.909 I0. J1.5
G1 Y685. Z19.591
G2 X48.987 Y686.5 Z19.586 I1.5 J0.
G1 X347.823 Z19.
X646.659
G2 X648.159 Y685. I0. J-1.5
G1 Y522.818
G2 X646.659 Y521.318 I-1.5 J0.
G1 X48.987
G2 X47.487 Y522.818 I0. J1.5
G1 Y685.
G2 X48.987 Y686.5 I1.5 J0.
G1 X347.823
X646.659 Z18.414
G2 X648.159 Y685. Z18.409 I0. J-1.5
G1 Y522.818 Z18.091
G2 X646.659 Y521.318 Z18.086 I-1.5 J0.
G1 X48.987 Z16.914
G2 X47.487 Y522.818 Z16.909 I0. J1.5
G1 Y685. Z16.591
G2 X48.987 Y686.5 Z16.586 I1.5 J0.
G1 X347.823 Z16.
X646.659
G2 X648.159 Y685. I0. J-1.5
G1 Y522.818
G2 X646.659 Y521.318 I-1.5 J0.
G1 X48.987
G2 X47.487 Y522.818 I0. J1.5
G1 Y685.
G2 X48.987 Y686.5 I1.5 J0.
G1 X347.823
X646.659 Z15.414
G2 X648.159 Y685. Z15.409 I0. J-1.5
G1 Y522.818 Z15.091
G2 X646.659 Y521.318 Z15.086 I-1.5 J0.
G1 X48.987 Z13.914
G2 X47.487 Y522.818 Z13.909 I0. J1.5
G1 Y685. Z13.591
G2 X48.987 Y686.5 Z13.586 I1.5 J0.
G1 X347.823 Z13.
X646.659
G2 X648.159 Y685. I0. J-1.5
G1 Y522.818
G2 X646.659 Y521.318 I-1.5 J0.
G1 X48.987
G2 X47.487 Y522.818 I0. J1.5
G1 Y685.
G2 X48.987 Y686.5 I1.5 J0.
G1 X347.823
X646.659 Z12.414
G2 X648.159 Y685. Z12.409 I0. J-1.5
G1 Y522.818 Z12.091
G2 X646.659 Y521.318 Z12.086 I-1.5 J0.
G1 X48.987 Z10.914
G2 X47.487 Y522.818 Z10.909 I0. J1.5
G1 Y685. Z10.591
G2 X48.987 Y686.5 Z10.586 I1.5 J0.
G1 X347.823 Z10.
X646.659
G2 X648.159 Y685. I0. J-1.5
G1 Y522.818
G2 X646.659 Y521.318 I-1.5 J0.
G1 X48.987
G2 X47.487 Y522.818 I0. J1.5
G1 Y685.
G2 X48.987 Y686.5 I1.5 J0.
G1 X347.823
X646.659 Z9.414
G2 X648.159 Y685. Z9.409 I0. J-1.5
G1 Y522.818 Z9.091
G2 X646.659 Y521.318 Z9.086 I-1.5 J0.
G1 X48.987 Z7.914
G2 X47.487 Y522.818 Z7.909 I0. J1.5
G1 Y685. Z7.591
G2 X48.987 Y686.5 Z7.586 I1.5 J0.
G1 X347.823 Z7.
X646.659
G2 X648.159 Y685. I0. J-1.5
G1 Y522.818
G2 X646.659 Y521.318 I-1.5 J0.
G1 X48.987
G2 X47.487 Y522.818 I0. J1.5
G1 Y685.
G2 X48.987 Y686.5 I1.5 J0.
G1 X347.823
X646.659 Z6.414
G2 X648.159 Y685. Z6.409 I0. J-1.5
G1 Y522.818 Z6.091
G2 X646.659 Y521.318 Z6.086 I-1.5 J0.
G1 X48.987 Z4.914
G2 X47.487 Y522.818 Z4.909 I0. J1.5
G1 Y685. Z4.591
G2 X48.987 Y686.5 Z4.586 I1.5 J0.
G1 X347.823 Z4.
X646.659
G2 X648.159 Y685. I0. J-1.5
G1 Y522.818
G2 X646.659 Y521.318 I-1.5 J0.
G1 X48.987
G2 X47.487 Y522.818 I0. J1.5
G1 Y685.
G2 X48.987 Y686.5 I1.5 J0.
G1 X347.823
X646.659 Z3.414
G2 X648.159 Y685. Z3.409 I0. J-1.5
G1 Y522.818 Z3.091
G2 X646.659 Y521.318 Z3.086 I-1.5 J0.
G1 X48.987 Z1.914
G2 X47.487 Y522.818 Z1.909 I0. J1.5
G1 Y685. Z1.591
G2 X48.987 Y686.5 Z1.586 I1.5 J0.
G1 X347.823 Z1.
X646.659
G2 X648.159 Y685. I0. J-1.5
G1 Y522.818
G2 X646.659 Y521.318 I-1.5 J0.
G1 X48.987
G2 X47.487 Y522.818 I0. J1.5
G1 Y685.
G2 X48.987 Y686.5 I1.5 J0.
G1 X347.823
X646.659 Z0.414
G2 X648.159 Y685. Z0.409 I0. J-1.5
G1 Y522.818 Z0.091
G2 X646.659 Y521.318 Z0.086 I-1.5 J0.
G1 X589.914 Z-0.025
X48.987
G2 X47.487 Y522.818 I0. J1.5
G1 Y685.
G2 X48.987 Y686.5 I1.5 J0.
G1 X347.823
X646.659
G2 X648.159 Y685. I0. J-1.5
G1 Y522.818
G2 X646.659 Y521.318 I-1.5 J0.
G1 X589.914
G3 X589.614 Y521.018 I0. J-0.3 F2000.
G1 Y520.718
G19 G2 Y520.418 Z0.275 J0. K0.3
G0 Z40.
G17
M9
G28 G91 Z0.
G90
M30
%
